Plugins/FilmEmulator/Content/LUTs/FE_Agfa_Vista_100_64.cube
TITLE "FE_Agfa_Vista_100_33"
LUT_3D_SIZE 64
0.0003730 0.0003885 0.0001300
0.0010555 0.0003887 0.0001299
0.0032990 0.0003998 0.0001307
0.0067564 0.0004355 0.0001460
0.0119624 0.0004885 0.0001669
0.0181224 0.0005593 0.0001947
0.0252878 0.0006298 0.0002248
0.0338075 0.0007111 0.0002603
0.0450880 0.0007959 0.0002975
0.0552597 0.0009061 0.0003435
0.0675712 0.0010159 0.0003892
0.0792251 0.0011243 0.0004337
0.0923853 0.0012442 0.0004832
0.1074699 0.0013932 0.0005535
0.1201614 0.0015191 0.0006154
0.1338809 0.0016564 0.0006842
0.1489274 0.0018150 0.0007704
0.1653730 0.0019937 0.0008731
0.1836726 0.0021900 0.0009894
0.1968831 0.0023315 0.0010754
0.2180538 0.0025812 0.0012341
0.2330817 0.0027641 0.0013541
0.2489627 0.0029600 0.0014857
0.2658339 0.0031697 0.0016301
0.2834441 0.0033978 0.0017893
0.3017645 0.0036621 0.0019681
0.3207704 0.0039468 0.0021647
0.3404182 0.0040983 0.0022704
0.3502895 0.0044156 0.0024971
0.3705270 0.0047585 0.0027465
0.3808365 0.0049398 0.0028804
0.4017967 0.0053270 0.0031688
0.4124310 0.0055317 0.0033236
0.4339616 0.0059650 0.0036563
0.4448398 0.0061942 0.0038349
0.4662044 0.0064333 0.0040222
0.4768779 0.0069354 0.0044247
0.4876288 0.0072015 0.0046407
0.4983990 0.0074756 0.0048664
0.5091788 0.0077589 0.0051027
0.5307248 0.0083580 0.0056100
0.5414711 0.0086745 0.0058822
0.5521861 0.0090029 0.0061676
0.5624141 0.0093436 0.0064667
0.5723734 0.0096971 0.0067803
0.5822806 0.0100639 0.0071091
0.5921276 0.0104444 0.0074537
0.6019062 0.0108438 0.0078161
0.6116084 0.0112679 0.0081987
0.6212284 0.0117085 0.0085998
0.6307596 0.0121661 0.0090204
0.6401947 0.0126415 0.0094615
0.6495277 0.0131353 0.0099240
0.6586356 0.0131364 0.0099236
0.6585905 0.0136481 0.0104090
0.6672236 0.0141808 0.0109175
0.6757500 0.0147341 0.0114507
0.6841649 0.0153086 0.0120096
0.6924651 0.0159053 0.0125956
0.7006878 0.0159064 0.0125950
0.7006445 0.0165365 0.0131950
0.7087022 0.0171924 0.0138227
0.7166336 0.0178740 0.0144799
0.7244778 0.0178751 0.0144791
0.0003748 0.0018676 0.0001342
0.0013040 0.0020529 0.0001407
0.0036818 0.0021859 0.0001599
0.0075600 0.0023273 0.0001838
0.0128785 0.0025774 0.0002102
0.0187332 0.0027603 0.0002426
0.0272586 0.0029562 0.0002824
0.0349632 0.0030589 0.0003232
0.0447519 0.0032763 0.0003640
0.0571364 0.0035244 0.0004132
0.0698534 0.0037997 0.0004601
0.0818445 0.0039449 0.0005132
0.0953841 0.0042521 0.0005905
0.1068520 0.0044143 0.0006556
0.1239097 0.0047587 0.0007287
0.1380319 0.0049398 0.0008246
0.1534827 0.0053278 0.0009340
0.1703819 0.0055335 0.0010146
0.1828564 0.0057454 0.0011515
0.2029232 0.0059671 0.0012625
0.2171679 0.0064354 0.0013855
0.2321829 0.0066827 0.0015189
0.2480541 0.0069394 0.0016652
0.2649184 0.0072060 0.0018263
0.2825274 0.0074804 0.0020067
0.3008579 0.0077640 0.0022050
0.3198785 0.0080583 0.0024228
0.3394977 0.0083654 0.0025410
0.3494053 0.0086811 0.0027919
0.3696638 0.0090117 0.0029280
0.3904320 0.0093527 0.0032179
0.4009589 0.0097073 0.0033751
0.4223578 0.0100744 0.0037091
0.4331588 0.0104560 0.0038902
0.4440319 0.0108566 0.0040803
0.4653953 0.0112809 0.0044840
0.4761131 0.0117227 0.0047030
0.4868611 0.0121816 0.0049320
0.4976284 0.0126584 0.0051716
0.5192966 0.0126558 0.0056742
0.5300633 0.0131508 0.0059497
0.5408093 0.0136649 0.0062386
0.5515248 0.0141990 0.0065414
0.5618097 0.0141974 0.0068517
0.5717702 0.0147519 0.0071841
0.5816789 0.0153277 0.0075326
0.5915279 0.0159259 0.0078991
0.6013647 0.0159238 0.0082770
0.6110701 0.0165561 0.0086821
0.6206941 0.0172132 0.0091069
0.6302837 0.0172108 0.0095422
0.6397230 0.0178935 0.0100088
0.6490536 0.0186068 0.0100190
0.6581736 0.0186042 0.0104976
0.6668108 0.0193412 0.0110106
0.6667653 0.0201059 0.0115490
0.6753480 0.0201028 0.0121001
0.6837674 0.0208983 0.0126907
0.6920658 0.0217293 0.0127036
0.7003004 0.0217261 0.0132939
0.7002575 0.0225836 0.0139270
0.7083692 0.0225802 0.0145735
0.7163000 0.0234769 0.0145883
0.7241556 0.0234732 0.0152652
0.0004287 0.0057664 0.0001511
0.0016030 0.0062211 0.0001719
0.0042905 0.0064604 0.0001969
0.0081507 0.0067080 0.0002275
0.0133512 0.0069646 0.0002654
0.0202592 0.0072316 0.0003020
0.0282765 0.0075061 0.0003471
0.0377869 0.0077905 0.0003905
0.0464033 0.0080858 0.0004339
0.0592264 0.0083926 0.0004826
0.0695422 0.0090421 0.0005432
0.0847039 0.0090388 0.0006238
0.0950054 0.0093806 0.0006926
0.1105129 0.0097355 0.0007739
0.1234562 0.0101027 0.0008757
0.1425297 0.0104844 0.0009909
0.1529628 0.0108856 0.0010764
0.1698148 0.0113124 0.0011729
0.1887553 0.0117531 0.0013457
0.2022713 0.0122124 0.0014754
0.2165179 0.0126896 0.0016175
0.2393213 0.0126873 0.0017715
0.2557164 0.0131828 0.0019451
0.2729246 0.0136974 0.0021374
0.2908674 0.0142318 0.0023487
0.3095597 0.0142312 0.0024608
0.3191225 0.0147849 0.0027039
0.3387153 0.0153643 0.0028359
0.3586834 0.0159629 0.0031164
0.3688979 0.0159608 0.0032653
0.3896456 0.0165935 0.0035887
0.4001617 0.0172531 0.0037642
0.4216002 0.0172487 0.0041325
0.4323931 0.0179339 0.0043345
0.4539329 0.0186474 0.0045463
0.4646644 0.0186449 0.0047633
0.4753859 0.0193806 0.0052326
0.4861313 0.0201490 0.0054869
0.5077814 0.0201477 0.0057472
0.5185576 0.0209460 0.0060264
0.5293242 0.0217753 0.0063191
0.5401286 0.0217723 0.0066188
0.5508453 0.0226337 0.0069402
0.5611331 0.0226304 0.0072693
0.5710959 0.0235250 0.0076220
0.5810069 0.0244591 0.0079930
0.5909157 0.0244554 0.0083754
0.6007005 0.0254282 0.0087854
0.6104668 0.0254242 0.0092054
0.6200955 0.0264346 0.0096557
0.6296911 0.0264305 0.0101171
0.6391360 0.0274801 0.0106117
0.6485329 0.0274757 0.0111184
0.6575996 0.0285716 0.0111298
0.6662959 0.0285669 0.0116610
0.6748325 0.0296991 0.0122305
0.6748390 0.0296929 0.0128144
0.6832645 0.0308688 0.0134243
0.6916199 0.0308701 0.0134236
0.6998117 0.0320912 0.0140621
0.7079303 0.0320860 0.0147149
0.7078874 0.0333528 0.0154150
0.7158737 0.0333540 0.0154142
0.7236890 0.0346707 0.0161463
0.0005270 0.0118142 0.0001830
0.0019802 0.0122775 0.0002124
0.0048178 0.0127575 0.0002443
0.0091708 0.0127527 0.0002818
0.0144526 0.0132499 0.0003212
0.0210495 0.0137654 0.0003698
0.0293760 0.0143036 0.0004073
0.0392437 0.0148601 0.0004650
0.0481883 0.0148551 0.0005167
0.0614722 0.0154351 0.0005706
0.0721682 0.0160337 0.0006558
0.0844587 0.0160285 0.0007274
0.0984071 0.0166631 0.0008180
0.1144079 0.0173221 0.0009257
0.1276481 0.0180094 0.0010056
0.1421610 0.0180018 0.0011367
0.1580227 0.0187152 0.0012444
0.1755535 0.0187064 0.0014263
0.1883238 0.0194464 0.0015637
0.2088488 0.0202162 0.0017145
0.2234780 0.0202101 0.0018783
0.2388045 0.0210084 0.0020641
0.2551692 0.0218422 0.0021650
0.2723975 0.0218356 0.0023765
0.2903177 0.0226970 0.0026114
0.3089893 0.0226949 0.0027360
0.3282936 0.0235894 0.0030063
0.3381139 0.0245271 0.0031535
0.3581164 0.0245197 0.0034621
0.3785973 0.0254975 0.0036315
0.3890578 0.0254884 0.0039868
0.4102279 0.0265039 0.0041817
0.4209887 0.0264999 0.0043815
0.4317834 0.0275475 0.0048152
0.4533735 0.0275448 0.0050442
0.4640449 0.0286386 0.0052894
0.4748148 0.0286342 0.0055405
0.4963733 0.0297717 0.0058096
0.5072070 0.0297671 0.0060853
0.5179902 0.0309403 0.0066838
0.5288154 0.0309355 0.0070009
0.5395631 0.0321602 0.0073407
0.5503389 0.0321551 0.0076887
0.5705864 0.0334281 0.0080627
0.5805574 0.0334226 0.0084483
0.5904121 0.0347425 0.0088619
0.6002499 0.0347440 0.0088615
0.6099641 0.0361167 0.0092952
0.6196525 0.0361108 0.0097394
0.6196036 0.0375387 0.0102162
0.6292039 0.0375325 0.0107042
0.6387081 0.0375262 0.0112152
0.6480561 0.0390098 0.0117632
0.6571875 0.0390033 0.0123244
0.6658297 0.0405515 0.0123371
0.6744242 0.0405446 0.0129254
0.6828551 0.0421433 0.0135405
0.6828613 0.0421349 0.0141701
0.6912224 0.0421363 0.0141694
0.6994196 0.0437955 0.0148431
0.7075442 0.0437881 0.0155317
0.7075009 0.0455083 0.0162704
0.7154936 0.0455097 0.0162695
0.7233623 0.0455020 0.0170234
0.0006658 0.0195557 0.0002272
0.0023749 0.0203336 0.0002570
0.0054160 0.0203262 0.0002982
0.0099303 0.0211288 0.0003411
0.0156727 0.0219631 0.0003837
0.0228237 0.0219546 0.0004345
0.0305466 0.0228209 0.0004832
0.0408015 0.0228134 0.0005383
0.0500764 0.0237089 0.0006187
0.0613247 0.0246477 0.0006870
0.0749403 0.0246396 0.0007620
0.0875615 0.0256145 0.0008623
0.1019936 0.0256035 0.0009747
0.1141657 0.0266200 0.0010588
0.1320876 0.0266085 0.0012006
0.1469981 0.0276630 0.0013164
0.1577337 0.0276537 0.0014417
0.1752018 0.0287487 0.0015807
0.1946454 0.0287404 0.0017312
0.2084829 0.0298764 0.0018987
0.2230932 0.0298665 0.0020843
0.2384006 0.0310455 0.0022904
0.2633013 0.0310367 0.0025142
0.2808332 0.0322675 0.0026370
0.2899041 0.0322556 0.0028945
0.3085108 0.0335334 0.0030358
0.3278493 0.0335226 0.0033330
0.3475798 0.0348489 0.0034961
0.3576519 0.0348361 0.0038382
0.3781211 0.0362151 0.0040259
0.3885694 0.0362092 0.0042183
0.4097367 0.0376375 0.0046359
0.4204933 0.0376314 0.0048572
0.4421862 0.0391219 0.0050937
0.4528613 0.0391156 0.0053356
0.4635953 0.0391013 0.0058544
0.4850985 0.0406477 0.0061387
0.4959201 0.0406412 0.0064300
0.5066950 0.0422445 0.0067423
0.5175296 0.0422377 0.0070621
0.5283555 0.0422308 0.0073969
0.5498743 0.0438961 0.0077557
0.5601656 0.0438888 0.0081244
0.5701324 0.0456149 0.0085222
0.5801060 0.0456071 0.0089298
0.5900204 0.0455994 0.0093567
0.5998111 0.0473900 0.0098145
0.6095845 0.0473819 0.0102833
0.6192141 0.0492495 0.0102940
0.6288183 0.0492410 0.0107856
0.6383263 0.0492326 0.0113005
0.6382784 0.0511577 0.0118532
0.6476849 0.0511489 0.0124187
0.6567678 0.0531471 0.0130249
0.6654674 0.0531487 0.0130242
0.6740662 0.0531397 0.0136293
0.6825010 0.0552549 0.0142780
0.6908730 0.0552455 0.0149407
0.6908730 0.0552455 0.0149407
0.6990744 0.0574402 0.0156510
0.7072042 0.0574304 0.0163767
0.7152016 0.0574319 0.0163758
0.7151580 0.0597073 0.0171544
0.7230323 0.0596971 0.0179488
0.0008452 0.0288989 0.0002773
0.0027493 0.0300470 0.0003150
0.0060906 0.0300372 0.0003613
0.0107665 0.0312246 0.0004062
0.0170085 0.0312158 0.0004507
0.0237478 0.0324440 0.0005145
0.0317819 0.0324353 0.0005628
0.0424278 0.0337090 0.0006468
0.0520658 0.0336971 0.0007174
0.0637305 0.0350222 0.0008016
0.0778434 0.0350073 0.0009061
0.0908229 0.0363820 0.0010253
0.1018149 0.0363716 0.0011126
0.1182756 0.0378017 0.0012688
0.1318638 0.0377895 0.0013896
0.1467527 0.0392794 0.0015236
0.1630702 0.0392670 0.0016687
0.1812420 0.0392549 0.0018275
0.1943370 0.0407993 0.0020067
0.2081955 0.0407852 0.0022028
0.2303199 0.0423889 0.0024207
0.2461370 0.0423831 0.0025362
0.2629115 0.0440459 0.0027870
0.2804728 0.0440400 0.0029199
0.2987674 0.0440252 0.0032054
0.3177033 0.0457592 0.0033622
0.3274542 0.0457422 0.0036913
0.3471723 0.0475410 0.0038719
0.3674281 0.0475251 0.0042507
0.3777520 0.0475171 0.0044538
0.3986903 0.0493826 0.0046714
0.4093494 0.0493744 0.0048945
0.4309409 0.0493580 0.0053708
0.4417971 0.0512906 0.0056320
0.4524701 0.0512820 0.0058993
0.4738971 0.0532882 0.0061858
0.4846963 0.0532793 0.0064793
0.4955173 0.0532704 0.0067867
0.5062908 0.0553914 0.0071164
0.5171256 0.0553822 0.0074538
0.5387525 0.0553748 0.0078069
0.5494715 0.0575751 0.0081871
0.5597648 0.0575653 0.0085787
0.5697908 0.0575554 0.0089889
0.5797076 0.0598376 0.0094290
0.5896246 0.0598273 0.0098796
0.5994750 0.0598169 0.0103516
0.6091939 0.0621836 0.0108580
0.6188892 0.0621729 0.0113763
0.6284894 0.0621747 0.0113757
0.6379454 0.0646293 0.0119318
0.6473556 0.0646180 0.0125009
0.6473624 0.0646049 0.0130976
0.6564475 0.0671499 0.0137212
0.6651509 0.0671516 0.0137205
0.6737539 0.0671402 0.0143576
0.6821927 0.0697785 0.0150405
0.6905693 0.0697666 0.0157382
0.6905693 0.0697666 0.0157382
0.6987749 0.0725013 0.0164861
0.7069093 0.0724888 0.0172499
0.7149112 0.0724905 0.0172490
0.7148677 0.0753228 0.0180686
0.7227467 0.0753098 0.0189048
0.0010620 0.0410273 0.0003330
0.0033474 0.0410184 0.0003824
0.0068631 0.0426381 0.0004207
0.0116774 0.0426218 0.0004795
0.0177013 0.0442961 0.0005331
0.0257718 0.0442770 0.0006086
0.0344714 0.0442623 0.0006749
0.0441341 0.0459966 0.0007493
0.0541372 0.0459775 0.0008416
0.0662391 0.0477717 0.0009523
0.0777193 0.0477587 0.0010333
0.0906985 0.0477372 0.0011680
0.1055722 0.0496036 0.0012786
0.1181187 0.0495774 0.0014655
0.1365048 0.0495625 0.0016050
0.1518356 0.0514957 0.0017597
0.1628638 0.0514778 0.0019280
0.1809836 0.0534820 0.0021187
0.1940953 0.0534740 0.0022198
0.2151345 0.0534568 0.0024367
0.2300445 0.0555760 0.0026777
0.2458483 0.0555680 0.0028054
0.2626539 0.0555489 0.0030794
0.2801569 0.0577585 0.0032302
0.2984388 0.0577387 0.0035464
0.3174129 0.0577307 0.0037158
0.3369537 0.0600103 0.0040840
0.3468668 0.0600000 0.0042791
0.3671078 0.0599917 0.0044834
0.3773787 0.0623536 0.0049274
0.3983647 0.0623450 0.0051617
0.4090208 0.0623345 0.0054069
0.4305418 0.0647982 0.0056697
0.4414530 0.0647873 0.0059388
0.4628407 0.0647784 0.0062204
0.4735540 0.0673171 0.0068325
0.4843524 0.0673057 0.0071565
0.4951730 0.0672943 0.0074959
0.5167742 0.0699412 0.0078596
0.5276009 0.0699293 0.0082333
0.5384094 0.0699174 0.0086271
0.5491295 0.0726582 0.0090496
0.5594169 0.0726603 0.0090492
0.5694448 0.0726477 0.0094818
0.5793634 0.0754879 0.0099459
0.5892826 0.0754748 0.0104210
0.5991355 0.0754618 0.0109187
0.6089141 0.0754486 0.0114399
0.6185551 0.0783903 0.0119991
0.6281652 0.0783767 0.0125714
0.6376736 0.0783787 0.0125708
0.6470315 0.0814410 0.0131847
0.6561750 0.0814271 0.0137972
0.6561816 0.0814113 0.0144386
0.6648883 0.0814131 0.0144378
0.6734407 0.0845926 0.0151246
0.6819363 0.0845781 0.0158262
0.6903162 0.0845637 0.0165599
0.6985192 0.0878727 0.0165774
0.6985251 0.0878558 0.0173464
0.7066635 0.0878408 0.0181496
0.7146692 0.0878426 0.0181486
0.7225028 0.0912514 0.0190094
0.7225083 0.0912338 0.0198896
0.0013751 0.0537641 0.0003952
0.0037650 0.0537535 0.0004469
0.0074313 0.0558920 0.0004966
0.0126671 0.0558764 0.0005528
0.0192198 0.0558516 0.0006344
0.0268293 0.0580632 0.0007043
0.0358749 0.0580440 0.0007810
0.0459260 0.0580192 0.0008827
0.0562983 0.0603048 0.0009988
0.0688665 0.0602891 0.0010837
0.0807173 0.0602611 0.0012287
0.0941012 0.0626376 0.0013472
0.1094963 0.0626181 0.0014754
0.1223560 0.0625976 0.0016158
0.1363212 0.0650597 0.0017716
0.1516640 0.0650384 0.0019410
0.1684303 0.0650168 0.0021307
0.1807848 0.0675664 0.0023415
0.2007104 0.0675443 0.0025702
0.2149073 0.0675342 0.0026928
0.2298058 0.0701763 0.0029591
0.2538947 0.0701677 0.0031001
0.2710662 0.0701435 0.0034036
0.2889242 0.0728956 0.0035703
0.2981548 0.0728685 0.0039198
0.3171186 0.0728580 0.0041070
0.3366497 0.0756940 0.0045138
0.3566033 0.0756831 0.0047292
0.3667908 0.0756702 0.0049551
0.3875373 0.0756594 0.0051907
0.3980301 0.0786100 0.0054432
0.4194307 0.0785833 0.0059723
0.4302638 0.0785700 0.0062557
0.4411143 0.0816403 0.0065599
0.4624989 0.0816287 0.0068708
0.4732635 0.0816149 0.0071967
0.4840612 0.0816011 0.0075379
0.5056468 0.0847902 0.0079038
0.5164816 0.0847758 0.0082795
0.5273089 0.0847613 0.0086755
0.5380579 0.0880610 0.0091005
0.5488386 0.0880459 0.0095355
0.5591341 0.0880308 0.0099912
0.5691633 0.0880156 0.0104685
0.5790760 0.0914488 0.0104797
0.5889969 0.0914330 0.0109801
0.5988518 0.0914171 0.0115043
0.6085752 0.0949524 0.0120666
0.6182760 0.0949360 0.0126422
0.6278886 0.0949196 0.0132449
0.6373999 0.0949217 0.0132442
0.6467606 0.0985800 0.0138748
0.6559072 0.0985635 0.0145190
0.6646235 0.0985467 0.0151928
0.6646235 0.0985467 0.0151928
0.6731792 0.1023308 0.0159151
0.6816782 0.1023134 0.0166529
0.6900618 0.1022961 0.0174244
0.6983197 0.1022981 0.0174235
0.6982744 0.1062091 0.0182514
0.7064166 0.1061911 0.0190959
0.7144263 0.1061932 0.0190949
0.7223127 0.1061752 0.0199778
0.7222638 0.1102393 0.0199999
0.0016986 0.0679112 0.0004627
0.0044086 0.0678947 0.0005269
0.0083801 0.0705639 0.0005766
0.0137429 0.0705345 0.0006616
0.0200135 0.0705128 0.0007335
0.0279349 0.0732648 0.0008194
0.0373416 0.0732346 0.0009260
0.0477870 0.0732037 0.0010465
0.0585517 0.0760593 0.0011367
0.0715926 0.0760238 0.0012948
0.0837920 0.0759999 0.0014179
0.0976589 0.0759761 0.0015529
0.1093692 0.0789265 0.0017026
0.1267276 0.0789021 0.0018646
0.1411487 0.0788758 0.0020452
0.1569155 0.0819447 0.0022475
0.1682465 0.0819157 0.0024671
0.1870734 0.0819049 0.0025847
0.2004944 0.0850885 0.0028404
0.2220469 0.0850775 0.0029758
0.2373442 0.0850479 0.0032668
0.2536827 0.0850352 0.0034229
0.2707981 0.0883305 0.0037622
0.2886931 0.0883174 0.0039419
0.3073086 0.0882872 0.0043276
0.3168745 0.0882720 0.0045343
0.3363908 0.0916997 0.0047561
0.3563368 0.0916864 0.0049830
0.3665276 0.0916529 0.0054682
0.3872110 0.0952001 0.0057341
0.3977574 0.0951840 0.0060063
0.4191463 0.0951703 0.0062911
0.4299773 0.0951542 0.0065896
0.4514865 0.0988239 0.0069097
0.4622073 0.0988072 0.0072374
0.4729710 0.0987905 0.0075805
0.4945803 0.0987762 0.0079395
0.5053527 0.1025688 0.0083263
0.5161879 0.1025513 0.0087245
0.5270154 0.1025339 0.0091417
0.5378249 0.1025164 0.0095786
0.5485466 0.1064375 0.0100476
0.5588434 0.1064192 0.0105275
0.5688740 0.1064009 0.0110303
0.5788543 0.1063826 0.0115568
0.5887109 0.1104568 0.0115691
0.5985678 0.1104378 0.0121211
0.6083510 0.1104189 0.0126993
0.6180537 0.1103999 0.0133047
0.6276116 0.1145888 0.0139382
0.6371256 0.1145911 0.0139374
0.6465450 0.1145720 0.0145844
0.6556939 0.1145529 0.0152612
0.6643588 0.1188596 0.0159867
0.6729654 0.1188619 0.0159858
0.6729716 0.1188397 0.0167278
0.6814732 0.1188197 0.0175027
0.6898537 0.1188220 0.0175018
0.6980701 0.1232257 0.0183321
0.7062154 0.1232050 0.0191803
0.7062154 0.1232050 0.0191803
0.7142339 0.1231844 0.0200671
0.7220753 0.1277291 0.0210172
0.7298275 0.1277314 0.0210160
0.0020331 0.0855301 0.0005456
0.0049623 0.0855076 0.0006220
0.0090770 0.0854877 0.0006893
0.0149202 0.0854650 0.0007640
0.0217263 0.0887753 0.0008587
0.0290916 0.0887390 0.0009704
0.0388747 0.0887029 0.0010966
0.0497296 0.0886810 0.0011897
0.0609033 0.0921107 0.0013023
0.0715212 0.0920642 0.0014926
0.0837095 0.0920354 0.0016346
0.0975436 0.0955811 0.0017921
0.1134401 0.0955514 0.0019633
0.1266080 0.0955193 0.0021551
0.1410141 0.0955060 0.0022579
0.1567681 0.0991703 0.0024812
0.1741822 0.0991375 0.0027236
0.1869035 0.0991222 0.0028534
0.2073473 0.0990900 0.0031320
0.2218580 0.1028763 0.0034426
0.2371409 0.1028608 0.0036070
0.2534697 0.1028453 0.0037793
0.2706223 0.1028100 0.0041492
0.2884613 0.1067444 0.0043522
0.3070621 0.1067287 0.0045600
0.3263500 0.1066924 0.0050060
0.3361910 0.1066744 0.0052441
0.3560766 0.1107408 0.0054992
0.3765602 0.1107248 0.0057601
0.3869909 0.1107062 0.0060335
0.4081765 0.1106901 0.0063196
0.4188685 0.1148675 0.0069415
0.4405961 0.1148510 0.0072704
0.4512628 0.1148317 0.0076152
0.4619827 0.1148124 0.0079762
0.4726858 0.1191284 0.0083647
0.4942939 0.1191109 0.0087644
0.5051264 0.1190908 0.0091834
0.5159544 0.1190935 0.0091830
0.5267823 0.1190733 0.0096219
0.5375333 0.1234858 0.0100928
0.5483156 0.1234649 0.0105749
0.5686378 0.1234465 0.0110793
0.5786194 0.1234254 0.0116082
0.5884854 0.1279780 0.0121754
0.5983437 0.1279563 0.0127561
0.6081219 0.1279588 0.0127555
0.6178264 0.1279372 0.0133635
0.6274433 0.1279160 0.0139842
0.6273940 0.1326099 0.0146503
0.6369103 0.1326125 0.0146495
0.6463318 0.1325906 0.0153292
0.6554835 0.1325686 0.0160401
0.6641513 0.1374117 0.0168020
0.6727604 0.1374141 0.0168011
0.6812648 0.1373913 0.0175794
0.6812710 0.1373661 0.0183943
0.6896542 0.1373686 0.0183933
0.6978734 0.1423612 0.0192653
0.7060215 0.1423377 0.0201560
0.7060215 0.1423377 0.0201560
0.7140433 0.1423142 0.0210873
0.7219360 0.1422911 0.0220438
0.7296431 0.1474617 0.0220665
0.0024430 0.0995737 0.0006477
0.0055864 0.1033968 0.0007183
0.0098450 0.1033718 0.0007960
0.0155420 0.1033351 0.0008992
0.0226344 0.1032961 0.0010159
0.0315781 0.1072404 0.0011033
0.0404676 0.1071945 0.0012507
0.0517477 0.1071641 0.0013695
0.0633578 0.1071324 0.0014996
0.0743571 0.1111972 0.0016441
0.0869043 0.1111628 0.0018005
0.1012368 0.1111284 0.0019725
0.1133520 0.1110915 0.0021651
0.1311341 0.1152883 0.0023793
0.1459816 0.1152503 0.0026116
0.1566518 0.1152323 0.0027361
0.1740553 0.1151946 0.0030033
0.1933627 0.1195055 0.0033006
0.2071634 0.1194873 0.0034583
0.2217005 0.1194692 0.0036235
0.2450133 0.1194308 0.0039781
0.2617751 0.1194130 0.0041680
0.2792462 0.1238163 0.0045809
0.2882795 0.1237954 0.0047997
0.3068730 0.1237772 0.0050288
0.3261482 0.1237591 0.0052678
0.3458253 0.1283264 0.0055239
0.3558728 0.1282808 0.0060611
0.3763511 0.1282622 0.0063485
0.3867795 0.1282409 0.0066498
0.4079609 0.1282224 0.0069649
0.4186450 0.1329292 0.0073033
0.4403696 0.1329101 0.0076493
0.4510350 0.1328880 0.0080119
0.4617538 0.1328659 0.0083928
0.4832451 0.1377216 0.0088035
0.4940639 0.1376985 0.0092245
0.5048963 0.1376755 0.0096654
0.5157314 0.1376525 0.0101272
0.5265596 0.1376296 0.0106110
0.5480796 0.1426602 0.0106216
0.5583781 0.1426364 0.0111287
0.5684106 0.1426124 0.0116599
0.5783937 0.1425885 0.0122163
0.5883188 0.1425645 0.0127989
0.5981212 0.1477168 0.0134238
0.6079009 0.1477197 0.0134230
0.6176072 0.1476956 0.0140465
0.6272262 0.1476715 0.0146985
0.6367507 0.1476475 0.0153805
0.6366954 0.1529795 0.0153974
0.6461194 0.1529547 0.0161114
0.6552734 0.1529299 0.0168582
0.6639971 0.1529048 0.0176391
0.6726081 0.1529075 0.0176381
0.6810626 0.1583717 0.0184749
0.6894547 0.1583460 0.0193296
0.6894547 0.1583460 0.0193296
0.6977276 0.1583201 0.0202232
0.7058721 0.1583228 0.0202221
0.7138470 0.1639469 0.0211794
0.7138526 0.1639182 0.0221413
0.7217427 0.1639208 0.0221400
0.7295060 0.1638950 0.0231345
0.0028390 0.1200470 0.0007479
0.0062930 0.1200239 0.0008337
0.0106877 0.1199846 0.0009416
0.0168848 0.1199429 0.0010637
0.0245801 0.1243806 0.0011550
0.0328890 0.1243273 0.0013153
0.0421331 0.1242924 0.0014401
0.0517066 0.1242558 0.0015770
0.0632945 0.1288211 0.0017288
0.0773164 0.1287838 0.0018930
0.0902325 0.1287437 0.0020763
0.1050590 0.1287033 0.0022790
0.1175489 0.1286611 0.0025015
0.1310355 0.1333864 0.0026236
0.1458735 0.1333429 0.0028798
0.1621101 0.1332997 0.0031610
0.1801920 0.1332816 0.0033119
0.1932227 0.1381505 0.0034740
0.2070204 0.1381038 0.0038140
0.2290889 0.1380856 0.0039961
0.2448516 0.1380392 0.0043871
0.2616058 0.1380188 0.0045965
0.2790638 0.1430355 0.0048212
0.2972962 0.1430146 0.0050513
0.3162346 0.1429673 0.0055429
0.3259545 0.1429437 0.0058061
0.3456785 0.1429231 0.0060815
0.3658325 0.1480905 0.0063769
0.3761369 0.1480662 0.0066795
0.3970957 0.1480449 0.0069961
0.4077398 0.1480207 0.0073279
0.4292987 0.1479996 0.0076750
0.4401436 0.1533179 0.0080477
0.4508077 0.1532928 0.0084303
0.4722797 0.1532705 0.0088331
0.4830747 0.1532453 0.0092555
0.4938931 0.1532199 0.0096979
0.5046659 0.1586939 0.0101725
0.5263224 0.1586709 0.0106578
0.5371336 0.1586448 0.0111667
0.5479169 0.1586187 0.0116997
0.5582091 0.1586217 0.0116990
0.5681840 0.1642546 0.0122707
0.5781679 0.1642274 0.0128559
0.5880946 0.1642004 0.0134688
0.5979556 0.1641741 0.0140943
0.6077366 0.1641770 0.0140935
0.6173880 0.1699716 0.0147639
0.6270092 0.1699444 0.0154490
0.6365359 0.1699172 0.0161654
0.6459550 0.1699202 0.0161644
0.6551108 0.1698930 0.0169136
0.6551174 0.1698628 0.0176980
0.6637851 0.1756087 0.0177156
0.6724052 0.1755806 0.0185358
0.6809145 0.1755525 0.0193932
0.6893026 0.1755552 0.0193921
0.6893085 0.1755243 0.0202898
0.6975349 0.1813918 0.0212494
0.7056824 0.1813947 0.0212481
0.7137093 0.1813663 0.0222118
0.7137149 0.1813354 0.0232108
0.7216074 0.1813382 0.0232095
0.7293728 0.1813100 0.0242511
0.0033248 0.1387164 0.0008735
0.0068187 0.1386799 0.0009862
0.0116020 0.1386354 0.0011139
0.0183417 0.1386107 0.0012079
0.0256063 0.1436324 0.0013218
0.0342523 0.1435685 0.0015145
0.0438649 0.1435288 0.0016582
0.0538090 0.1434872 0.0018157
0.0658546 0.1434458 0.0019890
0.0772572 0.1486056 0.0021856
0.0901620 0.1485871 0.0022896
0.1049781 0.1485413 0.0025131
0.1218176 0.1484957 0.0027583
0.1357539 0.1484752 0.0028897
0.1510135 0.1537847 0.0031754
0.1619924 0.1537331 0.0034863
0.1800637 0.1537125 0.0036527
0.1999231 0.1536921 0.0038270
0.2140827 0.1536410 0.0042015
0.2289347 0.1591309 0.0044070
0.2446848 0.1591074 0.0046173
0.2614366 0.1590550 0.0050689
0.2789344 0.1590320 0.0053099
0.2971615 0.1590090 0.0055619
0.3160381 0.1646576 0.0058322
0.3355799 0.1646342 0.0061088
0.3454727 0.1646074 0.0063987
0.3656819 0.1645541 0.0070203
0.3864019 0.1645306 0.0073529
0.3968838 0.1703358 0.0077101
