Plugins/FilmEmulator/Content/LUTs/FE_Agfa_Vista_100_64.cube
TITLE "FE_Agfa_Vista_100_33"
LUT_3D_SIZE 4
0.0003730 0.0003885 0.0001300
0.2330817 0.0027641 0.0013541
0.5521861 0.0090029 0.0061676
0.7244778 0.0178751 0.0144791
0.0093827 0.3119012 0.0028415
0.2869494 0.3271083 0.0095081
0.5868083 0.3426543 0.0198598
0.7359701 0.3671507 0.0337722
0.0353595 0.5710995 0.0129653
0.3531801 0.5866317 0.0243956
0.6149135 0.5940065 0.0411012
0.7558530 0.6015065 0.0576166
0.0763540 0.7128592 0.0309004
0.4044095 0.7194204 0.0474416
0.6520398 0.7259002 0.0658053
0.7685990 0.7321962 0.0863813
0.0043004 0.0049648 0.3422618
0.2649268 0.0123704 0.3639608
0.5717300 0.0230775 0.3858120
0.7317945 0.0354732 0.4071504
0.0216048 0.3225960 0.3891003
0.3251597 0.3388504 0.4162509
0.6068200 0.3637825 0.4355778
0.7432951 0.3808531 0.4454339
0.0555933 0.5825570 0.4238449
0.3843959 0.5906103 0.4421648
0.6344519 0.5984919 0.4613210
0.7628046 0.6062790 0.4808079
0.1000528 0.7166055 0.4466928
0.4371330 0.7234631 0.4654437
0.6610832 0.7300352 0.4848120
0.7752941 0.7300157 0.5041941
0.0157400 0.0167316 0.6485195
0.3000624 0.0278947 0.6589213
0.5908257 0.0428762 0.6696115
0.7459024 0.0585272 0.6796076
0.0386581 0.3457304 0.6782432
0.3548703 0.3626025 0.6857053
0.6261901 0.3797067 0.6937154
0.7570668 0.3970809 0.7018099
0.0797482 0.5892681 0.6919287
0.4163317 0.5973088 0.6991978
0.6531512 0.6051897 0.7068387
0.7694098 0.6206856 0.7145516
0.1297025 0.7223663 0.7108114
0.4693101 0.7290671 0.7178078
0.6783878 0.7291170 0.7248818
0.7816855 0.7355554 0.7321473
0.0332397 0.0337621 0.7851926
0.3380286 0.0498824 0.7923595
0.6098806 0.0655866 0.7993206
0.7524031 0.0859435 0.8062508
0.0605866 0.3617551 0.8039011
0.3857155 0.3789498 0.8092416
0.6357062 0.3963587 0.8148505
0.7637409 0.4131421 0.8149687
0.1082518 0.5964469 0.8134729
0.4487061 0.6044276 0.8185582
0.6705295 0.6199743 0.8239494
0.7758856 0.6276881 0.8239361
0.1605228 0.7284001 0.8212417
0.4909354 0.7349500 0.8262443
0.6868398 0.7350276 0.8260242
0.7879121 0.7413768 0.8312181
