Plugins/FilmEmulator/Content/LUTs/FE_Agfa_Vista_100_64.cube
TITLE "FE_Agfa_Vista_100_33"
LUT_3D_SIZE 8
0.0003730 0.0003885 0.0001300
0.0552597 0.0009061 0.0003435
0.1836726 0.0021900 0.0009894
0.3404182 0.0040983 0.0022704
0.4768779 0.0069354 0.0044247
0.5822806 0.0100639 0.0071091
0.6585905 0.0136481 0.0104090
0.7244778 0.0178751 0.0144791
0.0020331 0.0855301 0.0005456
0.0715212 0.0920642 0.0014926
0.2073473 0.0990900 0.0031320
0.3560766 0.1107408 0.0054992
0.4942939 0.1191109 0.0087644
0.5983437 0.1279563 0.0127561
0.6727604 0.1374141 0.0168011
0.7296431 0.1474617 0.0220665
0.0070758 0.2501101 0.0020338
0.0933663 0.2644062 0.0039010
0.2283165 0.2715254 0.0068206
0.3855450 0.2789244 0.0098984
0.5144764 0.2864295 0.0143662
0.6067569 0.2941417 0.0188693
0.6800179 0.3101758 0.0247071
0.7361993 0.3181312 0.0307769
0.0154117 0.4033840 0.0050264
0.1124849 0.4114230 0.0079787
0.2516643 0.4195228 0.0115835
0.4058800 0.4277060 0.0159963
0.5244882 0.4274387 0.0209785
0.6253282 0.4356986 0.0273582
0.6877638 0.4440374 0.0340584
0.7426699 0.4524665 0.0404830
0.0264692 0.5135769 0.0092976
0.1346906 0.5216133 0.0134817
0.2860833 0.5296919 0.0177139
0.4269034 0.5294336 0.0231987
0.5455152 0.5375180 0.0288947
0.6343750 0.5372930 0.0359183
0.6956017 0.5453938 0.0426658
0.7492131 0.5534733 0.0506269
0.0399958 0.6026612 0.0149409
0.1605652 0.6024909 0.0195636
0.3042538 0.6100473 0.0255626
0.4480271 0.6098588 0.0317905
0.5654532 0.6173897 0.0394834
0.6434361 0.6172239 0.0468320
0.7114877 0.6247370 0.0555284
0.7557622 0.6246192 0.0625071
0.0577063 0.6630380 0.0216003
0.1847187 0.6628674 0.0280970
0.3329450 0.6701306 0.0349433
0.4691517 0.6700007 0.0414741
0.5751238 0.6772033 0.0492104
0.6610673 0.6770561 0.0581219
0.7191416 0.6842182 0.0654556
0.7622234 0.6841096 0.0736000
0.0763540 0.7128592 0.0309004
0.2047633 0.7195881 0.0367444
0.3626523 0.7194898 0.0435692
0.4904507 0.7193682 0.0516286
0.5946590 0.7259568 0.0608388
0.6694515 0.7258675 0.0684340
0.7267431 0.7257726 0.0769175
0.7685990 0.7321962 0.0863813
0.0010481 0.0013474 0.0943404
0.0647432 0.0028822 0.1028050
0.1966075 0.0050232 0.1119966
0.3500323 0.0079179 0.1217424
0.4874305 0.0115450 0.1320274
0.5920244 0.0151215 0.1427228
0.6671317 0.0198647 0.1541848
0.7243662 0.0251014 0.1660688
0.0044097 0.0902908 0.1126683
0.0838674 0.0975132 0.1208670
0.2221611 0.1092099 0.1349504
0.3666053 0.1176891 0.1400181
0.5054476 0.1266035 0.1505419
0.5986168 0.1360865 0.1617696
0.6729841 0.1461689 0.1734858
0.7298664 0.1514268 0.1855012
0.0111088 0.2609677 0.1293666
0.1048088 0.2685573 0.1386469
0.2443404 0.2761973 0.1488177
0.3964319 0.2839537 0.1596903
0.5256315 0.2918681 0.1654001
0.6167031 0.3080285 0.1772855
0.6886550 0.3161057 0.1894776
0.7363930 0.3239920 0.1958695
0.0206785 0.4078295 0.1410557
0.1257222 0.4163282 0.1511356
0.2690076 0.4247973 0.1620720
0.4169630 0.4247755 0.1735973
0.5355898 0.4332987 0.1794892
0.6255780 0.4418078 0.1917716
0.6962617 0.4503497 0.2047186
0.7428771 0.4503279 0.2113393
0.0340047 0.5184250 0.1528825
0.1500411 0.5267987 0.1637377
0.2955447 0.5267947 0.1753024
0.4380664 0.5350715 0.1872811
0.5561197 0.5350788 0.1933948
0.6440374 0.5433123 0.2064032
0.7039602 0.5515617 0.2132004
0.7493998 0.5514930 0.2270841
0.0491654 0.5997120 0.1709861
0.1724567 0.6075999 0.1767502
0.3237073 0.6075972 0.1886100
0.4589763 0.6153182 0.2013055
0.5757101 0.6153252 0.2077711
0.6528066 0.6229652 0.2215111
0.7116812 0.6229494 0.2285179
0.7558964 0.6305206 0.2432731
0.0652028 0.6605783 0.1839270
0.1981964 0.6681005 0.1898543
0.3430450 0.6680914 0.2024213
0.4801540 0.6754336 0.2158232
0.5853040 0.6754361 0.2226496
0.6612312 0.6827115 0.2298214
0.7193204 0.6826562 0.2444616
0.7623738 0.6826374 0.2518429
0.0858337 0.7177114 0.1974247
0.2193539 0.7177684 0.2035982
0.3731535 0.7177628 0.2168510
0.5014689 0.7245121 0.2238214
0.6046839 0.7244766 0.2381405
0.6781813 0.7244688 0.2455032
0.7268717 0.7309576 0.2606260
0.7687368 0.7309411 0.2682566
0.0032602 0.0038166 0.2823576
0.0757137 0.0062568 0.2920603
0.2100781 0.0094780 0.3022726
0.3596141 0.0128815 0.3120609
0.4978363 0.0169024 0.3218933
0.6014393 0.0222224 0.3319778
0.6754190 0.0270257 0.3417690
0.7318628 0.0328498 0.3517286
0.0077269 0.1007150 0.3100144
0.0940810 0.1086882 0.3179272
0.2374793 0.1171486 0.3264352
0.3873773 0.1260576 0.3352300
0.5163081 0.1355399 0.3442276
0.6084175 0.1456175 0.3534081
0.6814955 0.1563170 0.3627292
0.7374924 0.1619037 0.3719116
0.0161480 0.2674346 0.3252960
0.1173041 0.2751702 0.3331871
0.2611380 0.2829700 0.3416734
0.4070985 0.2989041 0.3506483
0.5364734 0.3070706 0.3595576
0.6264037 0.3151817 0.3686323
0.6887244 0.3230626 0.3778382
0.7435068 0.3310489 0.3871428
0.0276959 0.4149625 0.3463617
0.1400854 0.4235441 0.3546407
0.2869420 0.4235957 0.3631805
0.4278637 0.4321297 0.3721635
0.5464651 0.4406941 0.3813070
0.6351954 0.4492866 0.3905904
0.7044966 0.4579076 0.3999843
0.7498751 0.4579321 0.3998839
0.0418062 0.5254592 0.3577586
0.1610293 0.5255627 0.3660670
0.3144889 0.5339150 0.3749558
0.4488477 0.5339358 0.3838609
0.5662452 0.5422335 0.3931117
0.6532860 0.5504996 0.4024935
0.7121155 0.5504853 0.4117790
0.7562779 0.5587548 0.4118962
0.0578589 0.6063772 0.3686320
0.1851551 0.6064627 0.3771327
0.3335802 0.6142592 0.3861662
0.4698515 0.6142794 0.3951785
0.5857288 0.6219900 0.4045273
0.6616651 0.6219829 0.4138051
0.7196704 0.6296133 0.4233881
0.7626873 0.6295943 0.4328653
0.0765329 0.6670129 0.3792363
0.2123415 0.6670836 0.3878995
0.3632519 0.6744968 0.3970575
0.4910851 0.6745121 0.4061838
0.5952541 0.6818110 0.4156470
0.6699870 0.6818047 0.4250064
0.7272128 0.6817924 0.4344719
0.7690089 0.6889849 0.4442360
0.0963128 0.7168211 0.3898030
0.2345975 0.7168779 0.3986178
0.3836129 0.7236575 0.4078867
0.5124216 0.7236728 0.4170983
0.6145234 0.7236771 0.4264247
0.6782448 0.7302198 0.4361119
0.7346286 0.7302092 0.4456409
0.7752764 0.7301933 0.4552400
0.0066629 0.0075221 0.4468538
0.0882358 0.0109762 0.4579462
0.2244015 0.0144008 0.4691167
0.3797325 0.0189349 0.4805249
0.5082318 0.0239494 0.4819864
0.6108879 0.0291353 0.4930390
0.6836020 0.0354076 0.5040004
0.7316529 0.0413764 0.5146473
0.0121343 0.1083241 0.4758478
0.1054103 0.1167982 0.4851294
0.2455049 0.1256959 0.4950428
0.3978906 0.1351861 0.4952924
0.5270994 0.1452522 0.5054608
0.6180844 0.1559346 0.5155497
0.6899003 0.1615144 0.5252902
0.7374655 0.1729464 0.5257549
0.0225542 0.2744431 0.4932416
0.1261652 0.2822894 0.5024363
0.2697732 0.2982213 0.5123482
0.4178603 0.3064271 0.5123016
0.5472877 0.3145447 0.5219939
0.6359655 0.3224275 0.5316608
0.6970292 0.3304452 0.5317836
0.7504604 0.3385285 0.5414793
0.0355273 0.4227111 0.5073714
0.1504071 0.4313241 0.5166726
0.2961513 0.4314156 0.5162593
0.4387853 0.4399920 0.5258765
0.5567979 0.4485952 0.5354744
0.6446567 0.4572639 0.5355414
0.7045621 0.4572507 0.5449769
0.7567166 0.4658945 0.5546246
0.0513206 0.5247259 0.5198035
0.1728033 0.5331215 0.5290403
0.3242053 0.5415015 0.5288709
0.4595871 0.5415230 0.5381792
0.5762696 0.5498040 0.5477408
0.6533574 0.5498407 0.5475912
0.7121414 0.5580747 0.5572155
0.7630366 0.5580596 0.5665842
0.0679926 0.6056685 0.5315518
0.1985203 0.6135492 0.5311808
0.3535133 0.6135919 0.5403775
0.4806721 0.6213146 0.5498992
0.5858053 0.6213611 0.5497040
0.6703345 0.6290073 0.5592731
0.7275246 0.6289948 0.5686290
0.7692852 0.6366055 0.5687451
0.0893488 0.6663908 0.5331713
0.2271659 0.6738398 0.5424346
0.3735954 0.6738726 0.5516441
0.5019405 0.6812285 0.5516240
0.6051311 0.6812335 0.5609421
0.6785896 0.6812276 0.5702688
0.7348967 0.6884705 0.5703666
0.7755159 0.6884537 0.5796935
0.1079246 0.7162485 0.5441993
0.2508267 0.7230605 0.5534729
0.4048038 0.7230927 0.5626459
0.5233245 0.7231394 0.5624256
0.6145549 0.7297003 0.5719387
0.6867367 0.7296954 0.5812128
0.7417670 0.7297198 0.5810912
0.7752945 0.7361165 0.5905884
0.0117818 0.0127661 0.5848862
0.0987459 0.0167699 0.5857427
0.2394398 0.0212264 0.5961366
0.3897569 0.0268663 0.5974751
0.5187172 0.0314253 0.6072847
0.6202312 0.0382017 0.6084799
0.6833475 0.0446278 0.6183138
0.7390099 0.0520856 0.6280604
0.0176514 0.1165114 0.6006895
0.1179096 0.1254264 0.6094339
0.2622403 0.1349105 0.6095440
0.4084856 0.1449695 0.6186528
0.5378444 0.1556684 0.6189769
0.6276377 0.1669823 0.6281379
0.6981127 0.1726458 0.6369535
0.7444586 0.1844563 0.6373773
0.0289606 0.2896136 0.6170795
0.1405028 0.2977537 0.6165412
0.2876259 0.3059356 0.6251776
0.4395800 0.3140612 0.6338463
0.5472981 0.3219817 0.6338922
0.6359750 0.3299671 0.6426008
0.7051918 0.3380880 0.6426984
0.7504669 0.3462636 0.6513757
0.0436573 0.4306849 0.6296626
0.1613735 0.4308256 0.6290045
0.3150509 0.4394250 0.6375198
0.4601527 0.4480838 0.6374716
0.5668432 0.4567168 0.6461059
0.6538764 0.4567578 0.6459497
0.7126106 0.4654027 0.6545625
0.7567211 0.4741103 0.6546836
0.0603570 0.5325283 0.6321158
0.1854487 0.5409051 0.6404072
0.3439234 0.5409962 0.6400398
0.4811319 0.5492914 0.6485751
0.5862553 0.5493394 0.6483946
0.6621105 0.5575829 0.6569479
0.7201041 0.5576125 0.6568342
0.7630426 0.5658164 0.6653342
0.0797035 0.6129511 0.6426962
0.2126351 0.6130640 0.6421877
0.3636686 0.6208139 0.6506146
0.5023580 0.6208762 0.6503711
0.5956907 0.6285298 0.6588740
0.6703840 0.6285641 0.6587394
0.7275328 0.6361448 0.6671917
0.7693245 0.6361672 0.6671003
0.1001802 0.6733268 0.6442235
0.2428686 0.6733899 0.6522871
0.3945061 0.6807313 0.6606287
0.5128300 0.6807811 0.6604264
0.6149119 0.6807869 0.6686019
0.6870176 0.6880406 0.6686715
0.7349437 0.6880267 0.6768246
0.7755216 0.6951812 0.6769336
0.1206220 0.7225977 0.6540959
0.2678962 0.7226511 0.6620920
0.4155651 0.7227148 0.6618097
0.5341501 0.7292931 0.6701398
0.6242483 0.7293283 0.6699870
0.6950892 0.7293246 0.6780900
0.7417746 0.7357656 0.6781899
0.7816652 0.7357517 0.6862277
0.0178360 0.0188106 0.6743795
0.1104333 0.0228956 0.6748061
0.2555620 0.0289868 0.6840541
0.4106454 0.0352548 0.6850160
0.5291752 0.0412145 0.6936923
0.6199446 0.0481404 0.6945351
0.6914898 0.0540871 0.7028933
0.7458217 0.0632434 0.7037822
0.0236396 0.1251899 0.6867682
0.1314253 0.1346724 0.6945103
0.2797131 0.1447499 0.6946251
0.4299825 0.1554241 0.7025994
0.5485501 0.1667548 0.7029063
0.6371446 0.1724173 0.7106236
0.6980532 0.1842196 0.7109852
0.7513614 0.1903665 0.7111162
0.0371382 0.2972886 0.7010118
0.1562313 0.3055474 0.7005891
0.3061862 0.3136839 0.7081196
0.4502284 0.3216177 0.7080865
0.5575916 0.3296058 0.7156757
0.6453941 0.3377284 0.7157423
0.7051905 0.3459055 0.7232731
0.7572673 0.3542162 0.7233769
0.0535657 0.4303369 0.7042120
0.1793869 0.4389759 0.7114696
0.3247417 0.4476487 0.7113557
0.4709035 0.4563014 0.7188125
0.5768712 0.4563496 0.7186511
0.6538777 0.4650008 0.7261055
0.7205172 0.4737171 0.7261815
0.7634085 0.4824440 0.7262895
0.0708834 0.5404189 0.7141874
0.2057910 0.5405439 0.7136989
0.3539349 0.5488585 0.7210563
0.4919848 0.5489231 0.7208403
0.5961257 0.5571801 0.7282143
0.6707845 0.5572159 0.7280955
0.7278918 0.5654277 0.7354062
0.7696134 0.5735707 0.7355022
0.0894754 0.6126036 0.7157363
0.2274536 0.6203868 0.7229163
0.3739814 0.6204622 0.7226455
0.5131914 0.6281406 0.7299302
0.6055319 0.6281814 0.7297916
0.6789171 0.6357714 0.7370515
0.7352253 0.6357995 0.7369535
0.7758058 0.6358217 0.7368742
0.1121972 0.6729671 0.7245028
0.2511010 0.6803708 0.7243060
0.4051618 0.6804065 0.7313341
0.5236987 0.6804560 0.7311571
0.6245481 0.6876880 0.7383631
0.6870561 0.6877157 0.7382633
0.7420200 0.6948439 0.7453995
0.7818808 0.6948643 0.7453220
0.1344604 0.7222696 0.7329614
0.2767239 0.7223507 0.7326198
0.4263619 0.7289844 0.7325482
0.5449796 0.7289977 0.7395319
0.6338373 0.7290329 0.7393996
0.6950893 0.7354505 0.7465099
0.7487682 0.7354744 0.7464157
0.7816921 0.7354904 0.7463511
0.0248739 0.0257005 0.7372385
0.1232085 0.0312807 0.7447775
0.2725551 0.0365921 0.7453018
0.4210999 0.0444765 0.7461709
0.5397204 0.0499614 0.7535753
0.6292927 0.0584180 0.7543281
0.6995054 0.0656616 0.7616422
0.7456676 0.0737494 0.7622141
0.0316350 0.1344500 0.7537841
0.1462572 0.1445426 0.7536154
0.2979009 0.1552375 0.7537302
0.4408058 0.1665454 0.7607293
0.5588224 0.1722336 0.7607744
0.6370746 0.1840066 0.7677215
0.7061775 0.1901523 0.7678204
0.7513043 0.2028920 0.7681503
0.0456210 0.3051572 0.7590412
0.1675100 0.3133304 0.7654052
0.3157167 0.3212765 0.7653002
0.4609255 0.3293149 0.7652725
0.5676095 0.3374044 0.7718730
0.6545396 0.3456247 0.7719312
0.7132056 0.3539334 0.7720206
0.7572581 0.3622939 0.7785158
0.0629742 0.4385359 0.7684637
0.1923990 0.4472488 0.7681927
0.3444148 0.4559574 0.7680939
0.4817273 0.4559812 0.7744143
0.5867903 0.4646835 0.7744437
0.6625988 0.4734010 0.7745064
0.7205098 0.4820922 0.7809282
0.7634368 0.4821163 0.7808567
0.0829821 0.5401084 0.7703543
0.2202483 0.5484998 0.7701229
0.3641173 0.5485370 0.7763571
0.5028020 0.5568526 0.7763300
0.5961148 0.5651194 0.7763664
0.6707786 0.5651147 0.7825706
0.7278829 0.5732647 0.7826391
0.7696413 0.5732480 0.7887307
0.1041861 0.6200209 0.7718582
0.2431557 0.6200839 0.7779511
0.3948817 0.6278174 0.7778720
0.5240545 0.6278359 0.7839813
0.6152468 0.6354734 0.7840146
0.6873621 0.6355070 0.7839141
0.7352206 0.6430264 0.7901246
0.7758015 0.6430483 0.7900569
0.1252322 0.6800010 0.7794658
0.2681672 0.6800907 0.7791520
0.4159109 0.6801221 0.7851893
0.5345017 0.6874005 0.7851915
0.6245809 0.6874382 0.7850748
0.6953520 0.6945752 0.7912387
0.7420464 0.6945975 0.7911677
0.7819040 0.6946181 0.7911000
0.1444303 0.7220431 0.7803493
0.2948525 0.7286666 0.7864316
0.4372772 0.7287256 0.7862341
0.5553167 0.7287714 0.7860843
0.6432809 0.7352024 0.7922080
0.7033020 0.7352273 0.7921241
0.7487943 0.7352478 0.7920539
0.7878923 0.7415668 0.7980968
0.0332397 0.0337621 0.7851926
0.1371354 0.0394926 0.7915725
0.2902606 0.0461627 0.7920435
0.4316850 0.0539370 0.7926250
0.5502273 0.0606658 0.7990104
0.6385427 0.0708743 0.7996675
0.7074466 0.0765673 0.7999569
0.7524031 0.0859435 0.8062508
0.0405318 0.1443331 0.7985997
0.1568981 0.1550394 0.7985104
0.3072196 0.1663716 0.7986228
0.4514444 0.1720428 0.8044422
0.5687677 0.1838418 0.8046619
0.6464099 0.1962620 0.8049245
0.7141246 0.2026977 0.8106976
0.7580351 0.2160716 0.8109831
0.0559379 0.3130161 0.8029649
0.1798254 0.3209942 0.8027183
0.3352282 0.3290119 0.8083630
0.4716613 0.3371485 0.8083532
0.5775685 0.3453726 0.8083870
0.6632505 0.3536517 0.8140484
0.7210923 0.3620516 0.8141257
0.7639230 0.3705370 0.8142166
0.0739238 0.4468572 0.8110598
0.2061349 0.4555980 0.8108532
0.3544611 0.4556800 0.8106331
0.4925178 0.4643978 0.8106163
0.5966399 0.4730858 0.8162033
0.6712146 0.4818233 0.8162580
0.7283115 0.4818529 0.8161822
0.7699922 0.4902768 0.8216931
0.0931040 0.5481116 0.8126978
0.2277790 0.5482208 0.8123839
0.3847833 0.5565155 0.8178275
0.5136188 0.5648003 0.8178176
0.6059430 0.5648426 0.8177130
0.6792883 0.5729994 0.8177601
0.7355613 0.5729887 0.8230845
0.7760745 0.5809560 0.8231555
0.1165946 0.6197621 0.8138550
0.2598191 0.6274824 0.8191931
0.4055311 0.6275535 0.8190058
0.5348479 0.6352098 0.8189931
0.6249137 0.6352117 0.8242630
0.6873532 0.6427763 0.8243177
0.7423164 0.6428038 0.8242450
0.7821448 0.6428257 0.8241858
0.1346131 0.6797576 0.8203627
0.2859755 0.6798486 0.8200928
0.4266949 0.6871438 0.8200539
0.5453199 0.6871573 0.8252704
0.6341150 0.6943386 0.8253031
0.7035565 0.6943695 0.8252187
0.7490242 0.6943912 0.8251574
0.7880958 0.7014314 0.8304548
0.1605228 0.7284001 0.8212417
0.3137149 0.7284790 0.8209952
0.4479527 0.7285016 0.8261626
0.5653458 0.7349786 0.8261639
0.6433084 0.7350094 0.8260764
0.7113887 0.7350059 0.8311995
0.7556218 0.7413612 0.8312659
0.7879121 0.7413768 0.8312181
