Plugins/FilmEmulator/Content/LUTs/FE_Fuji_Pro_160S_64.cube
TITLE "FE_Fuji_Pro_160S_33"
LUT_3D_SIZE 8
0.0012194 0.0018939 0.0023375
0.0589467 0.0028800 0.0032992
0.1733807 0.0063537 0.0061008
0.2998103 0.0110632 0.0098559
0.4238955 0.0159866 0.0139966
0.5249180 0.0218103 0.0188510
0.6025069 0.0279238 0.0246406
0.6652229 0.0357873 0.0301851
0.0063557 0.0996611 0.0062850
0.0819212 0.1096964 0.0083094
0.2037386 0.1208265 0.0126572
0.3345733 0.1287774 0.0174198
0.4417320 0.1372755 0.0226493
0.5434021 0.1462818 0.0285152
0.6204919 0.1558374 0.0336230
0.6822560 0.1658940 0.0409325
0.0184508 0.2408813 0.0147504
0.1071044 0.2543115 0.0172817
0.2331158 0.2611100 0.0203214
0.3534854 0.2680751 0.0255394
0.4739628 0.2752187 0.0310894
0.5641625 0.2902445 0.0378545
0.6296113 0.2978529 0.0445429
0.6907167 0.3056121 0.0507205
0.0350292 0.3752784 0.0251268
0.1344009 0.3834707 0.0286093
0.2660124 0.3830579 0.0315202
0.3841595 0.3917110 0.0347668
0.4955452 0.4003974 0.0409171
0.5743223 0.4092009 0.0481214
0.6496336 0.4180843 0.0548194
0.6995783 0.4178896 0.0604020
0.0543785 0.4755825 0.0375445
0.1679827 0.4844262 0.0400339
0.2925976 0.4934677 0.0441203
0.4160841 0.4931892 0.0470316
0.5174057 0.5023632 0.0518382
0.5957196 0.5021291 0.0571263
0.6592782 0.5113159 0.0650495
0.7177268 0.5204906 0.0716744
0.0775740 0.5596008 0.0506359
0.1939763 0.5683937 0.0540101
0.3209951 0.5680655 0.0575839
0.4377216 0.5770440 0.0614533
0.5394549 0.5768210 0.0655144
0.6167809 0.5858221 0.0698992
0.6789426 0.5856093 0.0769470
0.7264156 0.5945513 0.0847440
0.1060206 0.6318305 0.0639818
0.2310991 0.6314203 0.0681504
0.3509175 0.6311408 0.0726126
0.4597670 0.6397107 0.0750125
0.5502360 0.6395146 0.0799441
0.6270095 0.6480132 0.0852563
0.6883725 0.6478860 0.0879801
0.7349935 0.6562901 0.0967934
0.1333915 0.6826363 0.0779878
0.2556275 0.6822988 0.0830502
0.3821079 0.6820739 0.0856741
0.4933414 0.6900308 0.0913186
0.5722036 0.6898980 0.0942134
0.6476398 0.6978164 0.1003842
0.6977207 0.6977125 0.1035464
0.7435094 0.6976087 0.1067977
0.0023620 0.0035708 0.1041993
0.0661889 0.0062703 0.1085402
0.1862400 0.0099029 0.1130817
0.3093737 0.0138223 0.1175101
0.4351507 0.0181850 0.1219352
0.5251318 0.0232152 0.1264206
0.6135589 0.0287093 0.1309373
0.6756123 0.0342941 0.1354936
0.0092359 0.0983680 0.1241822
0.0887855 0.1084395 0.1279840
0.2114418 0.1157494 0.1319823
0.3349916 0.1235392 0.1402803
0.4533303 0.1362370 0.1405707
0.5437154 0.1453050 0.1450144
0.6207666 0.1548865 0.1495849
0.6824825 0.1649970 0.1542844
0.0225804 0.2388275 0.1434943
0.1158799 0.2523251 0.1477472
0.2415212 0.2592158 0.1521423
0.3642581 0.2663257 0.1567074
0.4742817 0.2736041 0.1614132
0.5645226 0.2810367 0.1662537
0.6404577 0.2886411 0.1663339
0.6909236 0.3043132 0.1714680
0.0412202 0.3730836 0.1589844
0.1452162 0.3725434 0.1634114
0.2751647 0.3810734 0.1682061
0.3952341 0.3897822 0.1731721
0.4958346 0.3986171 0.1782854
0.5856611 0.4075411 0.1835129
0.6498536 0.4165815 0.1836074
0.7092529 0.4164483 0.1887874
0.0613650 0.4735939 0.1749731
0.1744370 0.4825059 0.1799543
0.3023369 0.4821955 0.1849857
0.4163512 0.4913999 0.1903012
0.5176700 0.5006511 0.1957572
0.6068319 0.5005199 0.1956757
0.6696326 0.5098259 0.2012825
0.7179018 0.5190979 0.2070216
0.0873680 0.5578555 0.1918516
0.2085245 0.5667115 0.1971942
0.3311701 0.5664394 0.2025837
0.4491857 0.5755041 0.2026302
0.5396868 0.5753367 0.2081996
0.6169962 0.5843851 0.2140656
0.6791301 0.5842507 0.2198922
0.7265716 0.5933174 0.2200099
0.1146778 0.6214907 0.2095672
0.2393378 0.6300218 0.2095150
0.3615336 0.6297799 0.2151695
0.4713230 0.6383632 0.2211463
0.5616592 0.6382052 0.2270912
0.6377628 0.6467907 0.2271887
0.6885456 0.6466790 0.2332861
0.7351986 0.6465672 0.2395001
0.1440424 0.6813860 0.2224401
0.2644466 0.6810989 0.2283034
0.3930579 0.6808745 0.2343264
0.4935356 0.6889309 0.2344016
0.5834877 0.6887842 0.2406010
0.6478124 0.6967668 0.2471283
0.7073909 0.6966831 0.2470555
0.7522475 0.6965796 0.2534992
0.0058128 0.0083896 0.2392102
0.0742240 0.0116581 0.2402108
0.1925857 0.0157737 0.2479106
0.3185199 0.0208115 0.2492238
0.4345807 0.0257334 0.2568084
0.5359773 0.0307106 0.2576833
0.6131958 0.0367129 0.2653107
0.6753349 0.0423227 0.2660539
0.0125499 0.0979749 0.2589625
0.0961149 0.1080454 0.2656536
0.2191122 0.1153542 0.2657777
0.3453004 0.1231376 0.2728415
0.4648643 0.1314102 0.2800678
0.5550960 0.1448435 0.2806005
0.6316071 0.1495216 0.2877962
0.6924616 0.1593620 0.2881488
0.0276451 0.2380959 0.2781373
0.1252036 0.2445786 0.2848798
0.2499539 0.2585221 0.2850444
0.3749444 0.2656201 0.2922225
0.4857621 0.2729169 0.2923004
0.5757911 0.2803381 0.2996615
0.6405786 0.2879437 0.2997972
0.7007512 0.2956434 0.3072981
0.0465437 0.3634405 0.2955891
0.1566191 0.3716754 0.3026767
0.2843608 0.3802502 0.3026537
0.4062509 0.3889523 0.3101071
0.5072735 0.3978179 0.3102001
0.5857821 0.4067517 0.3178404
0.6603155 0.4066419 0.3177406
0.7093556 0.4156533 0.3255161
0.0691633 0.4726844 0.3128050
0.1809921 0.4816675 0.3126681
0.3120686 0.4813579 0.3199843
0.4275460 0.4906005 0.3200476
0.5290940 0.4998511 0.3277941
0.6069452 0.4997363 0.3276923
0.6697373 0.5090424 0.3355824
0.7180528 0.5089600 0.3355089
0.0945805 0.5570067 0.3299302
0.2160949 0.5659217 0.3298301
0.3413905 0.5656887 0.3296221
0.4493020 0.5747347 0.3374744
0.5510512 0.5745896 0.3373410
0.6277761 0.5836421 0.3453344
0.6792229 0.5835620 0.3452597
0.7356188 0.5925789 0.3533606
0.1238725 0.6207526 0.3392040
0.2477033 0.6292690 0.3470340
0.3721615 0.6290643 0.3468359
0.4827704 0.6376913 0.3469159
0.5729197 0.6375330 0.3547709
0.6378608 0.6461405 0.3549139
0.6983299 0.6460137 0.3628857
0.7440554 0.6459381 0.3628093
0.1496350 0.6807174 0.3566331
0.2733918 0.6804647 0.3563702
0.3931578 0.6802552 0.3642618
0.5049542 0.6883056 0.3643441
0.5835850 0.6882069 0.3642365
0.6582794 0.6880742 0.3722868
0.7074735 0.6961137 0.3724494
0.7523215 0.6960101 0.3806092
0.0104991 0.0142540 0.3577493
0.0832514 0.0180985 0.3585979
0.2064341 0.0230949 0.3679914
0.3279297 0.0285652 0.3692291
0.4452834 0.0341280 0.3702843
0.5468071 0.0393491 0.3793848
0.6235616 0.0453474 0.3802749
0.6849238 0.0522281 0.3811827
0.0165106 0.0977231 0.3791031
0.1039934 0.1042601 0.3788938
0.2269492 0.1151008 0.3876357
0.3557151 0.1228860 0.3879146
0.4649516 0.1311503 0.3967155
0.5552586 0.1399477 0.3970979
0.6316836 0.1492508 0.3974970
0.6925364 0.1590560 0.4064443
0.0325169 0.2376305 0.3942481
0.1352156 0.2441285 0.4024342
0.2585511 0.2580674 0.4026460
0.3856939 0.2651872 0.4026870
0.4858497 0.2724583 0.4113626
0.5758715 0.2799026 0.4114879
0.6510568 0.2874876 0.4116296
0.7008202 0.2951928 0.4204344
0.0525021 0.3628551 0.4151952
0.1626017 0.3711514 0.4149777
0.2937086 0.3797214 0.4149504
0.4063292 0.3884339 0.4236744
0.5073553 0.3972951 0.4237812
0.5968546 0.4062465 0.4239051
0.6603893 0.4061145 0.4325128
0.7094185 0.4151599 0.4326862
0.0748671 0.4721037 0.4267452
0.1946471 0.4810852 0.4265867
0.3219366 0.4808320 0.4263377
0.4387892 0.4900345 0.4351289
0.5291698 0.4993404 0.4352514
0.6070236 0.4991860 0.4439023
0.6698049 0.5085310 0.4440593
0.7272429 0.5084321 0.4439606
0.1023149 0.5564666 0.4376196
0.2238406 0.5654007 0.4375232
0.3517418 0.5651289 0.4460653
0.4606685 0.5742162 0.4461531
0.5511267 0.5740872 0.4460210
0.6278476 0.5831419 0.4549757
0.6891371 0.5830456 0.4548766
0.7356733 0.5921199 0.4550495
0.1287529 0.6202514 0.4480794
0.2562345 0.6288092 0.4480145
0.3828724 0.6285673 0.4566185
0.4828462 0.6372145 0.4567234
0.5729884 0.6370926 0.4565908
0.6483678 0.6456529 0.4655856
0.6983888 0.6455771 0.4655025
0.7441089 0.6455014 0.4654196
0.1612922 0.6802722 0.4585898
0.2825071 0.6799997 0.4671801
0.4040963 0.6798246 0.4669775
0.5050247 0.6878949 0.4670830
0.5946741 0.6877479 0.4758358
0.6583430 0.6876631 0.4757359
0.7075316 0.6957085 0.4759105
0.7523692 0.6956384 0.4758273
0.0160707 0.0208017 0.4627776
0.0898448 0.0256770 0.4636389
0.2135198 0.0306249 0.4645588
0.3375877 0.0366107 0.4656490
0.4561725 0.0421955 0.4754611
0.5464179 0.0486140 0.4763934
0.6232626 0.0540304 0.4770767
0.6846476 0.0621577 0.4780441
0.0210222 0.0942944 0.4740269
0.1124121 0.1040774 0.4830860
0.2431981 0.1111546 0.4832629
0.3662558 0.1226982 0.4838419
0.4763664 0.1309692 0.4842070
0.5665115 0.1397375 0.4935803
0.6422552 0.1490288 0.4939997
0.6925865 0.1588503 0.4944524
0.0382243 0.2372739 0.4904827
0.1404948 0.2438013 0.4991772
0.2673858 0.2505868 0.4991346
0.3965489 0.2648416 0.4994416
0.4972126 0.2721374 0.4995537
0.5870044 0.2795445 0.5086680
0.6511158 0.2871364 0.5088319
0.7103313 0.2948549 0.5089958
0.0591981 0.3624461 0.5034963
0.1750750 0.3707539 0.5032866
0.3032270 0.3792988 0.5122601
0.4173817 0.3880449 0.5123349
0.5187294 0.3969029 0.5124447
0.5969892 0.3967563 0.5213093
0.6705773 0.4057190 0.5214539
0.7187622 0.4147614 0.5216311
0.0842321 0.4716593 0.5154594
0.2017949 0.4806731 0.5153294
0.3319645 0.4803805 0.5240534
0.4500817 0.4896221 0.5241266
0.5405124 0.4989276 0.5242519
0.6178487 0.4988127 0.5241349
0.6798527 0.5081178 0.5332632
0.7272897 0.5080352 0.5331799
0.1106086 0.5560402 0.5266501
0.2318279 0.5557017 0.5263103
0.3622227 0.5647207 0.5352960
0.4720678 0.5738102 0.5353851
0.5623930 0.5736814 0.5352514
0.6278973 0.5827931 0.5354089
0.6891876 0.5826578 0.5442570
0.7357189 0.5917343 0.5444310
0.1390167 0.6198422 0.5373171
0.2649548 0.6284199 0.5372684
0.3829218 0.6282310 0.5370649
0.4942041 0.6368289 0.5460973
0.5841349 0.6367071 0.5459640
0.6484836 0.6366159 0.5458644
0.7079391 0.6452320 0.5460212
0.7441535 0.6451347 0.5548742
0.1674096 0.6799082 0.5479710
0.2917938 0.6796707 0.5476998
0.4151229 0.6794955 0.5474973
0.5163999 0.6875361 0.5565172
0.5947255 0.6874373 0.5564011
0.6583908 0.6873527 0.5563019
0.7169062 0.6953880 0.5564588
0.7524132 0.6952977 0.5652758
0.0229991 0.0285779 0.5456659
0.1008931 0.0340899 0.5463784
0.2208239 0.0392877 0.5470869
0.3474469 0.0452665 0.5479130
0.4670887 0.0521289 0.5487919
0.5573217 0.0579070 0.5583644
0.6335636 0.0642933 0.5590426
0.6941931 0.0712841 0.5597315
0.0267715 0.0941439 0.5546038
0.1214226 0.1039512 0.5547725
0.2516059 0.1110273 0.5549649
0.3768899 0.1225429 0.5644263
0.4877743 0.1308049 0.5647879
0.5665579 0.1395892 0.5652018
0.6422988 0.1488722 0.5656157
0.7022558 0.1586566 0.5748140
0.0449273 0.2369723 0.5709342
0.1515435 0.2435469 0.5706864
0.2763502 0.2503402 0.5706611
0.3966648 0.2573287 0.5707204
0.5085808 0.2718464 0.5798182
0.5870503 0.2792928 0.5799621
0.6614238 0.2868674 0.5801060
0.7103701 0.2945946 0.5802829
0.0667225 0.3620725 0.5836420
0.1816092 0.3704075 0.5834693
0.3129109 0.3789864 0.5834582
0.4285155 0.3877300 0.5835315
0.5300809 0.3965854 0.5836390
0.6078998 0.3964393 0.5921654
0.6706190 0.4054151 0.5923221
0.7187999 0.4144552 0.5924944
0.0911865 0.4713090 0.5865647
0.2091394 0.4803000 0.5950776
0.3421400 0.4800474 0.5948298
0.4501282 0.4893050 0.5949177
0.5518824 0.4891573 0.5947710
0.6178933 0.4984954 0.5949256
0.6798939 0.5078009 0.6036502
0.7273269 0.5077184 0.6035697
0.1194919 0.5556918 0.5973316
0.2399579 0.5553703 0.5970184
0.3727997 0.5643916 0.6055948
0.4721873 0.5642445 0.6054484
0.5624397 0.5733700 0.6055681
0.6385652 0.5732574 0.6054555
0.6989056 0.5823709 0.6056076
0.7445807 0.5822520 0.6140246
0.1499675 0.6195087 0.6075257
0.2738660 0.6281057 0.6074954
0.3937299 0.6279169 0.6072995
0.4942454 0.6365703 0.6074014
0.5841806 0.6364121 0.6157570
0.6485268 0.6363208 0.6156615
0.7079781 0.6449398 0.6158119
0.7527714 0.6448641 0.6157325
0.1801737 0.6796001 0.6176468
0.3012610 0.6793774 0.6174034
0.4262388 0.6792025 0.6172096
0.5164409 0.6872957 0.6173272
0.6056498 0.6871829 0.6171997
0.6685966 0.6870639 0.6255116
0.7169442 0.6951174 0.6256771
0.7608452 0.6950470 0.6255985
0.0317224 0.0379739 0.6085740
0.1089071 0.0421849 0.6088493
0.2363661 0.0485704 0.6095334
0.3575043 0.0539690 0.6100909
0.4667572 0.0620717 0.6194103
0.5681673 0.0688426 0.6200244
0.6333194 0.0737242 0.6204332
0.6939688 0.0816641 0.6210933
0.0355529 0.0940151 0.6151593
0.1311304 0.1004042 0.6151446
0.2602111 0.1109014 0.6240197
0.3876955 0.1184433 0.6243161
0.4878152 0.1306837 0.6249306
0.5777266 0.1394542 0.6253110
0.6423365 0.1487370 0.6257229
0.7022899 0.1585141 0.6344657
0.0506967 0.2299365 0.6305053
0.1633097 0.2433240 0.6305345
0.2855004 0.2501257 0.6305265
0.4076101 0.2571103 0.6305832
0.5086215 0.2716326 0.6392246
0.5980790 0.2790624 0.6393456
0.6614605 0.2866459 0.6394982
0.7104038 0.2943697 0.6396661
0.0751363 0.3617746 0.6428062
0.1883436 0.3701377 0.6426730
0.3227637 0.3787142 0.6426628
0.4397250 0.3874556 0.6427323
0.5301217 0.3963242 0.6428502
0.6079333 0.3962153 0.6427417
0.6706553 0.4051518 0.6510640
0.7279477 0.4141741 0.6512117
0.0986596 0.4710015 0.6455900
0.2244343 0.4706278 0.6452452
0.3524659 0.4797569 0.6534137
0.4614637 0.4890139 0.6534969
0.5519229 0.4888828 0.6533743
0.6285969 0.4982043 0.6535047
0.6897616 0.5075489 0.6536508
0.7362986 0.5074662 0.6535745
0.1290324 0.5553857 0.6557555
0.2567773 0.5550644 0.6554605
0.3728320 0.5641590 0.6555099
0.4835663 0.5639955 0.6553560
0.5736317 0.5730837 0.6635109
0.6386033 0.5729872 0.6634206
0.6989402 0.5821021 0.6635634
0.7446074 0.5820216 0.6634881
0.1557157 0.6192689 0.6573243
0.2829642 0.6278312 0.6653165
0.4046462 0.6276428 0.6651336
0.5055994 0.6362988 0.6652291
0.5952257 0.6361769 0.6651089
0.6588587 0.6360857 0.6650188
0.7080121 0.6446860 0.6730433
0.7528018 0.6446100 0.6729691
0.1869060 0.6710654 0.6666597
0.3108984 0.6791553 0.6666619
0.4262728 0.6789950 0.6664945
0.5277893 0.6870427 0.6744414
0.6056889 0.6869439 0.6743376
0.6686280 0.6868593 0.6742488
0.7169727 0.6949155 0.6744044
0.7608706 0.6948451 0.6743303
0.0403609 0.0469557 0.6594350
0.1174825 0.0521365 0.6597556
0.2443242 0.0578870 0.6601753
0.3676917 0.0642544 0.6607016
0.4778530 0.0712212 0.6690512
0.5679042 0.0789060 0.6696434
0.6435647 0.0844412 0.6700133
0.6937385 0.0934608 0.6706515
0.0435111 0.0939110 0.6642228
0.1415463 0.1003113 0.6642528
0.2690032 0.1108066 0.6724421
0.3877281 0.1183491 0.6727362
0.4992329 0.1263540 0.6730617
0.5778356 0.1348751 0.6734344
0.6528188 0.1438915 0.6738073
0.7023788 0.1534294 0.6742096
0.0571582 0.2297397 0.6785095
0.1694773 0.2431434 0.6785660
0.2948333 0.2499418 0.6785586
0.4186509 0.2569232 0.6786122
0.5200461 0.2640450 0.6862897
0.5981123 0.2788784 0.6866477
0.6614917 0.2864591 0.6867905
0.7197090 0.2941664 0.6869331
0.0812843 0.3615665 0.6823200
0.2024285 0.3698916 0.6897281
0.3227932 0.3784974 0.6897482
0.4397592 0.3872367 0.6898136
0.5415119 0.3870979 0.6896828
0.6187320 0.3959793 0.6898081
0.6806635 0.4049511 0.6899478
0.7279750 0.4139509 0.6975353
0.1066808 0.4707363 0.6924520
0.2323697 0.4703797 0.6921448
0.3524919 0.4795643 0.6921781
0.4728363 0.4888045 0.6922419
0.5631617 0.4886354 0.6995337
0.6286293 0.4979731 0.6996695
0.6897913 0.5073174 0.6998053
0.7363255 0.5072349 0.6997345
0.1340913 0.5551392 0.7017469
0.2654920 0.5548183 0.7014730
0.3835123 0.5639140 0.7015195
0.4949013 0.5637508 0.7013767
0.5736598 0.5728949 0.7014965
0.6490573 0.5727820 0.7013977
0.6989642 0.5819143 0.7015461
0.7446337 0.5817961 0.7087558
0.1677451 0.6190166 0.7031904
0.2922410 0.6276343 0.7031784
0.4156547 0.6274461 0.7030066
0.5170233 0.6272706 0.7101394
0.5952591 0.6359618 0.7102571
0.6588899 0.6358704 0.7101739
0.7173574 0.6444940 0.7103055
0.7528231 0.6444331 0.7102501
0.1938185 0.6708446 0.7116778
0.3207103 0.6789375 0.7116802
0.4374609 0.6787774 0.7115257
0.5391051 0.6868621 0.7116147
0.6165035 0.6867634 0.7115177
0.6786673 0.6866784 0.7114346
0.7261510 0.6947042 0.7187169
0.7608956 0.6946479 0.7186624
