Plugins/FilmEmulator/Content/LUTs/FE_Fuji_FP100C_64.cube
TITLE "FE_Fuji_FP100C_33"
LUT_3D_SIZE 8
0.0119323 0.0053222 0.0073772
0.1339046 0.0081000 0.0080278
0.3234544 0.0176475 0.0092319
0.4596171 0.0365054 0.0141245
0.5674652 0.0666315 0.0223239
0.6525679 0.1102723 0.0345243
0.7174383 0.1587211 0.0502544
0.7550793 0.2048199 0.0703126
0.0076499 0.1168132 0.0104195
0.2928598 0.2348142 0.0036391
0.5685393 0.3062033 0.0003861
0.7254270 0.3575447 0.0072815
0.8185459 0.4034697 0.0228246
0.8747643 0.4470255 0.0420246
0.9085654 0.4849828 0.0650021
0.9206229 0.5211087 0.0902532
0.0136147 0.2708381 0.0272344
0.3806725 0.4459258 0.0225381
0.6621666 0.5283751 0.0253378
0.8169025 0.5747958 0.0324674
0.9033729 0.6074606 0.0443215
0.9502099 0.6365640 0.0627242
0.9714568 0.6612800 0.0890690
0.9722490 0.6817673 0.1198781
0.0386525 0.3922072 0.0652294
0.4349581 0.5724338 0.0686221
0.7011049 0.6474710 0.0760052
0.8477921 0.6890368 0.0881020
0.9261495 0.7138960 0.1010895
0.9663830 0.7337711 0.1199578
0.9859578 0.7500644 0.1381409
0.9866793 0.7640174 0.1599533
0.0751122 0.4865745 0.1158464
0.4760191 0.6552726 0.1285759
0.7218376 0.7238929 0.1422465
0.8571694 0.7603596 0.1593353
0.9285045 0.7825590 0.1758163
0.9674364 0.7980689 0.1943511
0.9820033 0.8077729 0.2093802
0.9820044 0.8153396 0.2284414
0.1204089 0.5615780 0.1824027
0.5113326 0.7114605 0.1997456
0.7343109 0.7709005 0.2122942
0.8593883 0.8042400 0.2297162
0.9258786 0.8236709 0.2469139
0.9628370 0.8368652 0.2624470
0.9733924 0.8455426 0.2814966
0.9741395 0.8515427 0.2976421
0.1668684 0.6217083 0.2470270
0.5422494 0.7539390 0.2649381
0.7467885 0.8077685 0.2829375
0.8628467 0.8364559 0.2983250
0.9232168 0.8530445 0.3144946
0.9559619 0.8640214 0.3307194
0.9638529 0.8700722 0.3473940
0.9649585 0.8740343 0.3615136
0.2163585 0.6685950 0.3097458
0.5718437 0.7847577 0.3306559
0.7573949 0.8315288 0.3475671
0.8633870 0.8564605 0.3616075
0.9191188 0.8705831 0.3760470
0.9492796 0.8798605 0.3909403
0.9544719 0.8844287 0.4058686
0.9556654 0.8881995 0.4207314
0.0149005 0.0042298 0.1434944
0.1713432 0.0081751 0.1947798
0.3496306 0.0153121 0.2261919
0.4778928 0.0386106 0.2607163
0.5739995 0.0736354 0.2935917
0.6463568 0.1212979 0.3256627
0.7010789 0.1746366 0.3546138
0.7339975 0.2269236 0.3777807
0.0000000 0.1902198 0.3007135
0.2761248 0.3128689 0.3673006
0.5341191 0.3861891 0.3965072
0.6805666 0.4373067 0.4149272
0.7681490 0.4810141 0.4312662
0.8188614 0.5198347 0.4494016
0.8511363 0.5573580 0.4648190
0.8622886 0.5876258 0.4793392
0.0000000 0.3978331 0.3912593
0.3379625 0.5638198 0.4483534
0.5999510 0.6377398 0.4710325
0.7465765 0.6813504 0.4875908
0.8277490 0.7126954 0.5025938
0.8731174 0.7352852 0.5167812
0.8960059 0.7534012 0.5302516
0.9012921 0.7679987 0.5405939
0.0000000 0.5265691 0.4586669
0.3907091 0.6910197 0.5076171
0.6361564 0.7570921 0.5288015
0.7745191 0.7932608 0.5419865
0.8499352 0.8147674 0.5561243
0.8910198 0.8297584 0.5662020
0.9090840 0.8421578 0.5790886
0.9128680 0.8515705 0.5886122
0.0472770 0.6144511 0.5151067
0.4379838 0.7637944 0.5555291
0.6619046 0.8221179 0.5755672
0.7919953 0.8526372 0.5879548
0.8604902 0.8702399 0.6012322
0.8993525 0.8815553 0.6110934
0.9123843 0.8881655 0.6205175
0.9151422 0.8929918 0.6298029
0.1018687 0.6716931 0.5625938
0.4771287 0.8045373 0.5992173
0.6842717 0.8566886 0.6158398
0.8030114 0.8848544 0.6282811
0.8661330 0.9002606 0.6390722
0.9020849 0.9100944 0.6492888
0.9120623 0.9157771 0.6591859
0.9144528 0.9195647 0.6690073
0.1575615 0.7178548 0.6036304
0.5155501 0.8356457 0.6374533
0.7034888 0.8818570 0.6540524
0.8117394 0.9064008 0.6669169
0.8696032 0.9200044 0.6782637
0.9025600 0.9286033 0.6888435
0.9091064 0.9319116 0.6985735
0.9115576 0.9343241 0.7083058
0.2125336 0.7529947 0.6450911
0.5472457 0.8557924 0.6767089
0.7205416 0.8967862 0.6930255
0.8187166 0.9183398 0.7057911
0.8719624 0.9296578 0.7138422
0.9002429 0.9365887 0.7238513
0.9056325 0.9388510 0.7300114
0.9083818 0.9410476 0.7391642
0.0271763 0.0081013 0.2957885
0.2138545 0.0175648 0.3804069
0.3899403 0.0287048 0.4225907
0.5005088 0.0443667 0.4537755
0.5797009 0.0717287 0.4900198
0.6470914 0.1232506 0.5343537
0.6962014 0.1798982 0.5738342
0.7248504 0.2352012 0.6038378
0.0000000 0.2262995 0.5240875
0.2994130 0.3410909 0.6130399
0.5329629 0.4091214 0.6505386
0.6704507 0.4630960 0.6729797
0.7520018 0.5077584 0.6924870
0.7998809 0.5470595 0.7068923
0.8266147 0.5823190 0.7222713
0.8369300 0.6159824 0.7338212
0.0000000 0.4583998 0.6352366
0.3544682 0.6090506 0.7064226
0.5913057 0.6759836 0.7343562
0.7270348 0.7172076 0.7492964
0.8036086 0.7473953 0.7604092
0.8466276 0.7693457 0.7720442
0.8660691 0.7862898 0.7800114
0.8714465 0.8006887 0.7874045
0.0204694 0.5911189 0.6957919
0.4030525 0.7369579 0.7560908
0.6246611 0.7961978 0.7769238
0.7545153 0.8300480 0.7897013
0.8255891 0.8495746 0.7983131
0.8643051 0.8636165 0.8055617
0.8794892 0.8744663 0.8120251
0.8833263 0.8837218 0.8205434
0.0725762 0.6763421 0.7398582
0.4455417 0.8079427 0.7879524
0.6523535 0.8596646 0.8058569
0.7734182 0.8877990 0.8193123
0.8369558 0.9032213 0.8271756
0.8735954 0.9133750 0.8335745
0.8843117 0.9187989 0.8389628
0.8875993 0.9229321 0.8440961
0.1280271 0.7273392 0.7737655
0.4862240 0.8456056 0.8154067
0.6773410 0.8921020 0.8315620
0.7861655 0.9172648 0.8416678
0.8447633 0.9309502 0.8490570
0.8785119 0.9395041 0.8551924
0.8859236 0.9431600 0.8596355
0.8896752 0.9464504 0.8620604
0.1839709 0.7680070 0.8017046
0.5214868 0.8725154 0.8379723
0.6984899 0.9143263 0.8522719
0.7977852 0.9355131 0.8590609
0.8515273 0.9472359 0.8654269
0.8806695 0.9540954 0.8707035
0.8863742 0.9560661 0.8749655
0.8897508 0.9577100 0.8786925
0.2449459 0.7987403 0.8238370
0.5518005 0.8874671 0.8541899
0.7152615 0.9246399 0.8674762
0.8071760 0.9436244 0.8753636
0.8555666 0.9534201 0.8805367
0.8815614 0.9586158 0.8831716
0.8857936 0.9601337 0.8864507
0.8895599 0.9614696 0.8897085
0.0455618 0.0198762 0.4144599
0.2559684 0.0352366 0.5026085
0.4283352 0.0536430 0.5499241
0.5355799 0.0753102 0.5832207
0.6078095 0.1027425 0.6145208
0.6550206 0.1333981 0.6414236
0.6943398 0.1800300 0.6751890
0.7210603 0.2364734 0.7080613
0.0184416 0.2470002 0.6446615
0.3306147 0.3525321 0.7333108
0.5454512 0.4199826 0.7706113
0.6740316 0.4708738 0.7928321
0.7487499 0.5149176 0.8082152
0.7945161 0.5572959 0.8222804
0.8175275 0.5922292 0.8332887
0.8276027 0.6261083 0.8422511
0.0235545 0.4981977 0.7577150
0.3827833 0.6286445 0.8246189
0.6024919 0.6924278 0.8491060
0.7292603 0.7316676 0.8614837
0.7985586 0.7585689 0.8703809
0.8393947 0.7817258 0.8774080
0.8556814 0.7978504 0.8814946
0.8607438 0.8101528 0.8855774
0.0628560 0.6307224 0.8070184
0.4300581 0.7592413 0.8613023
0.6368650 0.8132183 0.8790178
0.7549713 0.8429049 0.8888690
0.8194475 0.8620146 0.8943144
0.8568977 0.8755106 0.8991028
0.8694454 0.8854656 0.9018607
0.8738980 0.8941367 0.9052093
0.1161861 0.7123716 0.8365732
0.4730935 0.8285837 0.8810859
0.6636057 0.8754697 0.8957537
0.7728931 0.9002164 0.9041450
0.8323249 0.9142817 0.9083979
0.8667921 0.9236522 0.9122288
0.8756045 0.9282207 0.9139592
0.8794383 0.9320531 0.9163735
0.1744136 0.7597650 0.8563410
0.5102454 0.8637589 0.8937439
0.6870712 0.9054825 0.9064817
0.7870516 0.9275935 0.9139087
0.8416419 0.9405950 0.9178342
0.8724110 0.9481941 0.9213122
0.8785660 0.9511846 0.9227569
0.8825616 0.9544901 0.9249594
0.2350854 0.7982088 0.8728447
0.5420992 0.8877956 0.9039301
0.7086397 0.9260279 0.9154533
0.7989790 0.9452018 0.9219819
0.8495155 0.9558088 0.9253550
0.8751850 0.9615531 0.9274817
0.8800999 0.9630243 0.9294103
0.8841899 0.9643926 0.9304973
0.2933295 0.8247474 0.8859258
0.5703951 0.9006450 0.9109350
0.7256008 0.9350021 0.9220529
0.8093551 0.9517946 0.9272120
0.8541592 0.9606638 0.9310259
0.8767514 0.9651225 0.9329151
0.8804834 0.9662064 0.9339105
0.8850065 0.9674201 0.9355170
0.0691083 0.0386034 0.4892246
0.2965303 0.0628272 0.5736100
0.4616275 0.0864187 0.6169606
0.5684371 0.1165540 0.6527208
0.6368103 0.1487893 0.6813961
0.6813269 0.1802358 0.7045988
0.7088798 0.2143339 0.7259635
0.7222255 0.2418048 0.7413247
0.0597526 0.2610946 0.6927627
0.3662991 0.3576214 0.7726451
0.5634358 0.4220979 0.8070914
0.6825423 0.4745173 0.8288480
0.7525511 0.5183165 0.8448527
0.7949448 0.5575211 0.8571208
0.8145618 0.5920827 0.8669124
0.8244832 0.6260543 0.8758479
0.0716240 0.5219345 0.8048989
0.4201983 0.6412295 0.8641948
0.6195769 0.6996469 0.8856820
0.7374908 0.7372063 0.8974774
0.8011768 0.7631223 0.9051976
0.8390303 0.7835994 0.9103630
0.8524131 0.7995149 0.9140198
0.8579417 0.8136604 0.9171284
0.1142892 0.6580730 0.8499745
0.4646617 0.7721614 0.8969748
0.6522239 0.8207349 0.9129106
0.7630827 0.8486428 0.9211617
0.8220705 0.8654686 0.9262437
0.8569932 0.8796420 0.9297826
0.8665000 0.8890501 0.9319636
0.8711917 0.8975919 0.9338909
0.1675063 0.7379357 0.8750630
0.5031928 0.8403933 0.9133866
0.6790172 0.8829437 0.9266441
0.7812628 0.9058632 0.9333414
0.8355787 0.9188749 0.9370297
0.8659761 0.9273452 0.9395342
0.8728375 0.9314898 0.9405639
0.8770649 0.9351829 0.9414690
0.2265118 0.7832946 0.8903990
0.5357748 0.8733183 0.9221610
0.7020754 0.9124526 0.9337792
0.7947607 0.9326924 0.9394082
0.8453924 0.9448138 0.9425887
0.8711581 0.9512730 0.9443299
0.8764321 0.9540169 0.9450988
0.8807619 0.9565945 0.9458227
0.2846757 0.8187674 0.9021022
0.5649195 0.8966570 0.9280465
0.7208256 0.9318233 0.9383270
0.8068103 0.9497610 0.9433104
0.8518102 0.9592376 0.9461708
0.8745596 0.9643544 0.9476082
0.8783685 0.9654105 0.9480193
0.8830776 0.9667978 0.9484957
0.3413818 0.8429550 0.9107843
0.5934201 0.9089935 0.9321729
0.7364574 0.9399531 0.9411280
0.8147741 0.9554555 0.9454362
0.8581187 0.9637960 0.9477512
0.8755847 0.9672137 0.9487791
0.8791548 0.9681810 0.9491721
0.8843653 0.9693462 0.9496250
0.1000119 0.0646883 0.5489770
0.3379707 0.0974156 0.6256745
0.4957876 0.1290329 0.6671947
0.5991375 0.1629104 0.6986350
0.6619121 0.1951057 0.7223794
0.7031547 0.2264179 0.7419957
0.7249071 0.2557641 0.7579859
0.7378570 0.2857736 0.7726696
0.1031206 0.2712986 0.7166420
0.4013386 0.3630039 0.7878286
0.5810128 0.4248332 0.8197371
0.6919034 0.4736332 0.8398057
0.7568277 0.5167744 0.8548404
0.7973328 0.5586649 0.8675478
0.8143964 0.5929685 0.8769107
0.8240077 0.6269224 0.8855242
0.1221119 0.5421928 0.8266322
0.4558737 0.6499016 0.8780325
0.6392492 0.7020199 0.8968617
0.7456212 0.7374218 0.9075202
0.8064612 0.7650231 0.9147161
0.8415620 0.7850653 0.9195608
0.8518485 0.8005018 0.9228708
0.8575987 0.8146729 0.9257917
0.1662525 0.6791146 0.8680083
0.4969180 0.7808133 0.9086143
0.6724929 0.8243819 0.9228010
0.7736817 0.8516834 0.9304757
0.8263646 0.8672731 0.9345631
0.8582348 0.8793553 0.9374850
0.8657659 0.8883930 0.9393517
0.8707013 0.8970461 0.9411412
0.2239380 0.7594457 0.8910705
0.5310051 0.8480781 0.9232756
0.6964034 0.8867376 0.9351802
0.7892510 0.9084006 0.9412711
0.8400300 0.9207001 0.9446384
0.8671319 0.9285384 0.9467252
0.8724059 0.9323717 0.9474328
0.8770480 0.9361470 0.9484116
0.2813115 0.8027143 0.9043555
0.5632452 0.8807811 0.9311390
0.7185395 0.9167755 0.9415529
0.8027573 0.9351923 0.9467413
0.8493360 0.9465287 0.9497794
0.8721141 0.9524465 0.9514387
0.8761008 0.9549676 0.9522002
0.8809642 0.9576495 0.9530023
0.3339485 0.8352423 0.9142734
0.5895699 0.9034010 0.9366710
0.7352383 0.9357780 0.9461840
0.8135392 0.9520741 0.9507929
0.8557348 0.9609605 0.9533172
0.8744277 0.9650667 0.9546041
0.8780248 0.9663772 0.9551814
0.8829057 0.9678181 0.9558240
0.3854132 0.8569174 0.9218506
0.6177127 0.9155343 0.9406877
0.7485318 0.9434271 0.9488989
0.8212442 0.9577417 0.9530616
0.8613327 0.9654638 0.9553834
0.8752320 0.9682474 0.9564064
0.8787224 0.9691252 0.9569383
0.8841596 0.9704022 0.9572346
0.1331552 0.0988935 0.6013380
0.3773012 0.1413835 0.6717911
0.5289850 0.1758018 0.7078104
0.6255008 0.2097700 0.7343197
0.6834865 0.2406518 0.7538994
0.7214416 0.2702212 0.7703986
0.7397953 0.2989022 0.7844403
0.7518923 0.3287230 0.7977649
0.1453461 0.2810550 0.7334833
0.4328471 0.3648044 0.7965761
0.5987215 0.4246482 0.8269703
0.7012104 0.4723897 0.8463318
0.7608689 0.5177457 0.8619412
0.7993612 0.5565515 0.8739789
0.8141404 0.5935934 0.8841911
0.8233081 0.6245166 0.8922625
0.1707643 0.5591202 0.8428106
0.4869769 0.6545477 0.8875088
0.6565114 0.7057979 0.9055501
0.7559917 0.7399451 0.9158704
0.8106937 0.7666038 0.9229214
0.8430191 0.7862556 0.9278229
0.8514956 0.8014116 0.9308689
0.8571197 0.8156000 0.9339729
0.2205586 0.6973452 0.8837355
0.5242004 0.7864632 0.9186075
0.6896249 0.8286939 0.9318922
0.7814862 0.8541455 0.9391662
0.8319597 0.8693376 0.9433191
0.8592298 0.8806605 0.9461972
0.8651423 0.8894586 0.9481665
0.8701302 0.8981457 0.9500823
0.2781455 0.7777718 0.9060653
0.5580691 0.8555050 0.9338123
0.7124762 0.8911578 0.9449297
0.7986535 0.9106346 0.9506152
0.8439197 0.9225982 0.9535421
0.8676034 0.9298366 0.9555575
0.8718480 0.9335454 0.9566033
0.8765600 0.9366161 0.9575548
0.3299649 0.8190798 0.9182222
0.5875683 0.8875970 0.9414902
0.7304624 0.9204714 0.9513561
0.8092059 0.9377181 0.9563335
0.8528845 0.9478451 0.9591836
0.8715691 0.9536698 0.9607797
0.8755431 0.9561481 0.9612432
0.8805938 0.9588674 0.9620759
0.3809287 0.8504339 0.9280180
0.6135873 0.9101986 0.9474809
0.7470734 0.9394590 0.9558351
0.8184912 0.9543135 0.9601046
0.8590417 0.9628689 0.9625830
0.8739023 0.9662743 0.9637143
0.8774523 0.9675766 0.9642973
0.8829161 0.9690750 0.9646329
0.4286241 0.8702412 0.9346191
0.6389121 0.9215713 0.9510303
0.7600883 0.9470502 0.9585924
0.8267556 0.9600453 0.9621099
0.8639258 0.9671965 0.9642873
0.8748531 0.9694316 0.9651592
0.8782653 0.9702925 0.9656717
0.8846379 0.9717386 0.9660163
0.1686247 0.1387468 0.6503466
0.4156915 0.1849617 0.7114564
0.5582466 0.2205175 0.7426294
0.6481519 0.2525854 0.7646815
0.7026259 0.2844055 0.7825003
0.7383410 0.3148077 0.7976715
0.7532336 0.3422988 0.8097190
0.7638767 0.3693469 0.8205358
0.1880589 0.2875850 0.7484107
0.4600962 0.3659008 0.8053388
0.6139075 0.4241507 0.8342175
0.7107574 0.4739000 0.8542694
0.7654873 0.5159472 0.8685324
0.8005112 0.5572551 0.8809380
0.8133245 0.5911037 0.8900784
0.8233048 0.6251174 0.8986664
0.2243688 0.5733863 0.8581837
0.5133693 0.6604277 0.8968550
0.6734169 0.7093893 0.9135834
0.7639300 0.7419416 0.9229621
0.8147842 0.7657985 0.9289972
0.8438451 0.7870770 0.9337717
0.8512421 0.8020823 0.9367882
0.8568682 0.8144228 0.9391621
0.2736649 0.7146947 0.8970606
0.5510284 0.7930330 0.9265518
0.7057590 0.8324893 0.9388316
0.7895005 0.8550034 0.9449590
0.8362116 0.8707358 0.9487222
0.8601643 0.8814498 0.9510758
0.8651521 0.8900424 0.9525824
0.8707168 0.8987760 0.9541069
0.3266956 0.7932561 0.9167426
0.5827361 0.8616869 0.9403636
0.7273456 0.8946763 0.9501987
0.8056811 0.9124753 0.9549841
0.8492371 0.9233295 0.9576446
0.8679285 0.9296613 0.9590499
0.8718868 0.9332569 0.9596393
0.8772937 0.9371182 0.9602962
0.3772170 0.8327280 0.9268484
0.6094317 0.8929830 0.9465287
0.7429852 0.9227346 0.9550878
0.8164136 0.9394456 0.9594059
0.8569809 0.9489210 0.9617562
0.8720809 0.9540413 0.9627936
0.8758298 0.9564697 0.9631784
0.8814675 0.9592398 0.9636516
0.4250833 0.8630246 0.9344914
0.6355755 0.9153486 0.9508905
0.7594776 0.9421955 0.9584286
0.8248549 0.9557304 0.9619573
0.8624865 0.9633474 0.9639140
0.8743450 0.9664721 0.9645619
0.8779851 0.9677357 0.9647595
0.8843840 0.9694020 0.9651389
0.4681975 0.8808988 0.9392497
0.6614116 0.9265808 0.9532772
0.7720903 0.9494234 0.9596692
0.8319830 0.9610903 0.9628077
0.8666468 0.9676167 0.9644518
0.8752683 0.9694582 0.9648359
0.8789399 0.9703197 0.9650394
0.8858936 0.9718611 0.9653412
