Plugins/FilmEmulator/Content/LUTs/FE_Fuji_Natura_1600_64.cube
TITLE "FE_Fuji_Natura_1600_33"
LUT_3D_SIZE 8
0.0036603 0.0023497 0.0047951
0.0562842 0.0035571 0.0052074
0.2048632 0.0072239 0.0069115
0.3865522 0.0132329 0.0091610
0.5497208 0.0216969 0.0119177
0.6715236 0.0326191 0.0152776
0.7558428 0.0473727 0.0192226
0.8174645 0.0606407 0.0237790
0.0049448 0.0755304 0.0068072
0.0683555 0.0919422 0.0083871
0.2126472 0.1118720 0.0103642
0.3902982 0.1305390 0.0132742
0.5438276 0.1518922 0.0169867
0.6682967 0.1761265 0.0207218
0.7549757 0.1962567 0.0255984
0.8175650 0.2181717 0.0309009
0.0083782 0.2448161 0.0109058
0.0853429 0.2607296 0.0130545
0.2410346 0.2870698 0.0158016
0.4186283 0.3056250 0.0184797
0.5608224 0.3350612 0.0225057
0.6842543 0.3553998 0.0270877
0.7589175 0.3763855 0.0327406
0.8210606 0.3979287 0.0387673
0.0135380 0.4236448 0.0165170
0.1035706 0.4450323 0.0199153
0.2650926 0.4557892 0.0228778
0.4380638 0.4783517 0.0267038
0.5809273 0.5011591 0.0302521
0.6909268 0.5124872 0.0344439
0.7645630 0.5354857 0.0407746
0.8256633 0.5583730 0.0468399
0.0214339 0.5730497 0.0239465
0.1262310 0.5833170 0.0279152
0.2920125 0.5940317 0.0315668
0.4592733 0.6159956 0.0360890
0.6023600 0.6267006 0.0412594
0.6985778 0.6373917 0.0456153
0.7806548 0.6479499 0.0509970
0.8311106 0.6689349 0.0570654
0.0322863 0.6818946 0.0329983
0.1476750 0.6911650 0.0377153
0.3104043 0.7006545 0.0431015
0.4818722 0.7101050 0.0478222
0.6116273 0.7194721 0.0534506
0.7178091 0.7286783 0.0597076
0.7874254 0.7377213 0.0642853
0.8368943 0.7465836 0.0719967
0.0451984 0.7574584 0.0449885
0.1725692 0.7653716 0.0500751
0.3416457 0.7733608 0.0559439
0.5049680 0.7812655 0.0602406
0.6340156 0.7810477 0.0671494
0.7263573 0.7888544 0.0725239
0.7946010 0.7964678 0.0813848
0.8427343 0.8039019 0.0878738
0.0608728 0.8128410 0.0564044
0.2014815 0.8123364 0.0628671
0.3631188 0.8191552 0.0702479
0.5289028 0.8258385 0.0758996
0.6437373 0.8323905 0.0819796
0.7347705 0.8387548 0.0918951
0.8018476 0.8386321 0.0990069
0.8486205 0.8448383 0.1069167
0.0047063 0.0028973 0.0889199
0.0698136 0.0045123 0.0972420
0.2213154 0.0089881 0.1071578
0.3988264 0.0158440 0.1132165
0.5631341 0.0243660 0.1236559
0.6833916 0.0368577 0.1349504
0.7663152 0.0492755 0.1413179
0.8177288 0.0657295 0.1535115
0.0075643 0.0783896 0.1148788
0.0816436 0.0993149 0.1246510
0.2400662 0.1160483 0.1348879
0.4159582 0.1406397 0.1408723
0.5709102 0.1573803 0.1522416
0.6808499 0.1823585 0.1586957
0.7654189 0.2030730 0.1651725
0.8180388 0.2255936 0.1781612
0.0119225 0.2525699 0.1388400
0.0977302 0.2689378 0.1497454
0.2609060 0.2959033 0.1558562
0.4324135 0.3148415 0.1620079
0.5747840 0.3447738 0.1747780
0.6850237 0.3654549 0.1815577
0.7692188 0.3866933 0.1953163
0.8214946 0.4085639 0.2027300
0.0188543 0.4228494 0.1585008
0.1183974 0.4443663 0.1707023
0.2861319 0.4666636 0.1772982
0.4518938 0.4893438 0.1907772
0.5950285 0.5006028 0.1977923
0.7029568 0.5235869 0.2052650
0.7749313 0.5349870 0.2127364
0.8263094 0.5579210 0.2283650
0.0289971 0.5723087 0.1860584
0.1440634 0.5827047 0.1928174
0.3144466 0.6047182 0.2000908
0.4735331 0.6154856 0.2146679
0.6161267 0.6262189 0.2223888
0.7103605 0.6477369 0.2306007
0.7811223 0.6582049 0.2387559
0.8317016 0.6685510 0.2471189
0.0421108 0.6812944 0.2091862
0.1679555 0.6906617 0.2166357
0.3338843 0.7002043 0.2243710
0.4960893 0.7097005 0.2323346
0.6251779 0.7190905 0.2405167
0.7186630 0.7283335 0.2572624
0.7881178 0.7373903 0.2660561
0.8374317 0.7462749 0.2750521
0.0564958 0.7570097 0.2262096
0.1878196 0.7649965 0.2421401
0.3662210 0.7730075 0.2505146
0.5191400 0.7809469 0.2591230
0.6468139 0.7887254 0.2679408
0.7373539 0.7963387 0.2769659
0.7952105 0.7962163 0.2858827
0.8432153 0.8036635 0.2952962
0.0728281 0.8125003 0.2521943
0.2186199 0.8191567 0.2607574
0.3878974 0.8257950 0.2695746
0.5429780 0.8255928 0.2783018
0.6566926 0.8321576 0.2875414
0.7457902 0.8385400 0.2969754
0.8106378 0.8447403 0.3066247
0.8490474 0.8446559 0.3161853
0.0071409 0.0048459 0.2767134
0.0821927 0.0067877 0.2878422
0.2476864 0.0110104 0.3004908
0.4232727 0.0184650 0.3138070
0.5752471 0.0287136 0.3269144
0.6947527 0.0400060 0.3394677
0.7659398 0.0557185 0.3421379
0.8256326 0.0712712 0.3543482
0.0107914 0.0848542 0.3166159
0.0972714 0.1031976 0.3277253
0.2589729 0.1253219 0.3392144
0.4289305 0.1459430 0.3506230
0.5837341 0.1693937 0.3622368
0.6925749 0.1889335 0.3632269
0.7751371 0.2102269 0.3747007
0.8261538 0.2333339 0.3863429
0.0173072 0.2521808 0.3461779
0.1162438 0.2775881 0.3571527
0.2811872 0.3051812 0.3684430
0.4585351 0.3244543 0.3795802
0.6011323 0.3444747 0.3908857
0.6970298 0.3651836 0.3915565
0.7787867 0.3973921 0.4034392
0.8294711 0.4194708 0.4150892
0.0260532 0.4336739 0.3731624
0.1346178 0.4554464 0.3841997
0.3077286 0.4778659 0.3954856
0.4785903 0.4890202 0.4066213
0.6079515 0.5119420 0.4072905
0.7145528 0.5233022 0.4185781
0.7843307 0.5462908 0.4303578
0.8343316 0.5576488 0.4418502
0.0375421 0.5832996 0.3992087
0.1634133 0.5936967 0.4102337
0.3262103 0.6044340 0.4214774
0.4999163 0.6262431 0.4221247
0.6287861 0.6369015 0.4335281
0.7217655 0.6474842 0.4450271
0.7906662 0.6579653 0.4453548
0.8395104 0.6683145 0.4569396
0.0524156 0.6809508 0.4244834
0.1825915 0.6903916 0.4357577
0.3573818 0.7097672 0.4363805
0.5093949 0.7191099 0.4478663
0.6377208 0.7283168 0.4594331
0.7294997 0.7373615 0.4597540
0.7971516 0.7462258 0.4713973
0.8447929 0.7549146 0.4830887
0.0675292 0.7567437 0.4386225
0.2123127 0.7647632 0.4500031
0.3788311 0.7728202 0.4615316
0.5328144 0.7807642 0.4731422
0.6593672 0.7885547 0.4734487
0.7480466 0.7961721 0.4851303
0.8040198 0.8036218 0.4968535
0.8503498 0.8108720 0.4971925
0.0869738 0.8122856 0.4637668
0.2367853 0.8189812 0.4752903
0.4133689 0.8256315 0.4755485
0.5562042 0.8321640 0.4872120
0.6691024 0.8320143 0.4985241
0.7562374 0.8384068 0.4988474
0.8109533 0.8446264 0.5105836
0.8559628 0.8506503 0.5223163
0.0103642 0.0078886 0.4668811
0.0963622 0.0106448 0.4805701
0.2656010 0.0141771 0.4943755
0.4477934 0.0216145 0.4980499
0.5874109 0.0325065 0.5131181
0.7053212 0.0452976 0.5160828
0.7752097 0.0604576 0.5301430
0.8331317 0.0772744 0.5323935
0.0150630 0.0918478 0.5119972
0.1106108 0.1115901 0.5135701
0.2789717 0.1301669 0.5263676
0.4547454 0.1514606 0.5277840
0.5965910 0.1756479 0.5406473
0.7039253 0.1957468 0.5531009
0.7751530 0.2176537 0.5541900
0.8338641 0.2413252 0.5665970
0.0235611 0.2604868 0.5341333
0.1320297 0.2865330 0.5463777
0.3025960 0.3049837 0.5469789
0.4715892 0.3343466 0.5593732
0.6137921 0.3546831 0.5600511
0.7082632 0.3756604 0.5720432
0.7882061 0.3972039 0.5727417
0.8372749 0.4192787 0.5846718
0.0350806 0.4446914 0.5523989
0.1530042 0.4551841 0.5638510
0.3304463 0.4776408 0.5644591
0.4916862 0.5004101 0.5763887
0.6209487 0.5117333 0.5878837
0.7253780 0.5347218 0.5885723
0.7936679 0.5460935 0.5999974
0.8417199 0.5689580 0.6007029
0.0487563 0.5829655 0.5795385
0.1776112 0.5934780 0.5796866
0.3492713 0.6153653 0.5914751
0.5134493 0.6260571 0.5917516
0.6414899 0.6367174 0.6031279
0.7327282 0.6473125 0.6034410
0.7995332 0.6683073 0.6151073
0.8467112 0.6785123 0.6154321
0.0653803 0.6908406 0.5944589
0.2060448 0.7001782 0.5946281
0.3818448 0.7095790 0.6059248
0.5360297 0.7189252 0.6171555
0.6502707 0.7281674 0.6174574
0.7402922 0.7372062 0.6285971
0.8060589 0.7460822 0.6289092
0.8520116 0.7547741 0.6399489
0.0804191 0.7651226 0.6084813
0.2297035 0.7729906 0.6195865
0.4034636 0.7808587 0.6198331
0.5593948 0.7806152 0.6305496
0.6715891 0.7884285 0.6308466
0.7483339 0.7960681 0.6418559
0.8126830 0.8035086 0.6421632
0.8573554 0.8107551 0.6530690
0.1036896 0.8121182 0.6215848
0.2558645 0.8188523 0.6325734
0.4264537 0.8255227 0.6328242
0.5696093 0.8320584 0.6437794
0.6808076 0.8384357 0.6440718
0.7662989 0.8383038 0.6545810
0.8193812 0.8445323 0.6548910
0.8627551 0.8505589 0.6656183
0.0147440 0.0123018 0.6178212
0.1132112 0.0158321 0.6305261
0.2835421 0.0199740 0.6323276
0.4600016 0.0243185 0.6445860
0.6120518 0.0367908 0.6479766
0.7159626 0.0491887 0.6503686
0.7841265 0.0656146 0.6632299
0.8403156 0.0837576 0.6652610
0.0209543 0.0993851 0.6465158
0.1311045 0.1159627 0.6581559
0.2994857 0.1404799 0.6597504
0.4677059 0.1571829 0.6710314
0.6092253 0.1821126 0.6723239
0.7149040 0.2027967 0.6732860
0.7843503 0.2252842 0.6843910
0.8412294 0.2495485 0.6853488
0.0316927 0.2690220 0.6663895
0.1498657 0.2957348 0.6774168
0.3246819 0.3145563 0.6779581
0.4845892 0.3444341 0.6889447
0.6262347 0.3650644 0.6895387
0.7191457 0.3863157 0.6901526
0.7881475 0.4081519 0.7006276
0.8445163 0.4304006 0.7012380
0.0436442 0.4444250 0.6823961
0.1731632 0.4664564 0.6928437
0.3418801 0.4890439 0.6933880
0.5051361 0.5002459 0.7034331
0.6332755 0.5232137 0.7040233
0.7361906 0.5345686 0.7042902
0.7935916 0.5575182 0.7145014
0.8418797 0.5688356 0.7147822
0.0608133 0.5827090 0.6963590
0.2004026 0.6045116 0.7065796
0.3733882 0.6151921 0.7067913
0.5268964 0.6259022 0.7165917
0.6535347 0.6473859 0.7171683
0.7430392 0.6578429 0.7174356
0.8083131 0.6681691 0.7270545
0.8468672 0.6784025 0.7273352
0.0779534 0.6906373 0.7093492
0.2232817 0.7000141 0.7190150
0.3944234 0.7094514 0.7192289
0.5494077 0.7188091 0.7194692
0.6625534 0.7280444 0.7290336
0.7507075 0.7370943 0.7292932
0.8146222 0.7459637 0.7386602
0.8521495 0.7546891 0.7389327
0.0959660 0.7649492 0.7213808
0.2483273 0.7728615 0.7308151
0.4163716 0.7807525 0.7310292
0.5722728 0.7885059 0.7312624
0.6832039 0.7961071 0.7405745
0.7585357 0.7959743 0.7405294
0.8210213 0.8034098 0.7496421
0.8574892 0.8106843 0.7499070
0.1179091 0.8191062 0.7327948
0.2755586 0.8256692 0.7329695
0.4525031 0.8254169 0.7419038
0.5828206 0.8319781 0.7421436
0.6926048 0.8383514 0.7512078
0.7661974 0.8445648 0.7514598
0.8274716 0.8444560 0.7514151
0.8628845 0.8505001 0.7602860
0.0206915 0.0178157 0.7227785
0.1327736 0.0225130 0.7334535
0.3023434 0.0275351 0.7347730
0.4836033 0.0324956 0.7358725
0.6240932 0.0399618 0.7462266
0.7260073 0.0556520 0.7485164
0.7927344 0.0711925 0.7502324
0.8402410 0.0871747 0.7602646
0.0290459 0.1033084 0.7446806
0.1485016 0.1253030 0.7459370
0.3213268 0.1458549 0.7557108
0.4933170 0.1692716 0.7567787
0.6216478 0.1887855 0.7575801
0.7256193 0.2100499 0.7668350
0.7932227 0.2331323 0.7676318
0.8411406 0.2580024 0.7684322
0.0410210 0.2777745 0.7611594
0.1696443 0.3051420 0.7618240
0.3475729 0.3243160 0.7706372
0.5110766 0.3442920 0.7711183
0.6388261 0.3649443 0.7716157
0.7297612 0.3971459 0.7805079
0.7969909 0.4192045 0.7810093
0.8446460 0.4303012 0.7812446
0.0541679 0.4556177 0.7742243
0.1953732 0.4778053 0.7746073
0.3657103 0.4888849 0.7747859
0.5312145 0.5117098 0.7832978
0.6457688 0.5230830 0.7835169
0.7360598 0.5460559 0.7840101
0.8025312 0.5573879 0.7920417
0.8489267 0.5801362 0.7925308
0.0724481 0.5938356 0.7774944
0.2172341 0.6043582 0.7855964
0.3854173 0.6261147 0.7860430
0.5397986 0.6367324 0.7862445
0.6657159 0.6472656 0.7942004
0.7533624 0.6577240 0.7944170
0.8084496 0.6680883 0.7946436
0.8537315 0.6884882 0.8026411
0.0929950 0.6904518 0.7878417
0.2412029 0.7096996 0.7959446
0.4193622 0.7189594 0.7961179
0.5623139 0.7281560 0.7963178
0.6742378 0.7371743 0.8040004
0.7605221 0.7460300 0.8042084
0.8145030 0.7547328 0.8044264
0.8588188 0.7632260 0.8118920
0.1141729 0.7647930 0.7975840
0.2679104 0.7727568 0.7977293
0.4422089 0.7806423 0.8053416
0.5854378 0.7884176 0.8055341
0.6948847 0.7960284 0.8057362
0.7681408 0.8034647 0.8131594
0.8209051 0.8107200 0.8133698
0.8641587 0.8106092 0.8133386
0.1341608 0.8189940 0.8067468
0.2966590 0.8255767 0.8068924
0.4653143 0.8320690 0.8070683
0.5958985 0.8319039 0.8141984
0.7040945 0.8382857 0.8143937
0.7758626 0.8445011 0.8145983
0.8273745 0.8505293 0.8217649
0.8693506 0.8504379 0.8217347
0.0281302 0.0244375 0.7929797
0.1492995 0.0299636 0.8015934
0.3224313 0.0353316 0.8024686
0.4945369 0.0416848 0.8033767
0.6348091 0.0491815 0.8115920
0.7255324 0.0604137 0.8127412
0.8010730 0.0772145 0.8141293
0.8471080 0.0944332 0.8152828
0.0373930 0.1117198 0.8095651
0.1681199 0.1301793 0.8103589
0.3440502 0.1514143 0.8183178
0.5062563 0.1755728 0.8191854
0.6338963 0.1956567 0.8198327
0.7360444 0.2175122 0.8273042
0.8018952 0.2411829 0.8279428
0.8482033 0.2666338 0.8285838
0.0508814 0.2867631 0.8226964
0.1841699 0.3050189 0.8230159
0.3591779 0.3342944 0.8236194
0.5240124 0.3545686 0.8307317
0.6508403 0.3755013 0.8311296
0.7403823 0.3970428 0.8315364
0.8057864 0.4190987 0.8319474
0.8515794 0.4415352 0.8388237
0.0675956 0.4554014 0.8263254
0.2118213 0.4776578 0.8332905
0.3898526 0.5003238 0.8336539
0.5444872 0.5116019 0.8338204
0.6576778 0.5345808 0.8406246
0.7465438 0.5459368 0.8408024
0.8108896 0.5687752 0.8411969
0.8558953 0.5800292 0.8413822
0.0863535 0.5936389 0.8355823
0.2347690 0.6153750 0.8359124
0.4104506 0.6259752 0.8424065
0.5661598 0.6365942 0.8425665
0.6776611 0.6471658 0.8427392
0.7532166 0.6681658 0.8492554
0.8166334 0.6783483 0.8494295
0.8605170 0.6883933 0.8496075
0.1058725 0.7002949 0.8440334
0.2603863 0.7095858 0.8441495
0.4323211 0.7188712 0.8442954
0.5755246 0.7280603 0.8505403
0.6860688 0.7370890 0.8507051
0.7703298 0.7459465 0.8508735
0.8227154 0.7546508 0.8510497
0.8654243 0.7631459 0.8570894
0.1296884 0.7730635 0.8456826
0.2881885 0.7808425 0.8518440
0.4553412 0.7805675 0.8517869
0.5984402 0.7883447 0.8519428
0.7063274 0.7959496 0.8579415
0.7777315 0.8033949 0.8581071
0.8288964 0.8106522 0.8582762
0.8640534 0.8177210 0.8584489
0.1523801 0.8188950 0.8529106
0.3187340 0.8254971 0.8530328
0.4785926 0.8320015 0.8589796
0.6209902 0.8383505 0.8591292
0.7153168 0.8382260 0.8590976
0.7853181 0.8444429 0.8592620
0.8351372 0.8504730 0.8650234
0.8694386 0.8503965 0.8650034
0.0374503 0.0326550 0.8432287
0.1679094 0.0384283 0.8499957
0.3433844 0.0453362 0.8507119
0.5189714 0.0512862 0.8512484
0.6453478 0.0604367 0.8519973
0.7352992 0.0683313 0.8583779
0.8006711 0.0837184 0.8593029
0.8537338 0.1022368 0.8602220
0.0484607 0.1161038 0.8554233
0.1820555 0.1405200 0.8562701
0.3675047 0.1571620 0.8567735
0.5191720 0.1820682 0.8631528
0.6459582 0.2027329 0.8636707
0.7461760 0.2251856 0.8641906
0.8102608 0.2494443 0.8647160
0.8549954 0.2754627 0.8706414
0.0633164 0.2959819 0.8603782
0.2075273 0.3146165 0.8662017
0.3831137 0.3444058 0.8666875
0.5368731 0.3650104 0.8670083
0.6626250 0.3862078 0.8673355
0.7504239 0.4080150 0.8729860
0.8140416 0.4302635 0.8733122
0.8514526 0.4528900 0.8736446
0.0804206 0.4667048 0.8688339
0.2290202 0.4890996 0.8691038
0.4024032 0.5002271 0.8692259
0.5573444 0.5231272 0.8747954
0.6697178 0.5344840 0.8749383
0.7564070 0.5573886 0.8752583
0.8192257 0.5686675 0.8804634
0.8557848 0.5913061 0.8807811
0.1027553 0.6046986 0.8761770
0.2536003 0.6152448 0.8762730
0.4361051 0.6258568 0.8763905
0.5788882 0.6473163 0.8766983
0.6890715 0.6577391 0.8818460
0.7632076 0.6680786 0.8819885
0.8247571 0.6782621 0.8821306
0.8605968 0.6883343 0.8822791
0.1204725 0.7001651 0.8777147
0.2805477 0.7094818 0.8778135
0.4583479 0.7187593 0.8829012
0.5885857 0.7279829 0.8830335
0.6976470 0.7370126 0.8831681
0.7704481 0.7458941 0.8833088
0.8306437 0.7545687 0.8882359
0.8655022 0.7630959 0.8883774
0.1473933 0.7729462 0.8839884
0.3098723 0.7807558 0.8840892
0.4811838 0.7884707 0.8842068
0.6108969 0.7960628 0.8843373
0.7064661 0.7959046 0.8890671
0.7871124 0.8033323 0.8891983
0.8365901 0.8105909 0.8893355
0.8704489 0.8176615 0.8894755
0.1723853 0.8257206 0.8851144
0.3416984 0.8254177 0.8897848
0.5049835 0.8319311 0.8899006
0.6335762 0.8382974 0.8900256
0.7259328 0.8444982 0.8901562
0.7944666 0.8443908 0.8901338
0.8426059 0.8504222 0.8948110
0.8754364 0.8562813 0.8949451
