Plugins/FilmEmulator/Content/LUTs/FE_Fuji_CA_Maxima_64.cube
TITLE "FE_Fuji_CA_Maxima_33"
LUT_3D_SIZE 8
0.1083271 0.1025475 0.0091277
0.3837941 0.1461311 0.0147077
0.9035575 0.2777913 0.0430540
1.0000000 0.3876798 0.0814078
1.0000000 0.4525177 0.1201199
1.0000000 0.4944635 0.1474440
1.0000000 0.5224482 0.1742331
1.0000000 0.5469196 0.2005324
0.1313529 0.5958548 0.1017518
0.4405168 0.6181681 0.1004740
0.8624957 0.6794202 0.1270165
1.0000000 0.7297238 0.1701218
1.0000000 0.7582552 0.2043450
1.0000000 0.7759516 0.2352942
1.0000000 0.7874039 0.2622505
1.0000000 0.7948169 0.2886271
0.2606269 0.9456941 0.3724636
0.5616018 0.9473730 0.3549507
0.8566415 0.9571592 0.3624271
0.9506361 0.9660550 0.3715473
0.9794903 0.9714298 0.3763205
0.9917644 0.9736424 0.3991406
0.9976422 0.9750314 0.4258943
1.0000000 0.9750558 0.4493992
0.3597859 0.9948521 0.6174698
0.6595201 0.9919522 0.5931346
0.8873198 0.9939589 0.5843496
0.9518145 0.9976055 0.5752842
0.9719018 1.0000000 0.5615686
0.9795269 1.0000000 0.5487558
0.9826659 1.0000000 0.5333114
0.9853097 1.0000000 0.5450864
0.4222745 0.9993257 0.7788681
0.7252854 0.9944384 0.7621633
0.9123394 0.9949824 0.7510294
0.9616428 0.9974218 0.7386499
0.9774485 0.9993840 0.7268409
0.9834555 1.0000000 0.7093881
0.9857782 1.0000000 0.6906483
0.9864902 1.0000000 0.6702101
0.4768912 0.9983397 0.8699741
0.7764792 0.9928893 0.8583718
0.9292712 0.9929708 0.8517663
0.9692487 0.9945299 0.8451893
0.9828426 0.9958851 0.8372775
0.9882338 0.9970812 0.8260636
0.9904376 0.9982235 0.8129800
0.9912390 0.9994505 0.7967803
0.5300469 0.9965261 0.9219013
0.8137462 0.9912834 0.9139135
0.9412521 0.9914803 0.9085677
0.9743260 0.9926701 0.9046599
0.9860380 0.9936922 0.8988861
0.9910064 0.9944957 0.8924806
0.9932131 0.9951621 0.8852169
0.9943252 0.9958460 0.8760948
0.5823516 0.9952375 0.9541289
0.8457825 0.9906167 0.9476233
0.9498688 0.9909233 0.9445997
0.9776026 0.9919194 0.9410248
0.9880318 0.9926771 0.9380162
0.9925368 0.9932596 0.9334986
0.9946222 0.9936925 0.9288093
0.9958335 0.9941244 0.9227090
0.1321633 0.1394576 0.6443774
0.6318113 0.2265238 0.6057401
1.0000000 0.3547279 0.5756446
1.0000000 0.4386895 0.5535762
1.0000000 0.4873142 0.5313039
1.0000000 0.5197077 0.5050142
1.0000000 0.5456730 0.4756931
1.0000000 0.5664994 0.4448994
0.2163435 0.6772922 0.7993132
0.6686904 0.7135214 0.7764571
0.9419380 0.7605940 0.7611710
1.0000000 0.7870892 0.7483771
1.0000000 0.8036038 0.7320166
1.0000000 0.8122233 0.7129805
1.0000000 0.8183060 0.6893647
1.0000000 0.8222022 0.6646491
0.3896814 0.9407794 0.8962680
0.7526174 0.9441191 0.8849868
0.9294650 0.9524899 0.8771812
0.9777682 0.9580862 0.8704022
0.9952810 0.9609994 0.8628821
1.0000000 0.9632269 0.8546990
1.0000000 0.9646848 0.8439036
1.0000000 0.9657850 0.8323141
0.5010146 0.9812774 0.9456345
0.8114047 0.9786189 0.9372283
0.9418253 0.9809495 0.9332352
0.9764990 0.9830604 0.9290536
0.9893233 0.9844795 0.9244472
0.9948815 0.9852568 0.9195411
0.9975709 0.9858942 0.9140773
0.9991145 0.9864325 0.9069977
0.5719951 0.9898360 0.9665105
0.8484190 0.9862146 0.9610127
0.9510097 0.9873099 0.9585947
0.9785244 0.9885535 0.9568110
0.9891914 0.9894230 0.9548975
0.9938230 0.9899217 0.9524259
0.9961514 0.9903024 0.9488844
0.9975094 0.9905899 0.9454036
0.6291821 0.9922647 0.9772526
0.8752488 0.9888702 0.9729223
0.9574667 0.9896559 0.9713478
0.9807875 0.9906036 0.9700716
0.9895701 0.9912333 0.9691269
0.9937083 0.9916453 0.9676485
0.9957596 0.9919007 0.9663560
0.9970493 0.9920709 0.9644763
0.6779202 0.9926072 0.9838510
0.8972775 0.9898667 0.9800513
0.9626152 0.9906265 0.9787505
0.9825020 0.9914509 0.9782758
0.9901857 0.9919820 0.9775521
0.9938360 0.9923201 0.9767333
0.9956918 0.9925069 0.9754856
0.9968750 0.9926524 0.9744395
0.7226177 0.9926347 0.9879185
0.9134256 0.9905899 0.9846969
0.9669943 0.9913552 0.9838594
0.9837795 0.9920626 0.9832358
0.9907471 0.9925457 0.9828618
0.9939014 0.9928227 0.9822251
0.9956399 0.9929973 0.9815283
0.9967731 0.9931204 0.9807721
0.2900656 0.2700115 0.9897170
0.8002520 0.3798606 0.9675473
1.0000000 0.4805995 0.9519451
1.0000000 0.5405840 0.9427733
1.0000000 0.5816555 0.9353380
1.0000000 0.6098274 0.9286279
1.0000000 0.6303256 0.9216602
1.0000000 0.6468734 0.9144285
0.4216576 0.7728928 0.9776632
0.8141325 0.8081353 0.9656268
0.9631453 0.8382484 0.9598165
1.0000000 0.8531901 0.9561681
1.0000000 0.8629282 0.9537500
1.0000000 0.8688151 0.9508001
1.0000000 0.8708006 0.9476656
1.0000000 0.8728353 0.9443203
0.5820349 0.9552259 0.9813657
0.8613126 0.9596683 0.9755728
0.9555057 0.9654223 0.9732587
0.9832128 0.9688286 0.9720494
0.9942691 0.9704655 0.9709246
0.9994653 0.9716588 0.9697768
1.0000000 0.9723493 0.9685091
1.0000000 0.9727666 0.9667407
0.6691265 0.9825466 0.9869562
0.8943117 0.9822748 0.9828322
0.9621987 0.9843622 0.9815729
0.9828812 0.9857961 0.9807901
0.9911422 0.9866859 0.9803306
0.9950290 0.9871996 0.9796010
0.9970925 0.9874991 0.9787893
0.9984717 0.9875966 0.9778726
0.7256412 0.9887325 0.9895055
0.9152897 0.9878157 0.9864447
0.9674248 0.9890680 0.9856572
0.9840248 0.9900014 0.9852663
0.9909914 0.9906066 0.9850193
0.9943098 0.9909721 0.9847082
0.9960544 0.9911762 0.9841952
0.9972375 0.9913317 0.9837757
0.7691860 0.9907219 0.9906801
0.9286057 0.9899329 0.9882655
0.9711120 0.9909021 0.9876842
0.9853931 0.9916587 0.9875055
0.9912882 0.9921252 0.9872829
0.9941898 0.9924213 0.9871338
0.9957762 0.9926062 0.9869579
0.9968332 0.9927368 0.9867256
0.8058031 0.9911740 0.9914848
0.9388026 0.9907721 0.9894130
0.9741079 0.9916456 0.9889336
0.9864463 0.9923075 0.9887798
0.9917852 0.9927406 0.9887479
0.9943212 0.9929948 0.9886376
0.9957584 0.9931574 0.9885010
0.9967598 0.9932805 0.9883531
0.8359398 0.9914580 0.9920296
0.9472038 0.9913749 0.9903095
0.9767187 0.9921862 0.9899732
0.9873661 0.9927737 0.9898452
0.9921504 0.9931562 0.9897553
0.9944273 0.9933861 0.9897099
0.9957896 0.9935374 0.9895937
0.9967160 0.9936484 0.9894675
0.5308948 0.3943458 1.0000000
0.9091356 0.5004816 1.0000000
1.0000000 0.5707260 1.0000000
1.0000000 0.6197915 0.9948125
1.0000000 0.6537219 0.9912640
1.0000000 0.6777213 0.9884002
1.0000000 0.6969887 0.9862297
1.0000000 0.7143101 0.9841716
0.6371150 0.8378879 0.9960701
0.8985871 0.8668028 0.9886464
0.9755973 0.8849881 0.9858170
1.0000000 0.8943183 0.9845367
1.0000000 0.9007635 0.9837407
1.0000000 0.9045706 0.9831633
1.0000000 0.9069077 0.9826087
1.0000000 0.9076451 0.9819296
0.7428886 0.9651463 0.9912854
0.9221012 0.9697223 0.9878457
0.9697750 0.9735150 0.9869040
0.9869414 0.9758784 0.9865448
0.9941367 0.9772680 0.9863322
0.9977199 0.9781152 0.9861380
0.9996418 0.9786429 0.9860214
1.0000000 0.9787872 0.9857919
0.8025640 0.9838797 0.9918253
0.9381515 0.9852201 0.9895366
0.9736711 0.9868579 0.9890410
0.9867620 0.9879489 0.9888368
0.9923708 0.9886102 0.9887091
0.9951240 0.9890175 0.9886483
0.9967222 0.9891908 0.9884974
0.9978302 0.9893842 0.9883504
0.8377510 0.9885220 0.9923036
0.9476363 0.9891861 0.9905977
0.9768031 0.9902862 0.9901967
0.9876023 0.9910436 0.9901159
0.9923748 0.9915116 0.9900404
0.9947250 0.9917973 0.9899961
0.9961399 0.9919854 0.9898909
0.9971007 0.9921299 0.9898308
0.8653704 0.9902716 0.9925376
0.9548717 0.9908307 0.9912062
0.9790395 0.9917065 0.9909384
0.9884464 0.9923238 0.9908840
0.9926352 0.9927053 0.9908367
0.9946958 0.9929371 0.9908193
0.9959675 0.9930986 0.9907894
0.9968764 0.9932069 0.9907062
0.8877391 0.9908711 0.9926795
0.9601684 0.9915007 0.9916285
0.9811609 0.9923005 0.9914171
0.9892286 0.9928374 0.9913785
0.9929364 0.9931722 0.9913418
0.9948441 0.9933829 0.9913306
0.9960047 0.9935274 0.9913119
0.9968318 0.9936396 0.9912878
0.9059119 0.9913285 0.9927996
0.9647682 0.9920076 0.9919669
0.9825976 0.9927224 0.9917958
0.9898203 0.9932085 0.9917665
0.9932354 0.9935195 0.9917625
0.9949593 0.9937077 0.9917528
0.9960682 0.9938402 0.9917118
0.9968586 0.9939459 0.9916929
0.7362994 0.5034438 1.0000000
0.9712269 0.5893298 1.0000000
1.0000000 0.6370978 1.0000000
1.0000000 0.6694367 1.0000000
1.0000000 0.6989073 0.9988844
1.0000000 0.7214026 0.9969415
1.0000000 0.7387012 0.9955685
1.0000000 0.7543125 0.9943751
0.7928870 0.8839850 0.9957890
0.9419562 0.9027808 0.9915205
0.9846162 0.9139503 0.9899539
1.0000000 0.9207613 0.9892534
1.0000000 0.9248973 0.9888759
1.0000000 0.9264767 0.9885853
1.0000000 0.9281554 0.9883866
1.0000000 0.9294286 0.9881500
0.8524144 0.9714836 0.9924248
0.9513084 0.9757164 0.9905464
0.9790606 0.9783912 0.9900756
0.9898702 0.9800213 0.9899223
0.9948732 0.9810250 0.9898563
0.9974166 0.9814373 0.9897958
0.9989901 0.9818504 0.9897105
1.0000000 0.9821643 0.9896572
0.8867977 0.9854664 0.9926069
0.9596440 0.9871562 0.9914469
0.9811146 0.9884467 0.9911526
0.9894815 0.9891919 0.9910787
0.9934642 0.9897058 0.9910569
0.9955252 0.9900236 0.9910381
0.9967864 0.9902415 0.9910152
0.9976878 0.9904106 0.9909883
0.9080787 0.9890895 0.9928029
0.9652158 0.9902012 0.9919599
0.9827647 0.9911051 0.9917762
0.9900738 0.9917059 0.9917358
0.9934570 0.9920743 0.9917239
0.9952374 0.9923042 0.9917106
0.9963860 0.9924702 0.9916937
0.9972051 0.9925990 0.9916734
0.9232133 0.9906061 0.9929364
0.9691237 0.9915078 0.9923005
0.9843599 0.9922614 0.9921663
0.9905964 0.9927463 0.9921460
0.9936399 0.9930554 0.9921418
0.9952314 0.9932339 0.9921316
0.9962778 0.9933736 0.9921200
0.9970455 0.9934885 0.9921275
0.9341606 0.9912295 0.9929951
0.9723102 0.9920673 0.9924950
0.9855208 0.9927384 0.9923950
0.9911978 0.9931841 0.9924042
0.9938278 0.9934487 0.9924073
0.9953247 0.9936249 0.9924081
0.9963210 0.9937558 0.9924056
0.9970253 0.9938560 0.9923993
0.9432232 0.9917186 0.9930437
0.9751104 0.9925036 0.9926497
0.9867262 0.9931173 0.9925762
0.9916575 0.9935015 0.9925886
0.9940097 0.9937373 0.9925970
0.9953933 0.9938983 0.9926029
0.9963561 0.9940231 0.9926066
0.9970317 0.9941201 0.9926194
0.8720076 0.6035508 1.0000000
0.9993319 0.6617043 1.0000000
1.0000000 0.6960562 1.0000000
1.0000000 0.7157477 1.0000000
1.0000000 0.7358501 0.9998961
1.0000000 0.7538179 0.9985004
1.0000000 0.7701334 0.9973029
1.0000000 0.7849737 0.9962622
0.8863359 0.9149702 0.9942616
0.9642289 0.9274439 0.9919808
0.9899441 0.9345704 0.9911176
1.0000000 0.9389670 0.9906983
1.0000000 0.9407644 0.9904879
1.0000000 0.9424592 0.9903375
1.0000000 0.9436939 0.9902204
1.0000000 0.9446527 0.9901198
0.9165288 0.9767009 0.9925109
0.9676028 0.9795919 0.9915977
0.9847116 0.9815074 0.9913429
0.9919896 0.9826896 0.9912794
0.9954925 0.9834056 0.9912452
0.9974065 0.9838601 0.9912222
0.9986752 0.9841942 0.9912017
0.9996556 0.9843164 0.9911706
0.9331672 0.9869773 0.9927740
0.9722372 0.9884725 0.9922081
0.9856709 0.9894731 0.9920778
0.9915194 0.9901110 0.9920682
0.9943193 0.9904953 0.9920667
0.9959285 0.9907519 0.9920669
0.9970127 0.9908923 0.9920722
0.9977728 0.9910389 0.9920679
0.9438564 0.9899241 0.9929379
0.9755400 0.9909814 0.9925396
0.9869297 0.9917214 0.9924566
0.9918205 0.9921813 0.9924514
0.9942868 0.9924742 0.9924714
0.9957022 0.9926398 0.9924734
0.9966562 0.9927846 0.9924773
0.9973534 0.9929013 0.9924901
0.9513766 0.9911572 0.9930373
0.9778754 0.9920197 0.9927301
0.9878806 0.9926453 0.9926726
0.9921983 0.9930328 0.9926865
0.9943869 0.9932756 0.9926983
0.9956663 0.9934387 0.9927071
0.9965720 0.9935681 0.9927241
0.9972287 0.9936683 0.9927274
0.9575658 0.9917247 0.9930927
0.9798558 0.9925070 0.9928463
0.9885840 0.9930603 0.9928150
0.9925691 0.9934139 0.9928234
0.9945352 0.9936299 0.9928452
0.9957565 0.9937823 0.9928556
0.9966187 0.9939027 0.9928730
0.9972171 0.9939916 0.9928759
0.9624398 0.9921635 0.9931466
0.9816344 0.9928832 0.9929597
0.9893637 0.9933841 0.9929318
0.9929090 0.9937016 0.9929515
0.9946900 0.9938943 0.9929636
0.9958553 0.9940391 0.9929832
0.9966525 0.9941472 0.9929904
0.9972253 0.9942321 0.9930032
0.9430162 0.6823289 1.0000000
1.0000000 0.7208518 1.0000000
1.0000000 0.7445679 1.0000000
1.0000000 0.7583829 1.0000000
1.0000000 0.7664542 0.9994113
1.0000000 0.7838945 0.9981705
1.0000000 0.7998881 0.9971188
1.0000000 0.8142935 0.9961935
0.9345205 0.9372738 0.9930825
0.9770976 0.9449735 0.9919034
0.9930853 0.9495132 0.9914280
1.0000000 0.9517095 0.9912240
1.0000000 0.9534119 0.9911056
1.0000000 0.9545917 0.9910421
1.0000000 0.9554737 0.9909824
1.0000000 0.9555722 0.9909333
0.9480758 0.9801467 0.9924904
0.9771755 0.9823979 0.9920295
0.9884099 0.9838049 0.9918945
0.9935545 0.9846855 0.9918686
0.9960197 0.9851967 0.9918574
0.9975346 0.9855568 0.9918624
0.9986488 0.9857120 0.9918473
0.9994306 0.9859356 0.9918528
0.9566748 0.9882012 0.9928452
0.9797632 0.9894177 0.9925525
0.9888470 0.9902166 0.9924992
0.9930027 0.9907138 0.9924955
0.9950144 0.9910073 0.9925098
0.9963207 0.9912218 0.9925153
0.9972447 0.9913911 0.9925293
0.9978853 0.9915158 0.9925305
0.9625587 0.9906888 0.9930460
0.9818234 0.9915528 0.9928321
0.9895885 0.9921538 0.9928057
0.9930866 0.9925180 0.9928107
0.9949094 0.9927476 0.9928287
0.9961082 0.9929191 0.9928462
0.9969296 0.9930471 0.9928520
0.9974943 0.9931430 0.9928628
0.9670936 0.9916808 0.9931468
0.9834958 0.9924397 0.9929963
0.9901772 0.9929394 0.9929838
0.9933472 0.9932536 0.9929929
0.9949816 0.9934482 0.9930114
0.9960797 0.9935959 0.9930289
0.9968594 0.9937098 0.9930356
0.9973934 0.9937947 0.9930465
0.9708698 0.9922031 0.9932206
0.9849292 0.9928821 0.9931074
0.9908224 0.9933268 0.9930961
0.9935622 0.9935976 0.9931145
0.9951046 0.9937777 0.9931337
0.9961565 0.9939149 0.9931436
0.9968687 0.9940177 0.9931580
0.9973803 0.9940968 0.9931688
0.9738175 0.9925963 0.9932833
0.9860363 0.9932039 0.9931967
0.9913200 0.9936092 0.9932003
0.9938305 0.9938563 0.9932127
0.9952369 0.9940193 0.9932314
0.9962096 0.9941456 0.9932485
0.9968958 0.9942429 0.9932626
0.9973879 0.9943163 0.9932656
0.9767655 0.7496638 1.0000000
1.0000000 0.7761356 1.0000000
1.0000000 0.7907317 0.9990920
1.0000000 0.8006928 0.9981666
1.0000000 0.8057285 0.9976637
1.0000000 0.8136570 0.9970831
1.0000000 0.8288857 0.9961426
1.0000000 0.8428197 0.9953173
0.9590784 0.9520442 0.9925731
0.9844314 0.9564278 0.9919341
0.9950197 0.9594707 0.9916559
1.0000000 0.9613736 0.9915348
1.0000000 0.9625199 0.9914632
1.0000000 0.9628865 0.9914238
1.0000000 0.9635538 0.9913959
1.0000000 0.9640412 0.9913633
0.9656816 0.9829668 0.9925873
0.9834991 0.9844885 0.9923374
0.9910302 0.9855310 0.9922760
0.9945419 0.9861564 0.9922673
0.9964931 0.9865628 0.9922619
0.9977245 0.9868526 0.9922683
0.9986341 0.9870865 0.9922752
0.9992616 0.9872563 0.9922705
0.9705078 0.9892483 0.9929695
0.9850402 0.9902257 0.9928199
0.9910424 0.9908305 0.9928028
0.9939946 0.9912117 0.9928141
0.9956089 0.9914565 0.9928283
0.9966820 0.9916369 0.9928336
0.9974401 0.9917774 0.9928453
0.9979946 0.9918485 0.9928492
0.9739927 0.9913407 0.9931762
0.9862425 0.9920755 0.9930818
0.9914559 0.9925377 0.9930719
0.9940050 0.9928259 0.9930884
0.9954443 0.9930157 0.9931052
0.9964432 0.9931630 0.9931211
0.9971526 0.9932548 0.9931238
0.9976562 0.9933417 0.9931341
0.9767342 0.9921648 0.9932814
0.9872448 0.9927875 0.9932081
0.9918755 0.9931766 0.9932123
0.9941518 0.9934235 0.9932307
0.9955068 0.9935939 0.9932489
0.9964242 0.9937226 0.9932653
0.9970928 0.9938233 0.9932724
0.9975512 0.9938979 0.9932819
0.9788031 0.9926087 0.9933472
0.9881372 0.9931739 0.9932998
0.9922860 0.9935321 0.9933109
0.9943739 0.9937561 0.9933310
0.9956111 0.9939091 0.9933488
0.9964868 0.9940281 0.9933587
0.9970948 0.9941186 0.9933718
0.9975355 0.9941884 0.9933819
0.9806642 0.9929504 0.9934093
0.9889511 0.9934660 0.9933708
0.9926456 0.9937877 0.9933850
0.9945403 0.9939901 0.9934050
0.9956869 0.9941302 0.9934230
0.9965318 0.9942445 0.9934403
0.9971154 0.9943300 0.9934539
0.9975405 0.9943962 0.9934646
