Plugins/FilmEmulator/Content/LUTs/FE_Fuji_Pro_400H_64.cube
TITLE "FE_Fuji_Pro_400H_33"
LUT_3D_SIZE 8
0.0043212 0.0072840 0.0068190
0.0587841 0.0070774 0.0071004
0.1903992 0.0081698 0.0085427
0.3416095 0.0106719 0.0114402
0.4812644 0.0141414 0.0152276
0.5999565 0.0179692 0.0192008
0.6860147 0.0227455 0.0241337
0.7516525 0.0278865 0.0295549
0.0059695 0.0969165 0.0081342
0.0742358 0.1034200 0.0100207
0.2092553 0.1067291 0.0133043
0.3583782 0.1102640 0.0173727
0.4880133 0.1183752 0.0220622
0.5953630 0.1225885 0.0267309
0.6835454 0.1269634 0.0316728
0.7506725 0.1314831 0.0376381
0.0129550 0.2524595 0.0117631
0.0948487 0.2593557 0.0154189
0.2399648 0.2584247 0.0198888
0.3872899 0.2662591 0.0247946
0.5059180 0.2743959 0.0301671
0.6131699 0.2739126 0.0358252
0.6878948 0.2823672 0.0411340
0.7547100 0.2819737 0.0473566
0.0245383 0.3928073 0.0180059
0.1227684 0.4016563 0.0221146
0.2660819 0.4006309 0.0276304
0.4076550 0.4103424 0.0327327
0.5279213 0.4097143 0.0388560
0.6336032 0.4196867 0.0446991
0.7068681 0.4192078 0.0514374
0.7611175 0.4187618 0.0591400
0.0397201 0.5078942 0.0253576
0.1518633 0.5171688 0.0308353
0.2952991 0.5162632 0.0366102
0.4303398 0.5156069 0.0419906
0.5510840 0.5256695 0.0483778
0.6430344 0.5251426 0.0556433
0.7152978 0.5247201 0.0617365
0.7683967 0.5349762 0.0684623
0.0569355 0.6012671 0.0332770
0.1795242 0.6000937 0.0394861
0.3273432 0.5993155 0.0453749
0.4537449 0.6088576 0.0522524
0.5752032 0.6082870 0.0600675
0.6530789 0.6078846 0.0665653
0.7242151 0.6074804 0.0737188
0.7763407 0.6172526 0.0789431
0.0784154 0.6691848 0.0425643
0.2113911 0.6682407 0.0489801
0.3492378 0.6675806 0.0563262
0.4784791 0.6670825 0.0624866
0.5861172 0.6759619 0.0692850
0.6755586 0.6755598 0.0767092
0.7332403 0.6752177 0.0848695
0.7846063 0.6749361 0.0907129
0.1029025 0.7222354 0.0528187
0.2377966 0.7215204 0.0586272
0.3846070 0.7209252 0.0672562
0.5034828 0.7205030 0.0744760
0.6107494 0.7201639 0.0796805
0.6857877 0.7282813 0.0881895
0.7423460 0.7280291 0.0942352
0.7926570 0.7277179 0.1040162
0.0050416 0.0073861 0.1093830
0.0674874 0.0089789 0.1133705
0.2065683 0.0118624 0.1216373
0.3526720 0.0152445 0.1262456
0.4935513 0.0196211 0.1310192
0.5987164 0.0248581 0.1403248
0.6852615 0.0295488 0.1453373
0.7511066 0.0351120 0.1505040
0.0082712 0.1021716 0.1232277
0.0821061 0.1053118 0.1272595
0.2194311 0.1088427 0.1357577
0.3719859 0.1169657 0.1403490
0.5029204 0.1212364 0.1449705
0.6097385 0.1256396 0.1545105
0.6964377 0.1302251 0.1595282
0.7514862 0.1349837 0.1646582
0.0172353 0.2569679 0.1342371
0.1047567 0.2558860 0.1429784
0.2509646 0.2637558 0.1476463
0.3885859 0.2720073 0.1524665
0.5211194 0.2716878 0.1572964
0.6271349 0.2801530 0.1674789
0.7008771 0.2799325 0.1726793
0.7554079 0.2886966 0.1781541
0.0295552 0.3989698 0.1448058
0.1353089 0.3977697 0.1541415
0.2776650 0.4075386 0.1591186
0.4221895 0.4070727 0.1641160
0.5425398 0.4171964 0.1693547
0.6348717 0.4168943 0.1745993
0.7079194 0.4166234 0.1799772
0.7617108 0.4268824 0.1912985
0.0459109 0.5147013 0.1555380
0.1595860 0.5136264 0.1654619
0.3078136 0.5129947 0.1705795
0.4445742 0.5232041 0.1759756
0.5523964 0.5228585 0.1813816
0.6441643 0.5225457 0.1869222
0.7159410 0.5329129 0.1927420
0.7691802 0.5326663 0.1985592
0.0658809 0.5979120 0.1665311
0.1883469 0.5969979 0.1769766
0.3401526 0.6065909 0.1825188
0.4683764 0.6061929 0.1880772
0.5763681 0.6058602 0.1937749
0.6665100 0.6055590 0.1996096
0.7357069 0.6153834 0.2057309
0.7770583 0.6151809 0.2118492
0.0865000 0.6664089 0.1779598
0.2212805 0.6656844 0.1833687
0.3626234 0.6652152 0.1889366
0.4927141 0.6741847 0.1947895
0.6003913 0.6738153 0.2066627
0.6764617 0.6736299 0.2066407
0.7447011 0.6733810 0.2127720
0.7946404 0.6731598 0.2190425
0.1134128 0.7199444 0.1898650
0.2484658 0.7193719 0.1955680
0.3856592 0.7189761 0.2014265
0.5181231 0.7186391 0.2074267
0.6113768 0.7268705 0.2137243
0.6866180 0.7266466 0.2200124
0.7535871 0.7264217 0.2264360
0.7932261 0.7262503 0.2329795
0.0066865 0.0102455 0.2446453
0.0767220 0.0134603 0.2525606
0.2136364 0.0171165 0.2535252
0.3626884 0.0216129 0.2616071
0.5049175 0.0265070 0.2697428
0.6103023 0.0315114 0.2779116
0.6957172 0.0375207 0.2787130
0.7603688 0.0432996 0.2869171
0.0111497 0.1052173 0.2620717
0.0943717 0.1125092 0.2694755
0.2382383 0.1164823 0.2769467
0.3849531 0.1207233 0.2770779
0.5167672 0.1251141 0.2847368
0.6229997 0.1296704 0.2925279
0.6966977 0.1344292 0.2926967
0.7619486 0.1393039 0.3006127
0.0213422 0.2555985 0.2740069
0.1150703 0.2630621 0.2814959
0.2613847 0.2711054 0.2891912
0.4020564 0.2707852 0.2891350
0.5350123 0.2792363 0.2969954
0.6277812 0.2789914 0.3047742
0.7010988 0.2877667 0.3049519
0.7657852 0.2966525 0.3130663
0.0354550 0.3973161 0.2843429
0.1416970 0.4066693 0.2920306
0.2890719 0.4060309 0.2996979
0.4356545 0.4160451 0.3076968
0.5432224 0.4157791 0.3076582
0.6481804 0.4154443 0.3155932
0.7194797 0.4257975 0.3157687
0.7722744 0.4255579 0.3238350
0.0529004 0.5129927 0.3018494
0.1746749 0.5120887 0.3017223
0.3195948 0.5221539 0.3097324
0.4585527 0.5217050 0.3176832
0.5664837 0.5214290 0.3176438
0.6569887 0.5317657 0.3259318
0.7276160 0.5314860 0.3341328
0.7795123 0.5313085 0.3341066
0.0725777 0.5963576 0.3112851
0.2052932 0.6057522 0.3113672
0.3407315 0.6052490 0.3193308
0.4824432 0.6048182 0.3274178
0.5902485 0.6045523 0.3273776
0.6667351 0.6143873 0.3358040
0.7361932 0.6141204 0.3441332
0.7871162 0.6139501 0.3441063
0.0950995 0.6650290 0.3206822
0.2310417 0.6643968 0.3205800
0.3753181 0.6732808 0.3288751
0.5069489 0.6729144 0.3370955
0.6009572 0.6726999 0.3370597
0.6889997 0.6724215 0.3453998
0.7451518 0.6722653 0.3453733
0.7947848 0.6812845 0.3540344
0.1245966 0.7187458 0.3300236
0.2589990 0.7182583 0.3299355
0.3989954 0.7178625 0.3381590
0.5183769 0.7260540 0.3467104
0.6248524 0.7258326 0.3466689
0.6989160 0.7256083 0.3551312
0.7540022 0.7254673 0.3551045
0.8027256 0.7252669 0.3636681
0.0104760 0.0156840 0.3635681
0.0833313 0.0195066 0.3732134
0.2209022 0.0238715 0.3742198
0.3729383 0.0293438 0.3840692
0.5162147 0.0348702 0.3849882
0.6214379 0.0402089 0.3946266
0.6943349 0.0463997 0.3954208
0.7594290 0.0516106 0.4049635
0.0146401 0.1126478 0.3833802
0.1034696 0.1163525 0.3922281
0.2481019 0.1204871 0.3923444
0.3977900 0.1248264 0.4014282
0.5168390 0.1293912 0.4016096
0.6230673 0.1340819 0.4107972
0.7083442 0.1389638 0.4109903
0.7619762 0.1440275 0.4111946
0.0264519 0.2631385 0.3977473
0.1261465 0.2708652 0.3977975
0.2721516 0.2703243 0.4066651
0.4150553 0.2787649 0.4068356
0.5350744 0.2874009 0.4160638
0.6405180 0.2871794 0.4160186
0.7126409 0.2960556 0.4253280
0.7660902 0.2959118 0.4252990
0.0406354 0.4066280 0.4101819
0.1551341 0.4056704 0.4100184
0.3002291 0.4155407 0.4192219
0.4360667 0.4151738 0.4191598
0.5567848 0.4253612 0.4284672
0.6482167 0.4251250 0.4284273
0.7198489 0.4248531 0.4375716
0.7723074 0.4350819 0.4377737
0.0608276 0.5119894 0.4124154
0.1824890 0.5217424 0.4215848
0.3317171 0.5212175 0.4214987
0.4589693 0.5208036 0.4305800
0.5798845 0.5311432 0.4307594
0.6573706 0.5308660 0.4399169
0.7279264 0.5306557 0.4398820
0.7795460 0.5409588 0.4493227
0.0835235 0.6055592 0.4234997
0.2143968 0.6047839 0.4325275
0.3532614 0.6043478 0.4324528
0.4828627 0.6039503 0.4415970
0.5902992 0.6137924 0.4417807
0.6792901 0.6134934 0.4509882
0.7364974 0.6133260 0.4509589
0.7873787 0.6131555 0.4509291
0.1045129 0.6641539 0.4339856
0.2406830 0.6729102 0.4341011
0.3883250 0.6724482 0.4432362
0.5073372 0.6721740 0.4431849
0.6143998 0.6718665 0.4523934
0.6890188 0.6809254 0.4525871
0.7451931 0.6807107 0.4618518
0.7950401 0.6805537 0.4618216
0.1305831 0.7179780 0.4445313
0.2696756 0.7174902 0.4444318
0.4119534 0.7256030 0.4538513
0.5323348 0.7253550 0.4537999
0.6252489 0.7251051 0.4630579
0.6992452 0.7249367 0.4630226
0.7646286 0.7247663 0.4629871
0.8029734 0.7245951 0.4722929
0.0155365 0.0223898 0.4648059
0.0948944 0.0264514 0.4749055
0.2381628 0.0314119 0.4758192
0.3837186 0.0373870 0.4767938
0.5145149 0.0431360 0.4869405
0.6201115 0.0480017 0.4875469
0.7048038 0.0554514 0.4977434
0.7583454 0.0618720 0.4983901
0.0186577 0.1165661 0.4841751
0.1134344 0.1204545 0.4841933
0.2578841 0.1293908 0.4939102
0.4102570 0.1340379 0.4940759
0.5299722 0.1388911 0.4942656
0.6354280 0.1438748 0.5038180
0.7079747 0.1490742 0.5040245
0.7616500 0.1544469 0.5042366
0.0316556 0.2711161 0.4899966
0.1382766 0.2702208 0.4991650
0.2827865 0.2785166 0.4993117
0.4280896 0.2870635 0.5088493
0.5489190 0.2868163 0.5087970
0.6404538 0.2957165 0.5090039
0.7129073 0.2954887 0.5183275
0.7660393 0.3046042 0.5185455
0.0490072 0.4058363 0.5027089
0.1694061 0.4154136 0.5027909
0.3118507 0.4148397 0.5120624
0.4492525 0.4250242 0.5122395
0.5704880 0.4247225 0.5121873
0.6610132 0.4244190 0.5215034
0.7197810 0.4346465 0.5217099
0.7823348 0.4343707 0.5310214
0.0668313 0.5218205 0.5146370
0.1990508 0.5209808 0.5144942
0.3439914 0.5204919 0.5144116
0.4722966 0.5307294 0.5239452
0.5801997 0.5304536 0.5238986
0.6699811 0.5302101 0.5238576
0.7387476 0.5404817 0.5334001
0.7893232 0.5403038 0.5333699
0.0917386 0.6048276 0.5164669
0.2237108 0.6040850 0.5257013
0.3658924 0.6036491 0.5256249
0.4962411 0.6134296 0.5258001
0.6037616 0.6130993 0.5350948
0.6795449 0.6128995 0.5350596
0.7473596 0.6126981 0.5350240
0.7966815 0.6224907 0.5445487
0.1146484 0.6728262 0.5274161
0.2507803 0.6722642 0.5273089
0.4014122 0.6718026 0.5365714
0.5212437 0.6715276 0.5365195
0.6143278 0.6805627 0.5367094
0.7010419 0.6802875 0.5459868
0.7558796 0.6801332 0.5459570
0.8043095 0.6799756 0.5459269
0.1430472 0.7174101 0.5285416
0.2802688 0.7254060 0.5380135
0.4252753 0.7250735 0.5379437
0.5461568 0.7248252 0.5378915
0.6383328 0.7245747 0.5471662
0.7110181 0.7244059 0.5471309
0.7645722 0.7326415 0.5473313
0.8117450 0.7324444 0.5565880
0.0213587 0.0294180 0.5504472
0.1032687 0.0336720 0.5510807
0.2464425 0.0401549 0.5520285
0.3951364 0.0446646 0.5618603
0.5265198 0.0514948 0.5626650
0.6315185 0.0574657 0.5632873
0.7038196 0.0640851 0.5731122
0.7675471 0.0714337 0.5737421
0.0250117 0.1252326 0.5593063
0.1241348 0.1294328 0.5593480
0.2681214 0.1339687 0.5687124
0.4101371 0.1387720 0.5688816
0.5433899 0.1437549 0.5690629
0.6353114 0.1489021 0.5784271
0.7078695 0.1542537 0.5786295
0.7715694 0.1597636 0.5788315
0.0378477 0.2793062 0.5740566
0.1511496 0.2784939 0.5738844
0.2936268 0.2869786 0.5740346
0.4415250 0.2865920 0.5831077
0.5622487 0.2954332 0.5832990
0.6529243 0.3044931 0.5835011
0.7239953 0.3043184 0.5834664
0.7759373 0.3135332 0.5927662
0.0562713 0.4156866 0.5773516
0.1771313 0.4148468 0.5772066
0.3233416 0.4248230 0.5864794
0.4628350 0.4244543 0.5864173
0.5707409 0.4241863 0.5863719
0.6609081 0.4342786 0.5956311
0.7310447 0.4340726 0.5955967
0.7822318 0.4443581 0.5957964
0.0770304 0.5211651 0.5887414
0.2078190 0.5203944 0.5886140
0.3560933 0.5305570 0.5887637
0.4859822 0.5301449 0.5977624
0.5936947 0.5298684 0.5977176
0.6698800 0.5402113 0.5979102
0.7389230 0.5400012 0.5978758
0.7894959 0.5397548 0.6068398
0.1006960 0.6042300 0.5905280
0.2329932 0.6136952 0.5906447
0.3782651 0.6131980 0.5996135
0.5100834 0.6128698 0.5995578
0.6039777 0.6126385 0.5995184
0.6913900 0.6223698 0.6086840
0.7472737 0.6222036 0.6086556
0.7968287 0.6220337 0.6086265
0.1257736 0.6722729 0.6011136
0.2715143 0.6717110 0.6010103
0.4145609 0.6713419 0.6009427
0.5346688 0.6803202 0.6011157
0.6274558 0.6800475 0.6100461
0.7012318 0.6798634 0.6100122
0.7560470 0.6797090 0.6099839
0.8044729 0.6794906 0.6188557
0.1563054 0.7254114 0.6024239
0.3024913 0.7249606 0.6023325
0.4386878 0.7246004 0.6112316
0.5464121 0.7243795 0.6111872
0.6385417 0.7241846 0.6111482
0.7109010 0.7323976 0.6113357
0.7647592 0.7322033 0.6201971
0.8118839 0.7320609 0.6201684
0.0285617 0.0374950 0.6155867
0.1124279 0.0416403 0.6160470
0.2656572 0.0479714 0.6167644
0.4065201 0.0534010 0.6173273
0.5385222 0.0617791 0.6269628
0.6430646 0.0664055 0.6273441
0.7142333 0.0740039 0.6279482
0.7666582 0.0826019 0.6373100
0.0326775 0.1296460 0.6229111
0.1358665 0.1340282 0.6229706
0.2785854 0.1387182 0.6318923
0.4230069 0.1436664 0.6320537
0.5432332 0.1488137 0.6322318
0.6477383 0.1541304 0.6324148
0.7190798 0.1596019 0.6413074
0.7714491 0.1654391 0.6415101
0.0434773 0.2789012 0.6279926
0.1579036 0.2870122 0.6368138
0.3050165 0.2865632 0.6367253
0.4546091 0.2953191 0.6368915
0.5620524 0.3043499 0.6370797
0.6531296 0.3040913 0.6456966
0.7238599 0.3133326 0.6458926
0.7760725 0.3131831 0.6458651
0.0647022 0.4151238 0.6398610
0.1848953 0.4248981 0.6399584
0.3353392 0.4243881 0.6398763
0.4760821 0.4343494 0.6486609
0.5839186 0.4340791 0.6486182
0.6733688 0.4338409 0.6485806
0.7309008 0.4441271 0.6487707
0.7823863 0.4438846 0.6572747
0.0845094 0.5313336 0.6422440
0.2166084 0.5305292 0.6507308
0.3686809 0.5300416 0.6506555
0.4996375 0.5296986 0.6506026
0.5935223 0.5400084 0.6507803
0.6821756 0.5397652 0.6507427
0.7390978 0.5395217 0.6592253
0.7893764 0.5498286 0.6594098
0.1104644 0.6138062 0.6525248
0.2527364 0.6131685 0.6524212
0.3910979 0.6127710 0.6523571
0.5102761 0.6124753 0.6523095
0.6168491 0.6221775 0.6609707
0.6915559 0.6219791 0.6609388
0.7578304 0.6217790 0.6609067
0.7969548 0.6216429 0.6608847
0.1377998 0.6718430 0.6537719
0.2823418 0.6713122 0.6536798
0.4144253 0.6801682 0.6623074
0.5348929 0.6798969 0.6622606
0.6276370 0.6796845 0.6622238
0.7013947 0.6795003 0.6621919
0.7664951 0.6792536 0.6705370
0.8043616 0.6882637 0.6707219
0.1635058 0.7250497 0.6550177
0.3140812 0.7245437 0.6633933
0.4388765 0.7242666 0.6633412
0.5600776 0.7240175 0.6632943
0.6510405 0.7322078 0.6634662
0.7223525 0.7319870 0.6717963
0.7749271 0.7318469 0.6717696
0.8120027 0.7317328 0.6717480
0.0371242 0.0464475 0.6685184
0.1224767 0.0515599 0.6689693
0.2749664 0.0574657 0.6694737
0.4179693 0.0640632 0.6700159
0.5507787 0.0713843 0.6705685
0.6419175 0.0767172 0.6791752
0.7131851 0.0856450 0.6797555
0.7758604 0.0920952 0.6801315
0.0408331 0.1342387 0.6744454
0.1420297 0.1388117 0.6745204
0.2892551 0.1436770 0.6746457
0.4359311 0.1487746 0.6747985
0.5565360 0.1540401 0.6831524
0.6475638 0.1595292 0.6833286
0.7188900 0.1653471 0.6835148
0.7811189 0.1713362 0.6837007
0.0523125 0.2874033 0.6792125
0.1722892 0.2957751 0.6792962
0.3163000 0.2952903 0.6873479
0.4544124 0.3042347 0.6875080
0.5756251 0.3039778 0.6874629
0.6653453 0.3131896 0.6876431
0.7349462 0.3130119 0.6876123
0.7856281 0.3222877 0.6958129
0.0710615 0.4252117 0.6902558
0.2015456 0.4244293 0.6901379
0.3472310 0.4343505 0.6902711
0.4762415 0.4340139 0.6902214
0.5840747 0.4337436 0.6901815
0.6732082 0.4438950 0.6983280
0.7418336 0.4436877 0.6982979
0.7917363 0.4540243 0.6984737
0.0927729 0.5308535 0.6922638
0.2258831 0.5301518 0.6921616
0.3810020 0.5402165 0.6922931
0.4994596 0.5398401 0.7001992
0.6068268 0.5395638 0.7001600
0.6823434 0.5393553 0.7001301
0.7495117 0.5496303 0.7002984
0.7987502 0.5494524 0.7002730
0.1211942 0.6134113 0.6938412
0.2630430 0.6128075 0.6937494
0.4040954 0.6123446 0.7016194
0.5236822 0.6220821 0.7017736
0.6170012 0.6218526 0.7017394
0.7033880 0.6216210 0.7017045
0.7579489 0.6214541 0.7016796
0.8058628 0.6311634 0.7096621
0.1507986 0.6714136 0.7029229
0.2931403 0.6801695 0.7030386
0.4276448 0.6798363 0.7029849
0.5485765 0.6795648 0.7029413
0.6405665 0.6793521 0.7029071
0.7127360 0.6882437 0.7108648
0.7663455 0.6880908 0.7108402
0.8132324 0.6879352 0.7108150
0.1786146 0.7246603 0.7040749
0.3258635 0.7242384 0.7040007
0.4522972 0.7239615 0.7039521
0.5733045 0.7320449 0.7118800
0.6512164 0.7318806 0.7118511
0.7224820 0.7317144 0.7118219
0.7750397 0.7315742 0.7117971
0.8206072 0.7314315 0.7117719
