Plugins/FilmEmulator/Content/LUTs/FE_Fuji_Eterna_500_Vivid_64.cube
TITLE "FE_Fuji_Eterna_500_Vivid_33"
LUT_3D_SIZE 64
0.0036428 0.0019930 0.0033160
0.0048838 0.0019917 0.0033155
0.0086873 0.0020126 0.0033154
0.0141553 0.0021091 0.0033400
0.0209100 0.0022185 0.0034208
0.0284552 0.0023332 0.0035129
0.0377279 0.0024906 0.0036091
0.0467846 0.0026712 0.0037131
0.0583168 0.0028507 0.0038581
0.0674222 0.0030945 0.0039957
0.0808306 0.0033733 0.0041757
0.0932819 0.0036681 0.0043771
0.1037703 0.0039274 0.0046026
0.1154610 0.0042052 0.0048200
0.1328913 0.0045452 0.0050488
0.1422574 0.0049708 0.0052901
0.1576934 0.0054365 0.0054912
0.1687859 0.0057699 0.0058049
0.1865397 0.0063830 0.0060339
0.1991632 0.0068531 0.0062667
0.2125460 0.0073576 0.0065154
0.2267105 0.0078988 0.0068092
0.2415509 0.0084795 0.0071163
0.2570558 0.0091143 0.0074374
0.2734334 0.0094493 0.0077653
0.2815559 0.0101587 0.0081155
0.2987784 0.0109218 0.0083347
0.3076535 0.0113223 0.0087651
0.3258128 0.0121720 0.0090017
0.3351264 0.0126221 0.0094664
0.3541085 0.0135951 0.0097223
0.3637976 0.0141082 0.0099750
0.3736207 0.0146386 0.0104898
0.3936689 0.0157651 0.0107908
0.4038831 0.0163588 0.0110983
0.4141884 0.0169746 0.0114146
0.4245943 0.0176108 0.0120621
0.4350581 0.0182731 0.0124056
0.4455779 0.0189870 0.0127592
0.4561541 0.0197285 0.0131228
0.4777132 0.0204976 0.0134966
0.4884038 0.0212970 0.0138810
0.4983624 0.0221269 0.0142911
0.4980902 0.0229894 0.0147438
0.5080578 0.0238838 0.0152107
0.5180258 0.0248124 0.0156921
0.5279858 0.0257763 0.0161886
0.5379298 0.0267768 0.0167006
0.5478265 0.0278367 0.0167180
0.5577077 0.0289421 0.0172470
0.5675498 0.0300903 0.0177924
0.5675685 0.0300858 0.0183356
0.5773634 0.0312783 0.0189149
0.5870845 0.0325216 0.0189348
0.5954686 0.0338082 0.0195328
0.6034484 0.0338009 0.0202053
0.6031813 0.0351377 0.0209228
0.6108052 0.0365303 0.0209448
0.6183994 0.0379699 0.0216880
0.6184199 0.0379635 0.0224335
0.6259598 0.0394578 0.0232286
0.6334182 0.0410367 0.0232532
0.6334385 0.0410298 0.0240516
0.6408489 0.0427058 0.0249039
0.0035824 0.0036084 0.0033693
0.0053003 0.0038618 0.0033748
0.0093168 0.0042269 0.0034146
0.0152142 0.0045652 0.0035048
0.0218594 0.0049907 0.0036075
0.0298220 0.0052952 0.0037161
0.0382290 0.0057898 0.0038306
0.0474283 0.0061794 0.0039654
0.0570054 0.0066337 0.0041120
0.0683358 0.0073795 0.0043129
0.0790311 0.0079216 0.0045193
0.0912576 0.0085036 0.0046995
0.1053910 0.0088122 0.0049901
0.1172300 0.0094739 0.0052263
0.1302235 0.0101857 0.0053934
0.1446084 0.0105585 0.0056918
0.1548775 0.0113512 0.0059118
0.1717171 0.0117663 0.0062454
0.1835357 0.0126529 0.0064868
0.1961586 0.0131296 0.0067591
0.2093730 0.0141406 0.0070645
0.2235539 0.0146725 0.0073763
0.2384274 0.0152241 0.0077017
0.2539804 0.0157979 0.0078737
0.2700053 0.0170116 0.0082293
0.2869496 0.0176493 0.0086545
0.2955932 0.0183135 0.0088797
0.3135741 0.0190265 0.0093387
0.3226683 0.0197701 0.0095819
0.3415278 0.0205413 0.0098314
0.3510543 0.0213405 0.0103392
0.3606943 0.0221729 0.0106083
0.3806181 0.0230359 0.0109022
0.3907076 0.0239295 0.0115213
0.4008830 0.0248605 0.0118500
0.4111519 0.0258270 0.0121880
0.4215066 0.0268302 0.0125355
0.4427049 0.0278872 0.0128929
0.4532596 0.0289954 0.0132606
0.4641606 0.0289899 0.0136242
0.4748070 0.0301407 0.0140126
0.4854847 0.0313358 0.0144268
0.4954338 0.0325769 0.0148841
0.5053932 0.0338658 0.0153558
0.5156535 0.0338588 0.0158253
0.5256089 0.0351969 0.0163264
0.5253298 0.0365883 0.0168432
0.5355696 0.0365807 0.0173576
0.5454704 0.0380285 0.0173759
0.5553598 0.0395260 0.0179254
0.5652080 0.0411012 0.0184922
0.5753082 0.0410925 0.0190562
0.5750220 0.0427742 0.0196591
0.5847454 0.0445259 0.0196805
0.5934352 0.0445160 0.0203580
0.6011276 0.0463291 0.0210815
0.6011484 0.0463213 0.0218066
0.6087737 0.0482130 0.0218304
0.6163706 0.0501701 0.0226054
0.6242076 0.0501591 0.0233817
0.6239140 0.0522031 0.0234074
0.6316926 0.0521916 0.0242107
0.6391177 0.0543027 0.0250685
0.6388289 0.0565074 0.0250961
0.0035152 0.0082724 0.0035057
0.0056558 0.0088784 0.0035615
0.0099714 0.0095365 0.0036175
0.0158612 0.0098790 0.0036972
0.0229207 0.0106147 0.0038206
0.0302289 0.0114071 0.0039534
0.0388737 0.0118212 0.0040891
0.0482745 0.0127087 0.0042322
0.0580684 0.0131839 0.0044306
0.0697518 0.0136768 0.0046383
0.0806439 0.0147279 0.0048408
0.0931854 0.0152780 0.0051403
0.1038038 0.0158518 0.0052996
0.1198093 0.0164445 0.0055569
0.1284258 0.0177066 0.0058767
0.1426327 0.0183698 0.0060980
0.1583504 0.0190849 0.0063278
0.1695672 0.0198268 0.0066923
0.1876663 0.0205972 0.0069879
0.2005036 0.0213982 0.0072966
0.2142175 0.0222322 0.0074599
0.2286314 0.0230957 0.0077893
0.2437368 0.0239920 0.0081332
0.2514513 0.0249234 0.0085229
0.2675691 0.0258915 0.0087450
0.2844075 0.0268929 0.0091971
0.2929914 0.0279546 0.0094369
0.3111129 0.0279478 0.0096725
0.3201746 0.0290555 0.0101724
0.3389509 0.0302079 0.0104374
0.3484213 0.0314066 0.0107093
0.3680201 0.0326450 0.0113086
0.3781691 0.0326386 0.0116192
0.3882095 0.0339306 0.0119509
0.3983537 0.0352722 0.0122921
0.4085932 0.0366653 0.0126428
0.4298934 0.0366557 0.0129896
0.4403748 0.0381016 0.0133600
0.4509172 0.0396026 0.0137409
0.4618076 0.0395947 0.0141175
0.4724428 0.0411732 0.0145351
0.4831039 0.0428556 0.0149964
0.4933478 0.0428466 0.0154551
0.5032939 0.0445950 0.0159453
0.5132442 0.0464118 0.0164508
0.5235001 0.0464019 0.0169534
0.5334337 0.0482893 0.0174904
0.5331431 0.0502533 0.0180444
0.5433470 0.0502501 0.0180442
0.5532314 0.0522868 0.0186153
0.5633875 0.0522757 0.0191830
0.5731918 0.0543906 0.0197896
0.5832502 0.0543779 0.0204707
0.5829467 0.0565857 0.0204933
0.5916469 0.0565731 0.0211982
0.5993495 0.0588524 0.0219512
0.6070067 0.0612187 0.0227304
0.6070067 0.0612187 0.0227304
0.6146122 0.0637005 0.0235370
0.6224625 0.0636864 0.0243447
0.6221653 0.0662769 0.0243717
0.6299576 0.0662622 0.0252074
0.6373942 0.0689358 0.0261001
0.6373942 0.0689358 0.0261001
0.0037080 0.0154099 0.0037335
0.0061136 0.0159750 0.0037976
0.0107502 0.0165582 0.0038683
0.0167032 0.0171677 0.0039231
0.0233964 0.0178024 0.0040282
0.0308495 0.0191884 0.0041709
0.0397346 0.0199281 0.0043328
0.0494468 0.0206966 0.0045360
0.0594638 0.0214959 0.0047487
0.0714326 0.0223256 0.0049688
0.0826465 0.0231887 0.0051991
0.0920790 0.0240863 0.0054400
0.1063790 0.0250155 0.0057228
0.1184168 0.0259835 0.0059385
0.1317732 0.0259708 0.0062675
0.1463600 0.0269751 0.0065036
0.1568620 0.0280364 0.0067558
0.1738586 0.0291447 0.0070544
0.1859444 0.0302980 0.0073662
0.1986859 0.0314956 0.0076916
0.2125053 0.0314846 0.0080228
0.2268206 0.0327313 0.0082025
0.2418376 0.0340218 0.0085957
0.2575431 0.0353609 0.0090404
0.2657647 0.0353542 0.0092662
0.2825126 0.0367487 0.0095078
0.3000101 0.0381917 0.0099993
0.3088720 0.0396970 0.0102598
0.3275600 0.0396819 0.0107783
0.3368631 0.0412646 0.0110773
0.3462949 0.0429518 0.0113942
0.3660970 0.0429401 0.0117071
0.3759343 0.0446931 0.0120418
0.3859556 0.0465085 0.0127260
0.3963610 0.0464990 0.0130750
0.4171542 0.0483878 0.0134484
0.4278388 0.0483779 0.0138171
0.4382955 0.0503431 0.0142115
0.4488154 0.0523842 0.0146322
0.4596981 0.0523727 0.0150799
0.4703192 0.0544915 0.0155584
0.4812839 0.0544796 0.0160340
0.4911955 0.0566880 0.0160516
0.5014502 0.0566758 0.0165422
0.5114002 0.0589599 0.0170664
0.5216577 0.0589472 0.0175875
0.5315941 0.0613177 0.0181444
0.5418208 0.0613046 0.0186979
0.5415276 0.0637946 0.0192898
0.5513960 0.0663850 0.0193111
0.5615594 0.0663707 0.0198997
0.5716803 0.0663551 0.0205845
0.5814403 0.0690316 0.0213163
0.5814403 0.0690316 0.0213163
0.5898440 0.0718095 0.0220736
0.5978572 0.0717936 0.0228319
0.6054997 0.0746877 0.0228571
0.6055202 0.0746755 0.0236421
0.6131357 0.0776647 0.0244805
0.6209764 0.0776603 0.0244802
0.6206992 0.0807647 0.0253480
0.6285030 0.0807469 0.0262165
0.6359312 0.0839739 0.0262453
0.6359514 0.0839603 0.0271442
0.0039457 0.0242939 0.0039633
0.0067772 0.0252108 0.0040691
0.0116535 0.0251773 0.0041489
0.0176539 0.0261362 0.0042072
0.0247952 0.0271337 0.0043215
0.0328136 0.0281886 0.0044736
0.0407659 0.0292967 0.0046312
0.0507844 0.0304448 0.0048657
0.0611218 0.0304258 0.0050858
0.0707699 0.0316228 0.0053216
0.0818856 0.0328657 0.0055683
0.0945958 0.0341547 0.0058767
0.1054151 0.0354984 0.0060983
0.1217526 0.0354810 0.0063214
0.1306060 0.0368750 0.0066787
0.1450808 0.0383216 0.0069594
0.1611779 0.0383048 0.0072591
0.1725493 0.0398083 0.0075799
0.1845525 0.0413942 0.0077497
0.1974043 0.0413794 0.0080834
0.2109541 0.0430649 0.0084408
0.2251859 0.0448204 0.0086613
0.2403411 0.0448028 0.0090996
0.2559595 0.0466262 0.0093372
0.2722658 0.0485148 0.0098204
0.2808327 0.0485054 0.0100655
0.2982569 0.0504667 0.0105860
0.3073390 0.0504569 0.0108502
0.3256935 0.0524994 0.0111514
0.3349623 0.0546245 0.0114705
0.3544648 0.0546020 0.0121090
0.3641329 0.0568077 0.0124551
0.3742352 0.0567960 0.0127968
0.3842217 0.0590857 0.0131624
0.4050836 0.0590692 0.0135233
0.4153708 0.0614455 0.0139094
0.4260418 0.0614328 0.0142906
0.4364844 0.0639241 0.0147138
0.4473014 0.0639101 0.0151640
0.4578659 0.0664952 0.0156452
0.4687883 0.0664805 0.0161235
0.4794363 0.0691630 0.0166348
0.4896735 0.0691481 0.0171429
0.4995940 0.0719419 0.0171619
0.5098541 0.0719264 0.0176859
0.5197992 0.0748140 0.0182461
0.5300481 0.0747979 0.0188027
0.5399660 0.0777924 0.0193977
0.5501695 0.0777756 0.0199889
0.5498580 0.0808977 0.0200112
0.5600300 0.0808788 0.0206998
0.5701580 0.0808599 0.0214117
0.5799053 0.0840901 0.0214352
0.5886227 0.0840713 0.0221721
0.5883383 0.0874115 0.0229595
0.5963598 0.0873922 0.0237477
0.6040112 0.0908625 0.0237738
0.6119365 0.0908425 0.0245895
0.6119570 0.0908279 0.0254328
0.6195135 0.0943608 0.0254603
0.6273265 0.0943401 0.0263325
0.6270384 0.0979708 0.0263610
0.6347916 0.0979493 0.0272635
0.6424786 0.0979279 0.0281961
0.0042196 0.0344475 0.0042704
0.0074343 0.0344001 0.0043524
0.0122845 0.0357220 0.0045049
0.0186944 0.0371020 0.0046110
0.0254252 0.0385433 0.0047199
0.0337382 0.0385147 0.0048263
0.0419063 0.0400159 0.0049758
0.0522590 0.0415913 0.0052064
0.0628799 0.0415651 0.0054418
0.0728106 0.0432500 0.0057065
0.0842168 0.0450029 0.0059219
0.0973951 0.0449765 0.0062498
0.1085177 0.0468003 0.0064857
0.1208884 0.0467808 0.0067229
0.1343420 0.0486738 0.0070057
0.1492338 0.0506395 0.0073156
0.1600635 0.0506211 0.0076307
0.1713643 0.0526659 0.0079681
0.1897902 0.0526427 0.0083110
0.2028247 0.0547710 0.0084974
0.2166572 0.0569729 0.0089374
0.2313859 0.0569572 0.0091606
0.2466090 0.0592425 0.0096347
0.2545930 0.0592308 0.0098752
0.2708418 0.0616023 0.0103860
0.2880957 0.0615855 0.0106451
0.2967336 0.0640842 0.0109230
0.3149902 0.0640662 0.0112138
0.3241045 0.0666500 0.0118515
0.3432687 0.0666311 0.0121767
0.3527866 0.0693208 0.0125249
0.3627174 0.0693065 0.0128686
0.3725120 0.0720969 0.0132363
0.3931257 0.0720765 0.0135992
0.4033026 0.0749709 0.0139876
0.4138741 0.0749554 0.0143709
0.4242292 0.0779565 0.0147965
0.4349677 0.0779393 0.0152492
0.4454669 0.0810501 0.0157331
0.4563329 0.0810322 0.0162140
0.4672491 0.0810143 0.0167095
0.4778923 0.0842381 0.0172391
0.4881266 0.0842200 0.0177655
0.4980644 0.0875613 0.0183281
0.5083049 0.0875550 0.0183279
0.5182505 0.0910172 0.0189081
0.5285015 0.0909977 0.0194846
0.5387353 0.0909781 0.0200784
0.5486172 0.0945152 0.0201002
0.5587938 0.0944934 0.0207918
0.5585123 0.0981139 0.0215305
0.5686477 0.0980911 0.0222705
0.5787106 0.0980840 0.0222702
0.5871364 0.1018222 0.0230601
0.5871572 0.1018059 0.0238520
0.5951645 0.1018000 0.0238517
0.6028516 0.1056658 0.0246967
0.6107843 0.1056428 0.0255434
0.6104915 0.1096626 0.0255710
0.6183715 0.1096388 0.0264470
0.6261938 0.1096151 0.0273523
0.6259052 0.1137691 0.0273819
0.6336674 0.1137446 0.0283185
0.6413444 0.1137379 0.0283181
0.0046018 0.0453509 0.0046401
0.0079496 0.0471463 0.0047491
0.0133876 0.0470861 0.0048554
0.0191811 0.0489661 0.0050056
0.0270485 0.0509198 0.0051605
0.0347199 0.0508841 0.0053145
0.0431136 0.0529294 0.0053990
0.0538779 0.0528955 0.0055602
0.0623972 0.0550216 0.0057453
0.0750493 0.0549845 0.0060634
0.0867781 0.0571892 0.0062921
0.0966725 0.0594773 0.0066480
0.1118042 0.0594472 0.0068982
0.1243741 0.0618241 0.0072033
0.1335229 0.0618015 0.0075135
0.1483363 0.0642929 0.0078458
0.1647248 0.0642709 0.0080128
0.1762902 0.0668614 0.0083671
0.1886895 0.0668360 0.0087588
0.2016650 0.0695291 0.0089877
0.2156433 0.0695015 0.0094424
0.2301042 0.0722949 0.0096890
0.2454932 0.0722663 0.0101788
0.2613367 0.0751632 0.0104446
0.2696385 0.0751484 0.0107052
0.2866050 0.0781425 0.0112771
0.2954739 0.0781263 0.0115868
0.3136860 0.0781040 0.0119049
0.3227645 0.0812224 0.0122454
0.3418874 0.0811993 0.0125813
0.3513865 0.0844316 0.0129410
0.3612988 0.0844142 0.0132959
0.3813176 0.0877457 0.0140507
0.3916740 0.0877276 0.0144357
0.4021373 0.0877091 0.0148465
0.4123981 0.0911767 0.0153179
0.4230290 0.0911697 0.0153177
0.4334576 0.0947001 0.0158035
0.4550973 0.0946719 0.0162864
0.4660085 0.0946511 0.0167841
0.4766557 0.0982716 0.0173155
0.4868873 0.0982506 0.0178442
0.4968312 0.1019957 0.0184088
0.4968503 0.1019813 0.0189705
0.5070902 0.1019739 0.0189703
0.5170443 0.1058465 0.0195700
0.5272967 0.1058238 0.0201663
0.5375354 0.1057994 0.0208602
0.5474232 0.1098168 0.0208826
0.5576043 0.1097915 0.0216007
0.5573229 0.1139339 0.0223676
0.5674635 0.1139077 0.0231358
0.5775328 0.1138994 0.0231355
0.5859646 0.1181711 0.0239556
0.5939994 0.1181457 0.0247774
0.5939994 0.1181457 0.0247774
0.6016932 0.1225577 0.0256545
0.6096335 0.1225314 0.0265332
0.6096335 0.1225314 0.0265332
0.6172290 0.1270863 0.0274711
0.6250392 0.1270789 0.0274708
0.6250595 0.1270591 0.0284107
0.6325442 0.1317579 0.0295127
0.6402309 0.1317501 0.0295123
0.0049758 0.0599517 0.0050376
0.0089119 0.0598656 0.0051868
0.0141383 0.0622139 0.0053469
0.0203723 0.0621547 0.0055060
0.0278184 0.0646396 0.0055933
0.0357661 0.0645937 0.0057725
0.0444225 0.0671831 0.0058834
0.0555465 0.0671382 0.0060982
0.0643118 0.0698337 0.0062155
0.0745604 0.0697987 0.0064427
0.0862180 0.0725876 0.0066858
0.0997346 0.0725511 0.0069373
0.1112155 0.0725186 0.0072361
0.1237260 0.0754125 0.0075562
0.1376171 0.0753790 0.0078814
0.1475821 0.0783850 0.0082300
0.1639089 0.0783503 0.0085841
0.1754218 0.0814726 0.0088084
0.1877739 0.0814405 0.0092540
0.2075659 0.0846693 0.0094957
0.2146287 0.0846427 0.0099759
0.2292568 0.0846192 0.0102249
0.2443675 0.0879707 0.0104918
0.2604105 0.0879363 0.0110219
0.2769288 0.0914070 0.0113280
0.2856104 0.0913881 0.0116391
0.3032040 0.0949205 0.0119718
0.3123892 0.0948888 0.0126380
0.3311816 0.0948618 0.0129846
0.3405360 0.0984915 0.0133553
0.3502989 0.0984713 0.0137215
0.3699518 0.1022174 0.0141129
0.3801801 0.1021965 0.0144995
0.3905249 0.1021751 0.0149122
0.4006864 0.1060541 0.0153852
0.4112364 0.1060309 0.0158556
0.4325795 0.1059995 0.0163401
0.4430724 0.1100081 0.0168577
0.4539071 0.1099995 0.0168576
0.4648131 0.1099755 0.0173724
0.4754566 0.1141175 0.0179223
0.4856855 0.1140934 0.0184692
0.4956278 0.1183728 0.0190533
0.5058861 0.1183478 0.0196341
0.5161272 0.1183392 0.0196339
0.5158407 0.1227672 0.0202545
0.5260970 0.1227391 0.0209513
0.5363379 0.1227111 0.0216717
0.5462289 0.1272901 0.0216950
0.5564144 0.1272611 0.0224406
0.5665592 0.1272320 0.0232112
0.5662576 0.1319668 0.0232364
0.5763543 0.1319368 0.0240339
0.5850907 0.1319081 0.0248583
0.5928155 0.1367330 0.0248847
0.5928364 0.1367119 0.0257379
0.6008319 0.1366828 0.0266195
0.6087574 0.1366749 0.0266192
0.6163677 0.1415209 0.0275591
0.6163883 0.1414991 0.0285020
0.6242047 0.1414909 0.0285016
0.6317050 0.1464795 0.0296061
0.6317050 0.1464795 0.0296061
0.6394219 0.1464453 0.0307720
0.0055326 0.0730949 0.0055352
0.0097029 0.0729996 0.0056156
0.0149761 0.0758618 0.0058014
0.0216918 0.0757937 0.0059055
0.0286421 0.0787825 0.0061278
0.0368828 0.0787321 0.0062382
0.0458608 0.0818384 0.0064733
0.0552413 0.0817978 0.0065901
0.0663779 0.0850289 0.0067167
0.0769328 0.0849862 0.0069694
0.0890255 0.0849501 0.0071176
0.0992067 0.0882993 0.0074325
0.1146921 0.0882530 0.0077523
0.1275440 0.0917210 0.0080951
0.1369096 0.0916971 0.0082673
0.1522452 0.0916566 0.0086230
0.1630945 0.0951887 0.0090694
0.1808011 0.0951547 0.0092957
0.1932650 0.0987768 0.0097766
0.2067895 0.0987495 0.0100206
0.2210220 0.0987222 0.0102706
0.2357600 0.1024665 0.0108014
0.2434982 0.1024465 0.0110709
0.2592607 0.1063288 0.0113780
0.2759782 0.1062986 0.0116904
0.2846548 0.1062633 0.0123411
0.3022151 0.1102740 0.0126935
0.3113684 0.1102515 0.0130417
0.3301274 0.1102204 0.0133993
0.3394661 0.1143727 0.0137817
0.3590812 0.1143405 0.0141593
0.3691207 0.1143173 0.0145473
0.3790545 0.1186049 0.0149776
0.3893883 0.1185791 0.0154358
0.3995388 0.1230059 0.0159251
0.4206903 0.1229696 0.0164117
0.4314037 0.1229431 0.0169131
0.4418893 0.1275116 0.0174487
0.4527367 0.1274842 0.0179813
0.4636187 0.1274743 0.0179811
0.4742580 0.1321887 0.0185500
0.4844840 0.1321610 0.0191158
0.4947302 0.1321333 0.0196985
0.5049880 0.1321056 0.0202988
0.5149267 0.1369351 0.0203204
0.5251839 0.1369041 0.0210195
0.5252051 0.1368831 0.0217425
0.5351526 0.1417337 0.0225133
0.5453508 0.1417235 0.0225130
0.5555395 0.1416916 0.0232861
0.5653956 0.1466865 0.0241106
0.5754756 0.1466760 0.0241103
0.5754969 0.1466536 0.0249375
0.5839484 0.1517971 0.0258193
0.5919730 0.1517884 0.0258190
0.5999737 0.1517566 0.0267033
0.5999947 0.1517335 0.0276176
0.6076411 0.1570501 0.0276461
0.6155413 0.1570173 0.0285916
0.6155413 0.1570173 0.0285916
0.6231062 0.1624603 0.0296994
0.6308944 0.1624229 0.0308689
0.6308944 0.1624229 0.0308689
0.6386179 0.1623855 0.0320832
0.0059324 0.0889310 0.0060446
0.0105638 0.0888124 0.0061522
0.0159263 0.0922518 0.0062694
0.0223376 0.0921687 0.0064977
0.0306031 0.0920980 0.0066145
0.0380341 0.0956301 0.0067412
0.0473970 0.0955678 0.0069945
0.0570134 0.0991935 0.0071509
0.0685873 0.0991436 0.0073027
0.0794652 0.0991017 0.0074580
0.0918235 0.1028564 0.0076249
0.1024598 0.1028213 0.0077871
0.1140999 0.1067000 0.0081311
0.1270285 0.1066535 0.0084810
0.1412992 0.1066173 0.0086613
0.1514951 0.1106288 0.0091095
0.1681800 0.1105769 0.0095701
0.1801146 0.1105466 0.0098090
0.1925319 0.1147024 0.0100648
0.2060271 0.1146579 0.0105735
0.2202204 0.1146265 0.0108372
0.2349090 0.1189173 0.0111197
0.2505243 0.1188693 0.0117292
0.2585956 0.1188450 0.0120512
0.2750454 0.1232729 0.0123954
0.2924889 0.1232382 0.0127354
0.3014677 0.1232132 0.0130848
0.3196288 0.1277828 0.0134582
0.3290749 0.1277570 0.0138271
0.3386687 0.1277312 0.0142061
0.3579832 0.1324459 0.0146111
0.3680096 0.1324186 0.0150270
0.3782167 0.1323901 0.0154866
0.3882560 0.1372093 0.0159774
0.4091995 0.1371693 0.0164655
0.4198231 0.1371399 0.0169686
0.4302410 0.1420003 0.0175052
0.4410196 0.1419700 0.0180396
0.4518623 0.1419398 0.0185900
0.4624464 0.1469641 0.0186095
0.4733859 0.1469329 0.0191770
0.4836099 0.1469026 0.0197616
0.4938548 0.1468721 0.0203638
0.5038182 0.1520209 0.0210865
0.5140595 0.1520101 0.0210862
0.5243176 0.1519762 0.0218112
0.5342664 0.1572741 0.0225845
0.5342664 0.1572741 0.0225845
0.5444884 0.1572391 0.0233600
0.5546799 0.1572042 0.0241617
0.5645398 0.1626529 0.0250165
0.5746242 0.1626413 0.0250162
0.5746452 0.1626169 0.0258738
0.5830800 0.1682459 0.0259007
0.5911305 0.1682112 0.0267877
0.5991360 0.1681764 0.0277044
0.5991360 0.1681764 0.0277044
0.6068083 0.1739366 0.0286818
0.6147165 0.1738983 0.0297620
0.6147165 0.1738983 0.0297620
0.6225690 0.1738587 0.0309339
0.6300598 0.1798018 0.0309658
0.6300831 0.1797714 0.0321842
0.6377906 0.1797612 0.0321838
0.0066751 0.1035151 0.0065239
0.0111795 0.1073375 0.0066476
0.0169584 0.1072243 0.0068893
0.0238491 0.1071368 0.0070202
0.0315675 0.1111318 0.0071767
0.0392696 0.1110690 0.0073289
0.0489860 0.1110053 0.0074843
0.0589083 0.1151512 0.0076516
0.0682979 0.1151031 0.0078142
0.0791331 0.1150552 0.0079802
0.0914442 0.1193436 0.0081587
0.1058172 0.1192938 0.0083321
0.1179123 0.1192536 0.0085092
0.1265169 0.1236847 0.0089173
0.1407395 0.1236412 0.0091398
0.1564365 0.1235836 0.0096020
0.1675241 0.1281668 0.0098524
0.1794302 0.1281177 0.0103504
0.1919953 0.1280832 0.0106086
0.2122400 0.1328000 0.0108850
0.2194218 0.1327588 0.0114537
0.2342875 0.1327215 0.0117681
0.2496396 0.1375427 0.0121041
0.2659045 0.1375043 0.0124362
0.2743428 0.1374767 0.0127774
0.2915318 0.1423212 0.0135022
0.3004927 0.1422928 0.0138724
0.3188823 0.1422533 0.0142524
0.3280584 0.1472695 0.0146584
0.3473433 0.1472283 0.0150754
0.3572029 0.1471971 0.0155365
0.3672204 0.1471658 0.0160115
0.3771421 0.1523254 0.0165184
0.3978405 0.1523019 0.0165180
0.4083644 0.1522696 0.0170226
0.4186940 0.1575783 0.0175610
0.4293928 0.1575450 0.0180971
0.4401659 0.1575120 0.0186492
0.4510037 0.1574788 0.0192180
0.4615840 0.1629593 0.0192380
0.4725205 0.1629251 0.0198245
0.4827423 0.1628919 0.0204285
0.4926923 0.1685023 0.0211535
0.5029509 0.1684652 0.0218808
0.5131922 0.1684532 0.0218805
0.5234510 0.1684162 0.0226323
0.5334014 0.1741808 0.0234341
0.5436042 0.1741685 0.0234338
0.5436257 0.1741427 0.0242382
0.5538201 0.1741047 0.0250695
0.5636625 0.1800523 0.0250954
0.5737723 0.1800131 0.0259554
0.5825220 0.1799757 0.0268442
0.5825220 0.1799757 0.0268442
0.5902872 0.1860577 0.0277919
0.5982769 0.1860472 0.0277916
0.6062390 0.1860096 0.0287419
0.6062618 0.1859796 0.0298246
0.6138684 0.1922491 0.0298555
0.6217272 0.1922063 0.0310309
0.6217272 0.1922063 0.0310309
0.6295261 0.1921634 0.0322515
0.6369902 0.1984421 0.0335530
0.6369902 0.1984421 0.0335530
0.0073544 0.1200658 0.0070483
0.0122400 0.1199256 0.0071964
0.0180555 0.1243109 0.0073563
0.0245878 0.1242182 0.0075119
0.0326344 0.1241320 0.0076708
0.0405425 0.1286967 0.0078421
0.0506284 0.1286115 0.0081789
0.0609326 0.1285485 0.0083524
0.0705726 0.1332724 0.0085392
0.0817378 0.1332304 0.0085386
0.0945561 0.1331758 0.0087199
0.1053879 0.1380020 0.0089473
0.1174406 0.1379540 0.0091705
0.1306933 0.1379062 0.0093993
0.1452429 0.1427716 0.0096441
0.1558331 0.1427175 0.0101316
0.1670509 0.1426793 0.0103844
0.1851100 0.1426142 0.0109089
0.1979050 0.1476316 0.0111928
0.2116768 0.1475911 0.0114906
0.2261582 0.1475500 0.0118060
0.2411373 0.1527116 0.0121429
0.2490124 0.1526629 0.0128186
0.2652499 0.1526209 0.0131700
0.2822779 0.1525788 0.0135310
0.2908235 0.1578988 0.0139167
0.3088671 0.1578556 0.0142979
0.3181357 0.1578245 0.0146897
0.3368523 0.1632825 0.0151235
0.3465639 0.1632483 0.0155861
0.3564130 0.1632141 0.0160626
0.3664201 0.1631800 0.0165535
0.3866181 0.1687878 0.0170771
0.3970318 0.1687526 0.0175986
0.4075297 0.1687397 0.0175984
0.4178527 0.1745156 0.0181547
0.4285450 0.1744794 0.0187086
0.4393124 0.1744432 0.0192791
0.4501457 0.1744071 0.0198668
0.4607223 0.1803624 0.0198875
0.4716556 0.1803252 0.0204934
0.4818778 0.1802861 0.0211984
0.4921219 0.1802468 0.0219272
0.5020623 0.1863612 0.0219500
0.5123252 0.1863209 0.0227042
0.5225846 0.1862807 0.0234837
0.5328318 0.1862404 0.0242895
0.5427412 0.1925146 0.0243148
0.5529388 0.1924732 0.0251485
0.5529599 0.1924453 0.0260107
0.5630983 0.1924319 0.0260103
0.5729252 0.1987193 0.0269286
0.5816584 0.1987073 0.0269283
0.5816795 0.1986786 0.0278500
0.5897368 0.1986390 0.0288023
0.5974485 0.2051140 0.0288315
0.6054181 0.2050703 0.0299172
0.6054181 0.2050703 0.0299172
0.6133368 0.2050251 0.0310950
0.6211993 0.2049800 0.0323180
0.6209235 0.2116232 0.0323511
0.6287289 0.2115770 0.0336221
0.6364478 0.2115653 0.0336217
0.6364709 0.2115306 0.0349416
0.0079390 0.1388586 0.0075417
0.0129732 0.1386915 0.0078644
0.0192456 0.1385652 0.0080301
0.0262507 0.1433947 0.0082085
0.0337015 0.1433069 0.0083823
0.0419060 0.1432284 0.0085599
0.0523814 0.1431481 0.0087412
0.0629525 0.1481639 0.0087497
0.0729969 0.1481014 0.0089678
0.0845204 0.1480391 0.0091914
0.0941792 0.1532053 0.0094307
0.1089590 0.1531408 0.0096657
0.1213711 0.1530883 0.0099067
0.1303233 0.1530478 0.0101539
0.1448379 0.1583590 0.0104181
0.1609069 0.1583048 0.0106778
0.1724224 0.1582630 0.0109440
0.1844237 0.1637364 0.0112288
0.1973654 0.1636922 0.0115276
0.2111202 0.1636278 0.0121692
0.2255736 0.1635830 0.0125031
0.2405252 0.1692047 0.0128596
0.2563849 0.1691588 0.0132122
0.2645833 0.1691257 0.0135744
0.2815838 0.1690797 0.0139464
0.2901164 0.1748677 0.0143438
0.3081340 0.1748205 0.0147366
0.3173907 0.1747858 0.0151559
0.3360852 0.1807145 0.0156359
0.3457856 0.1806773 0.0161139
