Plugins/FilmEmulator/Content/LUTs/FE_Fuji_CA_Pro_PDII_64.cube
TITLE "FE_Fuji_CA_Pro_PDII_33"
LUT_3D_SIZE 64
0.0000000 0.0489743 0.0644684
0.0000000 0.0489743 0.0644684
0.0136982 0.0520476 0.0646414
0.0743946 0.0624994 0.0652788
0.1483898 0.0758684 0.0662045
0.2226054 0.0900416 0.0673203
0.2876749 0.1031743 0.0684767
0.3511461 0.1166962 0.0697904
0.4212137 0.1325446 0.0714884
0.4863564 0.1482657 0.0733425
0.5463145 0.1637020 0.0753287
0.6017791 0.1789290 0.0774499
0.6548829 0.1944931 0.0797864
0.7062018 0.2105950 0.0823854
0.7527227 0.2262432 0.0850914
0.8005553 0.2435601 0.0882975
0.8489916 0.2626132 0.0920885
0.8887799 0.2796464 0.0957181
0.9282677 0.2981508 0.1000737
0.9599036 0.3151475 0.1056420
0.9865420 0.3309770 0.1111677
1.0000000 0.3503995 0.1177598
1.0000000 0.3724979 0.1253589
1.0000000 0.3920033 0.1327103
1.0000000 0.4124862 0.1409999
1.0000000 0.4312550 0.1495587
1.0000000 0.4540382 0.1602024
1.0000000 0.4725748 0.1700884
1.0000000 0.4885172 0.1789887
1.0000000 0.4925768 0.1827249
1.0000000 0.5006921 0.1887819
1.0000000 0.5140135 0.1969945
1.0000000 0.5269849 0.2055021
1.0000000 0.5388395 0.2140179
1.0000000 0.5475914 0.2214187
1.0000000 0.5548092 0.2282515
1.0000000 0.5619703 0.2345788
1.0000000 0.5680022 0.2400882
1.0000000 0.5737398 0.2454444
1.0000000 0.5792463 0.2505609
1.0000000 0.5843774 0.2554704
1.0000000 0.5894427 0.2605821
1.0000000 0.5936998 0.2653094
1.0000000 0.5981636 0.2698832
1.0000000 0.6023227 0.2749293
1.0000000 0.6060988 0.2792721
1.0000000 0.6103076 0.2839708
1.0000000 0.6139355 0.2883345
1.0000000 0.6176440 0.2928566
1.0000000 0.6212251 0.2973375
1.0000000 0.6247965 0.3018340
1.0000000 0.6283679 0.3064590
1.0000000 0.6315207 0.3108263
1.0000000 0.6344806 0.3145121
1.0000000 0.6379256 0.3192184
1.0000000 0.6410208 0.3237024
1.0000000 0.6438673 0.3275344
1.0000000 0.6463534 0.3312185
1.0000000 0.6493678 0.3359333
1.0000000 0.6521019 0.3398845
1.0000000 0.6544917 0.3437218
1.0000000 0.6568553 0.3475314
1.0000000 0.6597771 0.3525407
1.0000000 0.6621451 0.3565271
0.0000000 0.0514305 0.0646291
0.0000000 0.0507548 0.0645851
0.0167217 0.0537958 0.0647526
0.0786508 0.0640287 0.0653803
0.1514433 0.0769162 0.0662805
0.2245246 0.0906092 0.0673657
0.2893785 0.1035279 0.0685096
0.3537939 0.1172768 0.0698494
0.4212137 0.1325446 0.0714884
0.4863564 0.1482657 0.0733425
0.5463145 0.1637020 0.0753287
0.6017791 0.1789290 0.0774499
0.6548829 0.1944931 0.0797864
0.7030195 0.2095630 0.0822132
0.7490174 0.2249561 0.0848620
0.8005553 0.2435601 0.0882975
0.8453717 0.2611294 0.0917832
0.8887799 0.2796464 0.0957181
0.9282891 0.2980699 0.0999084
0.9572360 0.3137403 0.1052932
0.9865717 0.3308697 0.1109906
1.0000000 0.3485214 0.1172391
1.0000000 0.3699733 0.1246085
1.0000000 0.3918579 0.1325096
1.0000000 0.4099649 0.1401523
1.0000000 0.4312550 0.1495587
1.0000000 0.4540382 0.1602024
1.0000000 0.4723363 0.1696677
1.0000000 0.4882635 0.1785449
1.0000000 0.4925768 0.1827249
1.0000000 0.5006921 0.1887819
1.0000000 0.5140135 0.1969945
1.0000000 0.5269849 0.2055021
1.0000000 0.5388395 0.2140179
1.0000000 0.5464300 0.2208422
1.0000000 0.5544931 0.2275541
1.0000000 0.5610471 0.2341039
1.0000000 0.5680022 0.2400882
1.0000000 0.5737398 0.2454444
1.0000000 0.5792463 0.2505609
1.0000000 0.5843774 0.2554704
1.0000000 0.5888596 0.2602614
1.0000000 0.5933132 0.2646218
1.0000000 0.5981636 0.2698832
1.0000000 0.6019054 0.2741550
1.0000000 0.6060988 0.2792721
1.0000000 0.6103076 0.2839708
1.0000000 0.6139355 0.2883345
1.0000000 0.6176440 0.2928566
1.0000000 0.6212251 0.2973375
1.0000000 0.6247965 0.3018340
1.0000000 0.6280310 0.3062590
1.0000000 0.6315207 0.3108263
1.0000000 0.6344806 0.3145121
1.0000000 0.6376244 0.3190368
1.0000000 0.6404736 0.3227198
1.0000000 0.6435720 0.3273547
1.0000000 0.6463534 0.3312185
1.0000000 0.6493678 0.3359333
1.0000000 0.6518329 0.3397191
1.0000000 0.6544917 0.3437218
1.0000000 0.6568553 0.3475314
1.0000000 0.6592100 0.3513466
1.0000000 0.6621451 0.3565271
0.0000000 0.1072375 0.0685058
0.0000000 0.1057778 0.0683987
0.0227311 0.1084630 0.0685663
0.0846899 0.1164885 0.0691347
0.1576360 0.1276869 0.0700359
0.2293727 0.1395342 0.0711107
0.2913201 0.1509010 0.0722449
0.3570549 0.1631154 0.0735960
0.4240421 0.1770920 0.0752703
0.4891989 0.1910324 0.0771208
0.5488577 0.2046704 0.0790902
0.6039422 0.2187382 0.0812474
0.6538386 0.2318497 0.0834346
0.7015958 0.2457994 0.0858794
0.7478610 0.2597864 0.0885315
0.7992245 0.2767904 0.0919645
0.8436492 0.2927453 0.0954213
0.8831896 0.3086584 0.0995128
0.9224935 0.3256472 0.1050683
0.9542177 0.3405302 0.1103868
0.9809747 0.3544950 0.1156480
1.0000000 0.3715856 0.1217949
1.0000000 0.3912657 0.1291373
1.0000000 0.4083825 0.1360628
1.0000000 0.4240429 0.1433028
1.0000000 0.4428228 0.1524366
1.0000000 0.4634226 0.1628323
1.0000000 0.4793389 0.1715900
1.0000000 0.4929836 0.1801511
1.0000000 0.4947374 0.1834008
1.0000000 0.5009407 0.1888249
1.0000000 0.5123690 0.1962522
1.0000000 0.5251110 0.2046241
1.0000000 0.5376459 0.2134390
1.0000000 0.5464300 0.2208422
1.0000000 0.5544931 0.2275541
1.0000000 0.5610471 0.2341039
1.0000000 0.5671843 0.2396607
1.0000000 0.5737398 0.2454444
1.0000000 0.5792463 0.2505609
1.0000000 0.5837173 0.2551115
1.0000000 0.5888596 0.2602614
1.0000000 0.5933132 0.2646218
1.0000000 0.5976280 0.2695830
1.0000000 0.6019054 0.2741550
1.0000000 0.6060988 0.2792721
1.0000000 0.6098621 0.2837150
1.0000000 0.6139355 0.2883345
1.0000000 0.6176440 0.2928566
1.0000000 0.6212251 0.2973375
1.0000000 0.6244186 0.3016110
1.0000000 0.6280310 0.3062590
1.0000000 0.6309857 0.3098864
1.0000000 0.6344806 0.3145121
1.0000000 0.6376244 0.3190368
1.0000000 0.6404736 0.3227198
1.0000000 0.6435720 0.3273547
1.0000000 0.6463534 0.3312185
1.0000000 0.6488206 0.3348825
1.0000000 0.6518329 0.3397191
1.0000000 0.6544917 0.3437218
1.0000000 0.6568553 0.3475314
1.0000000 0.6592100 0.3513466
1.0000000 0.6615819 0.3553404
0.0000000 0.1894010 0.0750718
0.0000000 0.1881850 0.0749664
0.0307751 0.1903166 0.0751354
0.0930035 0.1985587 0.0758729
0.1642737 0.2076061 0.0767822
0.2342079 0.2183053 0.0779603
0.2945770 0.2268480 0.0790216
0.3594339 0.2380427 0.0804867
0.4256843 0.2503390 0.0822365
0.4873180 0.2625654 0.0841246
0.5461196 0.2750704 0.0862071
0.6002513 0.2873800 0.0884091
0.6494946 0.2993299 0.0906931
0.6964899 0.3115763 0.0931788
0.7424917 0.3244951 0.0959609
0.7932426 0.3391411 0.0994076
0.8367047 0.3537687 0.1043731
0.8755440 0.3679636 0.1094964
0.9141759 0.3834674 0.1152235
0.9420520 0.3954390 0.1199859
0.9713126 0.4091949 0.1254401
0.9985855 0.4232420 0.1311868
1.0000000 0.4411975 0.1392241
1.0000000 0.4586065 0.1476203
1.0000000 0.4725717 0.1552613
1.0000000 0.4895846 0.1646843
1.0000000 0.5059516 0.1738811
1.0000000 0.5204529 0.1827179
1.0000000 0.5328546 0.1910002
1.0000000 0.5346389 0.1945980
1.0000000 0.5398547 0.2000997
1.0000000 0.5495789 0.2075554
1.0000000 0.5596461 0.2156382
1.0000000 0.5687194 0.2240052
1.0000000 0.5738098 0.2299839
1.0000000 0.5795162 0.2363034
1.0000000 0.5829634 0.2408194
1.0000000 0.5875451 0.2463355
1.0000000 0.5909814 0.2506184
1.0000000 0.5941260 0.2552509
1.0000000 0.5958765 0.2587690
1.0000000 0.5986419 0.2628927
1.0000000 0.6011447 0.2674614
1.0000000 0.6030524 0.2714045
1.0000000 0.6048421 0.2754561
1.0000000 0.6065407 0.2793649
1.0000000 0.6098621 0.2837150
1.0000000 0.6134953 0.2880799
1.0000000 0.6172572 0.2926312
1.0000000 0.6208428 0.2971134
1.0000000 0.6244186 0.3016110
1.0000000 0.6280310 0.3062590
1.0000000 0.6309857 0.3098864
1.0000000 0.6344806 0.3145121
1.0000000 0.6376244 0.3190368
1.0000000 0.6404736 0.3227198
1.0000000 0.6435720 0.3273547
1.0000000 0.6463534 0.3312185
1.0000000 0.6488206 0.3348825
1.0000000 0.6518329 0.3397191
1.0000000 0.6542513 0.3435737
1.0000000 0.6568553 0.3475314
1.0000000 0.6592100 0.3513466
1.0000000 0.6615819 0.3553404
0.0036499 0.2657427 0.0882221
0.0034807 0.2625920 0.0861658
0.0394970 0.2658374 0.0849148
0.1025767 0.2730745 0.0841884
0.1735018 0.2819973 0.0841295
0.2416579 0.2911923 0.0853561
0.2998289 0.2993727 0.0865462
0.3650297 0.3093913 0.0881103
0.4281744 0.3198100 0.0898677
0.4890943 0.3307345 0.0918437
0.5441810 0.3412685 0.0938884
0.5973247 0.3521904 0.0961474
0.6489465 0.3636354 0.0986643
0.6953608 0.3746510 0.1012414
0.7411203 0.3876715 0.1052618
0.7874522 0.4007359 0.1101050
0.8299905 0.4137959 0.1151967
0.8680786 0.4264982 0.1202394
0.9060200 0.4404384 0.1257834
0.9324813 0.4519156 0.1307896
0.9614523 0.4643862 0.1366224
0.9883373 0.4771745 0.1430917
1.0000000 0.4938744 0.1519410
1.0000000 0.5075080 0.1600199
1.0000000 0.5235843 0.1688636
1.0000000 0.5367949 0.1771357
1.0000000 0.5536243 0.1874136
1.0000000 0.5662687 0.1963016
1.0000000 0.5758953 0.2040802
1.0000000 0.5773416 0.2074913
1.0000000 0.5837843 0.2141165
1.0000000 0.5915443 0.2214218
1.0000000 0.6004730 0.2295811
1.0000000 0.6085014 0.2374303
1.0000000 0.6139500 0.2437465
1.0000000 0.6179603 0.2485797
1.0000000 0.6222309 0.2541196
1.0000000 0.6260345 0.2585517
1.0000000 0.6290166 0.2632629
1.0000000 0.6317102 0.2675320
1.0000000 0.6340992 0.2716118
1.0000000 0.6363493 0.2757457
1.0000000 0.6378983 0.2796380
1.0000000 0.6399142 0.2838072
1.0000000 0.6412750 0.2877581
1.0000000 0.6426589 0.2917351
1.0000000 0.6442989 0.2951388
1.0000000 0.6460230 0.2993131
1.0000000 0.6471457 0.3033091
1.0000000 0.6481044 0.3064575
1.0000000 0.6487398 0.3103309
1.0000000 0.6496379 0.3135406
1.0000000 0.6504526 0.3167036
1.0000000 0.6513010 0.3208728
1.0000000 0.6517441 0.3239166
1.0000000 0.6524587 0.3271165
1.0000000 0.6529075 0.3303785
1.0000000 0.6535946 0.3337701
1.0000000 0.6539936 0.3369666
1.0000000 0.6543978 0.3402917
1.0000000 0.6547621 0.3436877
1.0000000 0.6568553 0.3475314
1.0000000 0.6592100 0.3513466
1.0000000 0.6615819 0.3553404
0.0085132 0.3373788 0.1087016
0.0085598 0.3337929 0.1049104
0.0495747 0.3387237 0.1026520
0.1130654 0.3450627 0.1010205
0.1819431 0.3526505 0.1004252
0.2499017 0.3607229 0.1001929
0.3058757 0.3675753 0.0999054
0.3690480 0.3761400 0.1000907
0.4313196 0.3852649 0.1003788
0.4915169 0.3947908 0.1007926
0.5459304 0.4040168 0.1022606
0.5982495 0.4151558 0.1047981
0.6459159 0.4245338 0.1075101
0.6917145 0.4343709 0.1117110
0.7368541 0.4462999 0.1163634
0.7824889 0.4579725 0.1211680
0.8238988 0.4708578 0.1262913
0.8613386 0.4822003 0.1314030
0.8979813 0.4944606 0.1372593
0.9240389 0.5049974 0.1428427
0.9524729 0.5161830 0.1495503
0.9788328 0.5275894 0.1563768
1.0000000 0.5440170 0.1657428
1.0000000 0.5556998 0.1733767
1.0000000 0.5677413 0.1814659
1.0000000 0.5825189 0.1910761
1.0000000 0.5954666 0.2005033
1.0000000 0.6066601 0.2091610
1.0000000 0.6160724 0.2173964
1.0000000 0.6171878 0.2212932
1.0000000 0.6230087 0.2275882
1.0000000 0.6312375 0.2358007
1.0000000 0.6391558 0.2439170
1.0000000 0.6465147 0.2512984
1.0000000 0.6502813 0.2562343
1.0000000 0.6544259 0.2619038
1.0000000 0.6580998 0.2664248
1.0000000 0.6607633 0.2707458
1.0000000 0.6632509 0.2756779
1.0000000 0.6654730 0.2798930
1.0000000 0.6681866 0.2844018
1.0000000 0.6700108 0.2886228
1.0000000 0.6712001 0.2925421
1.0000000 0.6735404 0.2962933
1.0000000 0.6745812 0.3001745
1.0000000 0.6760471 0.3044956
1.0000000 0.6776167 0.3078631
1.0000000 0.6784747 0.3117921
1.0000000 0.6792694 0.3150496
1.0000000 0.6806550 0.3192211
1.0000000 0.6813216 0.3223798
1.0000000 0.6819056 0.3255945
1.0000000 0.6821871 0.3294666
1.0000000 0.6834100 0.3328253
1.0000000 0.6836165 0.3359352
1.0000000 0.6840726 0.3392820
1.0000000 0.6849449 0.3426021
1.0000000 0.6853497 0.3459379
1.0000000 0.6855093 0.3492819
1.0000000 0.6856865 0.3526125
1.0000000 0.6866897 0.3562037
1.0000000 0.6867645 0.3585664
1.0000000 0.6868775 0.3620312
1.0000000 0.6869627 0.3654577
0.0145719 0.4059681 0.1343450
0.0155951 0.4038631 0.1301028
0.0609220 0.4067056 0.1273437
0.1236080 0.4118413 0.1251658
0.1911560 0.4180536 0.1234914
0.2570493 0.4266438 0.1219156
0.3126116 0.4324279 0.1205744
0.3763326 0.4399979 0.1193707
0.4376332 0.4496900 0.1188159
0.4944159 0.4575275 0.1184893
0.5480660 0.4655355 0.1191651
0.5968188 0.4733098 0.1199505
0.6434739 0.4830648 0.1211842
0.6886855 0.4915328 0.1233230
0.7333831 0.5007513 0.1276186
0.7747078 0.5116528 0.1323453
0.8189858 0.5227418 0.1377640
0.8555843 0.5342672 0.1436038
0.8907249 0.5447805 0.1498935
0.9165412 0.5544922 0.1562713
0.9415779 0.5631201 0.1627625
0.9698024 0.5757023 0.1704633
0.9974503 0.5879805 0.1787289
1.0000000 0.6008584 0.1873789
1.0000000 0.6118463 0.1958321
1.0000000 0.6235177 0.2043741
1.0000000 0.6367427 0.2150175
1.0000000 0.6463640 0.2239217
1.0000000 0.6536553 0.2312947
1.0000000 0.6544082 0.2352358
1.0000000 0.6605780 0.2421966
1.0000000 0.6666052 0.2493518
1.0000000 0.6744977 0.2573710
1.0000000 0.6801562 0.2637935
1.0000000 0.6850942 0.2698864
1.0000000 0.6877863 0.2743747
1.0000000 0.6917505 0.2795712
1.0000000 0.6938614 0.2838589
1.0000000 0.6958667 0.2882959
1.0000000 0.6984717 0.2928662
1.0000000 0.7000085 0.2970784
1.0000000 0.7018616 0.3013167
1.0000000 0.7031927 0.3055410
1.0000000 0.7048829 0.3089823
1.0000000 0.7060218 0.3132622
1.0000000 0.7075934 0.3174612
1.0000000 0.7081910 0.3206382
1.0000000 0.7087796 0.3246652
1.0000000 0.7101175 0.3280565
1.0000000 0.7105359 0.3311998
1.0000000 0.7117575 0.3346397
1.0000000 0.7121189 0.3386339
1.0000000 0.7132204 0.3420336
1.0000000 0.7132680 0.3451693
1.0000000 0.7135063 0.3484321
1.0000000 0.7142885 0.3517081
1.0000000 0.7145180 0.3551534
1.0000000 0.7152584 0.3586132
1.0000000 0.7152082 0.3618416
1.0000000 0.7153877 0.3642736
1.0000000 0.7160744 0.3678694
1.0000000 0.7160224 0.3712443
1.0000000 0.7167008 0.3747944
1.0000000 0.7165959 0.3771484
0.0218916 0.4710365 0.1642614
0.0253810 0.4689437 0.1592482
0.0730976 0.4736249 0.1564299
0.1366078 0.4779117 0.1535551
0.2036142 0.4853178 0.1514167
0.2667644 0.4906026 0.1491565
0.3206189 0.4952532 0.1466509
0.3818645 0.5034482 0.1452173
0.4420667 0.5100594 0.1445504
0.4980223 0.5166719 0.1431556
0.5507772 0.5254304 0.1430057
0.5987566 0.5320022 0.1426472
0.6446278 0.5388244 0.1421762
0.6861364 0.5473493 0.1422920
0.7301782 0.5552018 0.1429368
0.7708253 0.5649893 0.1453956
0.8109065 0.5736908 0.1509018
0.8501235 0.5850280 0.1580251
0.8812071 0.5930575 0.1639977
0.9093088 0.6027563 0.1709430
0.9340251 0.6102685 0.1771674
0.9587156 0.6204045 0.1844511
0.9888991 0.6325706 0.1936165
1.0000000 0.6426363 0.2012428
1.0000000 0.6535407 0.2102870
1.0000000 0.6643161 0.2197565
1.0000000 0.6755195 0.2296670
1.0000000 0.6851383 0.2394112
1.0000000 0.6903691 0.2460430
1.0000000 0.6907617 0.2498037
1.0000000 0.6962756 0.2564434
1.0000000 0.7025833 0.2636501
1.0000000 0.7096041 0.2714703
1.0000000 0.7132715 0.2768590
1.0000000 0.7176953 0.2831392
1.0000000 0.7215320 0.2884766
1.0000000 0.7234115 0.2929563
1.0000000 0.7261256 0.2977703
1.0000000 0.7276734 0.3021750
1.0000000 0.7299995 0.3068694
1.0000000 0.7311221 0.3104395
1.0000000 0.7331494 0.3149148
1.0000000 0.7336725 0.3188981
1.0000000 0.7355229 0.3226749
1.0000000 0.7359108 0.3265476
1.0000000 0.7373009 0.3300828
1.0000000 0.7376430 0.3340158
1.0000000 0.7391698 0.3376560
1.0000000 0.7394043 0.3408400
1.0000000 0.7404957 0.3442350
1.0000000 0.7404186 0.3479545
1.0000000 0.7414405 0.3515013
1.0000000 0.7415082 0.3547247
1.0000000 0.7422589 0.3580155
1.0000000 0.7431805 0.3615699
1.0000000 0.7431802 0.3649331
1.0000000 0.7438766 0.3683751
1.0000000 0.7436037 0.3705293
1.0000000 0.7444588 0.3742441
1.0000000 0.7442133 0.3775598
1.0000000 0.7448198 0.3810808
1.0000000 0.7444940 0.3832917
1.0000000 0.7450986 0.3869728
1.0000000 0.7447801 0.3903516
0.0305794 0.5328504 0.1910419
0.0379975 0.5310794 0.1869560
0.0865729 0.5353390 0.1841962
0.1494976 0.5388801 0.1821993
0.2151480 0.5454042 0.1804340
0.2754762 0.5495483 0.1789749
0.3299773 0.5534713 0.1768072
0.3906618 0.5608280 0.1754411
0.4476439 0.5660478 0.1735818
0.5027652 0.5737641 0.1723248
0.5543883 0.5794029 0.1709901
0.6014285 0.5870183 0.1695650
0.6437464 0.5922954 0.1689937
0.6872762 0.6004451 0.1688262
0.7276382 0.6066133 0.1687775
0.7711705 0.6143228 0.1695854
0.8068987 0.6229098 0.1708032
0.8455662 0.6312471 0.1725861
0.8749239 0.6397757 0.1793771
0.8999199 0.6476400 0.1856708
0.9269502 0.6551394 0.1925632
0.9517760 0.6645172 0.1997957
0.9807257 0.6750634 0.2092118
0.9989524 0.6837695 0.2169045
1.0000000 0.6937422 0.2267506
1.0000000 0.7032079 0.2365171
1.0000000 0.7131087 0.2465117
1.0000000 0.7200463 0.2551656
1.0000000 0.7248864 0.2610510
1.0000000 0.7262895 0.2649249
1.0000000 0.7306097 0.2710050
1.0000000 0.7363366 0.2781976
1.0000000 0.7413296 0.2851145
1.0000000 0.7462413 0.2915729
1.0000000 0.7501394 0.2972358
1.0000000 0.7517244 0.3018626
1.0000000 0.7543495 0.3067899
1.0000000 0.7560534 0.3116233
1.0000000 0.7583617 0.3165072
1.0000000 0.7603475 0.3210974
1.0000000 0.7608308 0.3250866
1.0000000 0.7626178 0.3289495
1.0000000 0.7632692 0.3331145
1.0000000 0.7645764 0.3366628
1.0000000 0.7658094 0.3401519
1.0000000 0.7662948 0.3443243
1.0000000 0.7673853 0.3477786
1.0000000 0.7674412 0.3509027
1.0000000 0.7684648 0.3543041
1.0000000 0.7694381 0.3586181
1.0000000 0.7693782 0.3618250
1.0000000 0.7700458 0.3650895
1.0000000 0.7698961 0.3682361
1.0000000 0.7707580 0.3718906
1.0000000 0.7703580 0.3749623
1.0000000 0.7711439 0.3775688
1.0000000 0.7717550 0.3810434
1.0000000 0.7715010 0.3844184
1.0000000 0.7720773 0.3879438
1.0000000 0.7716323 0.3901135
1.0000000 0.7721649 0.3936951
1.0000000 0.7726918 0.3973150
1.0000000 0.7723567 0.3996737
1.0000000 0.7728480 0.4032250
0.0409649 0.5926833 0.2211260
0.0518600 0.5908886 0.2162261
0.1012676 0.5921528 0.2131556
0.1636133 0.5972947 0.2109169
0.2277160 0.6004438 0.2085184
0.2852916 0.6058954 0.2068151
0.3381537 0.6087723 0.2046649
0.3981216 0.6152793 0.2037848
0.4542593 0.6218219 0.2024311
0.5083727 0.6262642 0.2016070
0.5562557 0.6327533 0.2008657
0.6022418 0.6371522 0.2003861
0.6465513 0.6441200 0.1999722
0.6863587 0.6486111 0.1990445
0.7258212 0.6558338 0.1987826
0.7686462 0.6621816 0.1987319
0.8066474 0.6705025 0.1989701
0.8412256 0.6766688 0.1995442
0.8692238 0.6840174 0.2004395
0.8943104 0.6890779 0.2013850
0.9204769 0.6972803 0.2085660
0.9457647 0.7041941 0.2157788
0.9703039 0.7137106 0.2252851
0.9901568 0.7223391 0.2340603
1.0000000 0.7298298 0.2430543
1.0000000 0.7383251 0.2524363
1.0000000 0.7481831 0.2630129
1.0000000 0.7539729 0.2706639
1.0000000 0.7572387 0.2761362
1.0000000 0.7584661 0.2793073
1.0000000 0.7620525 0.2858042
1.0000000 0.7680440 0.2934660
1.0000000 0.7735111 0.3008053
1.0000000 0.7756488 0.3060844
1.0000000 0.7790949 0.3119917
1.0000000 0.7802727 0.3165039
1.0000000 0.7830468 0.3220264
1.0000000 0.7851166 0.3268626
1.0000000 0.7859120 0.3305545
1.0000000 0.7876638 0.3352836
1.0000000 0.7893502 0.3392012
1.0000000 0.7893871 0.3430303
1.0000000 0.7908815 0.3468914
1.0000000 0.7920328 0.3511704
1.0000000 0.7921923 0.3544855
1.0000000 0.7932602 0.3580341
1.0000000 0.7942156 0.3614562
1.0000000 0.7939977 0.3653137
1.0000000 0.7948971 0.3688824
1.0000000 0.7946573 0.3719760
1.0000000 0.7955003 0.3754550
1.0000000 0.7962673 0.3790564
1.0000000 0.7958009 0.3811400
1.0000000 0.7965543 0.3847232
1.0000000 0.7972529 0.3882575
1.0000000 0.7967584 0.3914211
1.0000000 0.7972913 0.3949414
1.0000000 0.7979352 0.3975696
1.0000000 0.7974131 0.4007160
1.0000000 0.7979147 0.4043419
1.0000000 0.7974824 0.4066336
1.0000000 0.7979385 0.4101771
1.0000000 0.7983814 0.4127058
1.0000000 0.7977912 0.4160014
0.0523378 0.6462051 0.2508451
0.0666700 0.6445739 0.2455365
0.1178082 0.6480334 0.2435654
0.1788212 0.6499253 0.2404066
0.2417079 0.6548122 0.2389770
0.2974401 0.6570073 0.2362918
0.3495651 0.6616711 0.2351289
0.4090594 0.6673822 0.2335968
0.4641427 0.6707436 0.2318120
0.5148827 0.6764453 0.2307055
0.5617967 0.6798271 0.2293050
0.6065826 0.6856892 0.2287700
0.6474980 0.6892124 0.2277510
0.6862360 0.6951122 0.2278621
0.7284189 0.7020697 0.2279875
0.7669520 0.7068571 0.2285385
0.8039070 0.7141608 0.2295949
0.8375828 0.7193722 0.2301670
0.8641793 0.7256904 0.2315514
0.8888446 0.7300050 0.2318070
0.9118303 0.7364834 0.2328260
0.9365485 0.7422141 0.2336424
0.9629334 0.7514447 0.2427771
0.9798672 0.7580892 0.2509677
0.9984273 0.7643842 0.2597032
1.0000000 0.7729413 0.2696818
1.0000000 0.7804535 0.2785277
1.0000000 0.7852823 0.2864293
1.0000000 0.7882880 0.2913773
1.0000000 0.7899328 0.2952441
1.0000000 0.7942390 0.3017878
1.0000000 0.7973522 0.3087875
1.0000000 0.8021379 0.3163407
1.0000000 0.8056340 0.3226379
1.0000000 0.8067972 0.3268412
1.0000000 0.8093288 0.3323857
1.0000000 0.8113312 0.3373594
1.0000000 0.8118342 0.3417802
1.0000000 0.8135996 0.3459628
1.0000000 0.8151150 0.3506293
1.0000000 0.8153134 0.3540923
1.0000000 0.8166496 0.3579313
1.0000000 0.8176854 0.3622028
1.0000000 0.8176641 0.3655279
1.0000000 0.8186024 0.3690318
1.0000000 0.8195249 0.3725069
1.0000000 0.8191165 0.3754987
1.0000000 0.8201479 0.3801740
1.0000000 0.8208994 0.3836384
1.0000000 0.8202227 0.3864774
1.0000000 0.8209476 0.3891827
1.0000000 0.8216073 0.3927354
1.0000000 0.8222579 0.3962604
1.0000000 0.8215584 0.3992589
1.0000000 0.8221601 0.4029040
1.0000000 0.8226086 0.4053774
1.0000000 0.8220690 0.4085155
1.0000000 0.8224958 0.4120967
1.0000000 0.8229157 0.4146258
1.0000000 0.8223435 0.4178600
1.0000000 0.8227236 0.4203184
1.0000000 0.8231104 0.4239403
1.0000000 0.8223686 0.4260454
1.0000000 0.8227298 0.4296194
0.0654228 0.6950430 0.2819505
0.0835577 0.6960497 0.2766813
0.1341363 0.6962991 0.2737170
0.1953536 0.7001197 0.2717273
0.2561836 0.7015884 0.2693389
0.3091270 0.7054480 0.2668149
0.3622552 0.7095976 0.2654489
0.4182169 0.7117770 0.2637525
0.4724576 0.7167566 0.2621706
0.5221063 0.7192165 0.2608996
0.5681551 0.7241901 0.2596076
0.6093867 0.7289853 0.2585092
0.6519941 0.7319545 0.2579373
0.6897560 0.7371104 0.2573736
0.7289907 0.7405981 0.2566972
0.7662580 0.7466489 0.2570488
0.8021891 0.7530348 0.2580447
0.8349836 0.7573144 0.2585496
0.8602402 0.7627320 0.2594413
0.8844521 0.7664728 0.2595791
0.9069495 0.7722169 0.2612926
0.9311691 0.7790306 0.2643415
0.9563638 0.7851770 0.2673551
0.9726053 0.7909722 0.2695394
0.9909132 0.7964425 0.2769791
1.0000000 0.8030233 0.2853717
1.0000000 0.8103803 0.2948406
1.0000000 0.8158354 0.3033095
1.0000000 0.8162113 0.3069695
1.0000000 0.8176368 0.3108274
1.0000000 0.8213863 0.3175644
1.0000000 0.8246247 0.3248022
1.0000000 0.8280855 0.3314900
1.0000000 0.8311264 0.3379029
1.0000000 0.8337157 0.3438143
1.0000000 0.8341606 0.3475357
1.0000000 0.8362203 0.3530328
1.0000000 0.8377599 0.3571554
1.0000000 0.8379778 0.3614855
1.0000000 0.8392577 0.3654223
1.0000000 0.8402641 0.3697664
1.0000000 0.8414124 0.3736404
1.0000000 0.8412719 0.3769037
1.0000000 0.8421065 0.3803831
1.0000000 0.8429094 0.3838887
1.0000000 0.8426403 0.3871724
1.0000000 0.8433487 0.3906798
1.0000000 0.8440522 0.3941671
1.0000000 0.8446922 0.3977681
1.0000000 0.8440874 0.4007804
1.0000000 0.8446960 0.4043291
1.0000000 0.8451109 0.4077047
1.0000000 0.8445335 0.4108388
1.0000000 0.8450749 0.4134853
1.0000000 0.8454561 0.4168828
1.0000000 0.8459637 0.4205490
1.0000000 0.8452136 0.4225553
1.0000000 0.8455706 0.4260535
1.0000000 0.8460454 0.4296808
1.0000000 0.8452746 0.4317216
1.0000000 0.8455976 0.4352937
1.0000000 0.8459191 0.4377964
1.0000000 0.8451234 0.4397919
1.0000000 0.8454241 0.4433796
0.0827812 0.7433026 0.3130240
0.1012549 0.7413185 0.3077762
0.1526932 0.7438371 0.3050883
0.2122175 0.7469677 0.3028276
0.2708747 0.7475396 0.3000345
0.3220448 0.7507238 0.2980242
0.3761976 0.7543547 0.2963120
0.4308494 0.7556539 0.2942762
0.4818381 0.7597182 0.2931786
0.5303531 0.7615423 0.2914879
0.5753996 0.7657992 0.2908555
0.6158642 0.7699399 0.2894233
0.6546702 0.7719395 0.2883307
0.6917399 0.7763947 0.2883157
0.7300680 0.7814061 0.2879914
0.7692280 0.7848352 0.2883024
0.8011532 0.7899030 0.2884759
0.8327334 0.7953969 0.2892504
0.8569307 0.7979020 0.2894968
0.8803309 0.8027773 0.2903207
0.9026567 0.8058088 0.2906818
0.9267223 0.8119075 0.2930602
0.9498882 0.8185150 0.2964619
0.9660760 0.8217157 0.2978439
0.9813855 0.8271916 0.3009419
0.9974768 0.8337151 0.3050874
1.0000000 0.8375236 0.3117399
1.0000000 0.8422329 0.3196759
1.0000000 0.8439133 0.3242513
1.0000000 0.8439507 0.3280929
