Plugins/FilmEmulator/Content/LUTs/FE_Fuji_3513DI_64.cube
TITLE "FE_Fuji_3513DI_33"
LUT_3D_SIZE 64
0.0000000 0.0474503 0.2747737
0.0000000 0.0474506 0.2747738
0.0000000 0.0471822 0.2747492
0.0000000 0.0489041 0.2749074
0.0000000 0.0491453 0.2749297
0.0014752 0.0495400 0.2749665
0.0119447 0.0506806 0.2750739
0.0361104 0.0533304 0.2716790
0.0691175 0.0569372 0.2533205
0.1082788 0.0613919 0.2395130
0.1489823 0.0662153 0.2298915
0.1945366 0.0718528 0.2227645
0.2385454 0.0775478 0.2178242
0.2842281 0.0837402 0.2145541
0.3268050 0.0897830 0.2124181
0.3674878 0.0958377 0.2110630
0.4087939 0.1024182 0.2107582
0.4475855 0.1091098 0.2109422
0.4840220 0.1158840 0.2115874
0.5219125 0.1232263 0.2127732
0.5569837 0.1308506 0.2142389
0.5931234 0.1402340 0.2160684
0.6295915 0.1509305 0.2182740
0.6613837 0.1605168 0.2204761
0.6938176 0.1703389 0.2229622
0.7267636 0.1792731 0.2258568
0.7545376 0.1866849 0.2285074
0.7887286 0.1956698 0.2317804
0.8182687 0.2037711 0.2349898
0.8430974 0.2109014 0.2380261
0.8734382 0.2200804 0.2417758
0.8981600 0.2280168 0.2450482
0.9282503 0.2383497 0.2491350
0.9520638 0.2471516 0.2528453
0.9760579 0.2570764 0.2569154
0.9941672 0.2651990 0.2604828
1.0000000 0.2758343 0.2645258
1.0000000 0.2848938 0.2683072
1.0000000 0.2957611 0.2724741
1.0000000 0.3053335 0.2763713
1.0000000 0.3143803 0.2800279
1.0000000 0.3236375 0.2838243
1.0000000 0.3327864 0.2876507
1.0000000 0.3418086 0.2916243
1.0000000 0.3502267 0.2953088
1.0000000 0.3589010 0.2993025
1.0000000 0.3661926 0.3029492
1.0000000 0.3746535 0.3069437
1.0000000 0.3818482 0.3107135
1.0000000 0.3904262 0.3152037
1.0000000 0.3972986 0.3190092
1.0000000 0.4046812 0.3233905
1.0000000 0.4116310 0.3276963
1.0000000 0.4201174 0.3327407
1.0000000 0.4268579 0.3370249
1.0000000 0.4337295 0.3415358
1.0000000 0.4407012 0.3461909
1.0000000 0.4460481 0.3500836
1.0000000 0.4529369 0.3547292
1.0000000 0.4602014 0.3595240
1.0000000 0.4664317 0.3634459
1.0000000 0.4734822 0.3682019
1.0000000 0.4792610 0.3722931
1.0000000 0.4855538 0.3762939
0.0000000 0.0574267 0.2747574
0.0000000 0.0573398 0.2747577
0.0000000 0.0569989 0.2747296
0.0000000 0.0587590 0.2748922
0.0000000 0.0589960 0.2749149
0.0029330 0.0593548 0.2749493
0.0121461 0.0603896 0.2750455
0.0364968 0.0609358 0.2602023
0.0674253 0.0623569 0.2458059
0.1049927 0.0651874 0.2350069
0.1474116 0.0690541 0.2267536
0.1889892 0.0733357 0.2208611
0.2357211 0.0787739 0.2167662
0.2777159 0.0839617 0.2138593
0.3194890 0.0895008 0.2120243
0.3637782 0.0958430 0.2111445
0.4011373 0.1014275 0.2106661
0.4394927 0.1077191 0.2107685
0.4797277 0.1150063 0.2115052
0.5173974 0.1223143 0.2125993
0.5526981 0.1297423 0.2140270
0.5886482 0.1390527 0.2158349
0.6249634 0.1491219 0.2179029
0.6565838 0.1590925 0.2201250
0.6893066 0.1690022 0.2225949
0.7220113 0.1779627 0.2254320
0.7545567 0.1866654 0.2283294
0.7840026 0.1943921 0.2312864
0.8131131 0.2023313 0.2344236
0.8431171 0.2109094 0.2378283
0.8682835 0.2184801 0.2411277
0.8981841 0.2280113 0.2448147
0.9232585 0.2365845 0.2483971
0.9474570 0.2453436 0.2520893
0.9713180 0.2550686 0.2560886
0.9942194 0.2650165 0.2602246
1.0000000 0.2739227 0.2639155
1.0000000 0.2845925 0.2680407
1.0000000 0.2938527 0.2718311
1.0000000 0.3030622 0.2754633
1.0000000 0.3139310 0.2797489
1.0000000 0.3231940 0.2835464
1.0000000 0.3323490 0.2873740
1.0000000 0.3413562 0.2913031
1.0000000 0.3484756 0.2946284
1.0000000 0.3571922 0.2986236
1.0000000 0.3656618 0.3025565
1.0000000 0.3729502 0.3062398
1.0000000 0.3812616 0.3102216
1.0000000 0.3887222 0.3144721
1.0000000 0.3956292 0.3182807
1.0000000 0.4040482 0.3227969
1.0000000 0.4109372 0.3269885
1.0000000 0.4185290 0.3320104
1.0000000 0.4253024 0.3362989
1.0000000 0.4321935 0.3408081
1.0000000 0.4391718 0.3454552
1.0000000 0.4460481 0.3500836
1.0000000 0.4520371 0.3538790
1.0000000 0.4592452 0.3586553
1.0000000 0.4664317 0.3634459
1.0000000 0.4720818 0.3674788
1.0000000 0.4781657 0.3713750
1.0000000 0.4855538 0.3762939
0.0000000 0.0718324 0.2665188
0.0000000 0.0729481 0.2747481
0.0000000 0.0726701 0.2747208
0.0003434 0.0743564 0.2748854
0.0025771 0.0745915 0.2749090
0.0056964 0.0749206 0.2749421
0.0162618 0.0734780 0.2565744
0.0387530 0.0740685 0.2433004
0.0695566 0.0759995 0.2327840
0.1064267 0.0790940 0.2251200
0.1480541 0.0831498 0.2194335
0.1916835 0.0878512 0.2153436
0.2349365 0.0928648 0.2125186
0.2766172 0.0980682 0.2107309
0.3212875 0.1040473 0.2098947
0.3615727 0.1097381 0.2095273
0.4024453 0.1158575 0.2098014
0.4405589 0.1218680 0.2104353
0.4762543 0.1277605 0.2114012
0.5139205 0.1343274 0.2127871
0.5530884 0.1415160 0.2145156
0.5888305 0.1484290 0.2164074
0.6203312 0.1548199 0.2182978
0.6565402 0.1625254 0.2206375
0.6892382 0.1698565 0.2231825
0.7171566 0.1764501 0.2255927
0.7498279 0.1845393 0.2285467
0.7792150 0.1921860 0.2312946
0.8078823 0.2000703 0.2344097
0.8382760 0.2088441 0.2376280
0.8630717 0.2164285 0.2406752
0.8933740 0.2262377 0.2443664
0.9181721 0.2347501 0.2478896
0.9427367 0.2436630 0.2515833
0.9664543 0.2531720 0.2555169
0.9897959 0.2630451 0.2593971
1.0000000 0.2736169 0.2636474
1.0000000 0.2827216 0.2674289
1.0000000 0.2934392 0.2715657
1.0000000 0.3026538 0.2751989
1.0000000 0.3121088 0.2791047
1.0000000 0.3213180 0.2828669
1.0000000 0.3305184 0.2866948
1.0000000 0.3395641 0.2906225
1.0000000 0.3480277 0.2943084
1.0000000 0.3567504 0.2983053
1.0000000 0.3639136 0.3018500
1.0000000 0.3724250 0.3058486
1.0000000 0.3795912 0.3095199
1.0000000 0.3881078 0.3139315
1.0000000 0.3950216 0.3177425
1.0000000 0.4024127 0.3220716
1.0000000 0.4093142 0.3262574
1.0000000 0.4178433 0.3313067
1.0000000 0.4246247 0.3355998
1.0000000 0.4314039 0.3399901
1.0000000 0.4383919 0.3446426
1.0000000 0.4452777 0.3492766
1.0000000 0.4520371 0.3538790
1.0000000 0.4577792 0.3579214
1.0000000 0.4649994 0.3627174
1.0000000 0.4711468 0.3666204
1.0000000 0.4781657 0.3713750
1.0000000 0.4841795 0.3755651
0.0000000 0.0987600 0.2213336
0.0000000 0.0981320 0.2301631
0.0000000 0.0985903 0.2361584
0.0090126 0.1001235 0.2429998
0.0105028 0.1014213 0.2518671
0.0131823 0.1020000 0.2542413
0.0224008 0.1011409 0.2404194
0.0444319 0.1021642 0.2308012
0.0741009 0.1043193 0.2233298
0.1100678 0.1075479 0.2182052
0.1508247 0.1115886 0.2141581
0.1933329 0.1161790 0.2114010
0.2361093 0.1219403 0.2097205
0.2804592 0.1274473 0.2089399
0.3210986 0.1327755 0.2086360
0.3608052 0.1382837 0.2089215
0.4011781 0.1441945 0.2096875
0.4386899 0.1499700 0.2107104
0.4780438 0.1563405 0.2120953
0.5153296 0.1626977 0.2137497
0.5498548 0.1688761 0.2155117
0.5850630 0.1762331 0.2175411
0.6206795 0.1832516 0.2197711
0.6521252 0.1897973 0.2222109
0.6843333 0.1968104 0.2247616
0.7164584 0.2041814 0.2276188
0.7487985 0.2119635 0.2304604
0.7778423 0.2193700 0.2335087
0.8062167 0.2269537 0.2364846
0.8362665 0.2354269 0.2398227
0.8607286 0.2434316 0.2429393
0.8906729 0.2528480 0.2467751
0.9151795 0.2610539 0.2503326
0.9394699 0.2696261 0.2538990
0.9629493 0.2784533 0.2578468
0.9860582 0.2876434 0.2617627
1.0000000 0.2949420 0.2651299
1.0000000 0.3042625 0.2692206
1.0000000 0.3115807 0.2726768
1.0000000 0.3208624 0.2768766
1.0000000 0.3287971 0.2805130
1.0000000 0.3361653 0.2841988
1.0000000 0.3435344 0.2876931
1.0000000 0.3507974 0.2915812
1.0000000 0.3561683 0.2945191
1.0000000 0.3631996 0.2984250
1.0000000 0.3700944 0.3022453
1.0000000 0.3754455 0.3058103
1.0000000 0.3823334 0.3097038
1.0000000 0.3880357 0.3133113
1.0000000 0.3933406 0.3170130
1.0000000 0.4018118 0.3215364
1.0000000 0.4093142 0.3262574
1.0000000 0.4162435 0.3305752
1.0000000 0.4230585 0.3348724
1.0000000 0.4298705 0.3392670
1.0000000 0.4368511 0.3439054
1.0000000 0.4437701 0.3485443
1.0000000 0.4505622 0.3531518
1.0000000 0.4568187 0.3570509
1.0000000 0.4640516 0.3618529
1.0000000 0.4697362 0.3658956
1.0000000 0.4767870 0.3706559
1.0000000 0.4830946 0.3746516
0.0115367 0.1541443 0.2062911
0.0105585 0.1511738 0.2096711
0.0080361 0.1511725 0.2116828
0.0228029 0.1528887 0.2146198
0.0248507 0.1534479 0.2177742
0.0269991 0.1524248 0.2212510
0.0341488 0.1536246 0.2256849
0.0547981 0.1552443 0.2225982
0.0834782 0.1574184 0.2171146
0.1181328 0.1605043 0.2134988
0.1577519 0.1643510 0.2108310
0.1988530 0.1686570 0.2092531
0.2439559 0.1753137 0.2085975
0.2844079 0.1801168 0.2084709
0.3241051 0.1850906 0.2087907
0.3664109 0.1906906 0.2096088
0.4060639 0.1962302 0.2107555
0.4429018 0.2016420 0.2121087
0.4776457 0.2069903 0.2136040
0.5141891 0.2128946 0.2154385
0.5520606 0.2193303 0.2175597
0.5865946 0.2255170 0.2198107
0.6215506 0.2321030 0.2223126
0.6524264 0.2382237 0.2247871
0.6840262 0.2448043 0.2275645
0.7155500 0.2531329 0.2303680
0.7428231 0.2594137 0.2332361
0.7710240 0.2661950 0.2361383
0.8035285 0.2744309 0.2395596
0.8281944 0.2810656 0.2426029
0.8569772 0.2892093 0.2462170
0.8815951 0.2965630 0.2494277
0.9103262 0.3056888 0.2535706
0.9341086 0.3137139 0.2571805
0.9570872 0.3219824 0.2612053
0.9753082 0.3289063 0.2645816
0.9965776 0.3374204 0.2685603
1.0000000 0.3473994 0.2727495
1.0000000 0.3542378 0.2762390
1.0000000 0.3612124 0.2798746
1.0000000 0.3680677 0.2832727
1.0000000 0.3766292 0.2876633
1.0000000 0.3835729 0.2916213
1.0000000 0.3886830 0.2945806
1.0000000 0.3953539 0.2982292
1.0000000 0.4019628 0.3024431
1.0000000 0.4084085 0.3062872
1.0000000 0.4133660 0.3095074
1.0000000 0.4198535 0.3138196
1.0000000 0.4247410 0.3179484
1.0000000 0.4307864 0.3217409
1.0000000 0.4372471 0.3265617
1.0000000 0.4419870 0.3300745
1.0000000 0.4468107 0.3342620
1.0000000 0.4515629 0.3384265
1.0000000 0.4562808 0.3429067
1.0000000 0.4609727 0.3473803
1.0000000 0.4655503 0.3511033
1.0000000 0.4701546 0.3555856
1.0000000 0.4746999 0.3601641
1.0000000 0.4777350 0.3632206
1.0000000 0.4822246 0.3677750
1.0000000 0.4876168 0.3716290
1.0000000 0.4906401 0.3755516
0.0284934 0.2282984 0.2035742
0.0273525 0.2236685 0.2041972
0.0252701 0.2235542 0.2047920
0.0393619 0.2248526 0.2057789
0.0411921 0.2228078 0.2067677
0.0437260 0.2231441 0.2079002
0.0505506 0.2239118 0.2095961
0.0698828 0.2258348 0.2117738
0.0956879 0.2283474 0.2136497
0.1302274 0.2312741 0.2111142
0.1684917 0.2348080 0.2097869
0.2083124 0.2387145 0.2090561
0.2516766 0.2432398 0.2089539
0.2911570 0.2476004 0.2093108
0.3329561 0.2524917 0.2102418
0.3708053 0.2571568 0.2113755
0.4093063 0.2621489 0.2128098
0.4451959 0.2670337 0.2143418
0.4828504 0.2724271 0.2162440
0.5185090 0.2778036 0.2183032
0.5514860 0.2851542 0.2205598
0.5849471 0.2907104 0.2229939
0.6188426 0.2966253 0.2256215
0.6533579 0.3029773 0.2285317
0.6841465 0.3089371 0.2312322
0.7102399 0.3142715 0.2339954
0.7414104 0.3209161 0.2370798
0.7688622 0.3270981 0.2400891
0.7954868 0.3334132 0.2432480
0.8244820 0.3406643 0.2468086
0.8524946 0.3480681 0.2502849
0.8763965 0.3548080 0.2538684
0.8994794 0.3616456 0.2572947
0.9229453 0.3689991 0.2609913
0.9451104 0.3764058 0.2650098
0.9674430 0.3842921 0.2690157
0.9878093 0.3938532 0.2731565
1.0000000 0.4002410 0.2767026
1.0000000 0.4080033 0.2806738
1.0000000 0.4143617 0.2843573
1.0000000 0.4206454 0.2881120
1.0000000 0.4268634 0.2917162
1.0000000 0.4332261 0.2957137
1.0000000 0.4394272 0.2994752
1.0000000 0.4455297 0.3033723
1.0000000 0.4515512 0.3076148
1.0000000 0.4559939 0.3108805
1.0000000 0.4620017 0.3152695
1.0000000 0.4664932 0.3189321
1.0000000 0.4723096 0.3232920
1.0000000 0.4768755 0.3274116
1.0000000 0.4828885 0.3317534
1.0000000 0.4886776 0.3366698
1.0000000 0.4930775 0.3409702
1.0000000 0.4973481 0.3447176
1.0000000 0.5016376 0.3491926
1.0000000 0.5059026 0.3536608
1.0000000 0.5100675 0.3574251
1.0000000 0.5142682 0.3620300
1.0000000 0.5171273 0.3658654
1.0000000 0.5211570 0.3696480
1.0000000 0.5252447 0.3742591
1.0000000 0.5291722 0.3780966
1.0000000 0.5318228 0.3811836
0.0473288 0.3056639 0.2064097
0.0458875 0.2998279 0.2056707
0.0441082 0.2996788 0.2055140
0.0575536 0.3007206 0.2057258
0.0592777 0.2980100 0.2057201
0.0617841 0.2982227 0.2059263
0.0682745 0.2987611 0.2063014
0.0866182 0.3002805 0.2071283
0.1128291 0.3025028 0.2083037
0.1462292 0.3054217 0.2097715
0.1811551 0.3084854 0.2102222
0.2221651 0.3121857 0.2101843
0.2614232 0.3159445 0.2106766
0.3027987 0.3201336 0.2115828
0.3403213 0.3241508 0.2128017
0.3803159 0.3286577 0.2143162
0.4177771 0.3331116 0.2160167
0.4526851 0.3374771 0.2178240
0.4857186 0.3418135 0.2197413
0.5201781 0.3465707 0.2220184
0.5558994 0.3517601 0.2245480
0.5884435 0.3567477 0.2271292
0.6213973 0.3620639 0.2299354
0.6508734 0.3670571 0.2325498
0.6806340 0.3723702 0.2355089
0.7102407 0.3804371 0.2386246
0.7404734 0.3863891 0.2418035
0.7670836 0.3919353 0.2449624
0.7928868 0.3975989 0.2482218
0.8209946 0.4040835 0.2516686
0.8432437 0.4095554 0.2550274
0.8712553 0.4167773 0.2589034
0.8935872 0.4229171 0.2624149
0.9162824 0.4295189 0.2661701
0.9377367 0.4361430 0.2699757
0.9593155 0.4432251 0.2740391
0.9792479 0.4502032 0.2781332
0.9946896 0.4559636 0.2817690
1.0000000 0.4629833 0.2860514
1.0000000 0.4686933 0.2895842
1.0000000 0.4743669 0.2934967
1.0000000 0.4799693 0.2971410
1.0000000 0.4857161 0.3013159
1.0000000 0.4913165 0.3052537
1.0000000 0.4988207 0.3093697
1.0000000 0.5041937 0.3133851
1.0000000 0.5082649 0.3175088
1.0000000 0.5136505 0.3219196
1.0000000 0.5176827 0.3256491
1.0000000 0.5229496 0.3305342
1.0000000 0.5270531 0.3347664
1.0000000 0.5310173 0.3383241
1.0000000 0.5349953 0.3426184
1.0000000 0.5402110 0.3478882
1.0000000 0.5441306 0.3523840
1.0000000 0.5479020 0.3561062
1.0000000 0.5517439 0.3606589
1.0000000 0.5555811 0.3652824
1.0000000 0.5592655 0.3690898
1.0000000 0.5618338 0.3729059
1.0000000 0.5654594 0.3767532
1.0000000 0.5690452 0.3806185
1.0000000 0.5743418 0.3854603
1.0000000 0.5767106 0.3885357
0.0679936 0.3831807 0.2124612
0.0662607 0.3766257 0.2106225
0.0648208 0.3764927 0.2101606
0.0774972 0.3773287 0.2100160
0.0799716 0.3774716 0.2097157
0.0823277 0.3776122 0.2094837
0.0885586 0.3780314 0.2094307
0.1057508 0.3792313 0.2096187
0.1301137 0.3778366 0.2099332
0.1620799 0.3802477 0.2106617
0.1978547 0.3830678 0.2116276
0.2351851 0.3861564 0.2128021
0.2728916 0.3893957 0.2136813
0.3130515 0.3930493 0.2150111
0.3523699 0.3968328 0.2165886
0.3879739 0.4004454 0.2182235
0.4243042 0.4043257 0.2200907
0.4580903 0.4081391 0.2221861
0.4934427 0.4123279 0.2244437
0.5268559 0.4165087 0.2268677
0.5575917 0.4205616 0.2293810
0.5930133 0.4254700 0.2323061
0.6209073 0.4324154 0.2350160
0.6536123 0.4374247 0.2381511
0.6823893 0.4420769 0.2410766
0.7109810 0.4469439 0.2441192
0.7361411 0.4514711 0.2471603
0.7659473 0.4570858 0.2504799
0.7908733 0.4620967 0.2538660
0.8136212 0.4668961 0.2569764
0.8394945 0.4726740 0.2608245
0.8665186 0.4790674 0.2647886
0.8880551 0.4845033 0.2683528
0.9099329 0.4903482 0.2721422
0.9306017 0.4962167 0.2759977
0.9513779 0.5024939 0.2801427
0.9667197 0.5074363 0.2836816
0.9854326 0.5137656 0.2877652
0.9992364 0.5187825 0.2915387
1.0000000 0.5250651 0.2958548
1.0000000 0.5300940 0.2998038
1.0000000 0.5350724 0.3036270
1.0000000 0.5401781 0.3079736
1.0000000 0.5451409 0.3119444
1.0000000 0.5522685 0.3163915
1.0000000 0.5559027 0.3200490
1.0000000 0.5606109 0.3244066
1.0000000 0.5653809 0.3288953
1.0000000 0.5689903 0.3330811
1.0000000 0.5725404 0.3372399
1.0000000 0.5772775 0.3422062
1.0000000 0.5808662 0.3466352
1.0000000 0.5843321 0.3503993
1.0000000 0.5878474 0.3549048
1.0000000 0.5924059 0.3601525
1.0000000 0.5957476 0.3639668
1.0000000 0.5991494 0.3685787
1.0000000 0.6014943 0.3724283
1.0000000 0.6047670 0.3762376
1.0000000 0.6079901 0.3800863
1.0000000 0.6112783 0.3847725
1.0000000 0.6144439 0.3886300
1.0000000 0.6166636 0.3925141
1.0000000 0.6197513 0.3964269
0.0903138 0.4585583 0.2205774
0.0882381 0.4515432 0.2182060
0.0870577 0.4514249 0.2174608
0.0988830 0.4520754 0.2170232
0.1015319 0.4521990 0.2165793
0.1037850 0.4522932 0.2160397
0.1096625 0.4526066 0.2155882
0.1257081 0.4535543 0.2155038
0.1488644 0.4515968 0.2154818
0.1793507 0.4535677 0.2158809
0.2137428 0.4559044 0.2165671
0.2497147 0.4584651 0.2172892
0.2886622 0.4613990 0.2183356
0.3247868 0.4642804 0.2195559
0.3627067 0.4674967 0.2213154
0.4001781 0.4708605 0.2232641
0.4321945 0.4739076 0.2253075
0.4680597 0.4774947 0.2276356
0.4988800 0.4807554 0.2299387
0.5310061 0.4843350 0.2325460
0.5643119 0.4882469 0.2353615
0.5946331 0.4920010 0.2380241
0.6253475 0.4960074 0.2408314
0.6531291 0.4998556 0.2438745
0.6848105 0.5044607 0.2471288
0.7082500 0.5080628 0.2497864
0.7367708 0.5126801 0.2531922
0.7613642 0.5198606 0.2567860
0.7856687 0.5242209 0.2599974
0.8114693 0.5291377 0.2637964
0.8363967 0.5341645 0.2674668
0.8582076 0.5388381 0.2709814
0.8831122 0.5444990 0.2750770
0.9041395 0.5496104 0.2789186
0.9239916 0.5547467 0.2828610
0.9400902 0.5591488 0.2861949
0.9586776 0.5645486 0.2904176
0.9765911 0.5701202 0.2949506
0.9898419 0.5744952 0.2985411
1.0000000 0.5789266 0.3024844
1.0000000 0.5844152 0.3070956
1.0000000 0.5887790 0.3110195
1.0000000 0.5932199 0.3150409
1.0000000 0.5976238 0.3197759
1.0000000 0.6008847 0.3234564
1.0000000 0.6051189 0.3278545
1.0000000 0.6092796 0.3324475
1.0000000 0.6124971 0.3366360
1.0000000 0.6166865 0.3415653
1.0000000 0.6197534 0.3450780
1.0000000 0.6239370 0.3502709
1.0000000 0.6293285 0.3551099
1.0000000 0.6324179 0.3596045
1.0000000 0.6354223 0.3633629
1.0000000 0.6384755 0.3679847
1.0000000 0.6414096 0.3718163
1.0000000 0.6443697 0.3763947
1.0000000 0.6472749 0.3802286
1.0000000 0.6502083 0.3849055
1.0000000 0.6530214 0.3887767
1.0000000 0.6558882 0.3934378
1.0000000 0.6586472 0.3972837
1.0000000 0.6605195 0.4004644
1.0000000 0.6633042 0.4053631
0.1140556 0.5300892 0.2297933
0.1128141 0.5262592 0.2276038
0.1106251 0.5224000 0.2262233
0.1213541 0.5228981 0.2258583
0.1242958 0.5230101 0.2253071
0.1264786 0.5230761 0.2245907
0.1319855 0.5233231 0.2241555
0.1469073 0.5240494 0.2238051
0.1700051 0.5252458 0.2239162
0.1989635 0.5268041 0.2240489
0.2318997 0.5286810 0.2245542
0.2687352 0.5308952 0.2251621
0.3036839 0.5331149 0.2257814
0.3404014 0.5320184 0.2263739
0.3742294 0.5344558 0.2272726
0.4103438 0.5372667 0.2292830
0.4443253 0.5400839 0.2315766
0.4758696 0.5428510 0.2339162
0.5087581 0.5459037 0.2365935
0.5397873 0.5489504 0.2393031
0.5724062 0.5557159 0.2424016
0.6016108 0.5588928 0.2451396
0.6311650 0.5623060 0.2482955
0.6579127 0.5655631 0.2512225
0.6845627 0.5689743 0.2541046
0.7109175 0.5725536 0.2573358
0.7383207 0.5764968 0.2608917
0.7619487 0.5800891 0.2640234
0.7853224 0.5838436 0.2673055
0.8101406 0.5880645 0.2709154
0.8298782 0.5916485 0.2743788
0.8550175 0.5964470 0.2784129
0.8746853 0.6004409 0.2817370
0.8951782 0.6048765 0.2856609
0.9140785 0.6092337 0.2895963
0.9335239 0.6140093 0.2938883
0.9513282 0.6186743 0.2980396
0.9651343 0.6225548 0.3019513
0.9811378 0.6272860 0.3062665
0.9932236 0.6311167 0.3101600
1.0000000 0.6349670 0.3144417
1.0000000 0.6396710 0.3191074
1.0000000 0.6435425 0.3235353
1.0000000 0.6464190 0.3272383
1.0000000 0.6501549 0.3316692
1.0000000 0.6538351 0.3363008
1.0000000 0.6574546 0.3411740
1.0000000 0.6602377 0.3453540
1.0000000 0.6663601 0.3506751
1.0000000 0.6690613 0.3551465
1.0000000 0.6717421 0.3589256
1.0000000 0.6753138 0.3642156
1.0000000 0.6779819 0.3687271
1.0000000 0.6805819 0.3725863
1.0000000 0.6832163 0.3772025
1.0000000 0.6857463 0.3810229
1.0000000 0.6882995 0.3855926
1.0000000 0.6908112 0.3895117
1.0000000 0.6933416 0.3941923
1.0000000 0.6957654 0.3980479
1.0000000 0.6981716 0.4018998
1.0000000 0.6998841 0.4059697
1.0000000 0.7022503 0.4099910
1.0000000 0.7045754 0.4139802
0.1384921 0.5955613 0.2398593
0.1369697 0.5914989 0.2376578
0.1363302 0.5914146 0.2363669
0.1462055 0.5917776 0.2358859
0.1492590 0.5918701 0.2352703
0.1512715 0.5919201 0.2346249
0.1546931 0.5880834 0.2336719
0.1687776 0.5886506 0.2334250
0.1908433 0.5895873 0.2334534
0.2200215 0.5908936 0.2337328
0.2518855 0.5924025 0.2341617
0.2852774 0.5940717 0.2345618
0.3213010 0.5959993 0.2353207
0.3550388 0.5979097 0.2359086
0.3902959 0.6000457 0.2368626
0.4222363 0.6020908 0.2375933
0.4550101 0.6043437 0.2389697
0.4883498 0.6068404 0.2416732
0.5168583 0.6091099 0.2442624
0.5465583 0.6115983 0.2468758
0.5773454 0.6143327 0.2497086
0.6053309 0.6169735 0.2525327
0.6339141 0.6198311 0.2555605
0.6632472 0.6229480 0.2588485
0.6888881 0.6258481 0.2620260
0.7142565 0.6288744 0.2651373
0.7369494 0.6317555 0.2683925
0.7633227 0.6352812 0.2719339
0.7857798 0.6384794 0.2752576
0.8096116 0.6420794 0.2788978
0.8285718 0.6451256 0.2821347
0.8526846 0.6492277 0.2862164
0.8715203 0.6526608 0.2898625
0.8911527 0.6564600 0.2938409
0.9092638 0.6601810 0.2975803
0.9278607 0.6642845 0.3020696
0.9448850 0.6682863 0.3062581
0.9580771 0.6716195 0.3102613
0.9733481 0.6756925 0.3148152
0.9848863 0.6789808 0.3187286
0.9957646 0.6822912 0.3231191
1.0000000 0.6855339 0.3274741
1.0000000 0.6888785 0.3319607
1.0000000 0.6949821 0.3369093
1.0000000 0.6981787 0.3417274
1.0000000 0.7013209 0.3466269
1.0000000 0.7036616 0.3507473
1.0000000 0.7067176 0.3550266
1.0000000 0.7098138 0.3602749
1.0000000 0.7121246 0.3647231
1.0000000 0.7144647 0.3692095
1.0000000 0.7174757 0.3737983
1.0000000 0.7197651 0.3784092
1.0000000 0.7219880 0.3822532
1.0000000 0.7242396 0.3868402
1.0000000 0.7264029 0.3906608
1.0000000 0.7285929 0.3953280
1.0000000 0.7307384 0.3992280
1.0000000 0.7328994 0.4038742
1.0000000 0.7349688 0.4077097
1.0000000 0.7370380 0.4117559
1.0000000 0.7384454 0.4150223
1.0000000 0.7405266 0.4198836
1.0000000 0.7425103 0.4238452
0.1649801 0.6583149 0.2508144
0.1633338 0.6544839 0.2485965
0.1611782 0.6506151 0.2468516
0.1702622 0.6508841 0.2466084
0.1734201 0.6509576 0.2459292
0.1753591 0.6509923 0.2452124
0.1799804 0.6511242 0.2448511
0.1930333 0.6515286 0.2445077
0.2151036 0.6522589 0.2444675
0.2416205 0.6531888 0.2446134
0.2721025 0.6543303 0.2449988
0.3039793 0.6556059 0.2454958
0.3383957 0.6570834 0.2461650
0.3733429 0.6586974 0.2469921
0.4045888 0.6602410 0.2477713
0.4369869 0.6583618 0.2482513
0.4686137 0.6601737 0.2492431
0.4979231 0.6619561 0.2500754
0.5283362 0.6639791 0.2523572
0.5569561 0.6660241 0.2550697
0.5866116 0.6682794 0.2579900
0.6135559 0.6704658 0.2609146
0.6410646 0.6728382 0.2640432
0.6658226 0.6751122 0.2671379
0.6903706 0.6774926 0.2701409
0.7150016 0.6833552 0.2740254
0.7403761 0.6861054 0.2774335
0.7618939 0.6885910 0.2806159
0.7836276 0.6912510 0.2839545
0.8061309 0.6941792 0.2875528
0.8280302 0.6972221 0.2912904
0.8473235 0.7000849 0.2949284
0.8690506 0.7035094 0.2988988
0.8877752 0.7066920 0.3029671
0.9050328 0.7098151 0.3068542
0.9227490 0.7132558 0.3113726
0.9358146 0.7159592 0.3149854
0.9514903 0.7194245 0.3198811
0.9631996 0.7221774 0.3237508
0.9769662 0.7256122 0.3284805
0.9872999 0.7283920 0.3328660
0.9968719 0.7311158 0.3372245
1.0000000 0.7339255 0.3417149
1.0000000 0.7366928 0.3465541
1.0000000 0.7394108 0.3514703
1.0000000 0.7420766 0.3563564
1.0000000 0.7440671 0.3605674
1.0000000 0.7467093 0.3657796
1.0000000 0.7486745 0.3695188
1.0000000 0.7512549 0.3747029
1.0000000 0.7532425 0.3792498
1.0000000 0.7551862 0.3831139
1.0000000 0.7577376 0.3884722
1.0000000 0.7596204 0.3922965
1.0000000 0.7615302 0.3969129
1.0000000 0.7633662 0.4007913
1.0000000 0.7652193 0.4054199
1.0000000 0.7670349 0.4092959
1.0000000 0.7688172 0.4131417
1.0000000 0.7729256 0.4185712
1.0000000 0.7741129 0.4218173
1.0000000 0.7758300 0.4258177
1.0000000 0.7775162 0.4297851
1.0000000 0.7786626 0.4330410
0.1906538 0.7121249 0.2619116
0.1887375 0.7082228 0.2596229
0.1885066 0.7081841 0.2583102
0.1965129 0.7083465 0.2577907
0.2001095 0.7084167 0.2574134
0.2018476 0.7084445 0.2569752
0.2042937 0.7046313 0.2557970
0.2164877 0.7049186 0.2557084
0.2373612 0.7054361 0.2556707
0.2624706 0.7061094 0.2560617
0.2917833 0.7069485 0.2564001
0.3242236 0.7079557 0.2569243
0.3574184 0.7090828 0.2578250
0.3886682 0.7102240 0.2584834
0.4212444 0.7115114 0.2592923
0.4534709 0.7128898 0.2601921
0.4838620 0.7142925 0.2611540
0.5120102 0.7156861 0.2620917
0.5383068 0.7170759 0.2630156
0.5687739 0.7188138 0.2645584
0.5939619 0.7203965 0.2673687
0.6230730 0.7223485 0.2705956
0.6462387 0.7240090 0.2733268
0.6731768 0.7260722 0.2767479
0.6966882 0.7279935 0.2797880
0.7199630 0.7300285 0.2832043
0.7443077 0.7322916 0.2866393
0.7649428 0.7343417 0.2898217
0.7857727 0.7365415 0.2931778
0.8073269 0.7389700 0.2968228
