Plugins/FilmEmulator/Content/LUTs/FE_Fuji_Natura_1600_64.cube
TITLE "FE_Fuji_Natura_1600_33"
LUT_3D_SIZE 64
0.0036603 0.0023497 0.0047951
0.0045341 0.0023486 0.0047945
0.0067505 0.0023467 0.0047933
0.0096997 0.0023451 0.0047923
0.0135954 0.0024583 0.0047990
0.0187885 0.0026143 0.0048081
0.0253375 0.0028018 0.0048454
0.0338673 0.0030419 0.0049536
0.0435845 0.0032919 0.0050848
0.0562842 0.0035571 0.0052074
0.0667268 0.0038654 0.0053787
0.0827604 0.0041820 0.0055276
0.0980517 0.0045245 0.0057079
0.1112976 0.0049653 0.0058747
0.1261931 0.0053425 0.0060943
0.1488392 0.0057483 0.0062915
0.1613887 0.0062366 0.0065163
0.1820119 0.0068117 0.0066782
0.2048632 0.0072239 0.0069115
0.2209694 0.0078893 0.0071084
0.2384076 0.0084188 0.0074174
0.2666288 0.0090119 0.0076371
0.2864612 0.0096464 0.0078633
0.3071885 0.0103252 0.0080962
0.3288051 0.0110512 0.0083863
0.3397120 0.0118589 0.0086876
0.3626223 0.0127585 0.0088535
0.3865522 0.0132329 0.0091610
0.3982679 0.0142354 0.0094907
0.4227110 0.0153131 0.0096718
0.4479370 0.0158808 0.0100641
0.4602219 0.0171179 0.0102917
0.4729122 0.0178087 0.0107221
0.4987512 0.0185265 0.0109513
0.5111417 0.0200515 0.0112004
0.5239161 0.0208585 0.0116685
0.5497208 0.0216969 0.0119177
0.5619981 0.0234780 0.0122045
0.5745794 0.0244206 0.0125144
0.5871232 0.0254198 0.0131405
0.5995554 0.0265016 0.0134750
0.6244130 0.0276265 0.0138178
0.6364433 0.0287999 0.0141693
0.6483137 0.0300217 0.0145296
0.6600110 0.0312942 0.0148990
0.6715236 0.0326191 0.0152776
0.6828409 0.0339985 0.0156658
0.6939553 0.0354345 0.0161275
0.7048745 0.0369292 0.0166028
0.7045541 0.0384881 0.0170921
0.7152915 0.0401252 0.0175956
0.7257966 0.0418296 0.0181138
0.7360484 0.0436048 0.0181393
0.7460701 0.0454512 0.0186733
0.7558428 0.0473727 0.0192226
0.7656555 0.0473673 0.0197597
0.7653750 0.0493707 0.0203409
0.7746379 0.0514506 0.0209386
0.7836304 0.0536154 0.0209680
0.7926461 0.0536089 0.0215984
0.8011249 0.0558583 0.0223024
0.8008766 0.0582030 0.0230296
0.8091732 0.0606484 0.0230620
0.8174645 0.0606407 0.0237790
0.0036203 0.0032090 0.0048456
0.0047808 0.0035172 0.0048597
0.0071457 0.0037399 0.0048687
0.0102364 0.0041134 0.0048833
0.0141834 0.0044485 0.0048953
0.0198293 0.0048566 0.0049501
0.0269050 0.0052236 0.0050590
0.0345873 0.0056188 0.0051996
0.0445721 0.0060641 0.0053281
0.0551145 0.0066221 0.0054773
0.0683408 0.0070214 0.0056599
0.0811217 0.0076676 0.0058604
0.0961945 0.0081431 0.0060249
0.1139714 0.0090184 0.0062028
0.1291976 0.0096530 0.0064024
0.1461599 0.0103319 0.0066281
0.1652882 0.0110581 0.0068618
0.1866095 0.0114392 0.0070194
0.2017066 0.0123075 0.0073135
0.2177199 0.0132412 0.0075315
0.2441332 0.0142443 0.0077559
0.2630769 0.0147731 0.0079772
0.2827009 0.0158914 0.0082149
0.3035145 0.0164805 0.0085003
0.3249004 0.0178204 0.0088079
0.3476018 0.0185388 0.0091148
0.3590711 0.0192869 0.0092784
0.3825203 0.0208733 0.0096143
0.4069352 0.0217124 0.0099715
0.4191618 0.0225860 0.0101849
0.4443038 0.0234925 0.0106109
0.4565211 0.0254393 0.0108526
0.4822329 0.0265209 0.0110854
0.4949697 0.0276486 0.0115498
0.5077113 0.0288236 0.0117974
0.5335633 0.0300453 0.0120503
0.5462555 0.0313194 0.0123248
0.5589150 0.0326453 0.0129423
0.5714927 0.0340264 0.0132718
0.5840297 0.0354643 0.0136096
0.6092004 0.0369582 0.0139558
0.6214123 0.0385158 0.0143108
0.6334762 0.0401548 0.0146749
0.6453831 0.0418611 0.0150482
0.6571206 0.0436372 0.0154308
0.6690366 0.0436326 0.0158004
0.6803960 0.0454806 0.0162664
0.6915520 0.0474038 0.0167459
0.7025154 0.0494047 0.0172394
0.7132953 0.0514864 0.0177472
0.7241703 0.0514805 0.0182437
0.7238590 0.0536502 0.0187810
0.7341555 0.0559035 0.0188075
0.7442233 0.0582450 0.0193608
0.7543452 0.0582382 0.0199017
0.7639028 0.0606837 0.0204867
0.7732039 0.0632323 0.0210888
0.7729288 0.0658876 0.0217544
0.7822484 0.0658815 0.0217539
0.7910336 0.0686346 0.0224632
0.7995591 0.0714955 0.0231952
0.7995591 0.0714955 0.0231952
0.8079090 0.0744672 0.0239506
0.8159941 0.0775540 0.0247301
0.0035426 0.0059287 0.0049465
0.0050153 0.0064612 0.0049599
0.0073825 0.0070525 0.0049734
0.0105447 0.0074747 0.0049822
0.0147886 0.0081720 0.0050522
0.0201742 0.0087438 0.0051675
0.0275090 0.0093554 0.0053127
0.0353648 0.0100107 0.0054529
0.0456452 0.0107116 0.0056016
0.0564673 0.0114621 0.0057545
0.0700677 0.0123293 0.0059552
0.0832892 0.0127853 0.0061701
0.0987714 0.0137529 0.0063461
0.1121752 0.0147939 0.0065660
0.1273200 0.0153414 0.0067902
0.1440454 0.0165013 0.0069553
0.1630910 0.0171477 0.0071997
0.1839358 0.0185602 0.0074159
0.1990617 0.0193076 0.0077316
0.2237313 0.0200837 0.0079529
0.2412700 0.0217353 0.0081916
0.2600412 0.0226085 0.0084516
0.2797717 0.0235161 0.0087461
0.3004208 0.0244598 0.0089031
0.3219922 0.0254603 0.0092135
0.3445682 0.0265428 0.0095351
0.3675355 0.0288495 0.0097208
0.3792886 0.0300743 0.0100827
0.4035947 0.0313481 0.0102992
0.4284416 0.0326737 0.0107309
0.4408313 0.0340567 0.0109612
0.4533965 0.0354959 0.0114203
0.4790820 0.0369919 0.0116653
0.4917994 0.0385517 0.0119154
0.5180647 0.0385452 0.0121535
0.5308064 0.0401851 0.0127292
0.5435049 0.0418932 0.0130535
0.5561571 0.0436711 0.0133860
0.5687466 0.0455215 0.0137269
0.5941522 0.0474433 0.0140763
0.6065154 0.0494465 0.0144345
0.6191348 0.0494413 0.0147806
0.6312267 0.0515252 0.0151565
0.6431640 0.0536927 0.0155419
0.6549343 0.0559469 0.0159370
0.6668888 0.0559405 0.0163835
0.6782847 0.0582841 0.0168665
0.6894780 0.0607320 0.0173636
0.7004794 0.0632830 0.0178752
0.7116365 0.0632756 0.0183752
0.7222198 0.0659270 0.0189161
0.7325660 0.0686825 0.0194728
0.7325660 0.0686825 0.0194728
0.7426696 0.0715459 0.0200456
0.7525258 0.0745203 0.0206349
0.7624283 0.0745114 0.0212108
0.7717707 0.0776003 0.0218797
0.7808420 0.0808098 0.0219106
0.7808558 0.0808075 0.0225930
0.7896815 0.0841369 0.0233292
0.7985129 0.0841264 0.0240544
0.8068828 0.0875837 0.0240883
0.8066382 0.0911770 0.0248729
0.8150129 0.0911654 0.0256450
0.0035214 0.0104106 0.0050412
0.0052959 0.0111351 0.0050515
0.0076995 0.0119418 0.0051332
0.0108836 0.0128409 0.0052024
0.0154845 0.0133099 0.0053095
0.0213838 0.0143117 0.0054132
0.0282079 0.0153895 0.0055676
0.0362967 0.0159541 0.0057133
0.0468939 0.0171915 0.0058705
0.0580539 0.0178798 0.0060829
0.0721987 0.0185953 0.0062491
0.0856663 0.0201232 0.0064287
0.0974242 0.0209307 0.0066440
0.1156359 0.0217682 0.0068714
0.1310079 0.0235539 0.0071163
0.1483957 0.0244967 0.0072876
0.1679075 0.0254962 0.0075980
0.1819649 0.0265803 0.0078162
0.2049077 0.0277073 0.0080405
0.2214040 0.0288832 0.0082714
0.2390650 0.0301075 0.0085345
0.2675288 0.0313800 0.0088326
0.2876028 0.0327073 0.0091410
0.3085781 0.0340896 0.0093058
0.3192714 0.0355307 0.0096306
0.3417478 0.0370279 0.0099667
0.3649932 0.0385867 0.0101692
0.3889387 0.0402260 0.0105956
0.4009484 0.0419365 0.0108232
0.4257274 0.0437135 0.0110556
0.4381046 0.0455655 0.0115189
0.4640266 0.0455573 0.0117492
0.4766928 0.0474851 0.0120013
0.4894132 0.0494899 0.0125203
0.5152764 0.0515720 0.0128394
0.5280091 0.0537421 0.0131665
0.5411162 0.0537364 0.0134825
0.5667628 0.0559881 0.0138257
0.5793286 0.0583342 0.0141777
0.5918205 0.0607849 0.0145386
0.6046077 0.0607769 0.0152441
0.6168624 0.0633304 0.0156319
0.6289791 0.0659848 0.0160294
0.6413223 0.0659773 0.0164785
0.6531029 0.0687371 0.0165020
0.6647220 0.0716031 0.0169886
0.6765110 0.0715948 0.0174642
0.6877359 0.0745715 0.0179787
0.6987709 0.0776635 0.0185082
0.7099643 0.0776542 0.0190257
0.7205839 0.0808641 0.0195855
0.7309673 0.0841963 0.0201616
0.7414110 0.0841884 0.0201612
0.7411097 0.0876546 0.0207543
0.7513119 0.0876440 0.0213335
0.7609487 0.0912312 0.0220062
0.7703317 0.0949511 0.0227236
0.7797263 0.0949420 0.0227231
0.7794571 0.0988083 0.0234640
0.7885981 0.0987960 0.0241933
0.7971835 0.1027969 0.0242274
0.8058654 0.1027840 0.0249800
0.8056198 0.1069367 0.0257929
0.8140283 0.1069233 0.0265931
0.0037129 0.0166333 0.0052076
0.0055314 0.0179739 0.0052985
0.0080890 0.0186858 0.0053956
0.0112835 0.0194277 0.0054947
0.0157259 0.0210153 0.0055936
0.0218793 0.0218482 0.0057403
0.0290318 0.0227159 0.0058548
0.0373452 0.0236192 0.0059859
0.0482979 0.0255668 0.0061577
0.0598296 0.0266462 0.0063809
0.0712309 0.0277726 0.0065657
0.0846386 0.0289455 0.0067909
0.1005389 0.0301667 0.0070239
0.1142677 0.0314413 0.0071871
0.1296366 0.0327679 0.0074603
0.1468603 0.0341492 0.0076744
0.1661930 0.0355871 0.0078947
0.1875632 0.0370836 0.0081213
0.2028996 0.0386444 0.0083544
0.2280513 0.0402830 0.0086203
0.2460852 0.0419921 0.0089215
0.2650899 0.0437710 0.0092331
0.2853670 0.0437623 0.0095418
0.3062417 0.0456139 0.0097139
0.3281403 0.0475399 0.0100530
0.3509241 0.0495442 0.0102574
0.3624340 0.0516325 0.0106875
0.3866756 0.0516228 0.0109014
0.3986712 0.0537946 0.0113583
0.4234045 0.0560495 0.0116021
0.4486504 0.0583939 0.0118510
0.4616565 0.0583868 0.0123296
0.4743119 0.0608403 0.0126107
0.5001305 0.0633914 0.0129322
0.5128694 0.0660487 0.0132618
0.5260069 0.0660415 0.0135801
0.5387309 0.0688015 0.0142602
0.5643970 0.0716645 0.0146231
0.5773729 0.0716566 0.0149737
0.5898795 0.0746365 0.0153547
0.6022796 0.0777318 0.0157453
0.6149457 0.0777230 0.0161224
0.6270874 0.0809362 0.0165980
0.6394560 0.0809267 0.0170627
0.6512796 0.0842619 0.0175657
0.6629115 0.0877253 0.0175907
0.6747317 0.0877150 0.0180829
0.6859885 0.0913055 0.0186155
0.6974033 0.0912946 0.0191359
0.7082869 0.0950175 0.0196989
0.7192742 0.0950062 0.0202491
0.7296875 0.0988661 0.0208444
0.7398461 0.1028699 0.0208739
0.7500809 0.1028576 0.0214564
0.7497872 0.1070132 0.0221334
0.7597643 0.1070001 0.0228221
0.7691647 0.1112976 0.0228544
0.7786066 0.1112838 0.0235651
0.7874974 0.1157304 0.0243324
0.7875109 0.1157272 0.0250887
0.7961286 0.1203335 0.0251241
0.8048441 0.1203184 0.0259039
0.8045976 0.1250933 0.0267463
0.8130272 0.1250812 0.0267457
0.0039331 0.0246966 0.0054725
0.0058904 0.0256883 0.0055729
0.0085241 0.0267634 0.0056767
0.0120772 0.0290731 0.0057983
0.0166042 0.0302898 0.0059142
0.0224274 0.0315574 0.0060469
0.0298978 0.0328774 0.0062123
0.0385043 0.0342539 0.0063279
0.0498478 0.0356858 0.0065011
0.0618198 0.0371793 0.0066320
0.0735759 0.0387363 0.0068595
0.0875117 0.0387205 0.0070847
0.1039875 0.0403579 0.0073279
0.1181319 0.0420664 0.0075249
0.1339459 0.0438444 0.0077410
0.1517540 0.0456940 0.0080711
0.1716115 0.0476191 0.0083028
0.1859133 0.0496263 0.0085412
0.2094976 0.0496114 0.0088268
0.2264060 0.0516993 0.0089861
0.2443480 0.0538701 0.0092999
0.2632623 0.0561274 0.0096247
0.2834500 0.0561157 0.0099463
0.3042404 0.0584633 0.0101257
0.3260608 0.0609139 0.0105385
0.3487694 0.0634686 0.0107649
0.3726170 0.0634550 0.0112000
0.3844226 0.0661156 0.0114406
0.4088440 0.0688747 0.0116862
0.4214659 0.0688661 0.0121583
0.4466793 0.0717324 0.0124191
0.4592610 0.0747161 0.0127024
0.4853940 0.0747012 0.0130073
0.4981194 0.0777994 0.0133388
0.5108731 0.0810146 0.0140070
0.5240130 0.0810055 0.0143430
0.5497901 0.0843369 0.0147080
0.5628108 0.0843275 0.0150606
0.5753995 0.0877920 0.0154438
0.5879211 0.0913862 0.0158366
0.6007304 0.0913759 0.0162159
0.6130285 0.0951025 0.0166942
0.6255750 0.0950913 0.0171617
0.6375862 0.0989549 0.0176675
0.6498086 0.0989432 0.0181618
0.6614791 0.1029479 0.0186967
0.6733084 0.1029383 0.0186964
0.6845903 0.1070875 0.0192467
0.6960327 0.1070747 0.0197845
0.7069438 0.1113725 0.0203663
0.7176284 0.1158230 0.0209650
0.7284039 0.1158092 0.0215499
0.7385928 0.1204187 0.0215805
0.7488605 0.1204041 0.0222289
0.7588624 0.1203894 0.0229206
0.7585760 0.1251667 0.0236678
0.7683011 0.1251549 0.0236672
0.7774830 0.1300841 0.0244378
0.7866825 0.1300682 0.0251968
0.7864059 0.1351809 0.0252329
0.7953380 0.1351643 0.0260160
0.8038190 0.1404254 0.0268613
0.8122742 0.1404118 0.0268607
0.8120350 0.1458602 0.0277334
0.0041626 0.0344264 0.0057637
0.0062435 0.0358535 0.0058785
0.0090012 0.0373411 0.0059958
0.0123368 0.0388927 0.0061449
0.0170677 0.0405237 0.0063128
0.0239729 0.0422197 0.0064299
0.0308711 0.0439924 0.0065496
0.0398075 0.0458358 0.0067539
0.0515919 0.0458088 0.0069004
0.0612935 0.0477342 0.0070605
0.0762029 0.0497319 0.0072243
0.0866558 0.0518195 0.0073921
0.1029877 0.0539844 0.0076935
0.1171731 0.0539676 0.0079030
0.1328760 0.0562239 0.0081298
0.1505596 0.0585696 0.0083632
0.1702884 0.0610194 0.0086033
0.1923179 0.0610006 0.0088909
0.2079500 0.0635581 0.0092015
0.2247716 0.0662162 0.0095229
0.2523439 0.0661970 0.0096806
0.2716673 0.0689586 0.0100187
0.2919213 0.0718290 0.0101994
0.3134676 0.0718135 0.0105998
0.3243159 0.0748008 0.0108276
0.3469736 0.0778952 0.0112816
0.3707530 0.0778797 0.0115071
0.3825459 0.0810989 0.0119894
0.4069232 0.0844348 0.0122467
0.4322090 0.0844181 0.0124913
0.4446977 0.0878867 0.0127762
0.4576858 0.0878749 0.0133971
0.4834022 0.0914645 0.0137384
0.4961244 0.0951952 0.0140884
0.5092670 0.0951845 0.0144263
0.5351104 0.0990434 0.0147934
0.5481950 0.0990323 0.0151480
0.5608231 0.1030410 0.0155334
0.5738222 0.1030294 0.0159055
0.5863559 0.1071827 0.0163099
0.5991821 0.1071702 0.0167668
0.6240435 0.1114617 0.0172609
0.6364528 0.1114486 0.0177440
0.6483188 0.1159023 0.0182668
0.6603790 0.1158888 0.0187776
0.6718818 0.1204984 0.0193303
0.6835279 0.1204872 0.0193300
0.6946434 0.1252569 0.0198987
0.6946587 0.1252538 0.0204547
0.7055975 0.1301872 0.0210560
0.7166442 0.1301719 0.0216435
0.7271022 0.1352756 0.0216741
0.7376548 0.1352594 0.0223254
0.7476373 0.1405241 0.0230530
0.7576714 0.1405071 0.0237698
0.7573694 0.1459629 0.0238039
0.7671424 0.1459452 0.0245436
0.7766419 0.1459275 0.0253058
0.7855892 0.1515421 0.0261285
0.7945330 0.1515279 0.0261279
0.7942770 0.1573368 0.0269774
0.8030515 0.1573177 0.0278135
0.8112794 0.1632994 0.0278525
0.8112916 0.1632951 0.0287158
0.0044057 0.0460636 0.0060793
0.0065279 0.0479757 0.0062452
0.0093711 0.0499676 0.0063609
0.0130050 0.0520419 0.0065346
0.0182450 0.0520023 0.0066462
0.0247929 0.0541597 0.0067948
0.0319212 0.0564088 0.0069522
0.0412108 0.0587461 0.0071131
0.0511467 0.0587172 0.0072675
0.0635071 0.0611615 0.0074360
0.0755589 0.0637135 0.0076358
0.0897366 0.0663657 0.0078548
0.1067939 0.0663393 0.0079607
0.1212738 0.0691003 0.0081892
0.1374488 0.0719689 0.0084244
0.1559499 0.0719465 0.0086536
0.1762537 0.0749244 0.0089559
0.1908619 0.0780242 0.0092688
0.2066627 0.0780074 0.0095786
0.2323043 0.0812172 0.0099130
0.2508624 0.0812008 0.0100771
0.2701118 0.0845394 0.0104525
0.2902949 0.0880052 0.0106771
0.3117715 0.0879859 0.0111086
0.3339510 0.0915802 0.0113472
0.3455334 0.0915702 0.0115742
0.3689052 0.0952952 0.0120591
0.3933252 0.0952761 0.0123001
0.4053819 0.0991482 0.0125640
0.4302589 0.1031504 0.0131591
0.4431334 0.1031388 0.0134750
0.4687135 0.1072868 0.0138182
0.4818006 0.1072748 0.0141497
0.4945197 0.1115812 0.0145100
0.5207884 0.1115585 0.0148578
0.5335091 0.1160170 0.0152359
0.5465993 0.1160040 0.0156010
0.5592346 0.1206188 0.0159978
0.5722439 0.1206052 0.0163809
0.5976148 0.1253681 0.0168638
0.6103322 0.1253535 0.0173360
0.6225269 0.1302908 0.0178469
0.6349555 0.1302756 0.0183462
0.6468424 0.1353801 0.0188864
0.6589254 0.1353643 0.0194143
0.6708138 0.1353486 0.0199567
0.6821247 0.1406205 0.0199851
0.6936151 0.1406040 0.0205432
0.7045749 0.1460461 0.0211469
0.7156438 0.1460289 0.0217369
0.7153259 0.1516614 0.0224226
0.7261400 0.1516474 0.0224221
0.7363979 0.1574458 0.0231529
0.7467215 0.1574270 0.0238727
0.7567798 0.1574081 0.0246145
0.7662602 0.1633931 0.0246493
0.7662745 0.1633888 0.0254152
0.7755126 0.1695549 0.0262414
0.7847564 0.1695392 0.0262408
0.7937387 0.1695190 0.0270546
0.7934821 0.1758889 0.0279336
0.8022689 0.1758723 0.0279329
0.8105337 0.1824163 0.0288390
0.8187793 0.1823945 0.0297314
0.0046918 0.0590317 0.0064556
0.0069616 0.0614650 0.0065751
0.0097706 0.0640062 0.0067647
0.0137500 0.0639572 0.0069109
0.0187794 0.0665995 0.0070707
0.0256397 0.0693441 0.0072341
0.0344776 0.0692980 0.0073907
0.0427236 0.0721614 0.0075688
0.0529288 0.0751354 0.0076816
0.0658892 0.0750976 0.0078903
0.0783611 0.0781897 0.0081166
0.0930981 0.0814002 0.0082379
0.1060626 0.0813748 0.0084620
0.1204516 0.0847137 0.0085886
0.1367184 0.0846874 0.0088489
0.1549327 0.0881492 0.0091579
0.1751231 0.0917414 0.0093230
0.1899003 0.0917215 0.0096346
0.2136959 0.0954441 0.0099709
0.2311815 0.0954247 0.0101360
0.2493882 0.0992920 0.0105135
0.2688676 0.0992718 0.0107238
0.2890025 0.1032792 0.0111734
0.3104123 0.1032584 0.0113968
0.3325504 0.1074095 0.0118744
0.3558526 0.1073878 0.0121117
0.3674231 0.1116991 0.0123717
0.3914325 0.1161507 0.0129067
0.4164054 0.1161271 0.0132165
0.4286931 0.1207466 0.0135533
0.4415557 0.1207331 0.0138785
0.4675208 0.1207085 0.0142114
0.4801996 0.1254874 0.0145732
0.5064455 0.1254619 0.0149225
0.5191838 0.1304039 0.0153023
0.5323114 0.1303893 0.0156689
0.5450026 0.1354986 0.0160674
0.5580465 0.1354835 0.0164522
0.5836051 0.1407443 0.0169372
0.5964555 0.1407279 0.0174114
0.6087970 0.1461746 0.0179245
0.6213927 0.1461577 0.0184259
0.6334571 0.1517811 0.0189684
0.6457387 0.1517636 0.0194986
0.6578389 0.1517461 0.0200433
0.6693835 0.1575485 0.0206327
0.6810747 0.1575341 0.0206323
0.6922365 0.1635197 0.0212386
0.7035657 0.1635008 0.0218311
0.7146577 0.1634816 0.0224870
0.7251602 0.1696553 0.0225188
0.7251763 0.1696508 0.0232198
0.7354565 0.1760087 0.0239761
0.7458040 0.1759880 0.0247210
0.7558717 0.1759719 0.0247205
0.7653900 0.1825192 0.0255246
0.7749394 0.1824978 0.0263166
0.7746524 0.1892590 0.0263543
0.7839352 0.1892370 0.0271715
0.7929422 0.1892148 0.0280135
0.8014840 0.1961527 0.0280528
0.8014967 0.1961477 0.0289222
0.8100396 0.1961248 0.0298171
0.8180442 0.2032628 0.0298589
0.0049448 0.0755304 0.0068072
0.0073666 0.0754639 0.0069540
0.0104637 0.0785409 0.0071145
0.0145366 0.0784838 0.0072682
0.0201020 0.0816791 0.0074362
0.0265536 0.0850023 0.0076149
0.0356976 0.0849461 0.0078214
0.0442884 0.0884036 0.0079379
0.0549318 0.0883603 0.0081535
0.0683555 0.0919422 0.0083871
0.0812570 0.0956657 0.0085123
0.0925833 0.0956361 0.0087438
0.1099718 0.0994940 0.0089012
0.1249981 0.0994643 0.0090485
0.1416937 0.1034698 0.0093644
0.1606666 0.1034388 0.0095193
0.1742254 0.1075990 0.0096910
0.1966541 0.1075657 0.0100146
0.2126472 0.1118720 0.0103642
0.2300713 0.1118492 0.0105596
0.2577995 0.1162956 0.0110022
0.2777092 0.1162721 0.0112222
0.2982531 0.1208843 0.0116926
0.3090672 0.1208711 0.0119263
0.3311417 0.1256449 0.0121823
0.3543951 0.1256197 0.0124257
0.3780375 0.1305537 0.0129630
0.3902982 0.1305390 0.0132742
0.4148547 0.1356416 0.0136124
0.4275234 0.1356265 0.0139390
0.4529080 0.1408930 0.0142939
0.4659266 0.1408773 0.0146367
0.4790187 0.1408587 0.0153470
0.5048559 0.1462974 0.0157373
0.5179998 0.1462811 0.0161142
0.5307257 0.1519095 0.0165239
0.5438276 0.1518922 0.0169867
0.5694891 0.1576856 0.0174873
0.5824355 0.1576713 0.0174870
0.5949042 0.1636616 0.0180023
0.6076488 0.1636429 0.0185059
0.6202580 0.1636243 0.0190234
0.6323364 0.1697990 0.0195832
0.6446334 0.1697796 0.0201303
0.6563820 0.1761424 0.0207222
0.6682967 0.1761265 0.0207218
0.6800232 0.1761064 0.0213001
0.6912042 0.1826589 0.0219258
0.7025557 0.1826379 0.0225845
0.7136700 0.1826165 0.0232870
0.7241946 0.1893643 0.0233199
0.7348175 0.1893423 0.0240449
0.7345133 0.1962971 0.0248280
0.7448691 0.1962794 0.0248275
0.7549757 0.1962567 0.0255984
0.7645177 0.2033939 0.0264304
0.7740916 0.2033705 0.0272500
0.7740916 0.2033705 0.0272500
0.7831110 0.2107072 0.0281345
0.7921428 0.2106830 0.0290056
0.8009716 0.2106639 0.0290049
0.8007215 0.2182166 0.0299458
0.8092770 0.2181971 0.0299450
0.8175650 0.2181717 0.0309009
0.0053013 0.0888138 0.0072262
0.0078038 0.0923808 0.0073928
0.0109422 0.0923126 0.0075525
0.0148911 0.0960221 0.0077546
0.0207203 0.0998625 0.0078695
0.0275412 0.0997998 0.0080828
0.0370132 0.1037835 0.0082028
0.0459775 0.1037331 0.0084255
0.0569787 0.1078752 0.0085510
0.0679666 0.1078319 0.0087833
0.0808008 0.1121288 0.0089413
0.0961793 0.1120832 0.0092398
0.1093725 0.1165404 0.0094062
0.1243271 0.1165059 0.0095618
0.1409410 0.1211177 0.0097340
0.1598355 0.1210801 0.0100590
0.1805412 0.1258502 0.0102402
0.1956700 0.1258250 0.0104097
0.2201466 0.1307567 0.0106212
0.2380226 0.1307279 0.0110505
0.2565936 0.1358375 0.0112878
0.2764527 0.1358079 0.0117438
0.2972622 0.1357806 0.0119784
0.3187877 0.1410530 0.0122355
0.3416042 0.1410224 0.0127294
0.3529533 0.1464805 0.0130196
0.3769200 0.1464509 0.0133321
0.3887842 0.1520853 0.0136718
0.4136980 0.1520547 0.0139997
0.4259769 0.1578654 0.0147007
0.4517389 0.1578337 0.0150530
0.4647513 0.1578163 0.0154138
0.4905191 0.1637975 0.0158058
0.5036569 0.1637795 0.0161843
0.5163962 0.1699601 0.0165958
0.5295315 0.1699410 0.0170606
0.5556763 0.1699066 0.0175380
0.5683104 0.1762736 0.0180548
0.5812826 0.1762537 0.0185598
0.5937433 0.1828151 0.0185863
0.6064999 0.1827946 0.0191060
0.6191218 0.1827740 0.0196399
0.6312141 0.1895225 0.0202177
0.6435268 0.1895014 0.0207822
0.6556609 0.1894801 0.0213622
0.6672245 0.1964265 0.0213925
0.6789697 0.1964047 0.0219892
0.6901712 0.2035466 0.0226824
0.7015443 0.2035235 0.0233879
0.7126637 0.2035054 0.0233874
0.7232260 0.2108461 0.0241491
0.7338722 0.2108221 0.0248993
0.7442589 0.2107981 0.0256724
0.7439460 0.2183598 0.0257092
0.7540768 0.2183352 0.0265068
0.7639390 0.2183105 0.0273287
0.7732268 0.2260509 0.0273672
0.7825510 0.2260254 0.0282151
0.7825647 0.2260198 0.0290894
0.7913277 0.2339577 0.0291303
0.8001948 0.2339315 0.0300314
0.8002082 0.2339256 0.0309908
0.8085253 0.2420606 0.0310342
0.8168386 0.2420330 0.0320864
0.0055894 0.1084156 0.0075998
0.0081016 0.1083289 0.0077914
0.0114972 0.1126020 0.0080139
0.0158328 0.1125254 0.0081208
0.0213897 0.1169566 0.0083529
0.0285638 0.1168845 0.0084646
0.0384340 0.1214670 0.0087065
0.0477270 0.1214104 0.0088233
0.0592167 0.1261680 0.0091309
0.0706070 0.1261193 0.0092816
0.0840214 0.1260708 0.0094347
0.0999018 0.1309972 0.0097637
0.1137069 0.1309588 0.0099251
0.1290015 0.1360643 0.0101038
0.1464393 0.1360245 0.0102708
0.1657193 0.1412926 0.0104557
0.1798550 0.1412643 0.0106528
0.2025853 0.1467043 0.0108814
0.2193491 0.1466748 0.0110989
0.2368918 0.1523007 0.0115641
0.2557046 0.1522703 0.0117952
0.2755086 0.1522400 0.0120309
0.2959526 0.1580437 0.0125347
0.3177697 0.1580124 0.0127850
0.3401780 0.1640004 0.0130764
0.3637405 0.1639676 0.0133902
0.3758184 0.1639463 0.0140407
0.4000352 0.1701173 0.0143982
0.4125570 0.1700987 0.0147435
0.4376276 0.1764569 0.0151186
0.4505553 0.1764377 0.0154809
0.4766141 0.1764027 0.0158516
0.4893212 0.1829654 0.0162547
0.5024576 0.1829455 0.0166439
0.5152000 0.1896996 0.0171348
0.5414283 0.1896618 0.0176142
0.5544906 0.1896408 0.0181071
0.5671310 0.1965878 0.0186405
0.5801116 0.1965661 0.0191617
0.5929749 0.1965488 0.0191614
0.6053494 0.2036955 0.0197253
0.6179842 0.2036730 0.0202763
0.6300896 0.2110194 0.0208724
0.6424179 0.2109964 0.0214549
0.6545686 0.2109731 0.0220534
0.6661491 0.2185208 0.0220847
0.6779145 0.2184965 0.0227481
0.6894869 0.2184722 0.0234556
0.7005298 0.2262113 0.0242195
0.7116710 0.2261916 0.0242190
0.7225843 0.2261663 0.0249714
0.7329240 0.2341028 0.0257836
0.7433193 0.2340824 0.0257830
0.7534662 0.2340566 0.0265829
0.7531754 0.2422104 0.0274469
0.7630478 0.2421895 0.0274463
0.7726631 0.2421627 0.0282966
0.7817226 0.2504917 0.0292143
0.7817226 0.2504917 0.0292143
0.7907965 0.2504643 0.0301181
0.7996805 0.2504364 0.0310793
0.8080141 0.2589653 0.0311229
0.8080274 0.2589587 0.0321789
0.8163444 0.2589363 0.0321780
0.0059688 0.1219462 0.0080405
0.0086059 0.1266850 0.0082699
0.0121930 0.1265926 0.0083801
0.0169768 0.1314968 0.0086194
0.0229992 0.1314131 0.0087345
0.0309043 0.1364872 0.0090112
0.0382670 0.1364251 0.0091596
0.0495414 0.1416703 0.0093239
0.0589644 0.1416151 0.0096349
0.0733435 0.1470406 0.0098078
0.0872615 0.1469850 0.0099696
0.0994887 0.1469423 0.0101343
0.1130861 0.1525664 0.0103167
0.1340111 0.1525062 0.0106849
0.1456729 0.1583211 0.0109143
0.1650877 0.1582751 0.0111323
0.1863379 0.1642571 0.0113711
0.2018445 0.1642248 0.0115983
0.2185625 0.1641922 0.0118300
0.2453044 0.1703560 0.0120837
0.2645697 0.1703226 0.0123251
0.2844902 0.1766884 0.0125894
0.3057005 0.1766542 0.0128408
0.3167435 0.1766352 0.0131146
0.3391282 0.1831852 0.0137716
0.3626559 0.1831491 0.0141019
0.3747039 0.1831293 0.0144402
0.3988929 0.1898729 0.0148077
0.4240241 0.1898359 0.0151625
0.4364529 0.1967896 0.0155483
