Plugins/FilmEmulator/Content/LUTs/FE_Fujiflex_New_64.cube
TITLE "FE_Fujiflex_New_33"
LUT_3D_SIZE 64
0.0090982 0.0755146 0.0189949
0.0090982 0.0755146 0.0189949
0.0090982 0.0755146 0.0189949
0.0108058 0.0757409 0.0190108
0.0199624 0.0769588 0.0190966
0.0383306 0.0794262 0.0192753
0.0700142 0.0837613 0.0196046
0.1145512 0.0900313 0.0201154
0.1740445 0.0987501 0.0208921
0.2549403 0.1112993 0.0221440
0.3410283 0.1256522 0.0237669
0.4268956 0.1411631 0.0257454
0.5182757 0.1592327 0.0283417
0.6064791 0.1785406 0.0314590
0.6801322 0.1964031 0.0346580
0.7451943 0.2138181 0.0380694
0.8041236 0.2312356 0.0417718
0.8587120 0.2491116 0.0458786
0.9148486 0.2697245 0.0510071
0.9639676 0.2901844 0.0565239
1.0000000 0.3106782 0.0624899
1.0000000 0.3283283 0.0679927
1.0000000 0.3435752 0.0730270
1.0000000 0.3583270 0.0781544
1.0000000 0.3726283 0.0833741
1.0000000 0.3852377 0.0881860
1.0000000 0.3974612 0.0930445
1.0000000 0.4081143 0.0974394
1.0000000 0.4185215 0.1018811
1.0000000 0.4287441 0.1063913
1.0000000 0.4376454 0.1104403
1.0000000 0.4473696 0.1149971
1.0000000 0.4546571 0.1185056
1.0000000 0.4626245 0.1224353
1.0000000 0.4692817 0.1257957
1.0000000 0.4760680 0.1288078
1.0000000 0.4813355 0.1307674
1.0000000 0.4857508 0.1326362
1.0000000 0.4909552 0.1351700
1.0000000 0.4950716 0.1372108
1.0000000 0.4999799 0.1399057
1.0000000 0.5040449 0.1421784
1.0000000 0.5080755 0.1445069
1.0000000 0.5120826 0.1469556
1.0000000 0.5150642 0.1489067
1.0000000 0.5186635 0.1516455
1.0000000 0.5211128 0.1539546
1.0000000 0.5240334 0.1568012
1.0000000 0.5262001 0.1592218
1.0000000 0.5285352 0.1622306
1.0000000 0.5305645 0.1648163
1.0000000 0.5326903 0.1675481
1.0000000 0.5344694 0.1697815
1.0000000 0.5364281 0.1723888
1.0000000 0.5379928 0.1747413
1.0000000 0.5396758 0.1770523
1.0000000 0.5412407 0.1797439
1.0000000 0.5428277 0.1821842
1.0000000 0.5442214 0.1847394
1.0000000 0.5457143 0.1877695
1.0000000 0.5470768 0.1905307
1.0000000 0.5485406 0.1933706
1.0000000 0.5498354 0.1961635
1.0000000 0.5511199 0.1990744
0.0090982 0.0755146 0.0189949
0.0090982 0.0755146 0.0189949
0.0090982 0.0755146 0.0189949
0.0114787 0.0758301 0.0190171
0.0212355 0.0771288 0.0191089
0.0402588 0.0796874 0.0192945
0.0727116 0.0841352 0.0196341
0.1191381 0.0906893 0.0201715
0.1785924 0.0994334 0.0209565
0.2579747 0.1117871 0.0221958
0.3445734 0.1262675 0.0238409
0.4308566 0.1419102 0.0258466
0.5227710 0.1601688 0.0284849
0.6107820 0.1795368 0.0316296
0.6840737 0.1974109 0.0348473
0.7488868 0.2148602 0.0382827
0.8078573 0.2324003 0.0420299
0.8622628 0.2503427 0.0461730
0.9148486 0.2697245 0.0510071
0.9639676 0.2901844 0.0565239
1.0000000 0.3106782 0.0624899
1.0000000 0.3283283 0.0679927
1.0000000 0.3435752 0.0730270
1.0000000 0.3583270 0.0781544
1.0000000 0.3726283 0.0833741
1.0000000 0.3852377 0.0881860
1.0000000 0.3974612 0.0930445
1.0000000 0.4081143 0.0974394
1.0000000 0.4185215 0.1018811
1.0000000 0.4287441 0.1063913
1.0000000 0.4376454 0.1104403
1.0000000 0.4463158 0.1144965
1.0000000 0.4546571 0.1185056
1.0000000 0.4626245 0.1224353
1.0000000 0.4692817 0.1257957
1.0000000 0.4760680 0.1288078
1.0000000 0.4813355 0.1307674
1.0000000 0.4857508 0.1326362
1.0000000 0.4909552 0.1351700
1.0000000 0.4950716 0.1372108
1.0000000 0.4999799 0.1399057
1.0000000 0.5040449 0.1421784
1.0000000 0.5080755 0.1445069
1.0000000 0.5120826 0.1469556
1.0000000 0.5150642 0.1489067
1.0000000 0.5186635 0.1516455
1.0000000 0.5211128 0.1539546
1.0000000 0.5240334 0.1568012
1.0000000 0.5262001 0.1592218
1.0000000 0.5285352 0.1622306
1.0000000 0.5305645 0.1648163
1.0000000 0.5325750 0.1671935
1.0000000 0.5344694 0.1697815
1.0000000 0.5364281 0.1723888
1.0000000 0.5379928 0.1747413
1.0000000 0.5396758 0.1770523
1.0000000 0.5412407 0.1797439
1.0000000 0.5428277 0.1821842
1.0000000 0.5442214 0.1847394
1.0000000 0.5457143 0.1877695
1.0000000 0.5470768 0.1905307
1.0000000 0.5483855 0.1932728
1.0000000 0.5498354 0.1961635
1.0000000 0.5509799 0.1989861
0.0091219 0.0708455 0.0186580
0.0091219 0.0708455 0.0186580
0.0091219 0.0708455 0.0186580
0.0125780 0.0713059 0.0186900
0.0226393 0.0726521 0.0187842
0.0429278 0.0753968 0.0189823
0.0766681 0.0799919 0.0193312
0.1238199 0.0866385 0.0198743
0.1881876 0.0962007 0.0207340
0.2672539 0.1085957 0.0219854
0.3560489 0.1235874 0.0237000
0.4430071 0.1395438 0.0257632
0.5321420 0.1575276 0.0283756
0.6198484 0.1770634 0.0315631
0.6925855 0.1950247 0.0348116
0.7568808 0.2125770 0.0382796
0.8123060 0.2292911 0.0418518
0.8665869 0.2473700 0.0460221
0.9197351 0.2671856 0.0509628
0.9720405 0.2893706 0.0569643
1.0000000 0.3083000 0.0624869
1.0000000 0.3258978 0.0679715
1.0000000 0.3425081 0.0734650
1.0000000 0.3559416 0.0781369
1.0000000 0.3702619 0.0833586
1.0000000 0.3828828 0.0881702
1.0000000 0.3951172 0.0930275
1.0000000 0.4057950 0.0974222
1.0000000 0.4162179 0.1018656
1.0000000 0.4253389 0.1058760
1.0000000 0.4353951 0.1104304
1.0000000 0.4440725 0.1144789
1.0000000 0.4524359 0.1184879
1.0000000 0.4594145 0.1219148
1.0000000 0.4670283 0.1254167
1.0000000 0.4733773 0.1277122
1.0000000 0.4794246 0.1300404
1.0000000 0.4852262 0.1325577
1.0000000 0.4900292 0.1348454
1.0000000 0.4952745 0.1374834
1.0000000 0.4996461 0.1397999
1.0000000 0.5038854 0.1421365
1.0000000 0.5080187 0.1444901
1.0000000 0.5120744 0.1469853
1.0000000 0.5150632 0.1489065
1.0000000 0.5186635 0.1516455
1.0000000 0.5211128 0.1539546
1.0000000 0.5240334 0.1568012
1.0000000 0.5262001 0.1592218
1.0000000 0.5284441 0.1619067
1.0000000 0.5305645 0.1648163
1.0000000 0.5325750 0.1671935
1.0000000 0.5344694 0.1697815
1.0000000 0.5364281 0.1723888
1.0000000 0.5379928 0.1747413
1.0000000 0.5396758 0.1770523
1.0000000 0.5412407 0.1797439
1.0000000 0.5428277 0.1821842
1.0000000 0.5442214 0.1847394
1.0000000 0.5457143 0.1877695
1.0000000 0.5470768 0.1905307
1.0000000 0.5483855 0.1932728
1.0000000 0.5496809 0.1960661
1.0000000 0.5509799 0.1989861
0.0090603 0.0850553 0.0196935
0.0090603 0.0850553 0.0196935
0.0090603 0.0850553 0.0196935
0.0137221 0.0853459 0.0197135
0.0247796 0.0868084 0.0198197
0.0464360 0.0897058 0.0200369
0.0813516 0.0944764 0.0204144
0.1300522 0.1013441 0.0209990
0.1955875 0.1113233 0.0219293
0.2758944 0.1238983 0.0232508
0.3624789 0.1388046 0.0250098
0.4495857 0.1547534 0.0271442
0.5394989 0.1731218 0.0298892
0.6265652 0.1925154 0.0331597
0.6984246 0.2105696 0.0365039
0.7583274 0.2271676 0.0398493
0.8172700 0.2448695 0.0437449
0.8709549 0.2630654 0.0480385
0.9248768 0.2832583 0.0532348
0.9725704 0.3038080 0.0589175
1.0000000 0.3223475 0.0644708
1.0000000 0.3395369 0.0699627
1.0000000 0.3560546 0.0755103
1.0000000 0.3705041 0.0806732
1.0000000 0.3834732 0.0854731
1.0000000 0.3958434 0.0903009
1.0000000 0.4080454 0.0952035
1.0000000 0.4184864 0.0996068
1.0000000 0.4289168 0.1040971
1.0000000 0.4378617 0.1081239
1.0000000 0.4478970 0.1127172
1.0000000 0.4563609 0.1167639
1.0000000 0.4647350 0.1208104
1.0000000 0.4715168 0.1232500
1.0000000 0.4782067 0.1257563
1.0000000 0.4852813 0.1287773
1.0000000 0.4913827 0.1315873
1.0000000 0.4962251 0.1339139
1.0000000 0.5018664 0.1368473
1.0000000 0.5062500 0.1392258
1.0000000 0.5107116 0.1416777
1.0000000 0.5155445 0.1445147
1.0000000 0.5190837 0.1467191
1.0000000 0.5230504 0.1494899
1.0000000 0.5267284 0.1524017
1.0000000 0.5295525 0.1550439
1.0000000 0.5323853 0.1579437
1.0000000 0.5345095 0.1605688
1.0000000 0.5365044 0.1632660
1.0000000 0.5382785 0.1655955
1.0000000 0.5398301 0.1682295
1.0000000 0.5415304 0.1705470
1.0000000 0.5428346 0.1730332
1.0000000 0.5443043 0.1752166
1.0000000 0.5451915 0.1772063
1.0000000 0.5464702 0.1799716
1.0000000 0.5472896 0.1821111
1.0000000 0.5484424 0.1847213
1.0000000 0.5492001 0.1871509
1.0000000 0.5500731 0.1896857
1.0000000 0.5507752 0.1923401
1.0000000 0.5517439 0.1945307
1.0000000 0.5523744 0.1972473
1.0000000 0.5528420 0.1999389
0.0090343 0.1151705 0.0219852
0.0090343 0.1151705 0.0219852
0.0090343 0.1151705 0.0219852
0.0148307 0.1159105 0.0220426
0.0268580 0.1174564 0.0221640
0.0502101 0.1204969 0.0224108
0.0863624 0.1253099 0.0228230
0.1360591 0.1321477 0.0234522
0.2023994 0.1417072 0.0244182
0.2844180 0.1542857 0.0258393
0.3715067 0.1686959 0.0276737
0.4588844 0.1844380 0.0299245
0.5453124 0.2021338 0.0327166
0.6314970 0.2210143 0.0360876
0.6984951 0.2379149 0.0393518
0.7618352 0.2548519 0.0429744
0.8199883 0.2720811 0.0469674
0.8701608 0.2891889 0.0511590
0.9235938 0.3088493 0.0564566
0.9705057 0.3290666 0.0622541
1.0000000 0.3483948 0.0683244
1.0000000 0.3647695 0.0738155
1.0000000 0.3796471 0.0789770
1.0000000 0.3935717 0.0841675
1.0000000 0.4058528 0.0889587
1.0000000 0.4182531 0.0938775
1.0000000 0.4297902 0.0987643
1.0000000 0.4403101 0.1032548
1.0000000 0.4501493 0.1077278
1.0000000 0.4587733 0.1117715
1.0000000 0.4686693 0.1164140
1.0000000 0.4767923 0.1199701
1.0000000 0.4836749 0.1223493
1.0000000 0.4915692 0.1257102
1.0000000 0.4977751 0.1284976
1.0000000 0.5037348 0.1314351
1.0000000 0.5098423 0.1344616
1.0000000 0.5152720 0.1374164
1.0000000 0.5208745 0.1404490
1.0000000 0.5250881 0.1429020
1.0000000 0.5291812 0.1455119
1.0000000 0.5336056 0.1481674
1.0000000 0.5374805 0.1513109
1.0000000 0.5412449 0.1544110
1.0000000 0.5450113 0.1577944
1.0000000 0.5476028 0.1606661
1.0000000 0.5497326 0.1635161
1.0000000 0.5525435 0.1663550
1.0000000 0.5542905 0.1690880
1.0000000 0.5563625 0.1718985
1.0000000 0.5578488 0.1741907
1.0000000 0.5592677 0.1764461
1.0000000 0.5609291 0.1790283
1.0000000 0.5619259 0.1813044
1.0000000 0.5629880 0.1836196
1.0000000 0.5642444 0.1860413
1.0000000 0.5652167 0.1886273
1.0000000 0.5659703 0.1910629
1.0000000 0.5672668 0.1939141
1.0000000 0.5679387 0.1965549
1.0000000 0.5690118 0.1993363
1.0000000 0.5696120 0.2015249
1.0000000 0.5702145 0.2043041
1.0000000 0.5711941 0.2072088
0.0094312 0.1750942 0.0269713
0.0094113 0.1733783 0.0268205
0.0094113 0.1733783 0.0268205
0.0163350 0.1742116 0.0268949
0.0293853 0.1757929 0.0270386
0.0537008 0.1787819 0.0273187
0.0916449 0.1835581 0.0277900
0.1436841 0.1903455 0.0285091
0.2111733 0.1995889 0.0295795
0.2916662 0.2113410 0.0310900
0.3789979 0.2251218 0.0330700
0.4631234 0.2395890 0.0353885
0.5534044 0.2566869 0.0384409
0.6332203 0.2750166 0.0419394
0.6988990 0.2902569 0.0452482
0.7613856 0.3062674 0.0490149
0.8147191 0.3228617 0.0530388
0.8686495 0.3398242 0.0576792
0.9210902 0.3584285 0.0631748
0.9667214 0.3768549 0.0690503
1.0000000 0.3946913 0.0748935
1.0000000 0.4098966 0.0804307
1.0000000 0.4232665 0.0855693
1.0000000 0.4374124 0.0909860
1.0000000 0.4488220 0.0958118
1.0000000 0.4598911 0.1006889
1.0000000 0.4717194 0.1057864
1.0000000 0.4810514 0.1102291
1.0000000 0.4901795 0.1147208
1.0000000 0.4981934 0.1187863
1.0000000 0.5070360 0.1219065
1.0000000 0.5145833 0.1251570
1.0000000 0.5218579 0.1284727
1.0000000 0.5297717 0.1322309
1.0000000 0.5354755 0.1352534
1.0000000 0.5409636 0.1383723
1.0000000 0.5471782 0.1416621
1.0000000 0.5521624 0.1447023
1.0000000 0.5562797 0.1473429
1.0000000 0.5608289 0.1504298
1.0000000 0.5654721 0.1535656
1.0000000 0.5691499 0.1567390
1.0000000 0.5727140 0.1601156
1.0000000 0.5764593 0.1634616
1.0000000 0.5795397 0.1669161
1.0000000 0.5823245 0.1703438
1.0000000 0.5851225 0.1731138
1.0000000 0.5869349 0.1760203
1.0000000 0.5885421 0.1784547
1.0000000 0.5903407 0.1813664
1.0000000 0.5925303 0.1838233
1.0000000 0.5935624 0.1860416
1.0000000 0.5947100 0.1884630
1.0000000 0.5966337 0.1910304
1.0000000 0.5974128 0.1940037
1.0000000 0.5983827 0.1966213
1.0000000 0.5990795 0.1986718
1.0000000 0.6007445 0.2016454
1.0000000 0.6013878 0.2042828
1.0000000 0.6020001 0.2070624
1.0000000 0.6034092 0.2094465
1.0000000 0.6039566 0.2121986
1.0000000 0.6045040 0.2150806
1.0000000 0.6050286 0.2173165
0.0109395 0.2527599 0.0343793
0.0109395 0.2527599 0.0343793
0.0112225 0.2527911 0.0343825
0.0189545 0.2536414 0.0344751
0.0331431 0.2552151 0.0346490
0.0591323 0.2581445 0.0349830
0.0980631 0.2606992 0.0353161
0.1504747 0.2670056 0.0361176
0.2207698 0.2759168 0.0373495
0.2984592 0.2864413 0.0389508
0.3861080 0.2992988 0.0411182
0.4703015 0.3128088 0.0436422
0.5553447 0.3278498 0.0467464
0.6333207 0.3431545 0.0502211
0.6972671 0.3570435 0.0536509
0.7548220 0.3725452 0.0575576
0.8107510 0.3873469 0.0618032
0.8606737 0.4020616 0.0663331
0.9120418 0.4191105 0.0719769
0.9561279 0.4374107 0.0782018
0.9910161 0.4523613 0.0839196
1.0000000 0.4661474 0.0895144
1.0000000 0.4796675 0.0949419
1.0000000 0.4913986 0.1002204
1.0000000 0.5017395 0.1050818
1.0000000 0.5117678 0.1099892
1.0000000 0.5227489 0.1151652
1.0000000 0.5312012 0.1196316
1.0000000 0.5394739 0.1234964
1.0000000 0.5467246 0.1264848
1.0000000 0.5551409 0.1302469
1.0000000 0.5619490 0.1338201
1.0000000 0.5684978 0.1375127
1.0000000 0.5747499 0.1412473
1.0000000 0.5811567 0.1446851
1.0000000 0.5860857 0.1478866
1.0000000 0.5908419 0.1510593
1.0000000 0.5946836 0.1538670
1.0000000 0.6002270 0.1574148
1.0000000 0.6037416 0.1606525
1.0000000 0.6071383 0.1638978
1.0000000 0.6104610 0.1675245
1.0000000 0.6148567 0.1713910
1.0000000 0.6179228 0.1751816
1.0000000 0.6206956 0.1784660
1.0000000 0.6227443 0.1816261
1.0000000 0.6260042 0.1848136
1.0000000 0.6275725 0.1876526
1.0000000 0.6290159 0.1900744
1.0000000 0.6303430 0.1928323
1.0000000 0.6315705 0.1953825
1.0000000 0.6338223 0.1981255
1.0000000 0.6348490 0.2007660
1.0000000 0.6356359 0.2032973
1.0000000 0.6365068 0.2059329
1.0000000 0.6383020 0.2089118
1.0000000 0.6390761 0.2116826
1.0000000 0.6396888 0.2138489
1.0000000 0.6402605 0.2166510
1.0000000 0.6420311 0.2197907
1.0000000 0.6425587 0.2220268
1.0000000 0.6430428 0.2248731
1.0000000 0.6435273 0.2270964
1.0000000 0.6450603 0.2303122
0.0143595 0.3445145 0.0412438
0.0143691 0.3445137 0.0417233
0.0152740 0.3445997 0.0424320
0.0234745 0.3453987 0.0435850
0.0388894 0.3469165 0.0450912
0.0663600 0.3496764 0.0454870
0.1050893 0.3536764 0.0460863
0.1583885 0.3594033 0.0469967
0.2282848 0.3673388 0.0483573
0.3097748 0.3772766 0.0502214
0.3929754 0.3883053 0.0524938
0.4727349 0.3998686 0.0551027
0.5563183 0.4132417 0.0584063
0.6321718 0.4241642 0.0616535
0.6943475 0.4364750 0.0652288
0.7505916 0.4487715 0.0690598
0.8015754 0.4635708 0.0735903
0.8540062 0.4776847 0.0786487
0.9004511 0.4917907 0.0840701
0.9434661 0.5066290 0.0901819
0.9788926 0.5229061 0.0968202
1.0000000 0.5339638 0.1020032
1.0000000 0.5446081 0.1072421
1.0000000 0.5549228 0.1125613
1.0000000 0.5640115 0.1174538
1.0000000 0.5747218 0.1227923
1.0000000 0.5832064 0.1274233
1.0000000 0.5906262 0.1309426
1.0000000 0.5978900 0.1346413
1.0000000 0.6042419 0.1381531
1.0000000 0.6121634 0.1423373
1.0000000 0.6181037 0.1461416
1.0000000 0.6238056 0.1500095
1.0000000 0.6285922 0.1533814
1.0000000 0.6353563 0.1575189
1.0000000 0.6396346 0.1608368
1.0000000 0.6431925 0.1637499
1.0000000 0.6471006 0.1674303
1.0000000 0.6508344 0.1711388
1.0000000 0.6554503 0.1750991
1.0000000 0.6583849 0.1787067
1.0000000 0.6612595 0.1824891
1.0000000 0.6640538 0.1860245
1.0000000 0.6666689 0.1897812
1.0000000 0.6701604 0.1935146
1.0000000 0.6722466 0.1966071
1.0000000 0.6737736 0.1992331
1.0000000 0.6751342 0.2020401
1.0000000 0.6782280 0.2053284
1.0000000 0.6793364 0.2078874
1.0000000 0.6803920 0.2104803
1.0000000 0.6811525 0.2130556
1.0000000 0.6820364 0.2157342
1.0000000 0.6844927 0.2189830
1.0000000 0.6850826 0.2216554
1.0000000 0.6858112 0.2244604
1.0000000 0.6863354 0.2266783
1.0000000 0.6869876 0.2295856
1.0000000 0.6890610 0.2327964
1.0000000 0.6895214 0.2350420
1.0000000 0.6899644 0.2378736
1.0000000 0.6903753 0.2400991
1.0000000 0.6923649 0.2435417
1.0000000 0.6927458 0.2458587
0.0214471 0.4532022 0.0561737
0.0214423 0.4532039 0.0559593
0.0231134 0.4533420 0.0559219
0.0315132 0.4540368 0.0560966
0.0476475 0.4553843 0.0564789
0.0762345 0.4578210 0.0571100
0.1163216 0.4613424 0.0581887
0.1700139 0.4662680 0.0597988
0.2405891 0.4731412 0.0620263
0.3189850 0.4813715 0.0651737
0.4005392 0.4907142 0.0685312
0.4793715 0.5006486 0.0713752
0.5610673 0.5120682 0.0749268
0.6298543 0.5227747 0.0785299
0.6898961 0.5331292 0.0822675
0.7440091 0.5434579 0.0862463
0.7940072 0.5540442 0.0905886
0.8414825 0.5652627 0.0954889
0.8896722 0.5781507 0.1015108
0.9305321 0.5906478 0.1077654
0.9618495 0.6015309 0.1135612
0.9857360 0.6108338 0.1187834
1.0000000 0.6230721 0.1251444
1.0000000 0.6309032 0.1300088
1.0000000 0.6385008 0.1349196
1.0000000 0.6458721 0.1389064
1.0000000 0.6529944 0.1430185
1.0000000 0.6592205 0.1469242
1.0000000 0.6668457 0.1510739
1.0000000 0.6728015 0.1553572
1.0000000 0.6779417 0.1593364
1.0000000 0.6828924 0.1632587
1.0000000 0.6876335 0.1671978
1.0000000 0.6936432 0.1712300
1.0000000 0.6973552 0.1746843
1.0000000 0.7009206 0.1782773
1.0000000 0.7043490 0.1821573
1.0000000 0.7075911 0.1860692
1.0000000 0.7121442 0.1903564
1.0000000 0.7150887 0.1944655
1.0000000 0.7175022 0.1983069
1.0000000 0.7198716 0.2018280
1.0000000 0.7221736 0.2057320
1.0000000 0.7239534 0.2088042
1.0000000 0.7277694 0.2130203
1.0000000 0.7291572 0.2157316
1.0000000 0.7306654 0.2186687
1.0000000 0.7317318 0.2217335
1.0000000 0.7327548 0.2243598
1.0000000 0.7354429 0.2277725
1.0000000 0.7363001 0.2305499
1.0000000 0.7370622 0.2333311
1.0000000 0.7377822 0.2356850
1.0000000 0.7383013 0.2383494
1.0000000 0.7406451 0.2417822
1.0000000 0.7411028 0.2445669
1.0000000 0.7416334 0.2468493
1.0000000 0.7420424 0.2496672
1.0000000 0.7424197 0.2518746
1.0000000 0.7428786 0.2547614
1.0000000 0.7449374 0.2576352
1.0000000 0.7452513 0.2605739
1.0000000 0.7455736 0.2628631
1.0000000 0.7458638 0.2653415
0.0319110 0.5528402 0.0807784
0.0314653 0.5497009 0.0784059
0.0339284 0.5498958 0.0769519
0.0427455 0.5505274 0.0756976
0.0599140 0.5517413 0.0749535
0.0895690 0.5538715 0.0744601
0.1305883 0.5569006 0.0749512
0.1841466 0.5610441 0.0758947
0.2555754 0.5669375 0.0776594
0.3301893 0.5736068 0.0798213
0.4107406 0.5814928 0.0826595
0.4889668 0.5899614 0.0859843
0.5638461 0.5989749 0.0898905
0.6298575 0.6078215 0.0942633
0.6878155 0.6164511 0.0988049
0.7400301 0.6250706 0.1041026
0.7884744 0.6339834 0.1091088
0.8345143 0.6434821 0.1141989
0.8779199 0.6536083 0.1199748
0.9168851 0.6639762 0.1262785
0.9466257 0.6729705 0.1320823
0.9712863 0.6813675 0.1377957
0.9907646 0.6887815 0.1430883
1.0000000 0.6953251 0.1474814
1.0000000 0.7038026 0.1521054
1.0000000 0.7099100 0.1562862
1.0000000 0.7158026 0.1607178
1.0000000 0.7209554 0.1648902
1.0000000 0.7254442 0.1686957
1.0000000 0.7303935 0.1731411
1.0000000 0.7365673 0.1778020
1.0000000 0.7406427 0.1817833
1.0000000 0.7440583 0.1853545
1.0000000 0.7477876 0.1893815
1.0000000 0.7508531 0.1933511
1.0000000 0.7537850 0.1972337
1.0000000 0.7583477 0.2021065
1.0000000 0.7610018 0.2062586
1.0000000 0.7631383 0.2101185
1.0000000 0.7652189 0.2136822
1.0000000 0.7672076 0.2175359
1.0000000 0.7691547 0.2214119
1.0000000 0.7727079 0.2255696
1.0000000 0.7744398 0.2289333
1.0000000 0.7760605 0.2325171
1.0000000 0.7771317 0.2353823
1.0000000 0.7781543 0.2381886
1.0000000 0.7792000 0.2411856
1.0000000 0.7816131 0.2446874
1.0000000 0.7823187 0.2474219
1.0000000 0.7830079 0.2503687
1.0000000 0.7834744 0.2530495
1.0000000 0.7840574 0.2553657
1.0000000 0.7845712 0.2582905
1.0000000 0.7864916 0.2616321
1.0000000 0.7869550 0.2639480
1.0000000 0.7872748 0.2667372
1.0000000 0.7876823 0.2696281
1.0000000 0.7879720 0.2718618
1.0000000 0.7882597 0.2741607
1.0000000 0.7900912 0.2776700
1.0000000 0.7903403 0.2800360
1.0000000 0.7905864 0.2825523
1.0000000 0.7907943 0.2857416
0.0440379 0.6326884 0.1079357
0.0439834 0.6327235 0.1063285
0.0468551 0.6300100 0.1038130
0.0562318 0.6305763 0.1024863
0.0740870 0.6316456 0.1009583
0.1043183 0.6334703 0.0997176
0.1452521 0.6360171 0.0988700
0.2003055 0.6396029 0.0987778
0.2694556 0.6444347 0.0989383
0.3469715 0.6503332 0.0999863
0.4193162 0.6563784 0.1017528
0.4962956 0.6635035 0.1041949
0.5724504 0.6713925 0.1078774
0.6355404 0.6787240 0.1115872
0.6911584 0.6859257 0.1156388
0.7386973 0.6927613 0.1197398
0.7853284 0.7002223 0.1245140
0.8302637 0.7083040 0.1300948
0.8721063 0.7168508 0.1363882
0.9087971 0.7254092 0.1434243
0.9365858 0.7327735 0.1499387
0.9579953 0.7391169 0.1562698
0.9765630 0.7452937 0.1606194
0.9913433 0.7507349 0.1647036
1.0000000 0.7565221 0.1694184
1.0000000 0.7630301 0.1742389
1.0000000 0.7679040 0.1788826
1.0000000 0.7721679 0.1832109
1.0000000 0.7758841 0.1871337
1.0000000 0.7799716 0.1916367
1.0000000 0.7834939 0.1957173
1.0000000 0.7868712 0.1998610
1.0000000 0.7915261 0.2045155
1.0000000 0.7945649 0.2090089
1.0000000 0.7970762 0.2131559
1.0000000 0.7994602 0.2174049
1.0000000 0.8017441 0.2217077
1.0000000 0.8036182 0.2253691
1.0000000 0.8056718 0.2296204
1.0000000 0.8090583 0.2342678
1.0000000 0.8106842 0.2377905
1.0000000 0.8122632 0.2415969
1.0000000 0.8138127 0.2450639
1.0000000 0.8151991 0.2484807
1.0000000 0.8162993 0.2516124
1.0000000 0.8189545 0.2554091
1.0000000 0.8197708 0.2584617
1.0000000 0.8204383 0.2612902
1.0000000 0.8210986 0.2642119
1.0000000 0.8216600 0.2671305
1.0000000 0.8222119 0.2700281
1.0000000 0.8226779 0.2729535
1.0000000 0.8246963 0.2760569
1.0000000 0.8249976 0.2787548
1.0000000 0.8253657 0.2816767
1.0000000 0.8256469 0.2838695
1.0000000 0.8259661 0.2867362
1.0000000 0.8262178 0.2890356
1.0000000 0.8279611 0.2919866
1.0000000 0.8281640 0.2948658
1.0000000 0.8283625 0.2973537
1.0000000 0.8286068 0.2999023
1.0000000 0.8287322 0.3022619
1.0000000 0.8288759 0.3055364
0.0584152 0.7023453 0.1388909
0.0583211 0.7024120 0.1364504
0.0626626 0.7026697 0.1343374
0.0723821 0.7031699 0.1323723
0.0911173 0.7041006 0.1302328
0.1215730 0.7055887 0.1290754
0.1643474 0.7077491 0.1282384
0.2196274 0.7106988 0.1277488
0.2886329 0.7146558 0.1282178
0.3624723 0.7193180 0.1288119
0.4331810 0.7242495 0.1300664
0.5091404 0.7301716 0.1317657
0.5788976 0.7362981 0.1339058
0.6394460 0.7422757 0.1362922
0.6927632 0.7481642 0.1390625
0.7388242 0.7538354 0.1420307
0.7835716 0.7599832 0.1457975
0.8277749 0.7668324 0.1508195
0.8674571 0.7738391 0.1566915
0.8994552 0.7802770 0.1624669
0.9257810 0.7862661 0.1682539
0.9461198 0.7914492 0.1735801
0.9637967 0.7964602 0.1789842
0.9791757 0.8013015 0.1846117
0.9913862 0.8055722 0.1892696
1.0000000 0.8092941 0.1934709
1.0000000 0.8132845 0.1982161
1.0000000 0.8167772 0.2025915
1.0000000 0.8198225 0.2065414
1.0000000 0.8231587 0.2111990
1.0000000 0.8279061 0.2163500
1.0000000 0.8302816 0.2204735
1.0000000 0.8328719 0.2250468
1.0000000 0.8350145 0.2294261
1.0000000 0.8373395 0.2341622
1.0000000 0.8392547 0.2385988
1.0000000 0.8408334 0.2422532
1.0000000 0.8425959 0.2466298
1.0000000 0.8457061 0.2510765
1.0000000 0.8472841 0.2552720
1.0000000 0.8485913 0.2587315
1.0000000 0.8498621 0.2621732
1.0000000 0.8508745 0.2658302
1.0000000 0.8519846 0.2692817
1.0000000 0.8530276 0.2728665
1.0000000 0.8552825 0.2767281
1.0000000 0.8559263 0.2797441
1.0000000 0.8565582 0.2829494
1.0000000 0.8570753 0.2854286
1.0000000 0.8575036 0.2883226
1.0000000 0.8579208 0.2913187
1.0000000 0.8581848 0.2940285
1.0000000 0.8600864 0.2972631
1.0000000 0.8603749 0.3001370
1.0000000 0.8605993 0.3023002
1.0000000 0.8608505 0.3052335
1.0000000 0.8610390 0.3074811
1.0000000 0.8612252 0.3097172
1.0000000 0.8614169 0.3128091
1.0000000 0.8615707 0.3152565
1.0000000 0.8632103 0.3184911
1.0000000 0.8633381 0.3209343
1.0000000 0.8634596 0.3234744
1.0000000 0.8635449 0.3267048
0.0761872 0.7671552 0.1740090
0.0760700 0.7672445 0.1712987
0.0812414 0.7675098 0.1687564
0.0915614 0.7679497 0.1663851
0.1113394 0.7687259 0.1642048
0.1421531 0.7699173 0.1624836
0.1843625 0.7715788 0.1616834
0.2410091 0.7739854 0.1602769
0.3074864 0.7770237 0.1601450
0.3797767 0.7806838 0.1605294
0.4488657 0.7845881 0.1614853
0.5235741 0.7893453 0.1633192
0.5903388 0.7917193 0.1640888
0.6450796 0.7962396 0.1663932
0.6965484 0.8010211 0.1687596
0.7407464 0.8056148 0.1715251
0.7841202 0.8106872 0.1746110
0.8239174 0.8159487 0.1782647
0.8618195 0.8216605 0.1827285
0.8945280 0.8273126 0.1877214
0.9189860 0.8321295 0.1921675
0.9380239 0.8363261 0.1964436
0.9545916 0.8403857 0.2009373
0.9677660 0.8439499 0.2053146
0.9793559 0.8473912 0.2099761
0.9885743 0.8503843 0.2143013
0.9976025 0.8535926 0.2190915
1.0000000 0.8560924 0.2230489
1.0000000 0.8606007 0.2286381
1.0000000 0.8629436 0.2331377
