Plugins/FilmEmulator/Content/LUTs/FE_Fuji_CA_Maxima_64.cube
TITLE "FE_Fuji_CA_Maxima_33"
LUT_3D_SIZE 64
0.1083271 0.1025475 0.0091277
0.1083271 0.1025475 0.0091277
0.1083271 0.1025475 0.0091277
0.1174039 0.1038290 0.0092637
0.1359866 0.1064810 0.0095509
0.1633747 0.1104616 0.0099961
0.2055070 0.1167604 0.0107340
0.2574865 0.1248453 0.0117403
0.3182146 0.1347688 0.0130672
0.3837941 0.1461311 0.0147077
0.4511500 0.1585927 0.0166553
0.5216857 0.1726338 0.0190339
0.5846718 0.1861724 0.0215104
0.6479161 0.2008870 0.0244064
0.7095146 0.2165052 0.0277134
0.7626791 0.2312132 0.0310488
0.8155554 0.2472119 0.0349229
0.8626644 0.2628731 0.0389665
0.9035575 0.2777913 0.0430540
0.9426210 0.2934611 0.0476003
0.9734725 0.3070470 0.0517557
1.0000000 0.3220990 0.0565976
1.0000000 0.3356093 0.0611625
1.0000000 0.3473822 0.0653137
1.0000000 0.3586290 0.0694337
1.0000000 0.3693428 0.0735031
1.0000000 0.3785352 0.0771091
1.0000000 0.3876798 0.0814078
1.0000000 0.3967962 0.0867869
1.0000000 0.4046784 0.0914448
1.0000000 0.4124818 0.0962537
1.0000000 0.4199934 0.1006101
1.0000000 0.4273916 0.1050771
1.0000000 0.4346204 0.1094524
1.0000000 0.4406434 0.1131262
1.0000000 0.4466326 0.1166461
1.0000000 0.4525177 0.1201199
1.0000000 0.4583654 0.1235402
1.0000000 0.4641572 0.1269683
1.0000000 0.4688492 0.1297851
1.0000000 0.4735996 0.1328056
1.0000000 0.4788235 0.1360370
1.0000000 0.4831654 0.1389616
1.0000000 0.4872572 0.1418070
1.0000000 0.4912820 0.1448174
1.0000000 0.4944635 0.1474440
1.0000000 0.4982044 0.1503589
1.0000000 0.5019339 0.1536114
1.0000000 0.5048823 0.1562549
1.0000000 0.5085243 0.1597381
1.0000000 0.5113506 0.1624818
1.0000000 0.5142484 0.1654311
1.0000000 0.5169600 0.1682907
1.0000000 0.5197036 0.1712165
1.0000000 0.5224482 0.1742331
1.0000000 0.5250570 0.1771711
1.0000000 0.5279396 0.1802589
1.0000000 0.5307813 0.1833192
1.0000000 0.5328811 0.1855972
1.0000000 0.5360085 0.1888172
1.0000000 0.5386356 0.1917323
1.0000000 0.5413128 0.1943743
1.0000000 0.5437586 0.1970395
1.0000000 0.5469196 0.2005324
0.1083271 0.1025475 0.0091277
0.1083271 0.1025475 0.0091277
0.1084558 0.1025655 0.0091298
0.1187994 0.1040272 0.0092850
0.1380275 0.1067743 0.0095834
0.1659952 0.1108470 0.0100401
0.2096002 0.1173841 0.0108091
0.2614802 0.1254811 0.0118225
0.3231401 0.1355982 0.0131821
0.3895518 0.1471640 0.0148634
0.4576011 0.1598326 0.0168578
0.5251102 0.1733443 0.0191593
0.5883489 0.1869954 0.0216668
0.6516952 0.2018064 0.0245945
0.7095146 0.2165052 0.0277134
0.7663665 0.2322811 0.0312998
0.8193191 0.2484106 0.0352237
0.8626644 0.2628731 0.0389665
0.9035575 0.2777913 0.0430540
0.9426210 0.2934611 0.0476003
0.9764020 0.3084013 0.0521808
1.0000000 0.3220990 0.0565976
1.0000000 0.3356093 0.0611625
1.0000000 0.3473822 0.0653137
1.0000000 0.3586290 0.0694337
1.0000000 0.3693428 0.0735031
1.0000000 0.3785352 0.0771091
1.0000000 0.3876798 0.0814078
1.0000000 0.3967962 0.0867869
1.0000000 0.4046784 0.0914448
1.0000000 0.4124818 0.0962537
1.0000000 0.4199934 0.1006101
1.0000000 0.4273916 0.1050771
1.0000000 0.4346204 0.1094524
1.0000000 0.4406434 0.1131262
1.0000000 0.4466326 0.1166461
1.0000000 0.4525177 0.1201199
1.0000000 0.4583654 0.1235402
1.0000000 0.4641572 0.1269683
1.0000000 0.4688492 0.1297851
1.0000000 0.4735996 0.1328056
1.0000000 0.4788235 0.1360370
1.0000000 0.4831654 0.1389616
1.0000000 0.4872572 0.1418070
1.0000000 0.4912820 0.1448174
1.0000000 0.4943707 0.1472193
1.0000000 0.4982044 0.1503589
1.0000000 0.5019339 0.1536114
1.0000000 0.5048823 0.1562549
1.0000000 0.5079248 0.1593935
1.0000000 0.5113506 0.1624818
1.0000000 0.5142484 0.1654311
1.0000000 0.5169600 0.1682907
1.0000000 0.5197036 0.1712165
1.0000000 0.5224482 0.1742331
1.0000000 0.5250570 0.1771711
1.0000000 0.5279396 0.1802589
1.0000000 0.5307813 0.1833192
1.0000000 0.5328811 0.1855972
1.0000000 0.5360085 0.1888172
1.0000000 0.5386356 0.1917323
1.0000000 0.5413128 0.1943743
1.0000000 0.5437586 0.1970395
1.0000000 0.5469196 0.2005324
0.1082429 0.1122391 0.0098951
0.1082450 0.1120619 0.0098811
0.1089748 0.1121637 0.0098920
0.1205165 0.1137807 0.0100677
0.1404124 0.1166026 0.0103805
0.1704840 0.1209535 0.0108802
0.2147658 0.1277338 0.0116916
0.2690555 0.1361775 0.0127767
0.3301210 0.1463457 0.0141720
0.3946797 0.1575556 0.0158421
0.4632695 0.1704549 0.0179090
0.5310376 0.1841502 0.0202847
0.5946440 0.1978700 0.0228658
0.6584562 0.2129558 0.0259049
0.7158205 0.2275679 0.0290810
0.7726604 0.2435387 0.0327806
0.8215454 0.2584418 0.0364852
0.8679994 0.2741135 0.0406073
0.9083422 0.2889153 0.0447592
0.9439027 0.3033628 0.0490153
0.9773893 0.3181590 0.0536368
1.0000000 0.3318257 0.0580997
1.0000000 0.3451517 0.0626850
1.0000000 0.3568599 0.0668604
1.0000000 0.3680218 0.0709946
1.0000000 0.3785446 0.0750622
1.0000000 0.3877356 0.0797435
1.0000000 0.3966758 0.0850472
1.0000000 0.4044779 0.0894820
1.0000000 0.4130569 0.0945043
1.0000000 0.4204830 0.0990322
1.0000000 0.4275942 0.1032898
1.0000000 0.4345929 0.1074740
1.0000000 0.4403639 0.1111366
1.0000000 0.4460627 0.1146336
1.0000000 0.4515346 0.1179465
1.0000000 0.4569749 0.1213009
1.0000000 0.4622163 0.1245132
1.0000000 0.4674668 0.1277449
1.0000000 0.4716160 0.1304809
1.0000000 0.4766009 0.1337230
1.0000000 0.4804894 0.1364487
1.0000000 0.4844123 0.1393353
1.0000000 0.4880043 0.1420966
1.0000000 0.4916483 0.1448802
1.0000000 0.4943707 0.1472193
1.0000000 0.4982044 0.1503589
1.0000000 0.5019339 0.1536114
1.0000000 0.5048823 0.1562549
1.0000000 0.5079248 0.1593935
1.0000000 0.5113506 0.1624818
1.0000000 0.5142484 0.1654311
1.0000000 0.5169600 0.1682907
1.0000000 0.5197036 0.1712165
1.0000000 0.5224482 0.1742331
1.0000000 0.5250570 0.1771711
1.0000000 0.5279396 0.1802589
1.0000000 0.5307813 0.1833192
1.0000000 0.5328811 0.1855972
1.0000000 0.5360085 0.1888172
1.0000000 0.5382807 0.1911883
1.0000000 0.5413128 0.1943743
1.0000000 0.5437586 0.1970395
1.0000000 0.5469196 0.2005324
0.1080904 0.1380636 0.0120125
0.1080933 0.1372858 0.0119472
0.1099661 0.1375404 0.0119762
0.1226827 0.1392803 0.0121756
0.1434066 0.1421534 0.0125124
0.1753154 0.1466725 0.0130612
0.2197458 0.1531675 0.0138892
0.2743669 0.1615002 0.0150198
0.3363219 0.1714623 0.0164701
0.4018480 0.1834031 0.0182977
0.4680411 0.1954900 0.0203474
0.5356802 0.2087826 0.0227805
0.5992957 0.2230161 0.0255198
0.6633788 0.2378027 0.0286594
0.7200151 0.2527478 0.0319818
0.7730408 0.2672860 0.0355199
0.8250883 0.2829374 0.0395848
0.8672997 0.2975362 0.0435131
0.9071809 0.3119255 0.0477164
0.9424368 0.3258779 0.0520182
0.9754080 0.3408796 0.0567753
1.0000000 0.3539960 0.0612584
1.0000000 0.3674700 0.0659528
1.0000000 0.3786497 0.0701288
1.0000000 0.3892874 0.0748830
1.0000000 0.3999844 0.0804957
1.0000000 0.4087576 0.0855170
1.0000000 0.4173896 0.0905355
1.0000000 0.4253322 0.0949690
1.0000000 0.4336022 0.0999060
1.0000000 0.4406481 0.1041554
1.0000000 0.4480093 0.1083993
1.0000000 0.4537039 0.1119810
1.0000000 0.4601866 0.1157917
1.0000000 0.4660688 0.1192765
1.0000000 0.4713262 0.1225111
1.0000000 0.4769931 0.1258240
1.0000000 0.4820345 0.1291575
1.0000000 0.4861753 0.1320018
1.0000000 0.4914799 0.1351913
1.0000000 0.4954019 0.1380783
1.0000000 0.4991515 0.1409545
1.0000000 0.5033385 0.1438225
1.0000000 0.5067996 0.1468133
1.0000000 0.5102211 0.1496096
1.0000000 0.5139819 0.1529132
1.0000000 0.5172180 0.1558539
1.0000000 0.5197122 0.1585446
1.0000000 0.5232669 0.1617298
1.0000000 0.5256435 0.1644569
1.0000000 0.5279573 0.1673277
1.0000000 0.5307212 0.1702762
1.0000000 0.5328304 0.1727242
1.0000000 0.5349281 0.1756657
1.0000000 0.5373917 0.1786343
1.0000000 0.5392649 0.1810949
1.0000000 0.5415863 0.1841183
1.0000000 0.5433216 0.1865296
1.0000000 0.5446057 0.1891975
1.0000000 0.5467529 0.1917706
1.0000000 0.5483324 0.1941859
1.0000000 0.5495192 0.1970378
1.0000000 0.5511447 0.1995496
1.0000000 0.5526277 0.2021649
0.1081333 0.1949846 0.0170762
0.1081270 0.1938002 0.0169651
0.1114174 0.1942224 0.0170189
0.1252375 0.1960071 0.0172498
0.1460508 0.1987337 0.0176096
0.1799834 0.2032804 0.0182311
0.2245932 0.2094614 0.0191171
0.2812541 0.2176713 0.0203674
0.3412364 0.2268450 0.0218613
0.4049250 0.2371944 0.0236691
0.4743126 0.2492838 0.0259421
0.5381446 0.2612721 0.0283675
0.6010179 0.2751216 0.0312616
0.6611566 0.2883586 0.0343425
0.7208443 0.3027054 0.0379183
0.7732235 0.3176184 0.0417331
0.8206482 0.3312723 0.0456023
0.8655257 0.3454568 0.0498667
0.9013910 0.3578730 0.0538083
0.9390978 0.3732833 0.0587725
0.9684261 0.3855405 0.0631005
0.9952253 0.3977993 0.0676337
1.0000000 0.4107656 0.0724275
1.0000000 0.4211963 0.0783127
1.0000000 0.4310868 0.0838579
1.0000000 0.4405234 0.0893013
1.0000000 0.4495910 0.0942061
1.0000000 0.4576334 0.0991470
1.0000000 0.4645422 0.1034365
1.0000000 0.4712921 0.1076369
1.0000000 0.4796258 0.1123812
1.0000000 0.4851019 0.1157917
1.0000000 0.4912937 0.1197234
1.0000000 0.4972700 0.1231521
1.0000000 0.5031294 0.1269766
1.0000000 0.5080084 0.1302110
1.0000000 0.5127939 0.1334717
1.0000000 0.5174769 0.1364648
1.0000000 0.5220853 0.1398046
1.0000000 0.5258070 0.1425972
1.0000000 0.5301670 0.1459812
1.0000000 0.5343961 0.1490151
1.0000000 0.5377882 0.1520810
1.0000000 0.5410051 0.1550519
1.0000000 0.5441656 0.1580431
1.0000000 0.5473249 0.1611218
1.0000000 0.5503377 0.1642756
1.0000000 0.5532325 0.1673666
1.0000000 0.5562283 0.1700470
1.0000000 0.5584378 0.1729327
1.0000000 0.5611214 0.1761411
1.0000000 0.5632128 0.1791503
1.0000000 0.5659291 0.1818123
1.0000000 0.5678724 0.1847637
1.0000000 0.5696830 0.1877329
1.0000000 0.5714208 0.1902077
1.0000000 0.5734622 0.1925657
1.0000000 0.5750751 0.1955389
1.0000000 0.5766556 0.1980131
1.0000000 0.5778367 0.2002493
1.0000000 0.5800391 0.2036238
1.0000000 0.5811348 0.2060344
1.0000000 0.5825735 0.2086713
1.0000000 0.5836028 0.2113495
0.1090404 0.2668193 0.0261677
0.1090166 0.2668095 0.0243349
0.1137770 0.2673714 0.0244186
0.1285054 0.2691240 0.0246835
0.1504506 0.2717758 0.0250934
0.1866143 0.2762559 0.0258094
0.2311264 0.2801160 0.0265573
0.2859634 0.2874997 0.0278581
0.3466287 0.2961339 0.0294780
0.4104947 0.3058174 0.0314196
0.4764020 0.3165386 0.0337223
0.5395546 0.3276159 0.0362692
0.6022005 0.3395160 0.0391942
0.6611636 0.3534082 0.0426240
0.7163295 0.3658168 0.0461049
0.7678784 0.3784981 0.0498873
0.8143322 0.3910201 0.0538482
0.8579931 0.4055721 0.0584342
0.8964870 0.4180984 0.0628803
0.9302540 0.4301807 0.0673967
0.9588230 0.4413874 0.0717911
0.9848614 0.4525735 0.0774288
1.0000000 0.4649170 0.0837920
1.0000000 0.4743925 0.0894005
1.0000000 0.4833677 0.0948647
1.0000000 0.4909884 0.0995929
1.0000000 0.5006848 0.1051611
1.0000000 0.5070862 0.1093777
1.0000000 0.5142656 0.1140380
1.0000000 0.5203909 0.1179543
1.0000000 0.5263579 0.1219671
1.0000000 0.5333865 0.1261129
1.0000000 0.5389933 0.1298661
1.0000000 0.5436742 0.1331511
1.0000000 0.5482405 0.1364178
1.0000000 0.5526822 0.1397259
1.0000000 0.5582467 0.1432664
1.0000000 0.5625046 0.1467014
1.0000000 0.5666678 0.1499522
1.0000000 0.5700411 0.1530668
1.0000000 0.5745226 0.1562541
1.0000000 0.5783089 0.1598890
1.0000000 0.5813438 0.1629469
1.0000000 0.5836743 0.1655509
1.0000000 0.5865393 0.1687497
1.0000000 0.5904440 0.1721361
1.0000000 0.5931533 0.1753455
1.0000000 0.5952420 0.1782587
1.0000000 0.5978288 0.1815215
1.0000000 0.6009191 0.1847680
1.0000000 0.6028559 0.1873683
1.0000000 0.6047428 0.1903467
1.0000000 0.6065111 0.1929372
1.0000000 0.6082668 0.1959618
1.0000000 0.6109900 0.1987013
1.0000000 0.6125562 0.2017156
1.0000000 0.6141023 0.2042536
1.0000000 0.6155347 0.2067078
1.0000000 0.6166035 0.2096588
1.0000000 0.6190639 0.2125865
1.0000000 0.6200527 0.2149739
1.0000000 0.6213648 0.2178080
1.0000000 0.6223330 0.2204883
1.0000000 0.6235634 0.2233564
0.1113648 0.3451564 0.0430579
0.1113465 0.3451560 0.0419711
0.1175519 0.3436736 0.0404609
0.1331595 0.3453621 0.0395520
0.1556917 0.3478407 0.0385591
0.1931729 0.3520741 0.0378474
0.2378471 0.3573149 0.0373316
0.2936476 0.3641822 0.0374135
0.3549092 0.3721742 0.0391801
0.4161810 0.3807048 0.0411857
0.4816997 0.3905062 0.0436419
0.5441062 0.4005997 0.0463396
0.6030384 0.4109274 0.0492764
0.6608933 0.4219579 0.0526103
0.7152747 0.4332890 0.0562490
0.7655731 0.4447759 0.0601615
0.8107448 0.4560953 0.0642406
0.8501064 0.4687470 0.0686798
0.8876882 0.4800554 0.0732200
0.9205632 0.4909397 0.0784450
0.9483038 0.5010126 0.0843549
0.9735293 0.5110443 0.0903662
0.9960053 0.5208446 0.0964144
1.0000000 0.5308779 0.1020554
1.0000000 0.5389075 0.1072644
1.0000000 0.5457028 0.1120759
1.0000000 0.5523945 0.1166876
1.0000000 0.5589658 0.1211064
1.0000000 0.5668375 0.1259023
1.0000000 0.5723097 0.1298711
1.0000000 0.5776311 0.1336735
1.0000000 0.5828122 0.1374626
1.0000000 0.5878319 0.1412163
1.0000000 0.5933626 0.1448391
1.0000000 0.5974357 0.1481692
1.0000000 0.6013868 0.1515501
1.0000000 0.6052673 0.1549828
1.0000000 0.6090739 0.1583191
1.0000000 0.6121724 0.1615087
1.0000000 0.6170694 0.1652057
1.0000000 0.6199754 0.1683449
1.0000000 0.6227936 0.1717008
1.0000000 0.6255074 0.1749041
1.0000000 0.6281090 0.1780953
1.0000000 0.6318728 0.1815825
1.0000000 0.6343229 0.1848991
1.0000000 0.6362525 0.1878271
1.0000000 0.6385823 0.1907678
1.0000000 0.6404250 0.1938299
1.0000000 0.6421840 0.1968279
1.0000000 0.6455288 0.2001011
1.0000000 0.6471742 0.2031563
1.0000000 0.6487470 0.2057159
1.0000000 0.6503061 0.2087930
1.0000000 0.6517231 0.2113323
1.0000000 0.6527697 0.2135729
1.0000000 0.6553395 0.2164974
1.0000000 0.6566098 0.2197335
1.0000000 0.6578749 0.2224100
1.0000000 0.6587968 0.2249092
1.0000000 0.6599691 0.2278178
1.0000000 0.6620933 0.2307919
1.0000000 0.6632239 0.2336576
1.0000000 0.6640380 0.2365341
0.1151568 0.4223629 0.0583054
0.1151409 0.4223665 0.0575135
0.1228377 0.4231040 0.0570149
0.1391264 0.4246784 0.0565658
0.1626577 0.4269919 0.0563379
0.2012792 0.4309007 0.0563177
0.2473720 0.4357600 0.0564053
0.3026574 0.4418930 0.0566418
0.3614868 0.4488227 0.0573084
0.4229218 0.4565626 0.0580617
0.4878454 0.4653805 0.0592384
0.5457810 0.4738945 0.0604465
0.6041809 0.4831975 0.0620270
0.6608428 0.4930379 0.0646341
0.7143292 0.5007303 0.0679685
0.7599018 0.5102499 0.0717042
0.8036662 0.5226732 0.0763255
0.8454284 0.5331600 0.0809212
0.8788902 0.5423862 0.0866295
0.9108196 0.5520461 0.0926963
0.9402525 0.5618652 0.0990159
0.9643651 0.5707197 0.1049731
0.9832182 0.5805417 0.1107443
1.0000000 0.5879676 0.1161770
1.0000000 0.5950263 0.1212734
1.0000000 0.6010164 0.1256719
1.0000000 0.6069213 0.1301209
1.0000000 0.6127133 0.1345648
1.0000000 0.6202466 0.1392996
1.0000000 0.6250587 0.1431174
1.0000000 0.6297281 0.1470270
1.0000000 0.6342723 0.1508346
1.0000000 0.6380570 0.1541983
1.0000000 0.6423430 0.1578755
1.0000000 0.6459249 0.1613345
1.0000000 0.6511219 0.1652305
1.0000000 0.6545201 0.1686641
1.0000000 0.6572996 0.1718516
1.0000000 0.6605545 0.1754330
1.0000000 0.6631982 0.1785932
1.0000000 0.6662565 0.1821674
1.0000000 0.6703567 0.1858958
1.0000000 0.6726992 0.1890982
1.0000000 0.6749690 0.1923918
1.0000000 0.6767328 0.1953360
1.0000000 0.6788819 0.1986297
1.0000000 0.6809834 0.2020655
1.0000000 0.6841731 0.2051291
1.0000000 0.6857778 0.2081837
1.0000000 0.6876937 0.2111815
1.0000000 0.6891965 0.2142531
1.0000000 0.6906363 0.2168586
1.0000000 0.6920056 0.2199465
1.0000000 0.6933693 0.2225642
1.0000000 0.6961908 0.2255488
1.0000000 0.6974003 0.2282946
1.0000000 0.6985674 0.2315437
1.0000000 0.6993933 0.2339308
1.0000000 0.7004908 0.2368762
1.0000000 0.7015472 0.2397786
1.0000000 0.7040159 0.2428913
1.0000000 0.7050197 0.2459100
1.0000000 0.7057409 0.2487952
1.0000000 0.7064412 0.2516522
0.1220540 0.5133744 0.0778823
0.1220862 0.5133910 0.0767865
0.1306927 0.5107106 0.0756382
0.1480392 0.5121598 0.0751106
0.1727339 0.5142586 0.0749391
0.2116175 0.5176655 0.0751480
0.2577612 0.5218871 0.0757142
0.3130751 0.5272313 0.0765578
0.3701128 0.5330989 0.0777938
0.4310029 0.5398193 0.0792819
0.4916968 0.5470550 0.0810139
0.5516680 0.5548181 0.0830234
0.6055144 0.5623990 0.0850367
0.6609126 0.5709121 0.0875517
0.7124102 0.5796083 0.0901447
0.7564692 0.5877695 0.0928331
0.7992668 0.5964746 0.0957745
0.8363587 0.6047691 0.0990958
0.8687572 0.6126790 0.1047693
0.8995641 0.6209424 0.1107739
0.9278750 0.6293267 0.1168430
0.9510170 0.6368744 0.1225517
0.9695623 0.6434768 0.1277845
0.9852895 0.6522667 0.1335819
0.9996380 0.6582454 0.1385312
1.0000000 0.6633300 0.1429183
1.0000000 0.6683511 0.1471579
1.0000000 0.6732689 0.1515297
1.0000000 0.6774788 0.1553385
1.0000000 0.6821727 0.1596074
1.0000000 0.6883589 0.1640979
1.0000000 0.6916535 0.1674629
1.0000000 0.6953933 0.1712428
1.0000000 0.6984924 0.1746870
1.0000000 0.7015238 0.1782796
1.0000000 0.7044673 0.1816902
1.0000000 0.7073562 0.1851667
1.0000000 0.7122357 0.1896756
1.0000000 0.7145136 0.1928210
1.0000000 0.7171843 0.1965806
1.0000000 0.7193149 0.1998512
1.0000000 0.7213958 0.2031758
1.0000000 0.7233738 0.2065346
1.0000000 0.7252910 0.2098455
1.0000000 0.7290841 0.2134913
1.0000000 0.7308791 0.2169002
1.0000000 0.7322772 0.2199141
1.0000000 0.7339858 0.2229512
1.0000000 0.7353241 0.2260461
1.0000000 0.7366013 0.2286502
1.0000000 0.7378601 0.2317879
1.0000000 0.7393630 0.2347322
1.0000000 0.7423512 0.2379246
1.0000000 0.7434645 0.2406743
1.0000000 0.7444723 0.2439070
1.0000000 0.7452237 0.2463228
1.0000000 0.7461994 0.2491814
1.0000000 0.7471173 0.2520767
1.0000000 0.7477955 0.2547086
1.0000000 0.7504509 0.2582178
1.0000000 0.7512851 0.2613168
1.0000000 0.7519000 0.2641685
1.0000000 0.7525034 0.2662763
1.0000000 0.7532788 0.2694204
0.1313529 0.5958548 0.1017518
0.1318574 0.5959160 0.1003397
0.1415710 0.5934538 0.0984460
0.1591212 0.5947030 0.0973848
0.1844238 0.5965270 0.0968229
0.2232536 0.5994102 0.0968271
0.2704142 0.6030825 0.0970178
0.3237653 0.6074809 0.0976647
0.3803635 0.6124617 0.0989379
0.4405168 0.6181681 0.1004740
0.5000844 0.6242970 0.1024580
0.5557745 0.6305305 0.1046445
0.6114420 0.6373348 0.1072112
0.6621420 0.6441217 0.1100702
0.7086556 0.6509447 0.1130114
0.7548115 0.6583915 0.1165871
0.7958328 0.6657062 0.1201287
0.8313590 0.6726909 0.1235838
0.8624957 0.6794202 0.1270165
0.8919108 0.6864175 0.1307620
0.9164995 0.6928089 0.1363224
0.9386435 0.6991251 0.1419249
0.9563423 0.7046376 0.1470169
0.9719359 0.7099116 0.1519623
0.9856241 0.7149302 0.1566618
0.9964737 0.7192106 0.1609429
1.0000000 0.7256171 0.1658861
1.0000000 0.7297238 0.1701218
1.0000000 0.7332315 0.1739478
1.0000000 0.7371400 0.1782463
1.0000000 0.7399749 0.1816845
1.0000000 0.7431974 0.1856082
1.0000000 0.7463314 0.1894227
1.0000000 0.7489154 0.1930409
1.0000000 0.7534211 0.1971751
1.0000000 0.7558616 0.2007679
1.0000000 0.7582552 0.2043450
1.0000000 0.7605960 0.2083175
1.0000000 0.7624845 0.2116213
1.0000000 0.7643389 0.2149392
1.0000000 0.7664693 0.2187556
1.0000000 0.7682069 0.2217926
1.0000000 0.7716630 0.2258278
1.0000000 0.7732411 0.2292597
1.0000000 0.7744601 0.2318813
1.0000000 0.7759516 0.2352942
1.0000000 0.7773998 0.2387295
1.0000000 0.7785312 0.2413642
1.0000000 0.7796472 0.2440400
1.0000000 0.7809668 0.2474663
1.0000000 0.7837484 0.2507870
1.0000000 0.7847189 0.2534591
1.0000000 0.7856598 0.2562372
1.0000000 0.7865680 0.2595063
1.0000000 0.7874039 0.2622505
1.0000000 0.7882299 0.2651836
1.0000000 0.7890138 0.2680587
1.0000000 0.7895696 0.2706400
1.0000000 0.7920073 0.2743952
1.0000000 0.7925222 0.2772171
1.0000000 0.7932171 0.2795451
1.0000000 0.7937143 0.2823634
1.0000000 0.7943575 0.2856191
1.0000000 0.7948169 0.2886271
0.1416576 0.6619390 0.1273599
0.1429735 0.6620573 0.1255695
0.1540166 0.6627302 0.1240039
0.1714559 0.6637824 0.1226875
0.1991848 0.6654714 0.1217749
0.2374588 0.6678801 0.1211970
0.2843947 0.6709768 0.1211623
0.3380010 0.6747390 0.1215383
0.3943802 0.6789898 0.1222972
0.4513399 0.6836374 0.1232592
0.5097916 0.6888213 0.1249132
0.5614717 0.6912605 0.1260691
0.6161609 0.6970889 0.1283859
0.6651819 0.7028312 0.1309847
0.7103004 0.7086365 0.1338751
0.7551875 0.7150054 0.1375611
0.7916505 0.7207188 0.1409165
0.8259462 0.7266310 0.1445097
0.8560591 0.7323419 0.1483155
0.8844085 0.7382673 0.1524935
0.9080179 0.7437068 0.1563615
0.9292250 0.7490731 0.1603016
0.9461494 0.7537136 0.1652324
0.9610257 0.7581458 0.1699369
0.9740937 0.7623626 0.1745648
0.9839287 0.7679407 0.1794729
0.9934695 0.7714679 0.1836729
1.0000000 0.7749231 0.1879445
1.0000000 0.7778698 0.1917819
1.0000000 0.7807431 0.1957234
1.0000000 0.7835256 0.1996557
1.0000000 0.7862252 0.2035488
1.0000000 0.7884789 0.2069752
1.0000000 0.7910087 0.2111632
1.0000000 0.7948745 0.2154771
1.0000000 0.7969162 0.2190683
1.0000000 0.7989126 0.2227997
1.0000000 0.8005432 0.2260942
1.0000000 0.8024391 0.2298861
1.0000000 0.8039824 0.2333102
1.0000000 0.8054505 0.2366660
1.0000000 0.8068916 0.2401683
1.0000000 0.8082545 0.2431831
1.0000000 0.8111975 0.2473067
1.0000000 0.8124683 0.2503320
1.0000000 0.8137049 0.2537426
1.0000000 0.8146645 0.2563720
1.0000000 0.8158336 0.2598308
1.0000000 0.8167473 0.2624797
1.0000000 0.8176235 0.2651069
1.0000000 0.8184868 0.2679440
1.0000000 0.8194877 0.2715096
1.0000000 0.8202708 0.2742299
1.0000000 0.8226715 0.2779498
1.0000000 0.8231721 0.2805607
1.0000000 0.8238506 0.2834290
1.0000000 0.8244897 0.2864016
1.0000000 0.8250996 0.2894577
1.0000000 0.8255588 0.2915696
1.0000000 0.8261313 0.2945578
1.0000000 0.8265331 0.2975075
1.0000000 0.8270832 0.3007328
1.0000000 0.8290569 0.3044234
1.0000000 0.8294423 0.3065929
0.1534263 0.7198292 0.1538469
0.1558385 0.7200004 0.1518422
0.1675056 0.7205911 0.1505746
0.1853869 0.7215027 0.1490025
0.2140061 0.7229526 0.1483129
0.2532564 0.7250292 0.1474970
0.2999876 0.7276213 0.1475314
0.3510182 0.7306567 0.1475038
0.4075419 0.7342836 0.1479041
0.4638427 0.7382127 0.1487277
0.5179924 0.7423396 0.1498570
0.5714093 0.7468002 0.1513527
0.6220424 0.7514446 0.1533223
0.6693430 0.7562256 0.1555430
0.7134255 0.7611380 0.1581457
0.7565467 0.7664676 0.1611115
0.7915041 0.7712449 0.1641202
0.8246565 0.7739279 0.1665452
0.8536474 0.7787799 0.1701458
0.8807921 0.7837983 0.1740940
0.9032397 0.7883780 0.1778412
0.9214352 0.7924381 0.1813496
0.9375869 0.7963591 0.1848895
0.9517533 0.8000923 0.1884233
0.9642209 0.8036175 0.1928933
0.9741845 0.8066427 0.1970727
0.9827482 0.8115525 0.2021726
0.9910926 0.8144403 0.2063848
0.9977642 0.8168956 0.2102838
1.0000000 0.8192898 0.2141320
1.0000000 0.8216046 0.2181946
1.0000000 0.8238481 0.2220972
1.0000000 0.8257061 0.2259266
1.0000000 0.8275124 0.2294658
1.0000000 0.8295617 0.2336075
1.0000000 0.8309795 0.2368751
1.0000000 0.8343696 0.2414870
1.0000000 0.8359925 0.2453279
1.0000000 0.8372886 0.2486978
1.0000000 0.8388286 0.2522188
1.0000000 0.8400320 0.2556641
1.0000000 0.8412149 0.2590889
1.0000000 0.8423287 0.2621253
1.0000000 0.8434163 0.2655526
1.0000000 0.8444655 0.2685065
1.0000000 0.8452858 0.2711849
1.0000000 0.8478550 0.2754338
1.0000000 0.8486238 0.2780568
1.0000000 0.8493680 0.2808389
1.0000000 0.8502681 0.2839429
1.0000000 0.8509573 0.2872170
1.0000000 0.8515958 0.2900785
1.0000000 0.8522263 0.2930244
1.0000000 0.8528254 0.2959133
1.0000000 0.8533818 0.2987909
1.0000000 0.8539277 0.3018777
1.0000000 0.8558457 0.3047927
1.0000000 0.8563353 0.3077770
1.0000000 0.8568183 0.3108702
1.0000000 0.8571330 0.3138168
1.0000000 0.8575728 0.3169737
1.0000000 0.8579065 0.3191442
1.0000000 0.8583126 0.3223982
1.0000000 0.8585945 0.3255065
0.1670934 0.7722237 0.1830426
0.1708079 0.7724305 0.1810175
0.1822286 0.7703071 0.1782316
0.2004181 0.7710707 0.1767993
0.2311326 0.7723765 0.1752468
0.2686181 0.7740127 0.1745461
0.3163346 0.7762091 0.1744309
0.3676530 0.7787669 0.1742424
0.4215887 0.7816685 0.1748826
0.4771034 0.7849528 0.1754724
0.5301749 0.7883896 0.1768132
0.5795035 0.7919217 0.1778643
0.6290151 0.7958112 0.1798824
0.6748683 0.7998155 0.1817438
0.7177900 0.8039705 0.1838965
0.7564037 0.8081111 0.1863827
0.7928106 0.8124436 0.1892527
0.8218004 0.8162620 0.1918358
0.8498439 0.8203238 0.1949914
0.8759056 0.8245029 0.1984702
0.8973681 0.8283039 0.2018694
0.9165269 0.8320450 0.2051690
0.9317244 0.8352841 0.2083600
0.9435822 0.8380247 0.2109628
0.9554257 0.8409650 0.2141662
0.9649206 0.8435073 0.2169444
0.9736438 0.8459694 0.2207891
0.9806695 0.8480631 0.2247124
0.9879994 0.8503992 0.2290190
0.9938496 0.8523744 0.2330630
