Plugins/FilmEmulator/Content/LUTs/FE_Fuji_Velvia_50_64.cube
TITLE "FE_Fuji_Velvia_50_33"
LUT_3D_SIZE 64
0.0007301 0.0003419 0.0004653
0.0009879 0.0003507 0.0004701
0.0026581 0.0003797 0.0004828
0.0068270 0.0003607 0.0004679
0.0138181 0.0002610 0.0004259
0.0219535 0.0001205 0.0003748
0.0306310 0.0000000 0.0003302
0.0406711 0.0000000 0.0002969
0.0513236 0.0000000 0.0002779
0.0624177 0.0000000 0.0002847
0.0744005 0.0001754 0.0003256
0.0871164 0.0004957 0.0004109
0.1002891 0.0009269 0.0005465
0.1137894 0.0014343 0.0007157
0.1273057 0.0020079 0.0009103
0.1424075 0.0027429 0.0011694
0.1569574 0.0035327 0.0014776
0.1726573 0.0044688 0.0018631
0.1875793 0.0056308 0.0022519
0.2027738 0.0066789 0.0028503
0.2184010 0.0075933 0.0032778
0.2352704 0.0088886 0.0039133
0.2496317 0.0101153 0.0045253
0.2646727 0.0114664 0.0051914
0.2797988 0.0129895 0.0059493
0.2928401 0.0147533 0.0068095
0.3082204 0.0161815 0.0075002
0.3212365 0.0178498 0.0082788
0.3348138 0.0196638 0.0091228
0.3484924 0.0216541 0.0100418
0.3627601 0.0238223 0.0110135
0.3773859 0.0261835 0.0120738
0.3893190 0.0287254 0.0128870
0.4036389 0.0306634 0.0141017
0.4152304 0.0327837 0.0150588
0.4276493 0.0356676 0.0160351
0.4424711 0.0378536 0.0174742
0.4544852 0.0402197 0.0186069
0.4662614 0.0425699 0.0198039
0.4782646 0.0449619 0.0210412
0.4872953 0.0475365 0.0224033
0.4986004 0.0492319 0.0232698
0.5106133 0.0518320 0.0247032
0.5229037 0.0545392 0.0262022
0.5312636 0.0564161 0.0272479
0.5434443 0.0593372 0.0288997
0.5515156 0.0612691 0.0300378
0.5638545 0.0642768 0.0318078
0.5722355 0.0663578 0.0330410
0.5815632 0.0696265 0.0342861
0.5924910 0.0717580 0.0362966
0.6006386 0.0739708 0.0376053
0.6089007 0.0762471 0.0389581
0.6172780 0.0785889 0.0403564
0.6265431 0.0822230 0.0417699
0.6346622 0.0846592 0.0432285
0.6427228 0.0871834 0.0454581
0.6510757 0.0897540 0.0469400
0.6597322 0.0923714 0.0476045
0.6680062 0.0950780 0.0491594
0.6749865 0.0964268 0.0507911
0.6832739 0.0991901 0.0523534
0.6916660 0.1020273 0.0539612
0.7001632 0.1049409 0.0556161
0.0008101 0.0009453 0.0005291
0.0011620 0.0011945 0.0005536
0.0034139 0.0016016 0.0005400
0.0088217 0.0021009 0.0004674
0.0176027 0.0026808 0.0003473
0.0276336 0.0032734 0.0002128
0.0382610 0.0039783 0.0000791
0.0502810 0.0047448 0.0000000
0.0625499 0.0055393 0.0000000
0.0751776 0.0064775 0.0000000
0.0886410 0.0075740 0.0000000
0.1023713 0.0085978 0.0000000
0.1164918 0.0097660 0.0000000
0.1305975 0.0108108 0.0000149
0.1447704 0.0119799 0.0001783
0.1603701 0.0132531 0.0004148
0.1755399 0.0146889 0.0006952
0.1918089 0.0162743 0.0010566
0.2066037 0.0176579 0.0014487
0.2227014 0.0196438 0.0020167
0.2391829 0.0213429 0.0024062
0.2564371 0.0232141 0.0030306
0.2715447 0.0252949 0.0036107
0.2866015 0.0269410 0.0042824
0.3023698 0.0293080 0.0050126
0.3151675 0.0311880 0.0056465
0.3316754 0.0338944 0.0065240
0.3447358 0.0359399 0.0073005
0.3582681 0.0380662 0.0081464
0.3718184 0.0403222 0.0090705
0.3858126 0.0426337 0.0100528
0.3999160 0.0449242 0.0111357
0.4112549 0.0473554 0.0119597
0.4259371 0.0498955 0.0131677
0.4376470 0.0524475 0.0141148
0.4484264 0.0541953 0.0151563
0.4635503 0.0569298 0.0165930
0.4757639 0.0597972 0.0177132
0.4867829 0.0616887 0.0189479
0.4980683 0.0636374 0.0202209
0.5072552 0.0667234 0.0215756
0.5188150 0.0688035 0.0224293
0.5301009 0.0709332 0.0239002
0.5426400 0.0741826 0.0253887
0.5511649 0.0764276 0.0264275
0.5624987 0.0787427 0.0281224
0.5708092 0.0811250 0.0292512
0.5823203 0.0835151 0.0310637
0.5908563 0.0859576 0.0322917
0.5992242 0.0884710 0.0335693
0.6104078 0.0910637 0.0355857
0.6187769 0.0937187 0.0368857
0.6272253 0.0964053 0.0382313
0.6357719 0.0991437 0.0396233
0.6440617 0.1019588 0.0410688
0.6523970 0.1048485 0.0425189
0.6594192 0.1063672 0.0448105
0.6681928 0.1093404 0.0454284
0.6768043 0.1123510 0.0469247
0.6852272 0.1154421 0.0484727
0.6923367 0.1170384 0.0501136
0.7008221 0.1202510 0.0516660
0.7094132 0.1235474 0.0532638
0.7167907 0.1252512 0.0549683
0.0006981 0.0039057 0.0005797
0.0011917 0.0045052 0.0005691
0.0043955 0.0056842 0.0004732
0.0115411 0.0070975 0.0002822
0.0224180 0.0086301 0.0000061
0.0342034 0.0099578 0.0000000
0.0464277 0.0114995 0.0000000
0.0598093 0.0129469 0.0000000
0.0730835 0.0142229 0.0000000
0.0867516 0.0158480 0.0000000
0.1011452 0.0176301 0.0000000
0.1156914 0.0192413 0.0000000
0.1290623 0.0209719 0.0000000
0.1456161 0.0228519 0.0000000
0.1607530 0.0248771 0.0000000
0.1773856 0.0270824 0.0000000
0.1928448 0.0288538 0.0000000
0.2099509 0.0313129 0.0000000
0.2253235 0.0333074 0.0002272
0.2420440 0.0360041 0.0006147
0.2587415 0.0381287 0.0011462
0.2762313 0.0403746 0.0017721
0.2913028 0.0426669 0.0023601
0.3068791 0.0449427 0.0030131
0.3223877 0.0473414 0.0037665
0.3356052 0.0498473 0.0043759
0.3507970 0.0515524 0.0053498
0.3641734 0.0541295 0.0061107
0.3780630 0.0568344 0.0069394
0.3910439 0.0587384 0.0079103
0.4053151 0.0615589 0.0088814
0.4189016 0.0635184 0.0100103
0.4295923 0.0655193 0.0108746
0.4446052 0.0686269 0.0120699
0.4556819 0.0707437 0.0130573
0.4666979 0.0728798 0.0140951
0.4787888 0.0762030 0.0155833
0.4936120 0.0784890 0.0166883
0.5049351 0.0808564 0.0179165
0.5164768 0.0832308 0.0191861
0.5247997 0.0856740 0.0205935
0.5366064 0.0881383 0.0214317
0.5481462 0.0907125 0.0229002
0.5599396 0.0933598 0.0244351
0.5686640 0.0960126 0.0254618
0.5802177 0.0987512 0.0271575
0.5887014 0.1015326 0.0282758
0.5993206 0.1030181 0.0301569
0.6080840 0.1059176 0.0313723
0.6166762 0.1088967 0.0326374
0.6280591 0.1119195 0.0346572
0.6353812 0.1134771 0.0360178
0.6440125 0.1165815 0.0373526
0.6527616 0.1197682 0.0387328
0.6599875 0.1214344 0.0402402
0.6685025 0.1247483 0.0416792
0.6758407 0.1264467 0.0431461
0.6845183 0.1297990 0.0445861
0.6933079 0.1332373 0.0460709
0.7005970 0.1350345 0.0476824
0.7091312 0.1386068 0.0492550
0.7164543 0.1404708 0.0508707
0.7251908 0.1441621 0.0524577
0.7326399 0.1460478 0.0541701
0.0001440 0.0089995 0.0004441
0.0007607 0.0099003 0.0004093
0.0050168 0.0117380 0.0002229
0.0137018 0.0143035 0.0000000
0.0264322 0.0168187 0.0000000
0.0399662 0.0191897 0.0000000
0.0535444 0.0215260 0.0000000
0.0681846 0.0235489 0.0000000
0.0831031 0.0260134 0.0000000
0.0977383 0.0280511 0.0000000
0.1132323 0.0307496 0.0000000
0.1286256 0.0329825 0.0000000
0.1425447 0.0351903 0.0000000
0.1597659 0.0375571 0.0000000
0.1753301 0.0399704 0.0000000
0.1921814 0.0423441 0.0000000
0.2083373 0.0447922 0.0000000
0.2255238 0.0473691 0.0000000
0.2414279 0.0499489 0.0000000
0.2580036 0.0525931 0.0000000
0.2745472 0.0545433 0.0000000
0.2925723 0.0574046 0.0004144
0.3072829 0.0593831 0.0010506
0.3233407 0.0622745 0.0016774
0.3384824 0.0643652 0.0024799
0.3511981 0.0664604 0.0031375
0.3676751 0.0696306 0.0040302
0.3805462 0.0718002 0.0048407
0.3938795 0.0740351 0.0057227
0.4071405 0.0763344 0.0066888
0.4218209 0.0798030 0.0076335
0.4357353 0.0822165 0.0087567
0.4466778 0.0846306 0.0096099
0.4610465 0.0871686 0.0108651
0.4723932 0.0897247 0.0118409
0.4837173 0.0923526 0.0128647
0.4950667 0.0950596 0.0144183
0.5091603 0.0965042 0.0155915
0.5206972 0.0992614 0.0168129
0.5325108 0.1020941 0.0180719
0.5410401 0.1049965 0.0194731
0.5531585 0.1079425 0.0202878
0.5637878 0.1095214 0.0218350
0.5757842 0.1125664 0.0233655
0.5847027 0.1156346 0.0243767
0.5953123 0.1173208 0.0261527
0.6039824 0.1205147 0.0272562
0.6159990 0.1238566 0.0290619
0.6237055 0.1255652 0.0303516
0.6324167 0.1288908 0.0316071
0.6427634 0.1307133 0.0337116
0.6514566 0.1341661 0.0349883
0.6589906 0.1359909 0.0363977
0.6679018 0.1395807 0.0377650
0.6752360 0.1414771 0.0392769
0.6838593 0.1451359 0.0407064
0.6912951 0.1470463 0.0421775
0.7001269 0.1508057 0.0436042
0.7077382 0.1527899 0.0451666
0.7151208 0.1547984 0.0467825
0.7237855 0.1587495 0.0483437
0.7312029 0.1608291 0.0499631
0.7386962 0.1629356 0.0516293
0.7475824 0.1669614 0.0532570
0.0000000 0.0158583 0.0001640
0.0000000 0.0171271 0.0001008
0.0051747 0.0202685 0.0000000
0.0154438 0.0237764 0.0000000
0.0300060 0.0273380 0.0000000
0.0450403 0.0305450 0.0000000
0.0597968 0.0335531 0.0000000
0.0757170 0.0364450 0.0000000
0.0914904 0.0392715 0.0000000
0.1071067 0.0421128 0.0000000
0.1227918 0.0443467 0.0000000
0.1391490 0.0471841 0.0000000
0.1540298 0.0500091 0.0000000
0.1696967 0.0522851 0.0000000
0.1877023 0.0553556 0.0000000
0.2046813 0.0576592 0.0000000
0.2214593 0.0607752 0.0000000
0.2385995 0.0631654 0.0000000
0.2543792 0.0655291 0.0000000
0.2714727 0.0687857 0.0000000
0.2885142 0.0712299 0.0000000
0.3062753 0.0737378 0.0000000
0.3214173 0.0762099 0.0000000
0.3371371 0.0787271 0.0003451
0.3526486 0.0812601 0.0011355
0.3656708 0.0837689 0.0017780
0.3816687 0.0864348 0.0027332
0.3948836 0.0890811 0.0035261
0.4085617 0.0917968 0.0043916
0.4221232 0.0945373 0.0053461
0.4361643 0.0973538 0.0063571
0.4504089 0.1002493 0.0074670
0.4616367 0.1031344 0.0083011
0.4752987 0.1048240 0.0096399
0.4868874 0.1078005 0.0106012
0.4984241 0.1108208 0.0116131
0.5089059 0.1125438 0.0132605
0.5243739 0.1157246 0.0143342
0.5361705 0.1189546 0.0155413
0.5470927 0.1207307 0.0168866
0.5560406 0.1239799 0.0176922
0.5680954 0.1273464 0.0190770
0.5789022 0.1291942 0.0206307
0.5911309 0.1326947 0.0221507
0.5990193 0.1345256 0.0232467
0.6110212 0.1381642 0.0249283
0.6186194 0.1400631 0.0261186
0.6307920 0.1437782 0.0279206
0.6386044 0.1457022 0.0292127
0.6462041 0.1476485 0.0305572
0.6579598 0.1515162 0.0325703
0.6655068 0.1535287 0.0339361
0.6744553 0.1574481 0.0352428
0.6821901 0.1595388 0.0367014
0.6896193 0.1616534 0.0382163
0.6983408 0.1656481 0.0396352
0.7058704 0.1677704 0.0411086
0.7134814 0.1699192 0.0426273
0.7211742 0.1720955 0.0441926
0.7300064 0.1763358 0.0457062
0.7374008 0.1785876 0.0473618
0.7448964 0.1808625 0.0489840
0.7524679 0.1831659 0.0506532
0.7614668 0.1875502 0.0522689
0.0000000 0.0242954 0.0000000
0.0000000 0.0256180 0.0000000
0.0049293 0.0290881 0.0000000
0.0166006 0.0337670 0.0000000
0.0327650 0.0385432 0.0000000
0.0489673 0.0422023 0.0000000
0.0648064 0.0460361 0.0000000
0.0815846 0.0491455 0.0000000
0.0982530 0.0527782 0.0000000
0.1142596 0.0556586 0.0000000
0.1307128 0.0585206 0.0000000
0.1474117 0.0612806 0.0000000
0.1628638 0.0647578 0.0000000
0.1795031 0.0675092 0.0000000
0.1978855 0.0703596 0.0000000
0.2158002 0.0731851 0.0000000
0.2324867 0.0760046 0.0000000
0.2501442 0.0789043 0.0000000
0.2663828 0.0817537 0.0000000
0.2832868 0.0846739 0.0000000
0.3008194 0.0876606 0.0000000
0.3190478 0.0906808 0.0000000
0.3345780 0.0936340 0.0000000
0.3498387 0.0954567 0.0000000
0.3657529 0.0985118 0.0000000
0.3791248 0.1015196 0.0003312
0.3955043 0.1046980 0.0012687
0.4080571 0.1064742 0.0021503
0.4220189 0.1096212 0.0029997
0.4358928 0.1128466 0.0039359
0.4492231 0.1147288 0.0050389
0.4637626 0.1180893 0.0061330
0.4752164 0.1213902 0.0069491
0.4890985 0.1233436 0.0082930
0.5009019 0.1267278 0.0092386
0.5115614 0.1286268 0.0103467
0.5233247 0.1322049 0.0118901
0.5379521 0.1342321 0.0130579
0.5499632 0.1378888 0.0142502
0.5574332 0.1398577 0.0156732
0.5701258 0.1435004 0.0163874
0.5811847 0.1455642 0.0178764
0.5933577 0.1494086 0.0193175
0.6045499 0.1515455 0.0209441
0.6125507 0.1535918 0.0220384
0.6247284 0.1576358 0.0237109
0.6324310 0.1597538 0.0249006
0.6434786 0.1619578 0.0268144
0.6526620 0.1659714 0.0279900
0.6603577 0.1681334 0.0293357
0.6709537 0.1704332 0.0314621
0.6785839 0.1726385 0.0328291
0.6876417 0.1768980 0.0341225
0.6954602 0.1791866 0.0355827
0.7029673 0.1814991 0.0371000
0.7104626 0.1837903 0.0386238
0.7180579 0.1860791 0.0400991
0.7270985 0.1905083 0.0415012
0.7348700 0.1928806 0.0430687
0.7424042 0.1952774 0.0446908
0.7498592 0.1976999 0.0463494
0.7574168 0.2001463 0.0479738
0.7650504 0.2026225 0.0496456
0.7741870 0.2074020 0.0512458
0.0000000 0.0323383 0.0000000
0.0000000 0.0339364 0.0000000
0.0044027 0.0383892 0.0000000
0.0177242 0.0438982 0.0000000
0.0347916 0.0497462 0.0000000
0.0521544 0.0543130 0.0000000
0.0688014 0.0583147 0.0000000
0.0864641 0.0621987 0.0000000
0.1035372 0.0658307 0.0000000
0.1202251 0.0693186 0.0000000
0.1374197 0.0727563 0.0000000
0.1547822 0.0761701 0.0000000
0.1704240 0.0793983 0.0000000
0.1896022 0.0828326 0.0000000
0.2059499 0.0850920 0.0000000
0.2243253 0.0884728 0.0000000
0.2418763 0.0917855 0.0000000
0.2604528 0.0951891 0.0000000
0.2766099 0.0973562 0.0000000
0.2941581 0.1007052 0.0000000
0.3121132 0.1041879 0.0000000
0.3308011 0.1077594 0.0000000
0.3458312 0.1098957 0.0000000
0.3623336 0.1134173 0.0000000
0.3776840 0.1155955 0.0000000
0.3913174 0.1190097 0.0000000
0.4080198 0.1226527 0.0000000
0.4208196 0.1247287 0.0006628
0.4350787 0.1283542 0.0014907
0.4481916 0.1304989 0.0025326
0.4628259 0.1342637 0.0035065
0.4765517 0.1364699 0.0047114
0.4870956 0.1385132 0.0056377
0.5022924 0.1423807 0.0068564
0.5131807 0.1444992 0.0079117
0.5251475 0.1483590 0.0088892
0.5359300 0.1506183 0.0105541
0.5507849 0.1529125 0.0117174
0.5629843 0.1569748 0.0128943
0.5705178 0.1591312 0.0143248
0.5822089 0.1613197 0.0151463
0.5946273 0.1654721 0.0165071
0.6057239 0.1678020 0.0180687
0.6170447 0.1701604 0.0196990
0.6251405 0.1724033 0.0207915
0.6374635 0.1768146 0.0224550
0.6452538 0.1791313 0.0236437
0.6564326 0.1815776 0.0255630
0.6644202 0.1838863 0.0268564
0.6721851 0.1862181 0.0282033
0.6842025 0.1908080 0.0302063
0.6919128 0.1932106 0.0315738
0.6997103 0.1956434 0.0329876
0.7075968 0.1981061 0.0344491
0.7151661 0.2005922 0.0359683
0.7227537 0.2031034 0.0374913
0.7304433 0.2056109 0.0389651
0.7395574 0.2103303 0.0403559
0.7473909 0.2128727 0.0419253
0.7549828 0.2154393 0.0435499
0.7624934 0.2180323 0.0452111
0.7701085 0.2206494 0.0468376
0.7778000 0.2232973 0.0485117
0.7855684 0.2259766 0.0502346
0.0000000 0.0411048 0.0000000
0.0000000 0.0424218 0.0000000
0.0036226 0.0478651 0.0000000
0.0180920 0.0546237 0.0000000
0.0362748 0.0609975 0.0000000
0.0547291 0.0664395 0.0000000
0.0728896 0.0705297 0.0000000
0.0903306 0.0750089 0.0000000
0.1081118 0.0793468 0.0000000
0.1255399 0.0834883 0.0000000
0.1428907 0.0865490 0.0000000
0.1609469 0.0904881 0.0000000
0.1789084 0.0944020 0.0000000
0.1967843 0.0983110 0.0000000
0.2135309 0.1010135 0.0000000
0.2326280 0.1049518 0.0000000
0.2499274 0.1075678 0.0000000
0.2689278 0.1114699 0.0000000
0.2857066 0.1139152 0.0000000
0.3036627 0.1177970 0.0000000
0.3216926 0.1202945 0.0000000
0.3413109 0.1242535 0.0000000
0.3566390 0.1267120 0.0000000
0.3734743 0.1307043 0.0000000
0.3890869 0.1331654 0.0000000
0.4029853 0.1370128 0.0000000
0.4189943 0.1395311 0.0000000
0.4320019 0.1418729 0.0000000
0.4465050 0.1459179 0.0000415
0.4598229 0.1483349 0.0010799
0.4747005 0.1525303 0.0020349
0.4886109 0.1549775 0.0032408
0.4993131 0.1572619 0.0041631
0.5136061 0.1597536 0.0055080
0.5257923 0.1639225 0.0064187
0.5367645 0.1663079 0.0075229
0.5476636 0.1687981 0.0091942
0.5627210 0.1713390 0.0103527
0.5750784 0.1757690 0.0115152
0.5826965 0.1781475 0.0129486
0.5945470 0.1805519 0.0137622
0.6058656 0.1830569 0.0152560
0.6170703 0.1855832 0.0168205
0.6297852 0.1902098 0.0183083
0.6379731 0.1926541 0.0193984
0.6491148 0.1952903 0.0212004
0.6569767 0.1977821 0.0223881
0.6682847 0.2004751 0.0243100
0.6763728 0.2030049 0.0256003
0.6842031 0.2055070 0.0269481
0.6949762 0.2081944 0.0290912
0.7027375 0.2107409 0.0304598
0.7119532 0.2155915 0.0317291
0.7199029 0.2182281 0.0331917
0.7275304 0.2208872 0.0347125
0.7351758 0.2235717 0.0362370
0.7429422 0.2262793 0.0377098
0.7507911 0.2290193 0.0392286
0.7586775 0.2317139 0.0407995
0.7663178 0.2344323 0.0424260
0.7738754 0.2371773 0.0440894
0.7815393 0.2399466 0.0457174
0.7892790 0.2427479 0.0473932
0.7970963 0.2455813 0.0491182
0.0000000 0.0499093 0.0000000
0.0000000 0.0513695 0.0000000
0.0028443 0.0572663 0.0000000
0.0180923 0.0650738 0.0000000
0.0374112 0.0724739 0.0000000
0.0565625 0.0779430 0.0000000
0.0756949 0.0836878 0.0000000
0.0938554 0.0889312 0.0000000
0.1120345 0.0928775 0.0000000
0.1300111 0.0976232 0.0000000
0.1480550 0.1011024 0.0000000
0.1666354 0.1056615 0.0000000
0.1845249 0.1089264 0.0000000
0.2027763 0.1134049 0.0000000
0.2201352 0.1164531 0.0000000
0.2396684 0.1209362 0.0000000
0.2573345 0.1239025 0.0000000
0.2770388 0.1282599 0.0000000
0.2939146 0.1311299 0.0000000
0.3116854 0.1339478 0.0000000
0.3309376 0.1383368 0.0000000
0.3500457 0.1412196 0.0000000
0.3659602 0.1439193 0.0000000
0.3833649 0.1482757 0.0000000
0.3998648 0.1509005 0.0000000
0.4129986 0.1534605 0.0000000
0.4302744 0.1579976 0.0000000
0.4434899 0.1606177 0.0000000
0.4571483 0.1632746 0.0000000
0.4706485 0.1659439 0.0000000
0.4857366 0.1705327 0.0005547
0.4998418 0.1732527 0.0017571
0.5106839 0.1757596 0.0026751
0.5251606 0.1785064 0.0040194
0.5363297 0.1810709 0.0050694
0.5474209 0.1836545 0.0061718
0.5596286 0.1883810 0.0076915
0.5748885 0.1911765 0.0088442
0.5861397 0.1938680 0.0101524
0.5938438 0.1964738 0.0115862
0.6058613 0.1991182 0.0123889
0.6172888 0.2018212 0.0138846
0.6285988 0.2045456 0.0154516
0.6363175 0.2071931 0.0171737
0.6483854 0.2098928 0.0181769
0.6596084 0.2126986 0.0199836
0.6675248 0.2153368 0.0211710
0.6802672 0.2205101 0.0229378
0.6884387 0.2232430 0.0242258
0.6963799 0.2260003 0.0255685
0.7072421 0.2288939 0.0277186
0.7150697 0.2316209 0.0290870
0.7229851 0.2343803 0.0305020
0.7309890 0.2371721 0.0319654
0.7372678 0.2375461 0.0336462
0.7449504 0.2403561 0.0351723
0.7527559 0.2431889 0.0366460
0.7606441 0.2460544 0.0381660
0.7686149 0.2489535 0.0397334
0.7763369 0.2518779 0.0413569
0.7839752 0.2548304 0.0430174
0.7916977 0.2577651 0.0446447
0.7994838 0.2607112 0.0463212
0.8073469 0.2636904 0.0480471
0.0000000 0.0589561 0.0000000
0.0000000 0.0603951 0.0000000
0.0016047 0.0672284 0.0000000
0.0178807 0.0762007 0.0000000
0.0380794 0.0837803 0.0000000
0.0581882 0.0910814 0.0000000
0.0778509 0.0965687 0.0000000
0.0967315 0.1024803 0.0000000
0.1154812 0.1069485 0.0000000
0.1341577 0.1122703 0.0000000
0.1527033 0.1162446 0.0000000
0.1712390 0.1200719 0.0000000
0.1900547 0.1251664 0.0000000
0.2083577 0.1287287 0.0000000
0.2260812 0.1321683 0.0000000
0.2460098 0.1371566 0.0000000
0.2643369 0.1404159 0.0000000
0.2833852 0.1437750 0.0000000
0.3008368 0.1468891 0.0000000
0.3197646 0.1516700 0.0000000
0.3384843 0.1548526 0.0000000
0.3579491 0.1580444 0.0000000
0.3741014 0.1610367 0.0000000
0.3921127 0.1657545 0.0000000
0.4085692 0.1687288 0.0000000
0.4222090 0.1714718 0.0000000
0.4393591 0.1743966 0.0000000
0.4530848 0.1771612 0.0000000
0.4669100 0.1800465 0.0000000
0.4816902 0.1849164 0.0000000
0.4958356 0.1878814 0.0000000
0.5101272 0.1908762 0.0003010
0.5211162 0.1936282 0.0012114
0.5357523 0.1966036 0.0025550
0.5470409 0.1993688 0.0036024
0.5582483 0.2021529 0.0047027
0.5693398 0.2050600 0.0063851
0.5847519 0.2080474 0.0075339
0.5960966 0.2109105 0.0088423
0.6038441 0.2136710 0.0102798
0.6159935 0.2165077 0.0110742
0.6275563 0.2194605 0.0125657
0.6389996 0.2224361 0.0141291
0.6467602 0.2252458 0.0158567
0.6589436 0.2281197 0.0168547
0.6702513 0.2311052 0.0186651
0.6782256 0.2338988 0.0198514
0.6896984 0.2369439 0.0217828
0.6979153 0.2398055 0.0230709
0.7058979 0.2426905 0.0244141
0.7168624 0.2458086 0.0265651
0.7247753 0.2487416 0.0279286
0.7327765 0.2517092 0.0293390
0.7408429 0.2546686 0.0308007
0.7485657 0.2576280 0.0323232
0.7563066 0.2606137 0.0338489
0.7641726 0.2636227 0.0353215
0.7721214 0.2666656 0.0368406
0.7786992 0.2670777 0.0385796
0.7864667 0.2701496 0.0402034
0.7941487 0.2732499 0.0418645
0.8019413 0.2763768 0.0434890
0.8098103 0.2795392 0.0451617
0.8177565 0.2827372 0.0468839
0.0000000 0.0684681 0.0000000
0.0000000 0.0698424 0.0000000
0.0001847 0.0776453 0.0000000
0.0173289 0.0868915 0.0000000
0.0384725 0.0965109 0.0000000
0.0592395 0.1036029 0.0000000
0.0796836 0.1097111 0.0000000
0.0991291 0.1162984 0.0000000
0.1185993 0.1212433 0.0000000
0.1373259 0.1258180 0.0000000
0.1562832 0.1302284 0.0000000
0.1756823 0.1359596 0.0000000
0.1945820 0.1400352 0.0000000
0.2132401 0.1439850 0.0000000
0.2313012 0.1477942 0.0000000
0.2519223 0.1532094 0.0000000
0.2702960 0.1568941 0.0000000
0.2899891 0.1605269 0.0000000
0.3077478 0.1639659 0.0000000
0.3261319 0.1674244 0.0000000
0.3451688 0.1708873 0.0000000
0.3649080 0.1743735 0.0000000
0.3825891 0.1794392 0.0000000
0.3995851 0.1827571 0.0000000
0.4166215 0.1859492 0.0000000
0.4304337 0.1889208 0.0000000
0.4478379 0.1920901 0.0000000
0.4613538 0.1951732 0.0000000
0.4756911 0.1982078 0.0000000
0.4902702 0.2011527 0.0000000
0.5049307 0.2042274 0.0000000
0.5193589 0.2074231 0.0000000
0.5304625 0.2103733 0.0000000
0.5452766 0.2136245 0.0011563
0.5567088 0.2166411 0.0021951
0.5680174 0.2196063 0.0032932
0.5791910 0.2227025 0.0049802
0.5947592 0.2258929 0.0061240
0.6062006 0.2289386 0.0074318
0.6139936 0.2318636 0.0088721
0.6262647 0.2348782 0.0096590
0.6379212 0.2380154 0.0111511
0.6494545 0.2411754 0.0127156
0.6572976 0.2442268 0.0144427
0.6696393 0.2473573 0.0154289
0.6810519 0.2505646 0.0172399
0.6890925 0.2535350 0.0184234
0.7006582 0.2567838 0.0203575
0.7075616 0.2572730 0.0218271
0.7155950 0.2603070 0.0231693
0.7266276 0.2635947 0.0253248
0.7345903 0.2666767 0.0266871
0.7426419 0.2697942 0.0280965
0.7507821 0.2729478 0.0295546
0.7585864 0.2761235 0.0310725
0.7664096 0.2793272 0.0325934
0.7728862 0.2797740 0.0342476
0.7808913 0.2829749 0.0357642
0.7889453 0.2861468 0.0373329
0.7967438 0.2893427 0.0389585
0.8044543 0.2925663 0.0406216
0.8122770 0.2958165 0.0422476
0.8186883 0.2962545 0.0441045
0.8266528 0.2995443 0.0458292
0.0000000 0.0784353 0.0000000
0.0000000 0.0787724 0.0000000
0.0000000 0.0874111 0.0000000
0.0164574 0.0987759 0.0000000
0.0384233 0.1083166 0.0000000
0.0600030 0.1160995 0.0000000
0.0810647 0.1228503 0.0000000
0.1012176 0.1300443 0.0000000
0.1211759 0.1355115 0.0000000
0.1403397 0.1405659 0.0000000
0.1596550 0.1454573 0.0000000
0.1791762 0.1500816 0.0000000
0.1984096 0.1545320 0.0000000
0.2173924 0.1588397 0.0000000
0.2367529 0.1646168 0.0000000
0.2567542 0.1688844 0.0000000
0.2757531 0.1728445 0.0000000
0.2957668 0.1767965 0.0000000
0.3137891 0.1805352 0.0000000
0.3324897 0.1842809 0.0000000
0.3517967 0.1880448 0.0000000
0.3721846 0.1917356 0.0000000
0.3888075 0.1952556 0.0000000
0.4063524 0.1987168 0.0000000
0.4236004 0.2021562 0.0000000
0.4376208 0.2053945 0.0000000
0.4548690 0.2089579 0.0000000
0.4688890 0.2121602 0.0000000
0.4837954 0.2152986 0.0000000
0.4981441 0.2185416 0.0000000
0.5129448 0.2218273 0.0000000
0.5279120 0.2251381 0.0000000
0.5395324 0.2281723 0.0000000
0.5548947 0.2315372 0.0000000
0.5664305 0.2347410 0.0007000
0.5778794 0.2379654 0.0017892
0.5895972 0.2412261 0.0029174
0.6011142 0.2445953 0.0047038
0.6164650 0.2480169 0.0059146
0.6230231 0.2486789 0.0075503
0.6354051 0.2518610 0.0083296
0.6471480 0.2551718 0.0098212
0.6587645 0.2585047 0.0113858
0.6666456 0.2617140 0.0131162
0.6790927 0.2650137 0.0140962
0.6906050 0.2684382 0.0159056
0.6987338 0.2716248 0.0170820
0.7089998 0.2724223 0.0192125
0.7173611 0.2756525 0.0204925
0.7254648 0.2788763 0.0218308
0.7365511 0.2823128 0.0239922
0.7445499 0.2855204 0.0253549
0.7526367 0.2887641 0.0267650
0.7593805 0.2892773 0.0284184
0.7672035 0.2925466 0.0299385
0.7750456 0.2958432 0.0314614
0.7830173 0.2991643 0.0329300
0.7910720 0.3025221 0.0344452
0.7977244 0.3030151 0.0362048
0.8055919 0.3064026 0.0378261
0.8133709 0.3098195 0.0394851
0.8212637 0.3132645 0.0411064
0.8277075 0.3137394 0.0429733
0.8356724 0.3170870 0.0447027
0.0000000 0.0876928 0.0000000
0.0000000 0.0887653 0.0000000
0.0000000 0.0981538 0.0000000
0.0153367 0.1095119 0.0000000
0.0381580 0.1198575 0.0000000
0.0603738 0.1283448 0.0000000
0.0824233 0.1370557 0.0000000
0.1027949 0.1434678 0.0000000
0.1231981 0.1494589 0.0000000
0.1426879 0.1549846 0.0000000
0.1626405 0.1602140 0.0000000
0.1825231 0.1652456 0.0000000
0.2021047 0.1700813 0.0000000
0.2217580 0.1746523 0.0000000
0.2404570 0.1791488 0.0000000
0.2610712 0.1836306 0.0000000
0.2803478 0.1878982 0.0000000
0.3006587 0.1922059 0.0000000
0.3189883 0.1962679 0.0000000
0.3379223 0.2002898 0.0000000
0.3578520 0.2042244 0.0000000
0.3781676 0.2082750 0.0000000
0.3953530 0.2119434 0.0000000
0.4131124 0.2156465 0.0000000
0.4305915 0.2193168 0.0000000
0.4443557 0.2228765 0.0000000
0.4621781 0.2265823 0.0000000
0.4768140 0.2299553 0.0000000
0.4915158 0.2334788 0.0000000
0.5060189 0.2369721 0.0000000
