Plugins/FilmEmulator/Content/LUTs/FE_Fuji_C200_64.cube
TITLE "FE_Fuji_C200_33"
LUT_3D_SIZE 64
0.0004931 0.0006089 0.0004697
0.0020814 0.0006090 0.0004703
0.0056884 0.0006402 0.0005078
0.0100432 0.0007037 0.0005553
0.0158283 0.0007778 0.0006098
0.0227153 0.0008885 0.0006783
0.0305484 0.0010280 0.0007528
0.0398512 0.0012389 0.0008492
0.0501386 0.0014729 0.0009607
0.0609460 0.0017131 0.0010826
0.0710743 0.0020132 0.0012345
0.0863455 0.0023001 0.0013824
0.0967836 0.0026285 0.0015503
0.1128528 0.0029072 0.0017101
0.1265551 0.0032153 0.0018862
0.1416846 0.0035560 0.0020805
0.1583798 0.0039394 0.0022938
0.1771777 0.0043650 0.0025284
0.1906804 0.0046739 0.0026979
0.2124270 0.0051791 0.0029737
0.2279284 0.0055499 0.0031774
0.2446489 0.0059471 0.0033960
0.2622086 0.0063726 0.0036295
0.2805914 0.0068283 0.0038790
0.2997721 0.0073163 0.0041457
0.3197069 0.0078512 0.0044401
0.3299029 0.0084250 0.0047601
0.3515888 0.0087271 0.0049288
0.3737300 0.0093642 0.0052841
0.3850239 0.0096999 0.0054712
0.4080058 0.0104073 0.0058653
0.4196672 0.0107874 0.0060730
0.4311954 0.0115975 0.0065363
0.4551460 0.0120240 0.0067811
0.4670910 0.0124666 0.0070349
0.4788473 0.0134016 0.0075712
0.5031567 0.0138935 0.0078545
0.5152094 0.0144041 0.0081483
0.5272530 0.0149332 0.0084530
0.5392743 0.0154828 0.0087690
0.5512583 0.0160549 0.0091122
0.5629584 0.0172637 0.0098560
0.5747142 0.0179006 0.0102502
0.5863940 0.0185608 0.0106600
0.5979856 0.0192448 0.0110860
0.6094764 0.0199537 0.0115290
0.6208549 0.0206882 0.0119894
0.6321092 0.0214494 0.0124681
0.6434480 0.0214473 0.0124680
0.6544191 0.0222358 0.0129656
0.6652333 0.0230582 0.0134877
0.6758832 0.0239103 0.0140405
0.6861290 0.0247934 0.0146158
0.6960877 0.0257084 0.0152143
0.6958835 0.0266593 0.0158374
0.7058717 0.0266564 0.0158371
0.7154738 0.0276387 0.0164850
0.7248895 0.0286563 0.0171591
0.7341142 0.0297105 0.0178604
0.7339252 0.0308060 0.0185903
0.7431430 0.0308025 0.0185899
0.7519735 0.0319336 0.0193488
0.7605993 0.0331208 0.0201385
0.7605993 0.0331208 0.0201385
0.0005458 0.0027657 0.0005274
0.0024982 0.0030449 0.0005580
0.0060153 0.0033596 0.0005966
0.0106692 0.0037118 0.0006556
0.0163011 0.0041089 0.0007348
0.0226075 0.0045499 0.0008111
0.0304665 0.0048681 0.0009118
0.0399351 0.0052098 0.0010185
0.0484310 0.0057778 0.0011462
0.0613971 0.0061877 0.0013092
0.0718030 0.0066283 0.0014634
0.0839919 0.0071000 0.0016454
0.0980553 0.0076116 0.0018133
0.1101925 0.0078822 0.0019965
0.1285796 0.0084565 0.0022003
0.1440162 0.0090731 0.0024231
0.1552688 0.0093962 0.0026658
0.1738822 0.0100818 0.0028448
0.1944127 0.0104408 0.0030327
0.2089169 0.0112208 0.0033470
0.2243875 0.0116327 0.0035739
0.2410893 0.0120595 0.0038161
0.2584557 0.0129649 0.0040789
0.2768500 0.0134400 0.0043575
0.2960497 0.0139338 0.0045121
0.3160497 0.0144439 0.0048328
0.3369615 0.0155270 0.0051815
0.3477217 0.0161015 0.0053652
0.3699738 0.0166939 0.0057462
0.3812117 0.0173110 0.0059498
0.4043404 0.0179471 0.0063848
0.4159645 0.0186097 0.0066240
0.4397332 0.0192946 0.0068721
0.4516150 0.0200039 0.0073886
0.4635412 0.0207411 0.0076651
0.4877743 0.0215029 0.0079519
0.4998149 0.0222943 0.0082494
0.5118839 0.0231171 0.0088688
0.5239289 0.0239722 0.0092160
0.5362162 0.0239670 0.0095749
0.5482094 0.0248528 0.0099580
0.5721622 0.0257680 0.0103563
0.5838581 0.0267189 0.0107704
0.5954682 0.0277040 0.0112009
0.6069804 0.0287246 0.0116485
0.6186305 0.0287182 0.0121013
0.6299084 0.0297752 0.0125845
0.6410534 0.0308701 0.0130868
0.6408316 0.0320077 0.0136139
0.6520754 0.0320003 0.0141573
0.6629012 0.0331943 0.0141719
0.6735830 0.0344357 0.0147528
0.6840941 0.0344276 0.0153411
0.6940831 0.0357138 0.0159693
0.7038987 0.0370465 0.0166229
0.7038987 0.0370465 0.0166229
0.7135339 0.0384274 0.0173030
0.7229841 0.0398580 0.0180104
0.7324550 0.0398485 0.0187267
0.7415158 0.0413302 0.0194915
0.7413091 0.0428752 0.0195120
0.7503787 0.0428649 0.0202871
0.7590405 0.0444543 0.0211319
0.7590405 0.0444543 0.0211319
0.0007100 0.0077537 0.0006515
0.0030514 0.0082831 0.0006904
0.0066961 0.0088680 0.0007419
0.0111817 0.0091715 0.0007897
0.0171387 0.0098302 0.0008567
0.0238712 0.0101714 0.0009464
0.0310149 0.0109129 0.0010889
0.0407064 0.0113047 0.0012266
0.0494715 0.0121483 0.0013712
0.0603171 0.0125873 0.0015313
0.0734774 0.0130417 0.0017277
0.0859946 0.0135150 0.0019022
0.1003544 0.0145243 0.0020965
0.1128489 0.0150525 0.0023077
0.1267447 0.0156011 0.0025390
0.1420985 0.0161738 0.0027068
0.1592481 0.0167656 0.0029780
0.1783848 0.0173804 0.0031765
0.1920962 0.0180193 0.0033919
0.2066189 0.0186813 0.0036218
0.2302171 0.0193653 0.0038674
0.2472232 0.0200759 0.0041295
0.2650833 0.0208122 0.0044116
0.2837804 0.0215748 0.0047252
0.2933441 0.0223672 0.0050610
0.3132189 0.0231935 0.0052405
0.3342536 0.0240472 0.0056128
0.3560717 0.0249342 0.0058118
0.3671370 0.0258533 0.0062244
0.3901519 0.0258450 0.0064510
0.4016289 0.0267995 0.0066927
0.4251813 0.0277824 0.0071959
0.4369678 0.0288067 0.0074654
0.4488107 0.0298677 0.0077448
0.4732059 0.0298548 0.0083180
0.4852139 0.0309534 0.0086291
0.4972490 0.0320913 0.0089518
0.5095587 0.0320842 0.0092927
0.5216027 0.0332780 0.0096647
0.5458691 0.0345192 0.0100515
0.5578218 0.0358093 0.0104538
0.5698612 0.0358011 0.0108605
0.5815671 0.0371376 0.0112949
0.5931904 0.0385223 0.0117464
0.6049735 0.0385134 0.0122030
0.6163911 0.0399476 0.0126905
0.6279396 0.0399383 0.0131834
0.6391039 0.0414237 0.0137145
0.6501275 0.0429621 0.0142769
0.6612401 0.0429518 0.0148464
0.6610196 0.0445503 0.0154549
0.6719475 0.0445448 0.0154546
0.6822526 0.0461948 0.0160874
0.6922715 0.0479111 0.0167459
0.7023444 0.0478996 0.0174127
0.7119874 0.0496987 0.0174309
0.7120056 0.0496929 0.0181248
0.7214826 0.0515501 0.0188657
0.7309856 0.0515377 0.0196155
0.7400575 0.0534670 0.0196360
0.7400748 0.0534607 0.0204164
0.7489670 0.0554519 0.0212668
0.7578598 0.0554383 0.0221285
0.7663266 0.0575062 0.0221515
0.0009334 0.0147882 0.0008015
0.0035313 0.0152648 0.0008680
0.0072992 0.0157904 0.0009276
0.0122435 0.0163483 0.0009817
0.0181590 0.0175612 0.0010786
0.0244182 0.0181934 0.0011569
0.0330698 0.0188460 0.0012790
0.0417315 0.0195255 0.0014283
0.0508300 0.0202314 0.0015950
0.0619586 0.0209615 0.0018075
0.0755642 0.0209423 0.0019880
0.0884072 0.0217024 0.0021888
0.0993029 0.0224923 0.0024087
0.1161405 0.0233131 0.0026501
0.1303796 0.0241686 0.0028253
0.1461070 0.0250549 0.0030120
0.1576624 0.0259735 0.0033182
0.1766442 0.0269242 0.0035432
0.1904058 0.0269125 0.0037795
0.2124212 0.0278970 0.0040357
0.2282761 0.0289200 0.0043092
0.2451806 0.0299793 0.0046108
0.2629266 0.0310795 0.0047744
0.2817323 0.0310658 0.0051084
0.3011515 0.0322015 0.0054714
0.3214810 0.0333968 0.0056655
0.3322243 0.0333860 0.0060615
0.3539723 0.0346321 0.0062765
0.3649862 0.0359271 0.0065118
0.3879639 0.0359109 0.0069943
0.3994120 0.0372523 0.0072564
0.4228979 0.0386375 0.0075282
0.4349417 0.0386246 0.0080855
0.4589047 0.0400590 0.0083882
0.4708579 0.0415498 0.0087021
0.4831191 0.0415404 0.0090182
0.4951463 0.0430839 0.0093714
0.5197430 0.0430686 0.0097364
0.5317734 0.0446665 0.0101261
0.5437970 0.0463160 0.0109412
0.5560215 0.0463051 0.0113667
0.5678074 0.0480260 0.0118212
0.5797660 0.0480201 0.0118211
0.5913995 0.0498182 0.0122937
0.6031984 0.0498063 0.0127713
0.6146302 0.0516682 0.0132815
0.6259444 0.0535964 0.0138168
0.6373808 0.0535834 0.0143682
0.6484237 0.0555794 0.0149572
0.6595612 0.0555659 0.0155536
0.6702908 0.0576319 0.0161907
0.6702908 0.0576319 0.0161907
0.6806192 0.0597707 0.0168535
0.6908962 0.0597564 0.0175245
0.7007652 0.0619698 0.0182412
0.7106618 0.0619620 0.0182408
0.7201650 0.0642524 0.0189864
0.7201831 0.0642450 0.0197413
0.7297128 0.0642295 0.0205255
0.7388117 0.0666062 0.0205468
0.7479381 0.0665900 0.0213799
0.7477494 0.0690492 0.0222702
0.7566536 0.0690404 0.0222697
0.7651650 0.0715878 0.0231960
0.0012421 0.0237284 0.0010166
0.0041088 0.0245110 0.0010897
0.0079928 0.0244524 0.0011672
0.0129901 0.0253175 0.0012554
0.0186400 0.0262225 0.0013639
0.0260562 0.0271615 0.0014819
0.0340384 0.0281419 0.0015667
0.0429807 0.0281158 0.0016571
0.0524183 0.0291300 0.0018834
0.0638709 0.0301827 0.0020736
0.0748179 0.0312765 0.0022830
0.0876240 0.0312516 0.0025092
0.1023782 0.0323864 0.0026750
0.1151298 0.0335779 0.0029430
0.1292589 0.0348237 0.0031376
0.1449970 0.0348039 0.0033460
0.1626002 0.0360935 0.0035730
0.1753398 0.0374304 0.0039404
0.1961481 0.0374127 0.0040697
0.2108996 0.0388007 0.0043455
0.2266682 0.0402381 0.0046497
0.2436771 0.0402198 0.0049751
0.2613457 0.0417119 0.0051517
0.2800784 0.0416931 0.0055120
0.2994240 0.0432335 0.0059037
0.3196856 0.0448330 0.0061131
0.3412456 0.0448172 0.0063231
0.3520866 0.0464734 0.0067989
0.3746895 0.0464568 0.0070462
0.3859992 0.0481789 0.0075761
0.4092072 0.0499774 0.0078600
0.4211270 0.0499658 0.0081457
0.4328739 0.0518344 0.0084508
0.4570744 0.0518159 0.0087578
0.4690371 0.0537445 0.0094315
0.4812941 0.0537316 0.0097988
0.5056006 0.0557267 0.0101912
0.5179109 0.0557133 0.0105878
0.5299406 0.0577853 0.0110116
0.5422124 0.0577713 0.0114399
0.5541763 0.0599157 0.0118974
0.5662349 0.0599015 0.0123598
0.5779607 0.0621204 0.0128537
0.5898696 0.0621056 0.0133530
0.6014223 0.0644015 0.0138911
0.6131079 0.0643933 0.0138909
0.6244388 0.0667683 0.0144606
0.6358936 0.0667521 0.0150374
0.6469558 0.0692086 0.0156536
0.6581141 0.0691917 0.0162774
0.6691068 0.0691749 0.0169258
0.6794332 0.0717357 0.0169436
0.6794528 0.0717275 0.0176184
0.6895152 0.0743679 0.0183390
0.6996375 0.0743501 0.0190682
0.7093293 0.0770890 0.0190882
0.7190788 0.0770705 0.0198468
0.7190968 0.0770617 0.0206355
0.7284324 0.0798838 0.0214950
0.7377700 0.0798736 0.0214945
0.7467123 0.0827907 0.0223892
0.7467297 0.0827810 0.0232961
0.7556576 0.0827705 0.0232956
0.7641923 0.0857849 0.0242638
0.0016536 0.0341287 0.0013028
0.0047999 0.0340017 0.0014132
0.0087685 0.0352082 0.0014937
0.0138128 0.0364737 0.0015790
0.0198776 0.0364210 0.0017237
0.0268268 0.0377467 0.0018384
0.0350995 0.0391229 0.0019608
0.0443327 0.0390858 0.0020891
0.0540985 0.0405183 0.0022283
0.0659541 0.0404845 0.0023736
0.0772741 0.0419719 0.0025306
0.0903809 0.0435078 0.0027841
0.1057483 0.0434772 0.0029650
0.1188699 0.0450716 0.0032638
0.1335160 0.0450456 0.0034815
0.1496164 0.0466996 0.0037177
0.1615060 0.0484255 0.0039698
0.1810109 0.0483974 0.0042344
0.1948740 0.0501998 0.0045238
0.2174535 0.0501705 0.0048404
0.2337625 0.0520405 0.0050123
0.2511437 0.0520166 0.0053629
0.2691712 0.0539522 0.0055533
0.2882599 0.0539276 0.0059416
0.2978915 0.0559380 0.0061524
0.3183386 0.0559122 0.0065953
0.3396128 0.0579845 0.0068427
0.3506676 0.0579648 0.0073496
0.3729795 0.0601093 0.0076250
0.3844995 0.0600952 0.0079022
0.4076746 0.0623139 0.0081983
0.4195996 0.0622928 0.0088049
0.4433766 0.0645880 0.0091344
0.4555162 0.0645726 0.0094822
0.4674523 0.0669547 0.0098620
0.4919689 0.0669300 0.0102459
0.5040059 0.0693934 0.0106561
0.5163165 0.0693767 0.0110707
0.5283473 0.0719369 0.0115136
0.5406235 0.0719196 0.0119613
0.5528606 0.0719023 0.0124262
0.5646589 0.0745493 0.0129228
0.5766585 0.0745315 0.0134247
0.5883133 0.0772683 0.0139658
0.6001397 0.0772495 0.0145231
0.6116000 0.0800785 0.0151186
0.6231810 0.0800681 0.0151184
0.6346509 0.0800487 0.0157211
0.6457277 0.0829720 0.0163651
0.6569038 0.0829518 0.0170169
0.6676724 0.0859727 0.0177132
0.6782601 0.0859617 0.0177129
0.6885770 0.0859411 0.0184175
0.6883612 0.0890731 0.0191707
0.6985043 0.0890518 0.0199326
0.7082167 0.0922861 0.0199534
0.7179882 0.0922640 0.0207458
0.7275634 0.0922417 0.0215869
0.7273459 0.0955934 0.0216099
0.7367244 0.0955702 0.0224853
0.7458979 0.0955471 0.0233955
0.7456899 0.0990073 0.0234205
0.7546590 0.0989834 0.0243678
0.7634157 0.0989595 0.0253527
0.0021145 0.0457593 0.0016352
0.0054391 0.0456113 0.0017362
0.0096445 0.0472164 0.0018513
0.0147608 0.0471426 0.0019721
0.0212719 0.0488399 0.0021032
0.0276702 0.0487892 0.0022408
0.0362579 0.0505751 0.0023893
0.0458522 0.0505272 0.0025444
0.0559321 0.0523905 0.0026285
0.0681416 0.0543143 0.0028022
0.0798796 0.0542810 0.0028918
0.0933828 0.0562780 0.0030829
0.1050848 0.0562456 0.0032850
0.1181328 0.0583123 0.0036229
0.1327002 0.0582785 0.0038644
0.1487155 0.0604218 0.0041265
0.1669542 0.0603865 0.0044015
0.1799458 0.0626165 0.0045531
0.2011914 0.0625796 0.0048718
0.2162268 0.0648794 0.0052182
0.2326573 0.0648559 0.0053976
0.2499814 0.0648260 0.0057751
0.2679530 0.0672096 0.0059800
0.2869871 0.0671789 0.0063980
0.3066005 0.0696431 0.0066380
0.3169906 0.0696194 0.0071298
0.3382159 0.0721796 0.0073971
0.3603987 0.0721532 0.0076661
0.3715174 0.0748020 0.0082424
0.3946435 0.0747747 0.0085420
0.4064190 0.0747572 0.0088523
0.4300159 0.0774926 0.0091837
0.4420696 0.0774742 0.0095333
0.4539343 0.0803115 0.0099153
0.4783565 0.0802817 0.0103012
0.4903695 0.0832137 0.0107136
0.5026741 0.0831937 0.0111305
0.5149847 0.0831738 0.0115634
0.5270174 0.0862028 0.0120259
0.5392967 0.0861822 0.0124932
0.5515391 0.0861614 0.0129786
0.5753304 0.0892785 0.0134970
0.5872585 0.0892571 0.0140259
0.5988320 0.0924880 0.0146012
0.6105639 0.0924656 0.0151836
0.6221769 0.0924433 0.0157889
0.6219205 0.0958019 0.0158058
0.6334053 0.0957787 0.0164356
0.6447483 0.0957555 0.0170902
0.6556913 0.0991990 0.0177895
0.6667210 0.0991750 0.0184972
0.6770833 0.1027611 0.0185167
0.6874195 0.1027368 0.0192529
0.6975793 0.1027124 0.0200180
0.6973652 0.1064251 0.0208358
0.7073255 0.1064117 0.0208353
0.7171145 0.1063863 0.0216799
0.7264882 0.1102032 0.0225824
0.7264882 0.1102032 0.0225824
0.7358851 0.1101768 0.0234965
0.7448670 0.1141146 0.0244731
0.7538381 0.1141002 0.0244725
0.7538551 0.1140873 0.0254622
0.7624305 0.1181483 0.0265188
0.0026346 0.0569978 0.0020492
0.0059680 0.0589653 0.0021846
0.0102906 0.0588570 0.0022542
0.0157709 0.0609613 0.0024033
0.0219638 0.0608854 0.0025591
0.0296592 0.0630832 0.0027280
0.0374852 0.0630300 0.0028150
0.0474150 0.0653141 0.0030009
0.0578774 0.0652661 0.0030966
0.0677702 0.0676426 0.0033030
0.0826463 0.0675925 0.0034113
0.0928802 0.0700634 0.0035269
0.1087317 0.0700139 0.0037620
0.1222749 0.0699799 0.0038854
0.1371581 0.0725380 0.0041489
0.1539301 0.0724961 0.0044254
0.1661006 0.0751485 0.0047352
0.1860496 0.0751043 0.0050665
0.2002007 0.0778528 0.0052464
0.2153582 0.0778174 0.0056134
0.2317408 0.0777891 0.0058063
0.2577650 0.0806097 0.0062189
0.2669415 0.0805913 0.0064326
0.2857144 0.0835155 0.0069167
0.3055010 0.0834851 0.0071684
0.3264606 0.0834545 0.0074291
0.3370550 0.0864851 0.0079878
0.3592009 0.0864535 0.0082781
0.3817510 0.0895811 0.0085882
0.3933797 0.0895602 0.0089001
0.4051415 0.0895392 0.0092234
0.4287376 0.0927581 0.0099582
0.4407825 0.0927358 0.0103458
0.4529072 0.0927136 0.0107485
0.4770510 0.0960463 0.0111786
0.4893311 0.0960232 0.0116134
0.5013638 0.0994762 0.0120779
0.5136745 0.0994525 0.0125473
0.5259789 0.0994288 0.0130348
0.5502154 0.1029988 0.0135555
0.5622725 0.1029855 0.0135553
0.5742866 0.1029610 0.0140865
0.5859567 0.1066684 0.0146644
0.5978029 0.1066429 0.0152493
0.6095443 0.1066173 0.0158572
0.6209095 0.1104420 0.0165069
0.6324063 0.1104155 0.0171642
0.6437415 0.1104013 0.0171639
0.6435094 0.1143612 0.0178667
0.6547166 0.1143338 0.0185774
0.6657609 0.1143064 0.0193161
0.6761373 0.1183880 0.0193365
0.6864896 0.1183600 0.0201048
0.6966655 0.1183322 0.0209032
0.7064095 0.1225400 0.0209252
0.7064284 0.1225264 0.0217739
0.7162353 0.1224974 0.0226558
0.7256265 0.1268202 0.0235982
0.7350240 0.1268043 0.0235976
0.7350419 0.1267902 0.0245526
0.7442352 0.1267743 0.0245520
0.7530320 0.1312278 0.0255716
0.7530491 0.1312132 0.0266048
0.7618278 0.1311968 0.0266041
0.0031806 0.0708943 0.0024938
0.0067806 0.0733436 0.0025750
0.0113731 0.0732103 0.0027415
0.0168648 0.0758206 0.0028315
0.0235446 0.0757266 0.0030150
0.0306971 0.0756559 0.0031110
0.0387522 0.0783792 0.0033182
0.0491214 0.0783125 0.0034267
0.0598860 0.0811323 0.0036590
0.0702068 0.0810832 0.0037788
0.0822738 0.0810340 0.0039026
0.0961388 0.0839623 0.0040348
0.1082534 0.0839140 0.0043037
0.1216323 0.0869483 0.0044495
0.1365635 0.0869065 0.0045977
0.1532658 0.0868642 0.0047558
0.1718114 0.0899862 0.0050941
0.1852746 0.0899453 0.0054504
0.2069919 0.0899016 0.0056377
0.2225412 0.0931352 0.0060384
0.2393158 0.0931016 0.0062459
0.2567793 0.0964390 0.0067028
0.2752846 0.0964039 0.0069467
0.2946290 0.0963690 0.0071994
0.3044039 0.0998245 0.0077409
0.3253214 0.0997880 0.0080224
0.3470789 0.0997515 0.0083139
0.3579854 0.1033466 0.0086254
0.3807740 0.1032985 0.0092634
0.3923920 0.1032740 0.0096161
0.4157333 0.1069784 0.0100014
0.4276999 0.1069529 0.0103907
0.4397373 0.1069274 0.0107951
0.4637496 0.1107485 0.0112272
0.4759879 0.1107222 0.0116639
0.4882653 0.1106959 0.0121173
0.5002945 0.1146512 0.0126019
0.5248893 0.1146092 0.0130914
0.5371739 0.1145821 0.0135998
0.5491528 0.1186595 0.0141480
0.5612368 0.1186312 0.0147125
0.5732358 0.1186160 0.0147123
0.5849129 0.1228193 0.0153156
0.5967677 0.1227901 0.0159261
0.6085189 0.1227610 0.0165607
0.6198944 0.1270923 0.0172388
0.6314033 0.1270621 0.0179250
0.6427515 0.1270458 0.0179246
0.6537195 0.1315079 0.0186578
0.6537398 0.1314936 0.0193999
0.6647990 0.1314625 0.0201707
0.6754319 0.1314459 0.0201703
0.6855579 0.1360417 0.0209938
0.6957504 0.1360099 0.0218447
0.7057406 0.1359929 0.0218442
0.7055302 0.1407417 0.0227539
0.7153543 0.1407088 0.0236749
0.7249654 0.1406913 0.0236743
0.7343948 0.1406584 0.0246318
0.7341959 0.1455615 0.0256553
0.7434080 0.1455434 0.0256547
0.7524300 0.1455094 0.0266905
0.7610366 0.1505692 0.0277973
0.7610366 0.1505692 0.0277973
0.0037266 0.0849073 0.0029347
0.0074735 0.0878181 0.0030304
0.0121450 0.0876692 0.0032263
0.0174070 0.0907608 0.0033342
0.0243295 0.0906574 0.0034429
0.0317722 0.0905648 0.0036721
0.0400973 0.0937858 0.0037962
0.0508861 0.0937066 0.0039203
0.0620767 0.0936302 0.0041814
0.0727248 0.0969718 0.0043230
0.0851906 0.0969137 0.0044645
0.0996583 0.0968555 0.0046130
0.1120928 0.1003124 0.0047768
0.1260026 0.1002642 0.0049410
0.1412654 0.1038511 0.0051164
0.1586201 0.1038007 0.0052922
0.1712328 0.1037638 0.0054742
0.1915043 0.1074622 0.0058633
0.2061474 0.1074243 0.0060648
0.2218325 0.1073759 0.0064886
0.2383754 0.1112125 0.0067321
0.2559946 0.1111612 0.0072309
0.2744630 0.1111212 0.0074938
0.2935487 0.1150766 0.0077748
0.3138070 0.1150351 0.0080574
0.3244116 0.1149970 0.0086537
0.3458934 0.1190734 0.0089778
0.3683136 0.1190303 0.0093038
0.3797736 0.1190023 0.0096581
0.4031006 0.1189586 0.0100341
0.4147001 0.1231732 0.0104361
0.4266579 0.1231441 0.0108422
0.4507779 0.1230992 0.0112639
0.4626881 0.1274416 0.0117147
0.4749223 0.1274116 0.0121702
0.4871970 0.1273817 0.0126431
0.5115132 0.1318379 0.0131484
0.5238203 0.1318071 0.0136590
0.5361073 0.1317761 0.0141942
0.5480901 0.1363816 0.0147765
0.5601791 0.1363496 0.0153659
0.5722058 0.1363176 0.0159784
0.5841349 0.1363002 0.0159781
0.5957317 0.1410407 0.0166327
0.6074926 0.1410078 0.0172951
0.6191380 0.1409747 0.0179834
0.6303983 0.1458693 0.0187190
0.6417592 0.1458507 0.0187187
0.6529906 0.1458167 0.0194628
0.6640608 0.1457826 0.0202361
0.6744608 0.1508670 0.0202577
0.6744803 0.1508510 0.0210624
0.6848601 0.1508161 0.0219161
0.6950653 0.1507812 0.0228037
0.7048358 0.1560112 0.0228280
0.7146735 0.1559753 0.0237518
0.7146919 0.1559585 0.0247129
0.7240935 0.1613374 0.0247392
0.7335414 0.1613004 0.0257388
0.7427678 0.1612806 0.0257382
0.7427855 0.1612633 0.0267779
0.7516128 0.1667747 0.0278882
0.7604257 0.1667543 0.0278875
0.7604425 0.1667366 0.0290121
0.0042275 0.1014474 0.0033484
0.0082452 0.1012203 0.0035701
0.0129679 0.1047326 0.0036902
0.0186488 0.1046059 0.0038104
0.0251671 0.1044899 0.0040638
0.0328813 0.1081749 0.0042010
0.0415282 0.1080866 0.0043383
0.0527623 0.1079960 0.0044800
0.0617861 0.1118275 0.0046341
0.0753933 0.1117468 0.0047932
0.0882793 0.1116801 0.0049578
0.0992079 0.1156408 0.0051337
0.1116959 0.1155857 0.0053101
0.1305056 0.1155161 0.0054924
0.1407796 0.1196112 0.0056874
0.1580844 0.1195539 0.0058827
0.1772455 0.1194964 0.0060848
0.1908689 0.1237145 0.0063007
0.2054748 0.1236713 0.0065171
0.2293556 0.1235988 0.0070000
0.2462953 0.1279417 0.0072625
0.2642955 0.1278960 0.0075266
0.2736250 0.1278669 0.0078003
0.2929132 0.1278088 0.0083777
0.3129146 0.1322794 0.0086915
0.3342307 0.1322318 0.0090072
0.3451791 0.1322015 0.0093344
0.3673272 0.1368033 0.0097002
0.3787743 0.1367713 0.0100780
0.4020987 0.1367072 0.0108778
0.4139517 0.1366753 0.0113010
0.4376383 0.1414097 0.0117531
0.4497433 0.1413767 0.0122101
0.4619188 0.1413439 0.0126846
0.4738560 0.1462654 0.0126983
0.4984050 0.1462128 0.0131914
0.5107153 0.1461791 0.0137037
0.5230229 0.1461450 0.0142406
0.5350373 0.1512240 0.0148250
0.5472949 0.1511888 0.0154163
0.5593874 0.1511535 0.0160308
0.5711475 0.1563779 0.0166877
0.5830839 0.1563582 0.0166874
0.5949535 0.1563221 0.0173519
0.6067216 0.1562859 0.0180425
0.6181132 0.1616571 0.0187806
0.6296216 0.1616368 0.0187803
0.6410125 0.1615996 0.0195268
0.6522542 0.1615624 0.0203026
0.6630866 0.1670822 0.0211317
0.6737463 0.1670617 0.0211312
0.6737663 0.1670440 0.0219881
0.6841581 0.1670058 0.0228786
0.6941192 0.1726955 0.0229029
0.7041581 0.1726563 0.0238298
0.7140089 0.1726172 0.0247934
0.7140089 0.1726172 0.0247934
0.7234420 0.1784420 0.0258231
0.7329037 0.1784016 0.0268656
0.7421443 0.1783800 0.0268650
0.7421618 0.1783613 0.0279493
0.7509862 0.1843598 0.0279788
0.7598307 0.1843183 0.0291063
0.7684032 0.1842771 0.0302781
0.0049654 0.1167976 0.0039520
0.0087824 0.1207551 0.0040845
0.0138840 0.1205769 0.0042172
0.0200051 0.1204323 0.0043545
0.0270228 0.1203112 0.0044965
0.0354128 0.1244840 0.0046508
0.0430289 0.1243865 0.0049758
0.0547039 0.1242829 0.0051463
0.0640410 0.1286181 0.0053288
0.0751217 0.1285423 0.0055116
0.0879651 0.1284667 0.0057008
0.1028592 0.1329268 0.0059029
0.1157548 0.1328644 0.0061055
0.1300517 0.1328146 0.0061053
0.1459173 0.1327524 0.0063149
0.1637178 0.1373557 0.0065388
0.1766595 0.1373074 0.0067767
0.1904118 0.1372591 0.0070232
0.2124096 0.1419953 0.0072865
0.2286290 0.1419449 0.0075515
0.2457291 0.1418948 0.0078260
0.2637013 0.1418446 0.0081104
0.2823098 0.1467486 0.0084144
0.3019544 0.1466972 0.0087201
0.3122369 0.1466643 0.0090369
0.3333046 0.1517253 0.0097323
0.3553306 0.1516707 0.0101112
0.3666100 0.1516356 0.0105048
0.3896126 0.1515810 0.0109136
0.4010713 0.1568184 0.0113506
0.4129141 0.1567822 0.0117920
0.4368510 0.1567263 0.0122503
0.4489509 0.1566904 0.0127264
0.4608493 0.1620737 0.0132353
0.4853244 0.1620163 0.0137491
0.4976219 0.1619792 0.0142878
0.5099103 0.1619587 0.0142876
0.5219436 0.1674900 0.0148739
0.5342351 0.1674516 0.0154671
0.5464954 0.1674131 0.0160836
0.5585912 0.1673747 0.0167244
0.5703558 0.1730564 0.0174094
0.5822976 0.1730349 0.0174091
0.5941733 0.1729956 0.0181020
0.6059485 0.1729561 0.0188220
0.6173476 0.1787903 0.0195915
0.6288648 0.1787682 0.0195911
0.6402655 0.1787276 0.0203694
0.6515172 0.1786871 0.0211781
0.6623608 0.1846746 0.0220603
0.6730317 0.1846523 0.0220599
0.6834354 0.1846110 0.0229532
0.6834551 0.1845917 0.0238826
0.6934282 0.1907556 0.0239080
0.7034796 0.1907133 0.0248747
0.7133433 0.1906708 0.0258797
0.7229950 0.1906480 0.0258791
0.7227897 0.1969726 0.0269536
0.7322469 0.1969493 0.0269530
0.7415196 0.1969055 0.0280400
0.7505846 0.1968620 0.0291699
0.7505846 0.1968620 0.0291699
0.7592342 0.2033212 0.0303770
0.7678051 0.2032971 0.0303762
0.0054632 0.1342256 0.0043728
0.0097184 0.1339713 0.0046649
0.0148769 0.1384881 0.0048294
0.0206944 0.1383388 0.0049945
0.0279486 0.1382015 0.0051653
0.0367182 0.1380752 0.0053421
0.0446234 0.1428061 0.0055313
0.0567096 0.1426893 0.0057208
0.0664749 0.1426069 0.0059170
0.0778711 0.1475003 0.0061267
0.0911446 0.1474151 0.0063368
0.1025880 0.1473473 0.0065543
0.1200395 0.1472744 0.0065538
0.1346783 0.1523522 0.0067996
0.1454171 0.1522999 0.0070469
0.1633126 0.1522278 0.0073031
0.1829832 0.1521559 0.0075685
0.1969503 0.1573923 0.0078523
0.2118970 0.1573531 0.0078521
0.2280876 0.1572981 0.0081375
0.2449594 0.1626801 0.0084425
0.2628936 0.1626237 0.0087492
0.2816835 0.1625674 0.0090669
0.3013016 0.1625111 0.0093962
0.3218623 0.1680378 0.0097645
0.3325981 0.1679995 0.0101448
0.3546010 0.1679398 0.0105396
0.3658699 0.1679014 0.0109498
0.3885933 0.1735765 0.0113881
0.4003034 0.1735372 0.0118310
