Plugins/FilmEmulator/Content/LUTs/FE_Fujiflex_Old_64.cube
TITLE "FE_Fujiflex_Old_33"
LUT_3D_SIZE 64
0.1581355 0.1186588 0.0097221
0.1581355 0.1186588 0.0097221
0.1581355 0.1186588 0.0097221
0.1581355 0.1186588 0.0097221
0.1581355 0.1186588 0.0097221
0.1581355 0.1186588 0.0097221
0.1581355 0.1186588 0.0097221
0.1519960 0.1172431 0.0095863
0.1447617 0.1155828 0.0094286
0.1545973 0.1178420 0.0096437
0.1771061 0.1230696 0.0101508
0.1995264 0.1283560 0.0106778
0.2237501 0.1341602 0.0112716
0.2578216 0.1424934 0.0121538
0.2893460 0.1503899 0.0130218
0.3186726 0.1579047 0.0138769
0.3553368 0.1675431 0.0150148
0.3947818 0.1782342 0.0163320
0.4285694 0.1876768 0.0175445
0.4602907 0.1967971 0.0187591
0.5007429 0.2088158 0.0204267
0.5446170 0.2223860 0.0224015
0.5838703 0.2350467 0.0243341
0.6217404 0.2477747 0.0263659
0.6595084 0.2610254 0.0285777
0.6946102 0.2738948 0.0308217
0.7268525 0.2862388 0.0330656
0.7589493 0.2990801 0.0354966
0.7905543 0.3123282 0.0381106
0.8213671 0.3258944 0.0409015
0.8481949 0.3382955 0.0435567
0.8739036 0.3507599 0.0463285
0.8957270 0.3618430 0.0488821
0.9165865 0.3729208 0.0515202
0.9365695 0.3840314 0.0542551
0.9560710 0.3954033 0.0571488
0.9749131 0.4069543 0.0601890
0.9906619 0.4170900 0.0629429
1.0000000 0.4271992 0.0657725
1.0000000 0.4373055 0.0686863
1.0000000 0.4473036 0.0716547
1.0000000 0.4571923 0.0746778
1.0000000 0.4657263 0.0773582
1.0000000 0.4756749 0.0805692
1.0000000 0.4842511 0.0834141
1.0000000 0.4932450 0.0864761
1.0000000 0.5022128 0.0896123
1.0000000 0.5113660 0.0929013
1.0000000 0.5188273 0.0956499
1.0000000 0.5276469 0.0989803
1.0000000 0.5347627 0.1017330
1.0000000 0.5429674 0.1049825
1.0000000 0.5495195 0.1076375
1.0000000 0.5557956 0.1102315
1.0000000 0.5619079 0.1128073
1.0000000 0.5678443 0.1153569
1.0000000 0.5736710 0.1179065
1.0000000 0.5793995 0.1204594
1.0000000 0.5839000 0.1224984
1.0000000 0.5894240 0.1250420
1.0000000 0.5937648 0.1270729
1.0000000 0.5990189 0.1295703
1.0000000 0.6031346 0.1315569
1.0000000 0.6071256 0.1335090
0.1581355 0.1186588 0.0097221
0.1581355 0.1186588 0.0097221
0.1581355 0.1186588 0.0097221
0.1581355 0.1186588 0.0097221
0.1581355 0.1186588 0.0097221
0.1581355 0.1186588 0.0097221
0.1581355 0.1186588 0.0097221
0.1443555 0.1154900 0.0094198
0.1495697 0.1166859 0.0095330
0.1672373 0.1207678 0.0099257
0.1898006 0.1260527 0.0104467
0.2122417 0.1313904 0.0109866
0.2415539 0.1384892 0.0117258
0.2754126 0.1468768 0.0126317
0.3051465 0.1544177 0.0134764
0.3355294 0.1623015 0.0143899
0.3747729 0.1727680 0.0156511
0.4137320 0.1834968 0.0170019
0.4453245 0.1924623 0.0181761
0.4793764 0.2024117 0.0195287
0.5206535 0.2149020 0.0213001
0.5645799 0.2287601 0.0233636
0.6029760 0.2414019 0.0253374
0.6407695 0.2543780 0.0274556
0.6755533 0.2668386 0.0295794
0.7108482 0.2800455 0.0319287
0.7430822 0.2926589 0.0342684
0.7749835 0.3057221 0.0367936
0.8062321 0.3191459 0.0394986
0.8335274 0.3314430 0.0420770
0.8598020 0.3438482 0.0447786
0.8849058 0.3562865 0.0475911
0.9061871 0.3673359 0.0501793
0.9266840 0.3784704 0.0528749
0.9465016 0.3897532 0.0556990
0.9655982 0.4011701 0.0586538
0.9839022 0.4126822 0.0617353
0.9993592 0.4228965 0.0645579
1.0000000 0.4330049 0.0674356
1.0000000 0.4429953 0.0703647
1.0000000 0.4529759 0.0733781
1.0000000 0.4614829 0.0760170
1.0000000 0.4713106 0.0791491
1.0000000 0.4799881 0.0819910
1.0000000 0.4886873 0.0849141
1.0000000 0.4977448 0.0880393
1.0000000 0.5068200 0.0912563
1.0000000 0.5143633 0.0939980
1.0000000 0.5232666 0.0973151
1.0000000 0.5319690 0.1006452
1.0000000 0.5388917 0.1033581
1.0000000 0.5456553 0.1060652
1.0000000 0.5520455 0.1086755
1.0000000 0.5582701 0.1112685
1.0000000 0.5642968 0.1138275
1.0000000 0.5701853 0.1163757
1.0000000 0.5759763 0.1189282
1.0000000 0.5816587 0.1214793
1.0000000 0.5872275 0.1240252
1.0000000 0.5916029 0.1260578
1.0000000 0.5969373 0.1285758
1.0000000 0.6010847 0.1305640
1.0000000 0.6051686 0.1325486
1.0000000 0.6100153 0.1349389
0.1581355 0.1186588 0.0097221
0.1581355 0.1186588 0.0097221
0.1581355 0.1186588 0.0097221
0.1581355 0.1186588 0.0097221
0.1581355 0.1186588 0.0097221
0.1581355 0.1186588 0.0097221
0.1467817 0.1160458 0.0094723
0.1469335 0.1160801 0.0094756
0.1596551 0.1190102 0.0097556
0.1838336 0.1246467 0.0103067
0.2052581 0.1297203 0.0108160
0.2325280 0.1362874 0.0114936
0.2658903 0.1444970 0.0123714
0.2956799 0.1519989 0.0132025
0.3259026 0.1597835 0.0140951
0.3623717 0.1694247 0.0152425
0.4019410 0.1802123 0.0165823
0.4347057 0.1894207 0.0177733
0.4657944 0.1984062 0.0189780
0.5074434 0.2108508 0.0207167
0.5513520 0.2245219 0.0227216
0.5901715 0.2371280 0.0246599
0.6280810 0.2499592 0.0267236
0.6627552 0.2621927 0.0287774
0.6978997 0.2751304 0.0310426
0.7301432 0.2875285 0.0333052
0.7622031 0.3004149 0.0357549
0.7937372 0.3136991 0.0383873
0.8213671 0.3258944 0.0409015
0.8481949 0.3382955 0.0435567
0.8739036 0.3507599 0.0463285
0.8957270 0.3618430 0.0488821
0.9191439 0.3743143 0.0518583
0.9390873 0.3854685 0.0546156
0.9560710 0.3954033 0.0571488
0.9749131 0.4069543 0.0601890
0.9906619 0.4170900 0.0629429
1.0000000 0.4271992 0.0657725
1.0000000 0.4373055 0.0686863
1.0000000 0.4473036 0.0716547
1.0000000 0.4571923 0.0746778
1.0000000 0.4657263 0.0773582
1.0000000 0.4756749 0.0805692
1.0000000 0.4842511 0.0834141
1.0000000 0.4932450 0.0864761
1.0000000 0.5022128 0.0896123
1.0000000 0.5113660 0.0929013
1.0000000 0.5188273 0.0956499
1.0000000 0.5276469 0.0989803
1.0000000 0.5347627 0.1017330
1.0000000 0.5429674 0.1049825
1.0000000 0.5495195 0.1076375
1.0000000 0.5557956 0.1102315
1.0000000 0.5619079 0.1128073
1.0000000 0.5678443 0.1153569
1.0000000 0.5736710 0.1179065
1.0000000 0.5793995 0.1204594
1.0000000 0.5839000 0.1224984
1.0000000 0.5894240 0.1250420
1.0000000 0.5937648 0.1270729
1.0000000 0.5990189 0.1295703
1.0000000 0.6031346 0.1315569
1.0000000 0.6080922 0.1339858
1.0000000 0.6119239 0.1358911
0.1579108 0.1134617 0.0093203
0.1579236 0.1137688 0.0093435
0.1579368 0.1140755 0.0093675
0.1579547 0.1144841 0.0093991
0.1579741 0.1149394 0.0094341
0.1508998 0.1139295 0.0093269
0.1448100 0.1131830 0.0092449
0.1545212 0.1161416 0.0095119
0.1770687 0.1221040 0.0100750
0.1986241 0.1279033 0.0106372
0.2226052 0.1338834 0.0112432
0.2561997 0.1420920 0.0121108
0.2877745 0.1499918 0.0129775
0.3169926 0.1574700 0.0138265
0.3506142 0.1662862 0.0148634
0.3898884 0.1768895 0.0161629
0.4265137 0.1870946 0.0174682
0.4560450 0.1955616 0.0185918
0.4939786 0.2067747 0.0201379
0.5378135 0.2202428 0.0220828
0.5775059 0.2329578 0.0240091
0.6155512 0.2456579 0.0260218
0.6531811 0.2587645 0.0281934
0.6880525 0.2714471 0.0303878
0.7203447 0.2837040 0.0325976
0.7525575 0.2964756 0.0349956
0.7843291 0.3096681 0.0375768
0.8123381 0.3218479 0.0400567
0.8423973 0.3355656 0.0429635
0.8655121 0.3466247 0.0453974
0.8903629 0.3590727 0.0482356
0.9114028 0.3701208 0.0508453
0.9316017 0.3812207 0.0535547
0.9513304 0.3925874 0.0564232
0.9679615 0.4026233 0.0590370
0.9861786 0.4141562 0.0621374
1.0000000 0.4243357 0.0649625
1.0000000 0.4344435 0.0678523
1.0000000 0.4444361 0.0707944
1.0000000 0.4529759 0.0733781
1.0000000 0.4629024 0.0764639
1.0000000 0.4713106 0.0791491
1.0000000 0.4799881 0.0819910
1.0000000 0.4886873 0.0849141
1.0000000 0.4977448 0.0880393
1.0000000 0.5068200 0.0912563
1.0000000 0.5158521 0.0945465
1.0000000 0.5232666 0.0973151
1.0000000 0.5319690 0.1006452
1.0000000 0.5388917 0.1033581
1.0000000 0.5456553 0.1060652
1.0000000 0.5520455 0.1086755
1.0000000 0.5594996 0.1117867
1.0000000 0.5654840 0.1143376
1.0000000 0.5701853 0.1163757
1.0000000 0.5759763 0.1189282
1.0000000 0.5816587 0.1214793
1.0000000 0.5872275 0.1240252
1.0000000 0.5916029 0.1260578
1.0000000 0.5969373 0.1285758
1.0000000 0.6010847 0.1305640
1.0000000 0.6051686 0.1325486
1.0000000 0.6100153 0.1349389
1.0000000 0.6138185 0.1368423
0.1589926 0.1373685 0.0111976
0.1588823 0.1350640 0.0110133
0.1588107 0.1335238 0.0108905
0.1587039 0.1312374 0.0107088
0.1568003 0.1292964 0.0105470
0.1445263 0.1242335 0.0100962
0.1513799 0.1235195 0.0100706
0.1701991 0.1265327 0.0103909
0.1924588 0.1297634 0.0107543
0.2157413 0.1333348 0.0111614
0.2464556 0.1394863 0.0118367
0.2785029 0.1464196 0.0126139
0.3085358 0.1530921 0.0133873
0.3393632 0.1596810 0.0141908
0.3799095 0.1696135 0.0154128
0.4162046 0.1788245 0.0165932
0.4476839 0.1872265 0.0177040
0.4823407 0.1970401 0.0190389
0.5243816 0.2092923 0.0207824
0.5683345 0.2229133 0.0228055
0.6066999 0.2359502 0.0248057
0.6413760 0.2481375 0.0267622
0.6761984 0.2609606 0.0289055
0.7115378 0.2744426 0.0312634
0.7438012 0.2873588 0.0336188
0.7757375 0.3006499 0.0361507
0.8070073 0.3143629 0.0388712
0.8343241 0.3268721 0.0414585
0.8606072 0.3395348 0.0441762
0.8829489 0.3508134 0.0466843
0.9069922 0.3635040 0.0496110
0.9274930 0.3748130 0.0523171
0.9472862 0.3863748 0.0551683
0.9639668 0.3965968 0.0577686
0.9823883 0.4083914 0.0608707
0.9978883 0.4189129 0.0637207
1.0000000 0.4292691 0.0666180
1.0000000 0.4396091 0.0695882
1.0000000 0.4485227 0.0722166
1.0000000 0.4588710 0.0753462
1.0000000 0.4677991 0.0781122
1.0000000 0.4768311 0.0809861
1.0000000 0.4871553 0.0843939
1.0000000 0.4962515 0.0875182
1.0000000 0.5037553 0.0901603
1.0000000 0.5128680 0.0934496
1.0000000 0.5217935 0.0967600
1.0000000 0.5290941 0.0995352
1.0000000 0.5361451 0.1022749
1.0000000 0.5443144 0.1055240
1.0000000 0.5507854 0.1081565
1.0000000 0.5570355 0.1107500
1.0000000 0.5631047 0.1133175
1.0000000 0.5690172 0.1158664
1.0000000 0.5736710 0.1179065
1.0000000 0.5793995 0.1204594
1.0000000 0.5850135 0.1230075
1.0000000 0.5894240 0.1250420
1.0000000 0.5948391 0.1275802
1.0000000 0.5990189 0.1295703
1.0000000 0.6031346 0.1315569
1.0000000 0.6080922 0.1339858
1.0000000 0.6119239 0.1358911
1.0000000 0.6156896 0.1377873
0.1617448 0.1888634 0.0155030
0.1616187 0.1867295 0.0153174
0.1614955 0.1846206 0.0151345
0.1613815 0.1826603 0.0149647
0.1480536 0.1778282 0.0144754
0.1521309 0.1767612 0.0144075
0.1673910 0.1781436 0.0146123
0.1895680 0.1801987 0.0149222
0.2111455 0.1832400 0.0153236
0.2383566 0.1876786 0.0158994
0.2700843 0.1933367 0.0166399
0.2993958 0.1986069 0.0173551
0.3299271 0.2044173 0.0181592
0.3668233 0.2121795 0.0192448
0.4059401 0.2216592 0.0205772
0.4377515 0.2286904 0.0216436
0.4698864 0.2360867 0.0227990
0.5090552 0.2458509 0.0243557
0.5526229 0.2575616 0.0262834
0.5910263 0.2683022 0.0281322
0.6287022 0.2793491 0.0301097
0.6632311 0.2898750 0.0320730
0.6982672 0.3011327 0.0342482
0.7304055 0.3119730 0.0364223
0.7622615 0.3239359 0.0388606
0.7936602 0.3357583 0.0414068
0.8211912 0.3465539 0.0438255
0.8478187 0.3575290 0.0463693
0.8734529 0.3686472 0.0490362
0.8953821 0.3778178 0.0513805
0.9162780 0.3875694 0.0538878
0.9363698 0.3974185 0.0564959
0.9558584 0.4074838 0.0592402
0.9725557 0.4164211 0.0617600
0.9907106 0.4268301 0.0647607
1.0000000 0.4358107 0.0674409
1.0000000 0.4447861 0.0701919
1.0000000 0.4523123 0.0725744
1.0000000 0.4607615 0.0753493
1.0000000 0.4684321 0.0778788
1.0000000 0.4775370 0.0809368
1.0000000 0.4853019 0.0836262
1.0000000 0.4935085 0.0865307
1.0000000 0.5014917 0.0894596
1.0000000 0.5085843 0.0920779
1.0000000 0.5170245 0.0952508
1.0000000 0.5236001 0.0978396
1.0000000 0.5317328 0.1010323
1.0000000 0.5384080 0.1036851
1.0000000 0.5447608 0.1062803
1.0000000 0.5508962 0.1088189
1.0000000 0.5567836 0.1113203
1.0000000 0.5628996 0.1138926
1.0000000 0.5689467 0.1164758
1.0000000 0.5748456 0.1190524
1.0000000 0.5795481 0.1211286
1.0000000 0.5852184 0.1236922
1.0000000 0.5897242 0.1257531
1.0000000 0.5951329 0.1282791
1.0000000 0.5994059 0.1302961
1.0000000 0.6035810 0.1322954
1.0000000 0.6084962 0.1346960
1.0000000 0.6124097 0.1366259
1.0000000 0.6161688 0.1385028
0.1658155 0.2498230 0.0211052
0.1656143 0.2471182 0.0208441
0.1655167 0.2457912 0.0207164
0.1543519 0.2408946 0.0201693
0.1540173 0.2381896 0.0199119
0.1656107 0.2379205 0.0199702
0.1880918 0.2412685 0.0204568
0.2083826 0.2429473 0.0207778
0.2337718 0.2458606 0.0212708
0.2641544 0.2500141 0.0219485
0.2946386 0.2556413 0.0228013
0.3215907 0.2593658 0.0234545
0.3555425 0.2649415 0.0244020
0.3938821 0.2719849 0.0256017
0.4267602 0.2791833 0.0268045
0.4576718 0.2849789 0.0278748
0.4938126 0.2936285 0.0293978
0.5366342 0.3034455 0.0312503
0.5782726 0.3146234 0.0333594
0.6153641 0.3238606 0.0352577
0.6491170 0.3337455 0.0372699
0.6835360 0.3433554 0.0393699
0.7151382 0.3535068 0.0415853
0.7467787 0.3632231 0.0438595
0.7780668 0.3734021 0.0463176
0.8084975 0.3848383 0.0490797
0.8351800 0.3944258 0.0515682
0.8578803 0.4037595 0.0539828
0.8824143 0.4136127 0.0566854
0.9032778 0.4222440 0.0591440
0.9230939 0.4316733 0.0618106
0.9427619 0.4407106 0.0645280
0.9594095 0.4485850 0.0669786
0.9774047 0.4586272 0.0700543
0.9926447 0.4667481 0.0727072
1.0000000 0.4748757 0.0754299
1.0000000 0.4822220 0.0778837
1.0000000 0.4902691 0.0807110
1.0000000 0.4983485 0.0836205
1.0000000 0.5051492 0.0861430
1.0000000 0.5127103 0.0889109
1.0000000 0.5198938 0.0916871
1.0000000 0.5273205 0.0946172
1.0000000 0.5348685 0.0976622
1.0000000 0.5409670 0.1002024
1.0000000 0.5489185 0.1034500
1.0000000 0.5548666 0.1060310
1.0000000 0.5618428 0.1090930
1.0000000 0.5673509 0.1115920
1.0000000 0.5725120 0.1139836
1.0000000 0.5776366 0.1163863
1.0000000 0.5826080 0.1187536
1.0000000 0.5878606 0.1212156
1.0000000 0.5915608 0.1230692
1.0000000 0.5962936 0.1254318
1.0000000 0.6009355 0.1277872
1.0000000 0.6045251 0.1296494
1.0000000 0.6090572 0.1319976
1.0000000 0.6124530 0.1338131
1.0000000 0.6157993 0.1356236
1.0000000 0.6189658 0.1373625
1.0000000 0.6229491 0.1395526
1.0000000 0.6258801 0.1412227
1.0000000 0.6287255 0.1428638
0.1711366 0.3136234 0.0276306
0.1707938 0.3099068 0.0272304
0.1634944 0.3068810 0.0268416
0.1578125 0.3025057 0.0263296
0.1668304 0.3025653 0.0264170
0.1879014 0.3033186 0.0266916
0.2082133 0.3056536 0.0271356
0.2296677 0.3066452 0.0274578
0.2595261 0.3111078 0.0282589
0.2895765 0.3145206 0.0289745
0.3170614 0.3189979 0.0298057
0.3476885 0.3229012 0.0306407
0.3848646 0.3299576 0.0319688
0.4186469 0.3350977 0.0330787
0.4486994 0.3396055 0.0340991
0.4802217 0.3462164 0.0354476
0.5244300 0.3565148 0.0375681
0.5629325 0.3645424 0.0393983
0.5995927 0.3737835 0.0414532
0.6357976 0.3833738 0.0436595
0.6692727 0.3926167 0.0458652
0.7003734 0.4003586 0.0478953
0.7314272 0.4097783 0.0502874
0.7621546 0.4196284 0.0528673
0.7924033 0.4288083 0.0554652
0.8187273 0.4381385 0.0580760
0.8440672 0.4475855 0.0608028
0.8658426 0.4549122 0.0631207
0.8890373 0.4644573 0.0660363
0.9090932 0.4719701 0.0685431
0.9260489 0.4794521 0.0709804
0.9447048 0.4882938 0.0739104
0.9606708 0.4951296 0.0763829
0.9780192 0.5042530 0.0795637
0.9923764 0.5120788 0.0823856
1.0000000 0.5189866 0.0850780
1.0000000 0.5255529 0.0875781
1.0000000 0.5324893 0.0903997
1.0000000 0.5390177 0.0929959
1.0000000 0.5449694 0.0955494
1.0000000 0.5517025 0.0983344
1.0000000 0.5581403 0.1011914
1.0000000 0.5653195 0.1042860
1.0000000 0.5725525 0.1074774
1.0000000 0.5776446 0.1099442
1.0000000 0.5846600 0.1131697
1.0000000 0.5895194 0.1156117
1.0000000 0.5948902 0.1182008
1.0000000 0.5993524 0.1205388
1.0000000 0.6042837 0.1230052
1.0000000 0.6084445 0.1252698
1.0000000 0.6124958 0.1275117
1.0000000 0.6171504 0.1299418
1.0000000 0.6211761 0.1322118
1.0000000 0.6246694 0.1341176
1.0000000 0.6285563 0.1363728
1.0000000 0.6319339 0.1382670
1.0000000 0.6356031 0.1404616
1.0000000 0.6383154 0.1421572
1.0000000 0.6414364 0.1439648
1.0000000 0.6440043 0.1455974
1.0000000 0.6465279 0.1472196
1.0000000 0.6501990 0.1493913
1.0000000 0.6525476 0.1509476
0.1786771 0.3858908 0.0359705
0.1761401 0.3831493 0.0356078
0.1651620 0.3789399 0.0349742
0.1716135 0.3777307 0.0349026
0.1891487 0.3761442 0.0349151
0.2096192 0.3775685 0.0353304
0.2302470 0.3792883 0.0357942
0.2569118 0.3801892 0.0362484
0.2866162 0.3838444 0.0371050
0.3142618 0.3872559 0.0379307
0.3426090 0.3909636 0.0388337
0.3771921 0.3941584 0.0398042
0.4134473 0.3999907 0.0411996
0.4408355 0.4023170 0.0420146
0.4721283 0.4077327 0.0433635
0.5101719 0.4150517 0.0451841
0.5513459 0.4218270 0.0470951
0.5874467 0.4295449 0.0491295
0.6200207 0.4367274 0.0510925
0.6556901 0.4452216 0.0534549
0.6858822 0.4525685 0.0555851
0.7193413 0.4613928 0.0581865
0.7467098 0.4673094 0.0602024
0.7764325 0.4760792 0.0629212
0.8024964 0.4840512 0.0654846
0.8276927 0.4921752 0.0681691
0.8518739 0.5003958 0.0709629
0.8725344 0.5076255 0.0735101
0.8923392 0.5149043 0.0761389
0.9117253 0.5209806 0.0786121
0.9302164 0.5286093 0.0814849
0.9460205 0.5354366 0.0841241
0.9632626 0.5434607 0.0872743
0.9776039 0.5503365 0.0900692
0.9915031 0.5561196 0.0926829
1.0000000 0.5618676 0.0951504
1.0000000 0.5686936 0.0981092
1.0000000 0.5744395 0.1006837
1.0000000 0.5802484 0.1033365
1.0000000 0.5852293 0.1058500
1.0000000 0.5915851 0.1088264
1.0000000 0.5979472 0.1118718
1.0000000 0.6044868 0.1150686
1.0000000 0.6100591 0.1180517
1.0000000 0.6151893 0.1207011
1.0000000 0.6201651 0.1233222
1.0000000 0.6260515 0.1264502
1.0000000 0.6298707 0.1287479
1.0000000 0.6343001 0.1312093
1.0000000 0.6386131 0.1336481
1.0000000 0.6421036 0.1358485
1.0000000 0.6462238 0.1382526
1.0000000 0.6493386 0.1401350
1.0000000 0.6526598 0.1423233
1.0000000 0.6556723 0.1441928
1.0000000 0.6595516 0.1465783
1.0000000 0.6618317 0.1482198
1.0000000 0.6655349 0.1505509
1.0000000 0.6682749 0.1523387
1.0000000 0.6703020 0.1538771
1.0000000 0.6728991 0.1556106
1.0000000 0.6753793 0.1572884
1.0000000 0.6772209 0.1587495
1.0000000 0.6797602 0.1604857
0.1896242 0.4683909 0.0469655
0.1769695 0.4638699 0.0461417
0.1808900 0.4618721 0.0459185
0.1942278 0.4613342 0.0460379
0.2149626 0.4620010 0.0464424
0.2335883 0.4623957 0.0467862
0.2578322 0.4612177 0.0470048
0.2880139 0.4638433 0.0478841
0.3131301 0.4657378 0.0485976
0.3408275 0.4682239 0.0494689
0.3743718 0.4719626 0.0506742
0.4078518 0.4759268 0.0519633
0.4369744 0.4768198 0.0527324
0.4657113 0.4802924 0.0539314
0.5009717 0.4853964 0.0556014
0.5408419 0.4918940 0.0577078
0.5761592 0.4979754 0.0597290
0.6078676 0.5014001 0.0612808
0.6395417 0.5073574 0.0633563
0.6716970 0.5138447 0.0656507
0.7043096 0.5209168 0.0681953
0.7338125 0.5275581 0.0706690
0.7599812 0.5336086 0.0730062
0.7884634 0.5408492 0.0758163
0.8133514 0.5473652 0.0784438
0.8346944 0.5531886 0.0808573
0.8576025 0.5600814 0.0837177
0.8771167 0.5660771 0.0863034
0.8958667 0.5721474 0.0889775
0.9142159 0.5784527 0.0918078
0.9298757 0.5839287 0.0943589
0.9448933 0.5894502 0.0969816
0.9612579 0.5960515 0.1001285
0.9730963 0.6006562 0.1024617
0.9861203 0.6062376 0.1052778
0.9984444 0.6118658 0.1081610
1.0000000 0.6153973 0.1103613
1.0000000 0.6212487 0.1134283
1.0000000 0.6262027 0.1161201
1.0000000 0.6314003 0.1189842
1.0000000 0.6366957 0.1219542
1.0000000 0.6410436 0.1244882
1.0000000 0.6464192 0.1276107
1.0000000 0.6506649 0.1301827
1.0000000 0.6558543 0.1333179
1.0000000 0.6598844 0.1358352
1.0000000 0.6638184 0.1383363
1.0000000 0.6674904 0.1407230
1.0000000 0.6700950 0.1427857
1.0000000 0.6735704 0.1451150
1.0000000 0.6769791 0.1474352
1.0000000 0.6803416 0.1497577
1.0000000 0.6836414 0.1520718
1.0000000 0.6860461 0.1538518
1.0000000 0.6892893 0.1561663
1.0000000 0.6916628 0.1579407
1.0000000 0.6931298 0.1593961
1.0000000 0.6961681 0.1616344
1.0000000 0.6982956 0.1632946
1.0000000 0.7003935 0.1649485
1.0000000 0.7024102 0.1665611
1.0000000 0.7043632 0.1681429
1.0000000 0.7055168 0.1694335
1.0000000 0.7079297 0.1713220
0.1930705 0.5453038 0.0599517
0.1926473 0.5425740 0.0588847
0.2031260 0.5413074 0.0583194
0.2221403 0.5412496 0.0586601
0.2404194 0.5385100 0.0585526
0.2620557 0.5390822 0.0590656
0.2904662 0.5407503 0.0599151
0.3161367 0.5421325 0.0606870
0.3415657 0.5435961 0.0614923
0.3724397 0.5460800 0.0626278
0.4046311 0.5489790 0.0639141
0.4340017 0.5515954 0.0651292
0.4597679 0.5537472 0.0662076
0.4940165 0.5576730 0.0678978
0.5324341 0.5627317 0.0700136
0.5670869 0.5675533 0.0720726
0.6004823 0.5724627 0.0742099
0.6309308 0.5770651 0.0762808
0.6590208 0.5814412 0.0783086
0.6903699 0.5869608 0.0808209
0.7191580 0.5900354 0.0828144
0.7447495 0.5948411 0.0851389
0.7723175 0.6027605 0.0884029
0.7966352 0.6079520 0.0910116
0.8200600 0.6132606 0.0937281
0.8400531 0.6178970 0.0961866
0.8615439 0.6234587 0.0991073
0.8799183 0.6282780 0.1017464
0.8957741 0.6324590 0.1041322
0.9132110 0.6376022 0.1070276
0.9279244 0.6419529 0.1095884
0.9422494 0.6464500 0.1122690
0.9558363 0.6509338 0.1149917
0.9687003 0.6553950 0.1177521
0.9805278 0.6615791 0.1210623
0.9906373 0.6651960 0.1234732
1.0000000 0.6697032 0.1264132
1.0000000 0.6735819 0.1290354
1.0000000 0.6775165 0.1317320
1.0000000 0.6817200 0.1346319
1.0000000 0.6859791 0.1376163
1.0000000 0.6893054 0.1400787
1.0000000 0.6935399 0.1431434
1.0000000 0.6967660 0.1456192
1.0000000 0.7007319 0.1486075
1.0000000 0.7037051 0.1509917
1.0000000 0.7064682 0.1532653
1.0000000 0.7092712 0.1555541
1.0000000 0.7119726 0.1578004
1.0000000 0.7146105 0.1600283
1.0000000 0.7172108 0.1622547
1.0000000 0.7190166 0.1639418
1.0000000 0.7215345 0.1661513
1.0000000 0.7232758 0.1678215
1.0000000 0.7256970 0.1700007
1.0000000 0.7273263 0.1716164
1.0000000 0.7289311 0.1732247
1.0000000 0.7311869 0.1753014
1.0000000 0.7327667 0.1768687
1.0000000 0.7342980 0.1784090
1.0000000 0.7357554 0.1799022
1.0000000 0.7371930 0.1813890
1.0000000 0.7388833 0.1830823
1.0000000 0.7406381 0.1848383
0.2061651 0.6119798 0.0759655
0.2138791 0.6103589 0.0747737
0.2316952 0.6099560 0.0741300
0.2491546 0.6095547 0.0735264
0.2692473 0.6120461 0.0737041
0.2955729 0.6128935 0.0737348
0.3204164 0.6136580 0.0739686
0.3457574 0.6146030 0.0747227
0.3731259 0.6159528 0.0757313
0.4058083 0.6182286 0.0771192
0.4350659 0.6201857 0.0783954
0.4596640 0.6216795 0.0794756
0.4896097 0.6241928 0.0809892
0.5263272 0.6280924 0.0831115
0.5602508 0.6318248 0.0852022
0.5926328 0.6355835 0.0873432
0.6220183 0.6390648 0.0893973
0.6516571 0.6428924 0.0916453
0.6791028 0.6465628 0.0938599
0.7067025 0.6505795 0.0962783
0.7340959 0.6548917 0.0988863
0.7583616 0.6588422 0.1013488
0.7820248 0.6629939 0.1039499
0.8049082 0.6672721 0.1066659
0.8268682 0.6716366 0.1094803
0.8453455 0.6773066 0.1125419
0.8634085 0.6810960 0.1151569
0.8809051 0.6850043 0.1178839
0.8978589 0.6890439 0.1207352
0.9123275 0.6924739 0.1232776
0.9263247 0.6959965 0.1259149
0.9392167 0.7013200 0.1291521
0.9518826 0.7048439 0.1318907
0.9639677 0.7084301 0.1347029
0.9754108 0.7120721 0.1375793
0.9848624 0.7149895 0.1400239
0.9940724 0.7180110 0.1425710
1.0000000 0.7226255 0.1457011
1.0000000 0.7259827 0.1485676
1.0000000 0.7293366 0.1514766
1.0000000 0.7327935 0.1545057
1.0000000 0.7353770 0.1569415
1.0000000 0.7387344 0.1599841
1.0000000 0.7411734 0.1623775
1.0000000 0.7449647 0.1652765
1.0000000 0.7471776 0.1675605
1.0000000 0.7500479 0.1703549
1.0000000 0.7514638 0.1720192
1.0000000 0.7535032 0.1741984
1.0000000 0.7555079 0.1763700
1.0000000 0.7574829 0.1785380
1.0000000 0.7587796 0.1801581
1.0000000 0.7606869 0.1823030
1.0000000 0.7631899 0.1844319
1.0000000 0.7649783 0.1865171
1.0000000 0.7661290 0.1880631
1.0000000 0.7672253 0.1895694
1.0000000 0.7688617 0.1915393
1.0000000 0.7699344 0.1930100
1.0000000 0.7709289 0.1944175
1.0000000 0.7719084 0.1958176
1.0000000 0.7730312 0.1973539
1.0000000 0.7742922 0.1990242
1.0000000 0.7749465 0.2001448
0.2281164 0.6740887 0.0979751
0.2434970 0.6731719 0.0951987
0.2599854 0.6724011 0.0924463
0.2774922 0.6719069 0.0914977
0.3017843 0.6722116 0.0908752
0.3272272 0.6727397 0.0906915
0.3502117 0.6754224 0.0910314
0.3761244 0.6762021 0.0910984
0.4065666 0.6776748 0.0916732
0.4358392 0.6791608 0.0923266
0.4612549 0.6802821 0.0928949
0.4865640 0.6815273 0.0939679
0.5195943 0.6840681 0.0958928
0.5553672 0.6872984 0.0982068
0.5868932 0.6923889 0.1009362
0.6152056 0.6950232 0.1029882
0.6436486 0.6979679 0.1052302
0.6725754 0.7012804 0.1077141
0.6991305 0.7044266 0.1101416
0.7255517 0.7078372 0.1127628
0.7489784 0.7108985 0.1152162
0.7718917 0.7141203 0.1178050
0.7941104 0.7174686 0.1205133
0.8155591 0.7209277 0.1233364
0.8336010 0.7257468 0.1264522
0.8511497 0.7286985 0.1290460
0.8680741 0.7317551 0.1317402
0.8845380 0.7349923 0.1345830
0.8987072 0.7377539 0.1371377
0.9119303 0.7422757 0.1403455
