Plugins/FilmEmulator/Content/LUTs/FE_Fuji_Superia_Reala_64.cube
TITLE "FE_Fuji_Superia_Reala_33"
LUT_3D_SIZE 64
0.0002942 0.0002583 0.0006078
0.0011713 0.0002865 0.0006204
0.0028332 0.0003713 0.0006574
0.0058195 0.0004710 0.0007177
0.0100170 0.0005593 0.0007835
0.0158703 0.0006428 0.0008669
0.0229783 0.0007263 0.0009715
0.0312270 0.0008171 0.0011025
0.0406414 0.0009028 0.0012370
0.0505352 0.0010226 0.0014307
0.0604298 0.0011269 0.0015859
0.0755935 0.0012435 0.0017589
0.0862908 0.0013807 0.0019515
0.1029355 0.0015522 0.0021669
0.1172603 0.0016947 0.0023438
0.1332833 0.0018542 0.0025384
0.1509002 0.0020375 0.0027562
0.1704325 0.0022388 0.0029925
0.1845655 0.0023839 0.0031612
0.2074209 0.0026165 0.0034448
0.2237232 0.0027824 0.0036549
0.2409466 0.0029588 0.0038778
0.2590846 0.0031462 0.0041143
0.2781214 0.0033455 0.0043651
0.2978178 0.0035895 0.0046421
0.3179494 0.0038686 0.0049425
0.3389806 0.0040163 0.0051000
0.3495181 0.0043282 0.0054297
0.3713915 0.0046644 0.0057808
0.3825498 0.0048421 0.0059647
0.4051057 0.0052103 0.0063696
0.4161461 0.0054009 0.0065921
0.4384979 0.0058031 0.0070607
0.4497874 0.0060151 0.0073073
0.4611380 0.0062349 0.0075624
0.4839752 0.0066987 0.0080995
0.4954383 0.0069432 0.0083822
0.5069148 0.0071967 0.0086746
0.5183783 0.0074800 0.0089825
0.5307699 0.0077851 0.0093042
0.5556443 0.0081019 0.0096373
0.5677161 0.0087765 0.0103394
0.5799047 0.0091341 0.0107092
0.5920054 0.0095060 0.0110922
0.6040040 0.0098931 0.0114887
0.6158872 0.0102958 0.0118993
0.6276417 0.0107147 0.0123244
0.6392533 0.0111543 0.0127718
0.6503847 0.0111529 0.0127718
0.6609351 0.0116184 0.0132502
0.6607576 0.0121049 0.0137466
0.6711594 0.0126099 0.0142612
0.6814020 0.0131357 0.0147949
0.6914774 0.0136833 0.0153484
0.7013794 0.0142534 0.0159222
0.7112644 0.0142512 0.0159221
0.7111012 0.0148472 0.0165173
0.7206378 0.0154653 0.0171343
0.7299839 0.0161089 0.0177741
0.7391346 0.0167789 0.0184374
0.7391346 0.0167789 0.0184374
0.7483471 0.0174600 0.0191562
0.7578447 0.0181682 0.0199026
0.7672377 0.0181647 0.0199023
0.0004336 0.0023306 0.0006643
0.0013473 0.0022430 0.0007014
0.0032045 0.0022315 0.0007489
0.0063736 0.0021523 0.0008068
0.0106910 0.0021448 0.0008838
0.0162645 0.0020715 0.0009705
0.0235542 0.0020007 0.0010986
0.0320771 0.0019960 0.0012231
0.0400611 0.0019295 0.0013777
0.0499345 0.0019262 0.0015199
0.0626435 0.0018629 0.0016822
0.0750799 0.0018022 0.0018618
0.0898129 0.0018004 0.0020108
0.1027205 0.0017461 0.0022274
0.1224710 0.0016948 0.0023439
0.1390186 0.0018543 0.0025385
0.1509002 0.0020375 0.0027562
0.1704325 0.0022388 0.0029925
0.1920642 0.0023841 0.0031613
0.2074209 0.0026165 0.0034448
0.2237232 0.0027824 0.0036549
0.2409466 0.0029588 0.0038778
0.2590846 0.0031462 0.0041143
0.2781214 0.0033455 0.0043651
0.2978178 0.0035895 0.0046421
0.3179494 0.0038686 0.0049425
0.3388217 0.0041692 0.0052622
0.3495181 0.0043282 0.0054297
0.3713915 0.0046644 0.0057808
0.3940137 0.0048421 0.0059649
0.4051057 0.0052103 0.0063696
0.4161461 0.0054009 0.0065921
0.4384979 0.0058031 0.0070607
0.4497874 0.0060151 0.0073073
0.4727073 0.0062347 0.0075625
0.4839752 0.0066987 0.0080995
0.4954383 0.0069432 0.0083822
0.5069148 0.0071967 0.0086746
0.5183783 0.0074800 0.0089825
0.5433244 0.0077845 0.0093043
0.5554544 0.0084328 0.0099822
0.5677161 0.0087765 0.0103394
0.5799047 0.0091341 0.0107092
0.5920054 0.0095060 0.0110922
0.6040040 0.0098931 0.0114887
0.6158872 0.0102958 0.0118993
0.6276417 0.0107147 0.0123244
0.6392533 0.0111543 0.0127718
0.6502048 0.0116199 0.0132503
0.6609351 0.0116184 0.0132502
0.6713342 0.0121032 0.0137465
0.6711594 0.0126099 0.0142612
0.6814020 0.0131357 0.0147949
0.6914774 0.0136833 0.0153484
0.7013794 0.0142534 0.0159222
0.7111012 0.0148472 0.0165173
0.7207977 0.0148448 0.0165171
0.7206378 0.0154653 0.0171343
0.7299839 0.0161089 0.0177741
0.7391346 0.0167789 0.0184374
0.7484923 0.0167760 0.0184371
0.7483471 0.0174600 0.0191562
0.7578447 0.0181682 0.0199026
0.7670999 0.0189047 0.0206776
0.0005832 0.0068274 0.0007764
0.0015797 0.0065444 0.0008217
0.0036846 0.0065112 0.0008778
0.0070381 0.0064844 0.0009455
0.0114737 0.0062284 0.0010606
0.0175015 0.0062076 0.0011873
0.0240934 0.0061899 0.0013380
0.0328347 0.0059527 0.0014713
0.0409920 0.0059383 0.0016704
0.0510822 0.0059275 0.0018031
0.0641555 0.0059150 0.0019971
0.0768737 0.0056937 0.0021559
0.0919827 0.0056849 0.0023287
0.1051083 0.0056772 0.0025152
0.1199687 0.0054664 0.0027252
0.1364354 0.0054608 0.0028760
0.1546557 0.0054540 0.0031179
0.1748547 0.0054489 0.0032904
0.1895936 0.0052495 0.0034831
0.2051026 0.0052452 0.0036919
0.2300250 0.0052407 0.0039133
0.2479685 0.0050495 0.0041454
0.2667135 0.0050458 0.0043937
0.2863564 0.0050438 0.0045260
0.2965241 0.0048535 0.0048101
0.3169453 0.0048501 0.0051151
0.3381172 0.0048484 0.0052749
0.3601960 0.0046658 0.0056059
0.3713915 0.0046644 0.0057808
0.3938435 0.0050265 0.0061545
0.4051057 0.0052103 0.0063696
0.4274461 0.0054009 0.0065922
0.4384979 0.0058031 0.0070607
0.4497874 0.0060151 0.0073073
0.4725380 0.0064627 0.0078264
0.4839752 0.0066987 0.0080995
0.4954383 0.0069432 0.0083822
0.5069148 0.0071967 0.0086746
0.5309612 0.0074795 0.0089826
0.5431340 0.0081025 0.0096373
0.5554544 0.0084328 0.0099822
0.5677161 0.0087765 0.0103394
0.5799047 0.0091341 0.0107092
0.5920054 0.0095060 0.0110922
0.6040040 0.0098931 0.0114887
0.6158872 0.0102958 0.0118993
0.6276417 0.0107147 0.0123244
0.6392533 0.0111543 0.0127718
0.6502048 0.0116199 0.0132503
0.6607576 0.0121049 0.0137466
0.6713342 0.0121032 0.0137465
0.6711594 0.0126099 0.0142612
0.6814020 0.0131357 0.0147949
0.6914774 0.0136833 0.0153484
0.7013794 0.0142534 0.0159222
0.7111012 0.0148472 0.0165173
0.7207977 0.0148448 0.0165171
0.7206378 0.0154653 0.0171343
0.7299839 0.0161089 0.0177741
0.7391346 0.0167789 0.0184374
0.7484923 0.0167760 0.0184371
0.7483471 0.0174600 0.0191562
0.7578447 0.0181682 0.0199026
0.7670999 0.0189047 0.0206776
0.0007317 0.0134477 0.0009111
0.0019018 0.0133706 0.0009830
0.0042759 0.0133021 0.0010740
0.0075234 0.0132509 0.0011737
0.0123892 0.0132035 0.0012912
0.0189726 0.0126249 0.0014197
0.0259666 0.0125880 0.0016066
0.0338471 0.0125574 0.0017789
0.0441456 0.0125304 0.0019202
0.0527347 0.0125056 0.0021277
0.0662544 0.0119724 0.0022966
0.0793047 0.0119521 0.0024806
0.0907556 0.0119376 0.0026146
0.1083986 0.0119171 0.0028345
0.1235801 0.0119029 0.0029913
0.1403917 0.0118855 0.0032429
0.1591585 0.0113879 0.0034250
0.1727195 0.0113766 0.0036303
0.1947849 0.0113634 0.0038480
0.2105480 0.0113524 0.0040786
0.2272553 0.0113415 0.0043229
0.2450640 0.0108769 0.0045814
0.2636479 0.0108699 0.0047246
0.2831628 0.0108594 0.0050243
0.3031079 0.0108528 0.0051812
0.3237856 0.0108426 0.0055097
0.3345971 0.0104074 0.0056779
0.3563830 0.0103979 0.0060377
0.3675245 0.0103931 0.0062260
0.3902606 0.0103830 0.0066611
0.4018718 0.0099664 0.0068853
0.4243420 0.0099606 0.0071218
0.4357262 0.0099559 0.0073662
0.4586934 0.0099502 0.0076191
0.4702957 0.0099419 0.0081507
0.4821306 0.0095433 0.0084248
0.4937818 0.0095389 0.0087136
0.5170975 0.0095335 0.0090174
0.5297042 0.0095289 0.0093343
0.5422840 0.0095244 0.0096622
0.5550311 0.0091428 0.0099951
0.5675058 0.0091384 0.0103461
0.5799047 0.0091341 0.0107092
0.5920054 0.0095060 0.0110922
0.6040040 0.0098931 0.0114887
0.6158872 0.0102958 0.0118993
0.6276417 0.0107147 0.0123244
0.6392533 0.0111543 0.0127718
0.6502048 0.0116199 0.0132503
0.6607576 0.0121049 0.0137466
0.6711594 0.0126099 0.0142612
0.6815741 0.0126081 0.0142611
0.6814020 0.0131357 0.0147949
0.6914774 0.0136833 0.0153484
0.7013794 0.0142534 0.0159222
0.7111012 0.0148472 0.0165173
0.7206378 0.0154653 0.0171343
0.7206378 0.0154653 0.0171343
0.7299839 0.0161089 0.0177741
0.7391346 0.0167789 0.0184374
0.7483471 0.0174600 0.0191562
0.7483471 0.0174600 0.0191562
0.7578447 0.0181682 0.0199026
0.7670999 0.0189047 0.0206776
0.0009014 0.0228509 0.0011236
0.0022322 0.0227203 0.0012427
0.0047819 0.0226087 0.0013668
0.0085112 0.0225247 0.0014681
0.0134831 0.0224478 0.0016219
0.0196885 0.0214998 0.0017494
0.0268651 0.0214482 0.0018883
0.0350283 0.0214016 0.0020387
0.0456724 0.0213550 0.0022020
0.0546504 0.0213180 0.0023783
0.0685774 0.0212758 0.0025688
0.0784735 0.0212428 0.0027848
0.0939897 0.0203709 0.0029370
0.1073729 0.0203395 0.0031839
0.1224281 0.0203142 0.0033599
0.1390985 0.0202885 0.0035588
0.1576087 0.0202630 0.0037721
0.1781213 0.0202376 0.0039982
0.1930909 0.0194156 0.0042350
0.2087495 0.0193957 0.0044888
0.2253393 0.0193819 0.0046239
0.2520002 0.0193578 0.0049173
0.2709490 0.0193377 0.0052291
0.2807655 0.0193276 0.0053923
0.3006244 0.0193078 0.0057341
0.3213738 0.0185300 0.0059092
0.3427183 0.0185113 0.0062836
0.3536573 0.0185013 0.0064995
0.3760010 0.0184882 0.0067228
0.3874061 0.0184784 0.0069536
0.4099482 0.0184588 0.0074391
0.4212170 0.0184492 0.0076944
0.4442086 0.0177061 0.0079533
0.4557196 0.0176969 0.0082261
0.4672880 0.0176877 0.0085082
0.4789005 0.0176785 0.0087999
0.5021877 0.0176664 0.0091067
0.5138804 0.0176506 0.0097578
0.5267059 0.0169421 0.0100940
0.5392935 0.0169330 0.0104484
0.5518191 0.0169302 0.0104485
0.5643106 0.0169210 0.0108152
0.5767306 0.0169119 0.0111947
0.5890635 0.0169028 0.0115874
0.6012941 0.0168936 0.0119938
0.6136181 0.0162007 0.0124061
0.6256000 0.0161919 0.0128481
0.6374387 0.0161829 0.0133206
0.6486154 0.0161739 0.0138104
0.6593680 0.0161714 0.0138103
0.6699861 0.0161625 0.0143178
0.6806323 0.0154994 0.0148340
0.6909099 0.0154909 0.0153788
0.6909099 0.0154909 0.0153788
0.7010076 0.0154824 0.0159432
0.7109190 0.0154738 0.0165282
0.7206378 0.0154653 0.0171343
0.7301404 0.0154628 0.0171341
0.7299839 0.0161089 0.0177741
0.7391346 0.0167789 0.0184374
0.7483471 0.0174600 0.0191562
0.7579862 0.0174567 0.0191559
0.7578447 0.0181682 0.0199026
0.7670999 0.0189047 0.0206776
0.0010895 0.0340130 0.0014103
0.0027003 0.0338218 0.0015527
0.0053574 0.0336770 0.0016755
0.0092554 0.0335563 0.0018082
0.0147203 0.0321423 0.0019501
0.0213716 0.0320551 0.0021058
0.0291196 0.0319871 0.0022167
0.0363432 0.0319248 0.0023941
0.0473681 0.0318641 0.0025202
0.0567764 0.0318077 0.0027287
0.0680718 0.0317598 0.0028796
0.0814862 0.0317031 0.0031216
0.0974897 0.0316555 0.0032942
0.1113931 0.0303776 0.0034792
0.1269154 0.0303380 0.0036877
0.1440474 0.0302990 0.0039088
0.1631036 0.0302602 0.0041430
0.1769369 0.0302282 0.0043912
0.1916988 0.0301962 0.0046568
0.2153869 0.0301671 0.0048024
0.2323753 0.0301346 0.0051069
0.2503072 0.0301023 0.0054307
0.2693215 0.0289018 0.0055966
0.2889312 0.0288711 0.0059513
0.3090290 0.0288503 0.0061371
0.3193844 0.0288351 0.0063285
0.3406631 0.0288031 0.0067706
0.3626237 0.0287815 0.0070032
0.3738541 0.0287656 0.0072436
0.3965638 0.0287442 0.0074923
0.4079333 0.0275928 0.0080100
0.4191841 0.0275778 0.0082848
0.4419358 0.0275579 0.0085689
0.4534343 0.0275430 0.0088627
0.4649928 0.0275279 0.0091717
0.4882155 0.0275078 0.0094940
0.4998772 0.0274927 0.0098275
0.5115476 0.0274776 0.0101727
0.5243748 0.0263854 0.0105231
0.5369679 0.0263705 0.0108924
0.5495241 0.0263557 0.0112747
0.5620269 0.0263408 0.0116702
0.5744612 0.0263260 0.0120795
0.5868111 0.0263112 0.0125029
0.5990404 0.0263060 0.0125029
0.6111781 0.0262910 0.0129483
0.6233903 0.0252437 0.0134159
0.6352565 0.0252290 0.0139091
0.6464618 0.0252146 0.0144203
0.6572653 0.0252002 0.0149500
0.6678939 0.0251956 0.0149499
0.6783808 0.0251812 0.0154988
0.6886964 0.0251668 0.0160677
0.6988338 0.0251525 0.0166572
0.6990165 0.0241614 0.0166464
0.7089651 0.0241476 0.0172568
0.7187228 0.0241337 0.0178893
0.7282649 0.0241292 0.0178891
0.7282836 0.0241198 0.0185447
0.7376431 0.0241056 0.0192553
0.7470354 0.0241009 0.0192550
0.7567258 0.0240862 0.0199923
0.7569039 0.0231274 0.0207445
0.7663219 0.0231227 0.0207441
0.0013037 0.0465994 0.0017292
0.0031443 0.0463563 0.0018657
0.0060084 0.0461684 0.0020134
0.0100799 0.0460111 0.0021742
0.0153274 0.0458891 0.0022884
0.0222045 0.0439972 0.0024071
0.0302489 0.0438927 0.0025996
0.0377633 0.0438184 0.0027433
0.0492012 0.0437344 0.0028948
0.0590688 0.0436687 0.0030548
0.0707914 0.0436033 0.0032236
0.0847449 0.0435380 0.0034018
0.0969296 0.0434811 0.0036030
0.1156334 0.0434142 0.0038189
0.1315854 0.0433578 0.0040477
0.1431568 0.0433117 0.0042902
0.1622285 0.0415697 0.0045443
0.1832245 0.0415155 0.0048272
0.1983184 0.0414838 0.0049779
0.2142992 0.0414388 0.0052936
0.2312115 0.0414074 0.0054589
0.2490808 0.0413627 0.0058049
0.2678684 0.0413316 0.0059860
0.2874111 0.0412873 0.0063653
0.3074479 0.0412555 0.0065840
0.3282751 0.0412239 0.0068102
0.3391869 0.0395784 0.0072810
0.3611019 0.0395482 0.0075310
0.3723114 0.0395261 0.0077894
0.3949837 0.0394961 0.0080567
0.4061118 0.0394744 0.0083331
0.4286560 0.0394451 0.0086189
0.4400925 0.0394091 0.0092251
0.4515808 0.0393871 0.0095492
0.4747074 0.0393576 0.0098848
0.4863421 0.0393357 0.0102319
0.4982148 0.0377831 0.0105843
0.5098846 0.0377621 0.0109559
0.5225002 0.0377405 0.0113403
0.5476167 0.0377250 0.0113403
0.5601286 0.0377033 0.0117381
0.5725743 0.0376818 0.0121497
0.5849379 0.0376602 0.0125756
0.5972049 0.0376384 0.0130236
0.6093613 0.0376161 0.0135026
0.6213915 0.0375938 0.0139990
0.6334605 0.0361238 0.0139899
0.6446891 0.0361027 0.0145040
0.6447104 0.0360889 0.0150369
0.6555378 0.0360680 0.0155890
0.6662125 0.0360471 0.0161612
0.6767054 0.0360401 0.0161610
0.6870491 0.0360191 0.0167539
0.6972158 0.0359983 0.0173682
0.6972158 0.0359983 0.0173682
0.7071981 0.0359773 0.0180047
0.7171657 0.0345562 0.0186523
0.7267399 0.0345494 0.0186520
0.7361326 0.0345287 0.0193667
0.7361515 0.0345148 0.0201086
0.7455781 0.0345077 0.0201083
0.7553055 0.0344864 0.0208778
0.7553236 0.0344725 0.0216766
0.7647828 0.0344651 0.0216763
0.0015609 0.0612251 0.0020770
0.0036761 0.0609327 0.0021854
0.0067429 0.0607007 0.0023598
0.0109844 0.0605212 0.0024836
0.0167696 0.0580414 0.0026123
0.0241328 0.0578870 0.0028316
0.0314495 0.0577777 0.0029879
0.0410391 0.0576839 0.0030691
0.0512403 0.0575867 0.0032387
0.0614947 0.0575010 0.0034176
0.0736674 0.0574133 0.0036197
0.0881887 0.0573425 0.0037265
0.1008212 0.0572678 0.0039497
0.1150632 0.0571933 0.0041864
0.1309467 0.0571194 0.0044371
0.1485402 0.0570458 0.0047055
0.1682036 0.0547750 0.0050006
0.1823734 0.0547329 0.0051568
0.1974248 0.0546735 0.0054837
0.2216421 0.0546199 0.0056549
0.2389846 0.0545610 0.0060133
0.2572536 0.0545197 0.0062009
0.2764458 0.0544786 0.0063944
0.2961204 0.0544172 0.0068411
0.3062250 0.0543866 0.0070760
0.3270062 0.0543446 0.0073190
0.3485465 0.0542836 0.0078300
0.3595750 0.0542531 0.0080986
0.3822829 0.0521181 0.0083710
0.3936007 0.0520891 0.0086581
0.4159161 0.0520500 0.0089550
0.4272356 0.0520211 0.0092671
0.4386409 0.0519920 0.0095928
0.4616418 0.0519527 0.0099298
0.4732346 0.0519236 0.0102785
0.4848656 0.0518946 0.0106394
0.4965221 0.0518657 0.0110129
0.5207862 0.0518256 0.0113993
0.5333871 0.0517958 0.0117992
0.5459552 0.0517660 0.0122129
0.5586870 0.0497351 0.0126329
0.5711417 0.0497061 0.0130829
0.5834941 0.0496956 0.0130829
0.5957739 0.0496661 0.0135640
0.6079441 0.0496367 0.0140626
0.6199898 0.0496072 0.0145794
0.6318976 0.0495777 0.0151149
0.6431247 0.0495676 0.0151148
0.6539733 0.0495389 0.0156698
0.6539944 0.0495200 0.0162450
0.6646917 0.0494912 0.0168409
0.6752083 0.0494813 0.0168408
0.6857637 0.0475366 0.0174469
0.6959531 0.0475089 0.0180863
0.7059393 0.0474994 0.0180861
0.7059588 0.0474812 0.0187488
0.7157761 0.0474527 0.0194671
0.7253786 0.0474431 0.0194669
0.7348003 0.0474147 0.0202123
0.7348195 0.0473957 0.0209860
0.7442763 0.0473859 0.0209857
0.7540364 0.0473565 0.0217883
0.7635469 0.0473271 0.0226209
0.7637041 0.0454907 0.0226064
0.0018389 0.0770261 0.0024326
0.0041345 0.0766808 0.0025596
0.0075867 0.0764118 0.0026970
0.0119891 0.0733238 0.0028437
0.0183461 0.0731296 0.0030004
0.0251097 0.0729756 0.0031659
0.0327335 0.0728392 0.0033406
0.0427033 0.0727013 0.0035301
0.0510155 0.0726146 0.0036342
0.0640663 0.0724878 0.0038518
0.0767127 0.0723779 0.0040825
0.0878155 0.0723061 0.0042029
0.1049327 0.0722177 0.0043269
0.1196874 0.0721247 0.0045860
0.1360369 0.0720310 0.0048714
0.1541966 0.0719597 0.0050235
0.1674122 0.0718820 0.0053420
0.1890694 0.0690701 0.0056770
0.2044666 0.0690178 0.0058541
0.2208040 0.0689656 0.0060368
0.2380994 0.0688917 0.0064192
0.2563234 0.0688376 0.0066397
0.2754719 0.0687836 0.0068678
0.2951037 0.0687065 0.0073475
0.3154530 0.0686536 0.0075997
0.3259297 0.0686152 0.0078605
0.3474146 0.0685624 0.0081302
0.3695781 0.0685099 0.0084091
0.3809217 0.0684478 0.0089956
0.3922240 0.0684095 0.0093092
0.4145130 0.0683578 0.0096364
0.4260287 0.0657256 0.0099684
0.4488762 0.0656760 0.0103186
0.4604129 0.0656394 0.0106808
0.4720008 0.0656028 0.0110558
0.4836285 0.0655663 0.0114437
0.5069293 0.0655168 0.0118451
0.5195250 0.0655026 0.0118451
0.5321281 0.0654651 0.0122605
0.5447005 0.0654276 0.0126903
0.5572259 0.0653897 0.0131424
0.5696896 0.0653511 0.0136257
0.5820748 0.0653125 0.0141266
0.5943662 0.0652739 0.0146457
0.6067327 0.0627762 0.0146362
0.6187914 0.0627390 0.0151738
0.6307135 0.0627019 0.0157309
0.6419770 0.0626654 0.0163082
0.6528199 0.0626527 0.0163080
0.6635339 0.0626165 0.0169062
0.6740890 0.0625801 0.0175261
0.6740890 0.0625801 0.0175261
0.6844756 0.0625440 0.0181683
0.6946875 0.0625077 0.0188338
0.7046972 0.0624950 0.0188335
0.7145389 0.0624576 0.0195551
0.7145587 0.0624330 0.0203041
0.7241860 0.0624203 0.0203038
0.7338023 0.0600035 0.0210672
0.7433010 0.0599671 0.0218728
0.7433010 0.0599671 0.0218728
0.7530851 0.0599302 0.0227087
0.7626205 0.0598932 0.0235759
0.7626205 0.0598932 0.0235759
0.0022600 0.0929243 0.0027816
0.0048462 0.0925326 0.0029342
0.0082826 0.0922433 0.0030956
0.0131210 0.0919880 0.0032661
0.0191459 0.0917695 0.0034460
0.0261259 0.0916043 0.0035447
0.0340957 0.0880744 0.0037544
0.0444652 0.0879071 0.0039790
0.0532110 0.0878028 0.0040962
0.0667903 0.0876514 0.0043414
0.0799615 0.0875458 0.0044694
0.0915123 0.0874599 0.0046012
0.1045737 0.0873464 0.0048875
0.1245394 0.0872397 0.0050400
0.1355694 0.0871735 0.0051973
0.1536864 0.0870609 0.0055267
0.1737742 0.0869757 0.0056992
0.1883283 0.0868830 0.0060603
0.2036790 0.0868178 0.0062494
0.2199838 0.0867230 0.0066656
0.2461850 0.0866366 0.0068946
0.2648274 0.0865693 0.0071313
0.2746688 0.0832879 0.0073713
0.2942651 0.0831953 0.0078860
0.3145810 0.0831316 0.0081565
0.3356698 0.0830682 0.0084363
0.3464963 0.0830222 0.0087256
0.3686328 0.0829588 0.0090248
0.3799447 0.0829124 0.0093394
0.4023047 0.0828496 0.0096676
0.4135049 0.0828038 0.0100072
0.4361708 0.0827416 0.0103587
0.4476356 0.0826958 0.0107224
0.4591659 0.0826503 0.0110988
0.4707489 0.0826047 0.0114882
0.4940032 0.0825426 0.0118912
0.5056704 0.0824970 0.0123082
0.5185021 0.0793588 0.0127314
0.5311075 0.0793132 0.0131850
0.5436838 0.0792667 0.0136699
0.5561915 0.0792496 0.0136698
0.5686610 0.0792031 0.0141723
0.5810532 0.0791566 0.0146931
0.5933531 0.0791102 0.0152328
0.6055239 0.0790931 0.0152327
0.6175955 0.0790466 0.0157919
0.6295319 0.0790002 0.0163714
0.6408100 0.0789546 0.0169720
0.6516684 0.0789386 0.0169718
0.6623990 0.0788933 0.0175940
0.6729714 0.0788480 0.0182387
0.6833764 0.0788027 0.0189067
0.6833764 0.0788027 0.0189067
0.6937916 0.0757942 0.0196184
0.7038379 0.0757492 0.0203696
0.7136761 0.0757338 0.0203693
0.7233409 0.0756888 0.0211487
0.7233409 0.0756888 0.0211487
0.7328057 0.0756439 0.0219574
0.7423270 0.0755986 0.0227965
0.7423270 0.0755986 0.0227965
0.7521358 0.0755523 0.0236669
0.7616780 0.0755354 0.0236665
0.7709865 0.0754892 0.0245696
0.0026381 0.1114175 0.0031924
0.0054530 0.1070304 0.0032760
0.0090492 0.1067151 0.0034562
0.0143814 0.1064182 0.0036599
0.0208813 0.1061666 0.0038786
0.0284541 0.1059777 0.0039926
0.0371260 0.1057800 0.0042313
0.0462973 0.1056357 0.0043559
0.0554968 0.1055114 0.0044842
0.0665536 0.1053551 0.0047552
0.0796819 0.1052285 0.0049035
0.0953581 0.1051011 0.0050564
0.1089111 0.1049658 0.0053769
0.1241230 0.1048629 0.0055446
0.1409243 0.1047614 0.0057175
0.1596276 0.1046600 0.0058959
0.1732225 0.1045499 0.0062694
0.1952621 0.1044493 0.0064649
0.2111808 0.1006087 0.0066827
0.2279290 0.1004971 0.0071495
0.2456070 0.1004197 0.0073949
0.2642199 0.1003423 0.0076487
0.2835791 0.1002656 0.0079112
0.3034556 0.1001896 0.0081827
0.3137238 0.1001010 0.0087535
0.3347818 0.1000252 0.0090537
0.3565583 0.0999491 0.0093693
0.3677043 0.0998937 0.0096985
0.3902629 0.0998178 0.0100392
0.4013429 0.0997633 0.0103918
0.4125339 0.0997089 0.0107567
0.4351847 0.0996347 0.0111342
0.4466431 0.0995803 0.0115249
0.4581684 0.0995260 0.0119292
0.4813462 0.0994519 0.0123475
0.4931835 0.0958342 0.0123397
0.5048503 0.0957819 0.0127722
0.5174689 0.0957274 0.0132272
0.5300766 0.0956719 0.0137137
0.5426562 0.0956164 0.0142178
0.5551910 0.0955610 0.0147403
0.5800198 0.0955198 0.0147401
0.5923279 0.0954645 0.0152814
0.6045305 0.0954090 0.0158425
0.6045527 0.0953742 0.0164240
0.6166126 0.0953536 0.0164238
0.6285605 0.0952982 0.0170262
0.6398507 0.0952437 0.0176505
0.6507427 0.0951898 0.0182972
0.6614658 0.0951706 0.0182970
0.6720523 0.0951165 0.0189671
0.6824730 0.0950609 0.0196937
0.6926996 0.0950417 0.0196935
0.6929005 0.0915542 0.0204349
0.7029632 0.0915005 0.0212167
0.7128183 0.0914818 0.0212164
0.7225000 0.0914282 0.0220277
0.7225000 0.0914282 0.0220277
0.7319826 0.0913745 0.0228694
0.7415226 0.0913203 0.0237427
0.7513329 0.0913001 0.0237423
0.7513512 0.0912651 0.0246486
0.7609134 0.0912449 0.0246482
0.7702427 0.0911896 0.0255879
0.0030817 0.1284805 0.0035694
0.0061299 0.1280329 0.0036734
0.0098785 0.1276755 0.0038926
0.0157494 0.1273245 0.0041249
0.0217469 0.1270953 0.0042460
0.0296511 0.1223652 0.0044969
0.0386955 0.1221749 0.0046291
0.0482387 0.1220102 0.0047680
0.0579242 0.1218289 0.0050701
0.0694301 0.1216847 0.0052281
0.0831317 0.1215403 0.0053910
0.0994231 0.1213954 0.0055590
0.1134902 0.1212414 0.0059112
0.1291773 0.1211248 0.0060955
0.1465603 0.1210091 0.0062855
0.1592225 0.1209200 0.0064815
0.1798955 0.1208012 0.0067041
0.1947761 0.1207091 0.0069343
0.2105289 0.1206173 0.0071724
0.2272392 0.1204858 0.0076732
0.2448794 0.1203944 0.0079365
0.2634551 0.1203031 0.0082087
0.2827781 0.1202125 0.0084903
0.3026208 0.1201230 0.0087815
0.3234456 0.1157733 0.0090767
0.3340654 0.1157101 0.0093931
0.3558188 0.1156228 0.0097232
0.3669544 0.1155594 0.0100648
0.3894940 0.1154727 0.0104183
0.4005660 0.1154104 0.0107841
0.4230129 0.1153254 0.0111626
0.4343877 0.1152634 0.0115543
0.4458413 0.1152012 0.0119596
0.4689158 0.1151166 0.0123789
0.4805341 0.1150545 0.0128128
0.4921831 0.1149919 0.0132693
0.5038500 0.1149281 0.0137573
0.5164467 0.1149036 0.0137572
0.5416155 0.1148135 0.0142629
0.5541546 0.1147479 0.0147869
0.5666351 0.1146824 0.0153301
0.5790411 0.1146169 0.0158929
0.5913343 0.1145924 0.0158927
0.6037475 0.1104415 0.0164655
0.6158377 0.1103782 0.0170694
0.6277946 0.1103148 0.0176952
0.6390727 0.1102923 0.0176950
0.6390942 0.1102525 0.0183436
0.6499964 0.1101907 0.0190154
0.6607299 0.1101686 0.0190152
0.6713283 0.1101050 0.0197436
0.6817609 0.1100415 0.0204995
0.6919997 0.1100193 0.0204992
0.7020787 0.1099558 0.0212835
0.7020787 0.1099558 0.0212835
0.7119706 0.1098924 0.0220973
0.7216693 0.1098288 0.0229417
0.7311502 0.1098066 0.0229413
0.7311694 0.1097653 0.0238176
0.7407089 0.1097425 0.0238172
0.7505575 0.1096771 0.0247260
0.7505759 0.1096358 0.0256691
0.7603129 0.1056840 0.0256526
0.7696580 0.1056208 0.0266298
0.0036112 0.1485647 0.0040206
0.0066233 0.1481126 0.0041379
0.0107993 0.1423642 0.0043817
0.0164741 0.1420471 0.0045101
0.0237072 0.1417678 0.0046424
0.0308986 0.1415108 0.0049308
0.0403262 0.1412926 0.0050842
0.0503553 0.1411028 0.0052425
0.0604431 0.1408971 0.0055745
0.0724170 0.1407334 0.0057482
0.0867119 0.1405690 0.0059272
0.0991470 0.1404353 0.0061119
0.1131718 0.1403018 0.0063024
0.1288204 0.1401692 0.0064988
0.1461636 0.1400335 0.0067219
0.1654430 0.1398983 0.0069527
0.1794270 0.1397930 0.0071913
0.1942772 0.1396882 0.0074381
0.2182062 0.1395544 0.0076934
0.2353427 0.1394503 0.0079574
0.2534367 0.1393011 0.0085126
0.2724432 0.1391973 0.0088045
0.2921015 0.1340272 0.0091003
0.3021245 0.1339552 0.0094175
0.3227500 0.1338555 0.0097484
0.3441270 0.1337559 0.0100909
0.3550883 0.1336838 0.0104452
0.3774727 0.1335844 0.0108120
0.3887341 0.1335128 0.0111915
0.4109531 0.1334161 0.0115842
