Plugins/FilmEmulator/Content/LUTs/FE_Fuji_3523XD_64.cube
TITLE "FE_Fuji_3523XD_33"
LUT_3D_SIZE 8
0.0035673 0.0684181 0.0923597
0.1728847 0.1053207 0.0961958
0.5267642 0.2141078 0.1110405
0.8263245 0.3493586 0.1402006
0.9779210 0.4723971 0.1843073
1.0000000 0.5599731 0.2299005
1.0000000 0.6285626 0.2756975
1.0000000 0.6846767 0.3191939
0.0634308 0.4403890 0.2291345
0.1813607 0.4405035 0.2098389
0.4991462 0.4893000 0.2145280
0.7806672 0.5714910 0.2440129
0.9289570 0.6505949 0.2836915
0.9902182 0.7075268 0.3212553
1.0000000 0.7516833 0.3572009
1.0000000 0.7821430 0.3890011
0.2327302 0.8523626 0.5366204
0.3120898 0.8495051 0.5132981
0.5536001 0.8637872 0.5004391
0.7691698 0.8888224 0.4952842
0.8867709 0.9136505 0.5162216
0.9386965 0.9331839 0.5428963
0.9627228 0.9455882 0.5641111
0.9748859 0.9556639 0.5855967
0.3529266 0.9431714 0.6882971
0.4185698 0.9429185 0.6715096
0.6193057 0.9495574 0.6635512
0.7996807 0.9613060 0.6586695
0.8938590 0.9740095 0.6572533
0.9366292 0.9836924 0.6606264
0.9575737 0.9900302 0.6781613
0.9676536 0.9940816 0.6926647
0.4484175 0.9774192 0.7826583
0.4993906 0.9768724 0.7690431
0.6732260 0.9793000 0.7619237
0.8254827 0.9855443 0.7574484
0.9079923 0.9927740 0.7558061
0.9439036 0.9984577 0.7541580
0.9601781 1.0000000 0.7518140
0.9689962 1.0000000 0.7580155
0.5307998 0.9927942 0.8445341
0.5645891 0.9922044 0.8338854
0.7187384 0.9927396 0.8292417
0.8505369 0.9957453 0.8252004
0.9214804 0.9999266 0.8238991
0.9513711 1.0000000 0.8214194
0.9659774 1.0000000 0.8197104
0.9727008 1.0000000 0.8174456
0.5908600 0.9985908 0.8836486
0.6105285 0.9985678 0.8754206
0.7475237 0.9976729 0.8712850
0.8684623 0.9993099 0.8686750
0.9315186 1.0000000 0.8665476
0.9580321 1.0000000 0.8653422
0.9709688 1.0000000 0.8642966
0.9768510 1.0000000 0.8624411
0.6369048 1.0000000 0.9119934
0.6408240 1.0000000 0.9037536
0.7693396 0.9997047 0.8997707
0.8784813 1.0000000 0.8967668
0.9376206 1.0000000 0.8955116
0.9628454 1.0000000 0.8943451
0.9745059 1.0000000 0.8926640
0.9799202 1.0000000 0.8912910
0.3886784 0.3050520 0.6824056
0.7061566 0.4064060 0.6672221
0.9065956 0.5145874 0.6605870
0.9906844 0.5971066 0.6580502
1.0000000 0.6617577 0.6572418
1.0000000 0.7093964 0.6540008
1.0000000 0.7527834 0.6552237
1.0000000 0.7916607 0.6551052
0.4399683 0.7147213 0.7920154
0.7035941 0.7516512 0.7813731
0.8710619 0.7938355 0.7716098
0.9446864 0.8247763 0.7652102
0.9798228 0.8474611 0.7566597
0.9982734 0.8634261 0.7509254
1.0000000 0.8783233 0.7462574
1.0000000 0.8914856 0.7400099
0.5564169 0.9123273 0.8841526
0.7534640 0.9248210 0.8753453
0.8806120 0.9403965 0.8677573
0.9374415 0.9531131 0.8639011
0.9632895 0.9613880 0.8581551
0.9763746 0.9673440 0.8529865
0.9842654 0.9724804 0.8477504
0.9891554 0.9772065 0.8436558
0.6273323 0.9591078 0.9326507
0.7936486 0.9648304 0.9248153
0.8991240 0.9733523 0.9188952
0.9446191 0.9798722 0.9150331
0.9666674 0.9847983 0.9114385
0.9771394 0.9882970 0.9059057
0.9835612 0.9909685 0.9027143
0.9875099 0.9936821 0.8985575
0.6846116 0.9791371 0.9613965
0.8271650 0.9818463 0.9570127
0.9158360 0.9864686 0.9525730
0.9536773 0.9902407 0.9489111
0.9719118 0.9931390 0.9456518
0.9806165 0.9951843 0.9422897
0.9858631 0.9969485 0.9388527
0.9890828 0.9985955 0.9345815
0.7279065 0.9888892 0.9775279
0.8507950 0.9896975 0.9741043
0.9291153 0.9923714 0.9707741
0.9614719 0.9948395 0.9683400
0.9768652 0.9966286 0.9668146
0.9841394 0.9979233 0.9645445
0.9885173 0.9990211 0.9621909
0.9913056 1.0000000 0.9600018
0.7566924 0.9931056 0.9860851
0.8675125 0.9930638 0.9832651
0.9369512 0.9947736 0.9812742
0.9665383 0.9964677 0.9793878
0.9800749 0.9977928 0.9777308
0.9866118 0.9987375 0.9767913
0.9904585 0.9995263 0.9751714
0.9929513 1.0000000 0.9741556
0.7750532 0.9952518 0.9914694
0.8791450 0.9948246 0.9887224
0.9427303 0.9959176 0.9869304
0.9699556 0.9972109 0.9857912
0.9820287 0.9982511 0.9845778
0.9882493 0.9989951 0.9837958
0.9918351 0.9995970 0.9831310
0.9940515 1.0000000 0.9819951
0.8139518 0.7100076 0.9844348
0.9142907 0.7557298 0.9772167
0.9642122 0.7880144 0.9710074
0.9895214 0.8163552 0.9669740
1.0000000 0.8437839 0.9635099
1.0000000 0.8692547 0.9605293
1.0000000 0.8858318 0.9580233
1.0000000 0.8972593 0.9556829
0.8470388 0.9074077 0.9858423
0.9202687 0.9223135 0.9820812
0.9563560 0.9339644 0.9794342
0.9752325 0.9413975 0.9773232
0.9862004 0.9478335 0.9755874
0.9939671 0.9531313 0.9732282
0.9975487 0.9563284 0.9716734
0.9999547 0.9578400 0.9700147
0.8815043 0.9646570 0.9907470
0.9371684 0.9716733 0.9883575
0.9640455 0.9770278 0.9867337
0.9777688 0.9805532 0.9855202
0.9856597 0.9834147 0.9845318
0.9910902 0.9858169 0.9835770
0.9935694 0.9872512 0.9827003
0.9950216 0.9880007 0.9817395
0.9010949 0.9813491 0.9940278
0.9487213 0.9856348 0.9923087
0.9703369 0.9884874 0.9911429
0.9814276 0.9906327 0.9902745
0.9877027 0.9922148 0.9895262
0.9920140 0.9936345 0.9888321
0.9939716 0.9944157 0.9884851
0.9950888 0.9949158 0.9878324
0.9172704 0.9891808 0.9959421
0.9566612 0.9917207 0.9948099
0.9755756 0.9936727 0.9939680
0.9846718 0.9949923 0.9933627
0.9897785 0.9959592 0.9928534
0.9933254 0.9968852 0.9926205
0.9948734 0.9973401 0.9921775
0.9957587 0.9976421 0.9917143
0.9290883 0.9930704 0.9973561
0.9631572 0.9947307 0.9963183
0.9790864 0.9960800 0.9956888
0.9872172 0.9970285 0.9953504
0.9913016 0.9976504 0.9949827
0.9944227 0.9982910 0.9946678
0.9957196 0.9985954 0.9944981
0.9964479 0.9987995 0.9941919
0.9353771 0.9948819 0.9981899
0.9672644 0.9961274 0.9972951
0.9815652 0.9971497 0.9968677
0.9887729 0.9978772 0.9964970
0.9923933 0.9983600 0.9962081
0.9950432 0.9988191 0.9960596
0.9962790 0.9990786 0.9958267
0.9969309 0.9992518 0.9956129
0.9401978 0.9958656 0.9986752
0.9700344 0.9968885 0.9979436
0.9831185 0.9976960 0.9974895
0.9896470 0.9983009 0.9972613
0.9931409 0.9987208 0.9970307
0.9955502 0.9990948 0.9969092
0.9966751 0.9993082 0.9967368
0.9972773 0.9994432 0.9966526
0.9403673 0.8861804 1.0000000
0.9664637 0.9013408 1.0000000
0.9806423 0.9107153 0.9992501
0.9912369 0.9216051 0.9978458
0.9965981 0.9281830 0.9969403
0.9992533 0.9362707 0.9958666
1.0000000 0.9433984 0.9951557
1.0000000 0.9485303 0.9943944
0.9537360 0.9663554 0.9987677
0.9723532 0.9716213 0.9976164
0.9817429 0.9750377 0.9969666
0.9888493 0.9783366 0.9962517
0.9924114 0.9803068 0.9958599
0.9944667 0.9814826 0.9955591
0.9958656 0.9821575 0.9951544
0.9967782 0.9822443 0.9949209
0.9638224 0.9847465 0.9983266
0.9782937 0.9877300 0.9976885
0.9854565 0.9896307 0.9973056
0.9907303 0.9912840 0.9969081
0.9933643 0.9923658 0.9966910
0.9948392 0.9929472 0.9965056
0.9958177 0.9934078 0.9962515
0.9964285 0.9937159 0.9961098
0.9707021 0.9916847 0.9985222
0.9820958 0.9933936 0.9980813
0.9882076 0.9945793 0.9977974
0.9924349 0.9956149 0.9975202
0.9945078 0.9962295 0.9973744
0.9956723 0.9966165 0.9972638
0.9963753 0.9968583 0.9971163
0.9968929 0.9970523 0.9970294
0.9757039 0.9949638 0.9987428
0.9852147 0.9960694 0.9983795
0.9903437 0.9968955 0.9981780
0.9936404 0.9975231 0.9980232
0.9954827 0.9979464 0.9979166
0.9964139 0.9981846 0.9978042
0.9969791 0.9983396 0.9977325
0.9974059 0.9984912 0.9976761
0.9790376 0.9965428 0.9989250
0.9873492 0.9973571 0.9986551
0.9917709 0.9979495 0.9984924
0.9945942 0.9984056 0.9983444
0.9961659 0.9987134 0.9982604
0.9969767 0.9989071 0.9982086
0.9974526 0.9990209 0.9981607
0.9977939 0.9991093 0.9980903
0.9810966 0.9973186 0.9990651
0.9887000 0.9979943 0.9988323
0.9924839 0.9984254 0.9986958
0.9952130 0.9988294 0.9985920
0.9966081 0.9990733 0.9985048
0.9973270 0.9992244 0.9984635
0.9977485 0.9993154 0.9984232
0.9980536 0.9993862 0.9983866
0.9821401 0.9977458 0.9991883
0.9895402 0.9983271 0.9989665
0.9930901 0.9987101 0.9988461
0.9955934 0.9990430 0.9987494
0.9968972 0.9992613 0.9986760
0.9975471 0.9993817 0.9986353
0.9979448 0.9994670 0.9986066
0.9982067 0.9995236 0.9985778
0.9754344 0.9485229 1.0000000
0.9853948 0.9546109 1.0000000
0.9911366 0.9593322 0.9999779
0.9940276 0.9617698 0.9996205
0.9958361 0.9632242 0.9993779
0.9972783 0.9639509 0.9991474
0.9980808 0.9665927 0.9988651
0.9984541 0.9696302 0.9985861
0.9815826 0.9840550 0.9991277
0.9879666 0.9863531 0.9987335
0.9919192 0.9880798 0.9984196
0.9939439 0.9890574 0.9982452
0.9950918 0.9897394 0.9981255
0.9959414 0.9901353 0.9980270
0.9965406 0.9903777 0.9979463
0.9969368 0.9904622 0.9978819
0.9853712 0.9921347 0.9988657
0.9903946 0.9934996 0.9986104
0.9934295 0.9944417 0.9984307
0.9949892 0.9950425 0.9983199
0.9958547 0.9953968 0.9982435
0.9964970 0.9956790 0.9981784
0.9968982 0.9957944 0.9981231
0.9972224 0.9959369 0.9980751
0.9881536 0.9956162 0.9988936
0.9922141 0.9964500 0.9987116
0.9946743 0.9970716 0.9986007
0.9958451 0.9974036 0.9985269
0.9965889 0.9976348 0.9984714
0.9970919 0.9977999 0.9984262
0.9974104 0.9979011 0.9983734
0.9976599 0.9979826 0.9983377
0.9902202 0.9973291 0.9990092
0.9935956 0.9978883 0.9988726
0.9956458 0.9983255 0.9987820
0.9965986 0.9985435 0.9987268
0.9971976 0.9986907 0.9986840
0.9976007 0.9987952 0.9986487
0.9978696 0.9988838 0.9986249
0.9980660 0.9989347 0.9985974
0.9914595 0.9980874 0.9991030
0.9944590 0.9985350 0.9989925
0.9962204 0.9988443 0.9989165
0.9970505 0.9990110 0.9988723
0.9975854 0.9991388 0.9988430
0.9979337 0.9992202 0.9988160
0.9981634 0.9992844 0.9987965
0.9983327 0.9993260 0.9987745
0.9921147 0.9984791 0.9991872
0.9949899 0.9988531 0.9990830
0.9966075 0.9991201 0.9990197
0.9973575 0.9992580 0.9989820
0.9978373 0.9993608 0.9989567
0.9981511 0.9994287 0.9989338
0.9983564 0.9994801 0.9989181
0.9985090 0.9995157 0.9989008
0.9926491 0.9987074 0.9992465
0.9953604 0.9990436 0.9991541
0.9968640 0.9992739 0.9990975
0.9975609 0.9993939 0.9990641
0.9980046 0.9994822 0.9990413
0.9982749 0.9995369 0.9990216
0.9984847 0.9995853 0.9990068
0.9986275 0.9996165 0.9989992
0.9899349 0.9758501 0.9998478
0.9926214 0.9772758 0.9996082
0.9943468 0.9784774 0.9994224
0.9955408 0.9790381 0.9993210
0.9963983 0.9795637 0.9992184
0.9970420 0.9795650 0.9991605
0.9975312 0.9794347 0.9991187
0.9978475 0.9799393 0.9990435
0.9919350 0.9913883 0.9989834
0.9939691 0.9923199 0.9988352
0.9951292 0.9928099 0.9987403
0.9959332 0.9932409 0.9986655
0.9964844 0.9934681 0.9986219
0.9968848 0.9936864 0.9985746
0.9971676 0.9937437 0.9985367
0.9973714 0.9937428 0.9985051
0.9935250 0.9956700 0.9989254
0.9951088 0.9961900 0.9988297
0.9960186 0.9965149 0.9987664
0.9966340 0.9967474 0.9987170
0.9970614 0.9969128 0.9986771
0.9973627 0.9970273 0.9986441
0.9975683 0.9970579 0.9986247
0.9977219 0.9971032 0.9986001
0.9947553 0.9975998 0.9989936
0.9960233 0.9979180 0.9989247
0.9967486 0.9981162 0.9988866
0.9972360 0.9982566 0.9988505
0.9975737 0.9983575 0.9988211
0.9978232 0.9984564 0.9988002
0.9979903 0.9985025 0.9987787
0.9981075 0.9985300 0.9987590
0.9956304 0.9985106 0.9990967
0.9967104 0.9987535 0.9990469
0.9973089 0.9988903 0.9990114
0.9977102 0.9989880 0.9989836
0.9979984 0.9990738 0.9989643
0.9981744 0.9991173 0.9989526
0.9983272 0.9991561 0.9989345
0.9984312 0.9991920 0.9989228
0.9961608 0.9989230 0.9991734
0.9971130 0.9991107 0.9991325
0.9976418 0.9992197 0.9991038
0.9980064 0.9993075 0.9990897
0.9982291 0.9993582 0.9990717
0.9984018 0.9993990 0.9990554
0.9985431 0.9994395 0.9990436
0.9986266 0.9994577 0.9990366
0.9965084 0.9991451 0.9992325
0.9973683 0.9992944 0.9991995
0.9978619 0.9993940 0.9991765
0.9981844 0.9994605 0.9991571
0.9983952 0.9995100 0.9991443
0.9985538 0.9995452 0.9991359
0.9986707 0.9995756 0.9991265
0.9987572 0.9995953 0.9991155
0.9967487 0.9992778 0.9992832
0.9975095 0.9994016 0.9992502
0.9980120 0.9994960 0.9992278
0.9982921 0.9995502 0.9992110
0.9985098 0.9995975 0.9992032
0.9986616 0.9996327 0.9991931
0.9987650 0.9996550 0.9991824
0.9988501 0.9996765 0.9991747
0.9941663 0.9869246 0.9993328
0.9952151 0.9874500 0.9992354
0.9959572 0.9877801 0.9991626
0.9964942 0.9879574 0.9991084
0.9968867 0.9880280 0.9990793
0.9972139 0.9878256 0.9990572
0.9974602 0.9877257 0.9990342
0.9976734 0.9875854 0.9990154
0.9952863 0.9946430 0.9990010
0.9960527 0.9949937 0.9989397
0.9965739 0.9951776 0.9988934
0.9969548 0.9953638 0.9988639
0.9972287 0.9954878 0.9988338
0.9974391 0.9955164 0.9988075
0.9975984 0.9955727 0.9987847
0.9977254 0.9955567 0.9987730
0.9961787 0.9972448 0.9990140
0.9967756 0.9974444 0.9989721
0.9971892 0.9975870 0.9989391
0.9974819 0.9976892 0.9989191
0.9976906 0.9977571 0.9988969
0.9978557 0.9978080 0.9988770
0.9979749 0.9978397 0.9988666
0.9980630 0.9978547 0.9988511
0.9968898 0.9984639 0.9990987
0.9973843 0.9986148 0.9990702
0.9977106 0.9987019 0.9990453
0.9979409 0.9987637 0.9990301
0.9981037 0.9988047 0.9990124
0.9982320 0.9988355 0.9989961
0.9983348 0.9988772 0.9989909
0.9984013 0.9988861 0.9989775
0.9973680 0.9990158 0.9991838
0.9977856 0.9991223 0.9991621
0.9980630 0.9991889 0.9991429
0.9982585 0.9992368 0.9991314
0.9984051 0.9992817 0.9991204
0.9985130 0.9993076 0.9991075
0.9985906 0.9993249 0.9991008
0.9986544 0.9993465 0.9990931
0.9976363 0.9992736 0.9992514
0.9980407 0.9993647 0.9992319
0.9982869 0.9994186 0.9992155
0.9984601 0.9994575 0.9992059
0.9985893 0.9994924 0.9991968
0.9986849 0.9995142 0.9991862
0.9987599 0.9995357 0.9991832
0.9988098 0.9995458 0.9991744
0.9978315 0.9994151 0.9992966
0.9981745 0.9994821 0.9992817
0.9984313 0.9995394 0.9992684
0.9985903 0.9995736 0.9992566
0.9987092 0.9996030 0.9992521
0.9987975 0.9996226 0.9992428
0.9988651 0.9996406 0.9992366
0.9989122 0.9996503 0.9992326
0.9979681 0.9995014 0.9993345
0.9982961 0.9995655 0.9993193
0.9985158 0.9996088 0.9993095
0.9986861 0.9996467 0.9992999
0.9987928 0.9996691 0.9992942
0.9988798 0.9996902 0.9992875
0.9989391 0.9997029 0.9992801
0.9989872 0.9997151 0.9992784
0.9959904 0.9919088 0.9991729
0.9964815 0.9921969 0.9991229
0.9968604 0.9923161 0.9990927
0.9971366 0.9923505 0.9990650
0.9973386 0.9923211 0.9990440
0.9975103 0.9922753 0.9990333
0.9976332 0.9921612 0.9990210
0.9977242 0.9921321 0.9990075
0.9967106 0.9963284 0.9990474
0.9970757 0.9964820 0.9990212
0.9973506 0.9965479 0.9989939
0.9975570 0.9966317 0.9989775
0.9977049 0.9966806 0.9989595
0.9978149 0.9967073 0.9989441
0.9979074 0.9966816 0.9989347
0.9979677 0.9966764 0.9989229
0.9973140 0.9980658 0.9990953
0.9975998 0.9981566 0.9990768
0.9978342 0.9982571 0.9990587
0.9979914 0.9983029 0.9990420
0.9981038 0.9983315 0.9990326
0.9981860 0.9983464 0.9990199
0.9982607 0.9983597 0.9990124
0.9983039 0.9983565 0.9990019
0.9978102 0.9989206 0.9991839
0.9980503 0.9989967 0.9991686
0.9982261 0.9990409 0.9991567
0.9983500 0.9990698 0.9991430
0.9984372 0.9990871 0.9991309
0.9985114 0.9991151 0.9991273
0.9985682 0.9991228 0.9991165
0.9986008 0.9991216 0.9991111
0.9981151 0.9992809 0.9992542
0.9983124 0.9993268 0.9992430
0.9984734 0.9993727 0.9992328
0.9985815 0.9993978 0.9992252
0.9986573 0.9994141 0.9992155
0.9987197 0.9994340 0.9992092
0.9987638 0.9994415 0.9992043
0.9987981 0.9994462 0.9991961
0.9983039 0.9994550 0.9993082
0.9984892 0.9995003 0.9992978
0.9986277 0.9995316 0.9992900
0.9987221 0.9995568 0.9992832
0.9987997 0.9995743 0.9992747
0.9988558 0.9995901 0.9992725
0.9988955 0.9995980 0.9992655
0.9989324 0.9996088 0.9992640
0.9984341 0.9995568 0.9993471
0.9986059 0.9995956 0.9993405
0.9987337 0.9996232 0.9993309
0.9988214 0.9996448 0.9993275
0.9988934 0.9996606 0.9993200
0.9989445 0.9996741 0.9993152
0.9989821 0.9996815 0.9993119
0.9990155 0.9996908 0.9993077
0.9985301 0.9996225 0.9993806
0.9986909 0.9996570 0.9993719
0.9988023 0.9996799 0.9993662
0.9988938 0.9997013 0.9993601
0.9989618 0.9997157 0.9993533
0.9990102 0.9997277 0.9993515
0.9990453 0.9997348 0.9993458
0.9990770 0.9997429 0.9993446
