Plugins/FilmEmulator/Content/LUTs/FE_Fujifilm_Eterna_400T_8583_64.cube
# FilmEmulator LUT (resampled to 64)
LUT_3D_SIZE 4
0.014465 0.013245 0.010254
0.358826 0.029663 0.020233
0.618317 0.024037 0.021566
0.786285 0.021729 0.021729
0.000000 0.176707 0.073466
0.335673 0.272851 0.033091
0.688843 0.266133 0.039374
0.877919 0.246531 0.032786
0.000000 0.264059 0.086385
0.126014 0.413286 0.007060
0.677741 0.555284 0.000000
0.915121 0.559316 0.000000
0.000000 0.303345 0.097534
0.000031 0.403290 0.115448
0.616180 0.667480 0.000000
0.880615 0.756348 0.000000
0.000000 0.051646 0.162862
0.332832 0.051639 0.271905
0.630517 0.072520 0.264872
0.803965 0.078237 0.247355
0.000000 0.200100 0.210070
0.236954 0.273532 0.275740
0.695089 0.324684 0.297121
0.895877 0.302819 0.282332
0.000000 0.284237 0.202569
0.034054 0.380771 0.229897
0.631654 0.575365 0.184647
0.898651 0.587907 0.174133
0.000000 0.305797 0.214162
0.000031 0.396712 0.231371
0.580987 0.700619 0.124827
0.848551 0.764770 0.124614
0.000000 0.094950 0.302745
0.356564 0.095649 0.384240
0.604251 0.088776 0.439134
0.795603 0.082031 0.476725
0.000000 0.253316 0.399380
0.065307 0.276091 0.501228
0.672870 0.329802 0.561952
0.882456 0.314372 0.573605
0.000000 0.383284 0.410336
0.001740 0.444277 0.435137
0.632124 0.617113 0.550738
0.928857 0.654060 0.590464
0.000000 0.391683 0.370982
0.000031 0.451728 0.382016
0.495707 0.685659 0.457346
0.863444 0.812307 0.526713
0.133606 0.104553 0.433228
0.411194 0.111033 0.430725
0.594890 0.116191 0.468079
0.749664 0.106049 0.562500
0.000000 0.285410 0.507436
0.227499 0.303918 0.611457
0.686849 0.340244 0.667029
0.854808 0.320221 0.714203
0.000000 0.478220 0.558034
0.000031 0.511786 0.576691
0.639587 0.635064 0.679453
0.912994 0.677246 0.768209
0.000000 0.500824 0.531403
0.000031 0.548919 0.544190
0.417236 0.610850 0.535889
0.850586 0.814667 0.723480
