Plugins/FilmEmulator/Content/LUTs/FE_Fujiflex_Old_64.cube
TITLE "FE_Fujiflex_Old_33"
LUT_3D_SIZE 4
0.1581355 0.1186588 0.0097221
0.5446170 0.2223860 0.0224015
1.0000000 0.4657263 0.0773582
1.0000000 0.6071256 0.1335090
0.4935449 0.9406057 0.3859080
0.8673460 0.9559768 0.3360593
0.9813261 0.9680654 0.3210987
1.0000000 0.9704596 0.3697696
0.8624742 0.9910068 0.8240041
0.9672564 0.9962862 0.7889453
0.9884293 1.0000000 0.7421436
0.9912531 1.0000000 0.6837213
0.9629044 0.9925105 0.9493220
0.9902658 0.9948398 0.9412348
0.9955736 0.9959622 0.9273736
0.9967815 0.9969604 0.9047024
0.6544656 0.5773164 1.0000000
0.9690158 0.7052205 0.9768308
1.0000000 0.7723886 0.9594737
1.0000000 0.8009698 0.9457924
0.9367452 0.9774573 0.9876075
0.9863017 0.9836675 0.9859326
0.9965888 0.9854887 0.9842657
0.9993761 0.9851468 0.9818196
0.9832440 0.9932250 0.9920328
0.9944609 0.9947093 0.9916500
0.9966227 0.9950526 0.9910055
0.9976028 0.9951474 0.9901365
0.9933622 0.9956433 0.9939054
0.9961548 0.9960999 0.9937608
0.9972124 0.9962816 0.9935052
0.9977502 0.9963615 0.9931991
0.9672926 0.8812734 0.9997844
1.0000000 0.9025655 0.9965494
1.0000000 0.9032367 0.9956715
1.0000000 0.8993237 0.9952517
0.9899762 0.9911340 0.9947917
0.9956369 0.9921986 0.9946774
0.9972339 0.9923248 0.9945586
0.9980313 0.9921370 0.9944213
0.9951324 0.9956591 0.9953468
0.9967094 0.9959484 0.9953266
0.9974058 0.9960769 0.9952894
0.9978370 0.9961495 0.9952499
0.9964280 0.9964793 0.9956042
0.9972541 0.9966455 0.9956099
0.9977099 0.9967386 0.9955969
0.9979678 0.9967865 0.9955675
0.9972824 0.9624463 0.9955627
1.0000000 0.9613414 0.9953645
1.0000000 0.9583612 0.9953178
1.0000000 0.9546560 0.9953195
0.9959453 0.9944000 0.9955404
0.9971464 0.9945697 0.9955280
0.9977487 0.9945346 0.9955036
0.9981349 0.9943996 0.9954658
0.9968987 0.9962924 0.9957893
0.9974787 0.9964080 0.9957961
0.9978485 0.9964784 0.9957999
0.9980501 0.9965110 0.9957939
0.9973618 0.9967831 0.9958935
0.9977623 0.9968697 0.9959025
0.9979829 0.9969161 0.9959062
0.9981121 0.9969404 0.9959054
