Plugins/FilmEmulator/Content/LUTs/FE_Fuji_Provia_100F_64.cube
TITLE "FE_Fuji_Provia_100F_33"
LUT_3D_SIZE 4
0.0004983 0.0007599 0.0009118
0.1788815 0.0151798 0.0069974
0.4192603 0.0590941 0.0244171
0.5891512 0.1125810 0.0484109
0.0000000 0.1255441 0.0076031
0.3586467 0.3119703 0.0193197
0.6471693 0.3989832 0.0427971
0.8094042 0.4636286 0.0726063
0.0000000 0.2864235 0.0247697
0.4089861 0.5128495 0.0413544
0.7202335 0.6099138 0.0698466
0.8790410 0.6625768 0.1034843
0.0046240 0.3951829 0.0494922
0.4384860 0.6119196 0.0728070
0.7505103 0.7048824 0.1046160
0.9042250 0.7516188 0.1401390
0.0109163 0.0060277 0.1480246
0.2384838 0.0280907 0.2672086
0.4678805 0.0756119 0.3450836
0.6259232 0.1361854 0.4046158
0.0000000 0.2207044 0.3007759
0.3776649 0.3848644 0.4250509
0.6621246 0.4675575 0.4762869
0.8139138 0.5263664 0.5129508
0.0000000 0.3990070 0.3579732
0.4184667 0.6022443 0.4640412
0.7189651 0.6844913 0.5117677
0.8697048 0.7259412 0.5407681
0.0000000 0.5016423 0.3904781
0.4481022 0.6972765 0.4824964
0.7477863 0.7750402 0.5282975
0.8937486 0.8113618 0.5566409
0.0400958 0.0294312 0.3217744
0.3077475 0.0624468 0.4497551
0.5146810 0.0950703 0.5100329
0.6517965 0.1488333 0.5609675
0.0213243 0.2668600 0.4930404
0.4243109 0.4082985 0.6239859
0.6865602 0.4837170 0.6715651
0.8265399 0.5414063 0.6992131
0.0167487 0.4538693 0.5565142
0.4662996 0.6286874 0.6773012
0.7457084 0.7030067 0.7183478
0.8817725 0.7429754 0.7372223
0.0414192 0.5524474 0.5917795
0.4927628 0.7252135 0.6966693
0.7692033 0.7936372 0.7343851
0.9016273 0.8259764 0.7512991
0.0828998 0.0617349 0.4359913
0.3668375 0.1047001 0.5513026
0.5722841 0.1428858 0.6071746
0.6848534 0.1781860 0.6411226
0.0824399 0.3039029 0.5930214
0.4672928 0.4265856 0.7077405
0.7165253 0.5000443 0.7534690
0.8397192 0.5519753 0.7772388
0.0878139 0.5005057 0.6594477
0.5122374 0.6476274 0.7631265
0.7699242 0.7161985 0.8008432
0.8932554 0.7501284 0.8179985
0.1069485 0.5933934 0.6866747
0.5350213 0.7409883 0.7812744
0.7927340 0.8033141 0.8157422
0.9155500 0.8335522 0.8315256
