Plugins/FilmEmulator/Content/LUTs/FE_Fujifilm_Eterna_400T_8583_64.cube
# FilmEmulator LUT (resampled to 64)
LUT_3D_SIZE 64
0.014465 0.013245 0.010254
0.020572 0.012036 0.009060
0.026815 0.010872 0.007888
0.037263 0.011120 0.007392
0.047867 0.011368 0.006880
0.060810 0.011616 0.006120
0.074218 0.011935 0.005314
0.092122 0.012943 0.004059
0.110036 0.014043 0.002960
0.128017 0.015795 0.002960
0.146334 0.017430 0.003156
0.166470 0.018438 0.004412
0.186409 0.019492 0.005714
0.205490 0.020748 0.007217
0.224715 0.022166 0.008829
0.244447 0.024166 0.010829
0.263979 0.025963 0.012895
0.282905 0.027157 0.015158
0.302464 0.028207 0.017138
0.323639 0.028889 0.018394
0.343108 0.029431 0.019489
0.358826 0.029663 0.020233
0.374672 0.029736 0.020982
0.390762 0.029503 0.021742
0.406113 0.029358 0.022316
0.420235 0.029358 0.022579
0.434583 0.029175 0.022528
0.449263 0.028726 0.022017
0.463732 0.028371 0.021837
0.477931 0.028139 0.022085
0.490938 0.027797 0.022341
0.502595 0.027332 0.022604
0.514267 0.026984 0.022736
0.525954 0.026751 0.022736
0.536983 0.026378 0.022868
0.547431 0.025882 0.023116
0.557774 0.025526 0.023224
0.568036 0.025278 0.023224
0.578316 0.025030 0.023077
0.588608 0.024782 0.022829
0.598698 0.024534 0.022416
0.608665 0.024285 0.021905
0.618317 0.024037 0.021566
0.627803 0.023789 0.021318
0.637066 0.023542 0.021070
0.646227 0.023294 0.020822
0.654820 0.023224 0.020752
0.663190 0.023224 0.020752
0.671665 0.023038 0.020752
0.680175 0.022790 0.020752
0.688468 0.022736 0.020946
0.696699 0.022736 0.021194
0.704288 0.022522 0.021240
0.711728 0.022258 0.021240
0.718946 0.022217 0.021240
0.726123 0.022217 0.021240
0.734344 0.022000 0.021240
0.742715 0.021752 0.021240
0.750060 0.021729 0.021465
0.757299 0.021729 0.021713
0.764581 0.021729 0.021729
0.771867 0.021729 0.021729
0.779077 0.021729 0.021729
0.786285 0.021729 0.021729
0.018325 0.016934 0.012657
0.022472 0.016866 0.010243
0.026744 0.016805 0.007896
0.034900 0.016927 0.007652
0.043221 0.017081 0.007400
0.054007 0.017707 0.007026
0.065173 0.018332 0.006605
0.080014 0.018954 0.005728
0.095253 0.019669 0.004880
0.113282 0.021043 0.004242
0.131456 0.022340 0.003722
0.150419 0.023222 0.003836
0.169209 0.024148 0.004163
0.187252 0.025270 0.005415
0.205886 0.026446 0.006775
0.226634 0.027816 0.008523
0.246886 0.029277 0.010303
0.265648 0.031014 0.012180
0.284997 0.032563 0.014133
0.305848 0.033631 0.016278
0.325696 0.034511 0.018067
0.343335 0.034980 0.019070
0.360691 0.035289 0.019990
0.377505 0.035292 0.020750
0.393537 0.035336 0.021415
0.408265 0.035446 0.021923
0.423062 0.035377 0.022228
0.437962 0.035046 0.022236
0.452786 0.034758 0.022180
0.467513 0.034525 0.022042
0.481228 0.034183 0.022089
0.493798 0.033719 0.022345
0.506423 0.033370 0.022539
0.519103 0.033137 0.022673
0.530764 0.032773 0.022801
0.541527 0.032293 0.022923
0.552216 0.031943 0.023047
0.562848 0.031695 0.023173
0.573343 0.031377 0.023152
0.583746 0.031011 0.023030
0.593882 0.030719 0.022748
0.603857 0.030470 0.022370
0.613790 0.030217 0.022072
0.623702 0.029961 0.021816
0.633228 0.029711 0.021566
0.642578 0.029463 0.021318
0.651648 0.029303 0.021067
0.660609 0.029177 0.020815
0.669179 0.029054 0.020752
0.677618 0.028932 0.020752
0.686091 0.028807 0.020847
0.694574 0.028681 0.020969
0.702537 0.028552 0.021094
0.710379 0.028422 0.021220
0.718211 0.028295 0.021240
0.726041 0.028169 0.021240
0.733828 0.028047 0.021240
0.741608 0.027925 0.021240
0.749454 0.027792 0.021465
0.757307 0.027658 0.021713
0.764576 0.027650 0.021729
0.771807 0.027650 0.021729
0.779671 0.027650 0.021729
0.787556 0.027650 0.021729
0.022052 0.020683 0.015109
0.024283 0.021667 0.011506
0.026632 0.022624 0.008014
0.032602 0.022715 0.007977
0.038742 0.022861 0.007943
0.047411 0.023838 0.007939
0.056383 0.024746 0.007886
0.068289 0.024994 0.007363
0.080958 0.025336 0.006749
0.098972 0.026336 0.005502
0.116957 0.027301 0.004294
0.134784 0.028080 0.003306
0.152469 0.028901 0.002690
0.169542 0.029901 0.003686
0.187628 0.030847 0.004792
0.209337 0.031603 0.006291
0.230265 0.032726 0.007789
0.248851 0.034953 0.009285
0.267976 0.036959 0.011204
0.288482 0.038397 0.014203
0.308676 0.039606 0.016661
0.328188 0.040311 0.017928
0.347023 0.040853 0.019022
0.364567 0.041086 0.019786
0.381281 0.041312 0.020543
0.396611 0.041530 0.021287
0.411858 0.041570 0.021937
0.426984 0.041353 0.022448
0.442146 0.041129 0.022514
0.457353 0.040897 0.022006
0.471747 0.040557 0.021849
0.485221 0.040096 0.022089
0.498785 0.039748 0.022341
0.512438 0.039511 0.022604
0.524727 0.039154 0.022730
0.535813 0.038689 0.022734
0.546851 0.038344 0.022875
0.557853 0.038091 0.023123
0.568566 0.037706 0.023224
0.579082 0.037229 0.023224
0.589260 0.036895 0.023069
0.599235 0.036647 0.022821
0.609443 0.036389 0.022560
0.619773 0.036126 0.022293
0.629555 0.035873 0.022039
0.639088 0.035625 0.021791
0.648631 0.035377 0.021367
0.658177 0.035129 0.020875
0.666844 0.035065 0.020752
0.675217 0.035061 0.020752
0.683876 0.034866 0.020755
0.692615 0.034617 0.020759
0.700945 0.034570 0.020958
0.709181 0.034570 0.021202
0.717596 0.034361 0.021240
0.726043 0.034113 0.021240
0.733421 0.034082 0.021243
0.740646 0.034082 0.021247
0.748965 0.033847 0.021469
0.757397 0.033588 0.021714
0.764653 0.033572 0.021729
0.771830 0.033572 0.021729
0.780328 0.033572 0.021733
0.788868 0.033572 0.021737
0.021664 0.026279 0.019108
0.023376 0.025539 0.015277
0.025255 0.024916 0.011527
0.032321 0.027920 0.010326
0.039431 0.030766 0.009190
0.047209 0.031239 0.009052
0.055472 0.031690 0.008843
0.068418 0.031938 0.007950
0.081756 0.032248 0.007044
0.097841 0.032988 0.006048
0.114202 0.033833 0.005072
0.132052 0.035250 0.004202
0.149976 0.036638 0.003611
0.168222 0.037898 0.004229
0.187063 0.039018 0.005010
0.208032 0.039640 0.006376
0.228277 0.040375 0.007711
0.246351 0.041453 0.008955
0.264810 0.042603 0.010621
0.284252 0.043939 0.013369
0.303830 0.045152 0.015771
0.323703 0.046093 0.017417
0.343082 0.046788 0.018802
0.361516 0.047012 0.019692
0.378959 0.047237 0.020530
0.394754 0.047462 0.021282
0.410449 0.047504 0.021937
0.426001 0.047279 0.022448
0.440972 0.047054 0.022569
0.455194 0.046830 0.022187
0.469354 0.046550 0.021979
0.483441 0.046207 0.021967
0.497505 0.045858 0.022089
0.511544 0.045503 0.022344
0.524328 0.045090 0.022538
0.536004 0.044626 0.022676
0.547500 0.044210 0.022875
0.558856 0.043831 0.023123
0.569835 0.043469 0.023224
0.580555 0.043119 0.023224
0.590658 0.042827 0.023069
0.600389 0.042572 0.022821
0.610647 0.042316 0.022478
0.621181 0.042060 0.022084
0.631017 0.041810 0.021791
0.640534 0.041562 0.021543
0.650383 0.041314 0.021210
0.660363 0.041066 0.020844
0.669209 0.040907 0.020752
0.677676 0.040777 0.020752
0.686651 0.040548 0.020853
0.695768 0.040292 0.020983
0.704291 0.040244 0.021104
0.712676 0.040244 0.021222
0.720689 0.040035 0.021240
0.728633 0.039786 0.021240
0.736430 0.039755 0.021354
0.744207 0.039755 0.021484
0.752106 0.039642 0.021603
0.760018 0.039516 0.021722
0.767249 0.039508 0.021729
0.774434 0.039508 0.021729
0.782917 0.039508 0.021855
0.791442 0.039508 0.021985
0.021126 0.031921 0.023108
0.022400 0.029439 0.019064
0.023887 0.027213 0.015074
0.031944 0.032940 0.012733
0.039938 0.038321 0.010519
0.047004 0.038497 0.010205
0.054707 0.038682 0.009804
0.068566 0.038938 0.008572
0.082484 0.039224 0.007398
0.096812 0.039720 0.006622
0.111689 0.040459 0.005855
0.129534 0.042505 0.005136
0.147665 0.044451 0.004594
0.167039 0.045958 0.004825
0.186612 0.047247 0.005281
0.206894 0.047755 0.006537
0.226506 0.048139 0.007738
0.244109 0.048153 0.008769
0.261955 0.048499 0.010210
0.280420 0.049693 0.012697
0.299419 0.050864 0.015020
0.319596 0.051983 0.016980
0.339464 0.052784 0.018610
0.358745 0.052981 0.019609
0.376887 0.053185 0.020518
0.393130 0.053403 0.021278
0.409249 0.053439 0.021937
0.425187 0.053206 0.022448
0.439982 0.052980 0.022617
0.453307 0.052763 0.022346
0.467251 0.052536 0.022093
0.481897 0.052296 0.021861
0.496409 0.051943 0.021869
0.510786 0.051478 0.022117
0.524057 0.051012 0.022373
0.536354 0.050547 0.022636
0.548308 0.050064 0.022886
0.559996 0.049568 0.023126
0.571220 0.049228 0.023219
0.582128 0.048995 0.023211
0.592167 0.048743 0.023053
0.601684 0.048481 0.022805
0.611971 0.048228 0.022384
0.622663 0.047979 0.021873
0.632553 0.047731 0.021543
0.642079 0.047483 0.021294
0.652228 0.047235 0.021052
0.662621 0.046987 0.020812
0.671645 0.046739 0.020758
0.680213 0.046491 0.020766
0.689469 0.046237 0.020955
0.698916 0.045982 0.021195
0.707610 0.045928 0.021246
0.716130 0.045920 0.021254
0.723790 0.045716 0.021256
0.731291 0.045475 0.021256
0.739488 0.045445 0.021473
0.747784 0.045445 0.021721
0.755288 0.045445 0.021744
0.762710 0.045445 0.021744
0.769917 0.045438 0.021752
0.777111 0.045430 0.021760
0.785579 0.045430 0.021993
0.794089 0.045430 0.022233
0.018320 0.038261 0.027107
0.020398 0.033763 0.023095
0.022645 0.029581 0.019111
0.030143 0.035182 0.016031
0.037735 0.040621 0.013073
0.046746 0.043624 0.011947
0.056119 0.046382 0.010824
0.069002 0.046764 0.009718
0.082168 0.047162 0.008622
0.097314 0.047666 0.007594
0.112814 0.048489 0.006715
0.130217 0.051031 0.006633
0.148078 0.053391 0.006512
0.167917 0.054961 0.006223
0.187875 0.056342 0.006331
0.208259 0.057048 0.007856
0.227985 0.057635 0.009351
0.245738 0.057869 0.010761
0.263775 0.058165 0.012364
0.282539 0.058619 0.014466
0.301560 0.059062 0.016326
0.321146 0.059480 0.017657
0.340700 0.059708 0.018827
0.360193 0.059574 0.019692
0.378548 0.059486 0.020518
0.395003 0.059476 0.021278
0.411169 0.059375 0.021937
0.426910 0.059143 0.022448
0.441766 0.058917 0.022562
0.455484 0.058700 0.022165
0.469508 0.058417 0.021963
0.483880 0.058059 0.021983
0.498065 0.057647 0.022121
0.512064 0.057182 0.022377
0.525723 0.056713 0.022633
0.539082 0.056239 0.022888
0.551497 0.055753 0.023064
0.563176 0.055257 0.023178
0.574356 0.054912 0.023145
0.585193 0.054672 0.023011
0.595353 0.054422 0.022800
0.605106 0.054167 0.022544
0.615108 0.053916 0.022126
0.625241 0.053668 0.021622
0.635216 0.053420 0.021295
0.645120 0.053172 0.021046
0.655454 0.052918 0.020895
0.665957 0.052662 0.020781
0.675151 0.052412 0.020852
0.683908 0.052164 0.020986
0.692915 0.052015 0.021105
0.701993 0.051894 0.021219
0.710541 0.051762 0.021349
0.718966 0.051628 0.021483
0.727003 0.051511 0.021504
0.734968 0.051397 0.021504
0.743272 0.051382 0.021721
0.751623 0.051382 0.021969
0.759090 0.051382 0.021992
0.766464 0.051382 0.021992
0.773676 0.051257 0.022118
0.780877 0.051123 0.022252
0.789346 0.051118 0.022374
0.797856 0.051118 0.022497
0.015027 0.044846 0.031292
0.018080 0.038396 0.027233
0.021255 0.032315 0.023185
0.028199 0.037657 0.019466
0.035385 0.043017 0.015859
0.046199 0.048659 0.013931
0.057134 0.053840 0.012087
0.069242 0.054564 0.011051
0.081832 0.055264 0.009982
0.097791 0.055796 0.008679
0.113917 0.056713 0.007661
0.130950 0.059706 0.008181
0.148584 0.062445 0.008467
0.168818 0.064088 0.007744
0.189103 0.065567 0.007565
0.209573 0.066461 0.009333
0.229428 0.067241 0.011096
0.247437 0.067680 0.012847
0.265714 0.067946 0.014592
0.284670 0.067772 0.016320
0.303671 0.067573 0.017734
0.322767 0.067316 0.018458
0.342069 0.066985 0.019180
0.361762 0.066511 0.019900
0.380313 0.066098 0.020627
0.396960 0.065789 0.021362
0.413174 0.065487 0.021992
0.428753 0.065195 0.022468
0.443681 0.064932 0.022512
0.457774 0.064705 0.022001
0.471860 0.064351 0.021845
0.485939 0.063854 0.022093
0.499851 0.063367 0.022349
0.513597 0.062891 0.022612
0.527630 0.062412 0.022868
0.541916 0.061932 0.023116
0.554743 0.061442 0.023217
0.566434 0.060946 0.023206
0.577561 0.060597 0.023053
0.588302 0.060349 0.022805
0.598588 0.060101 0.022540
0.608601 0.059854 0.022265
0.618368 0.059605 0.021853
0.628007 0.059356 0.021368
0.638035 0.059107 0.021054
0.648240 0.058860 0.020818
0.658720 0.058601 0.020760
0.669307 0.058338 0.020772
0.678674 0.058086 0.020952
0.687634 0.057839 0.021188
0.696410 0.057784 0.021249
0.705135 0.057784 0.021261
0.713590 0.057593 0.021465
0.721983 0.057356 0.021713
0.730383 0.057310 0.021762
0.738784 0.057298 0.021774
0.747136 0.057296 0.021983
0.755480 0.057296 0.022220
0.762913 0.057296 0.022242
0.770251 0.057296 0.022242
0.777512 0.057075 0.022474
0.784766 0.056838 0.022722
0.793183 0.056831 0.022744
0.801636 0.056831 0.022759
0.007012 0.053806 0.037275
0.012712 0.046017 0.032413
0.018434 0.038591 0.027598
0.024874 0.042382 0.024225
0.031615 0.046340 0.020898
0.042870 0.052800 0.018246
0.054315 0.058951 0.015701
0.067596 0.062108 0.014201
0.081305 0.064965 0.012663
0.098012 0.065717 0.010856
0.114818 0.066821 0.009452
0.132158 0.069821 0.010224
0.149989 0.072598 0.010787
0.169947 0.074406 0.010450
0.190001 0.076039 0.010572
0.210391 0.077043 0.012340
0.230512 0.077918 0.014103
0.249821 0.078403 0.015854
0.268796 0.078834 0.017529
0.286918 0.079125 0.019005
0.305497 0.079112 0.020125
0.325082 0.078430 0.020463
0.344728 0.077674 0.020845
0.364492 0.076774 0.021314
0.383084 0.075728 0.021785
0.399724 0.074434 0.022260
0.416003 0.073292 0.022582
0.431755 0.072370 0.022681
0.446864 0.071704 0.022512
0.461146 0.071367 0.022001
0.475118 0.070796 0.021845
0.488740 0.069960 0.022093
0.502901 0.069242 0.022349
0.517599 0.068639 0.022612
0.531873 0.068101 0.022868
0.545774 0.067620 0.023116
0.558543 0.067131 0.023147
0.570431 0.066635 0.023009
0.581436 0.066286 0.022801
0.591839 0.066038 0.022544
0.602303 0.065790 0.022202
0.612804 0.065542 0.021809
0.622827 0.065289 0.021439
0.632600 0.065032 0.021081
0.642367 0.064781 0.020893
0.652131 0.064533 0.020783
0.662368 0.064280 0.020851
0.672789 0.064025 0.020989
0.682369 0.063775 0.021106
0.691668 0.063527 0.021216
0.700371 0.063473 0.021348
0.708907 0.063473 0.021486
0.717787 0.063384 0.021713
0.726746 0.063274 0.021961
0.735374 0.063140 0.022116
0.743941 0.063002 0.022254
0.751775 0.062985 0.022375
0.759505 0.062985 0.022494
0.766945 0.062985 0.022505
0.774355 0.062985 0.022505
0.782092 0.062882 0.022738
0.789851 0.062771 0.022986
0.797695 0.062768 0.023000
0.805542 0.062768 0.023007
0.000000 0.063053 0.043379
0.007505 0.054022 0.037798
0.014964 0.045342 0.032296
0.020970 0.047538 0.029207
0.027325 0.050034 0.026100
0.038920 0.057029 0.022724
0.050801 0.063882 0.019479
0.065455 0.069359 0.017498
0.080451 0.074312 0.015486
0.097846 0.075592 0.013268
0.115316 0.077139 0.011540
0.133196 0.080131 0.012453
0.151425 0.082925 0.013213
0.171167 0.084865 0.013308
0.191041 0.086648 0.013779
0.211389 0.087865 0.015592
0.231780 0.088920 0.017376
0.252305 0.089484 0.019077
0.271938 0.090046 0.020609
0.289294 0.090602 0.021710
0.307477 0.090690 0.022481
0.327479 0.089746 0.022526
0.347386 0.088674 0.022630
0.367111 0.087356 0.022847
0.385724 0.085732 0.023052
0.402486 0.083598 0.023239
0.418901 0.081725 0.023242
0.434808 0.080231 0.022978
0.450081 0.079150 0.022612
0.464541 0.078599 0.022116
0.478438 0.077753 0.021962
0.491697 0.076574 0.022194
0.506047 0.075579 0.022433
0.521489 0.074768 0.022680
0.535981 0.074081 0.022912
0.549634 0.073503 0.023129
0.562395 0.072946 0.023075
0.574462 0.072404 0.022811
0.585360 0.072018 0.022538
0.595460 0.071737 0.022259
0.606095 0.071477 0.021855
0.617050 0.071229 0.021374
0.627273 0.070972 0.021057
0.637111 0.070709 0.020825
0.646690 0.070456 0.020763
0.656151 0.070208 0.020779
0.666227 0.069960 0.020961
0.676542 0.069712 0.021209
0.686285 0.069476 0.021283
0.695838 0.069244 0.021299
0.704517 0.069181 0.021484
0.712952 0.069165 0.021716
0.722180 0.069162 0.021962
0.731591 0.069162 0.022211
0.740350 0.068966 0.022459
0.748987 0.068734 0.022707
0.756409 0.068705 0.022751
0.763656 0.068705 0.022766
0.771158 0.068705 0.022767
0.778686 0.068705 0.022767
0.786777 0.068720 0.022985
0.794906 0.068736 0.023217
0.802239 0.068736 0.023224
0.809545 0.068736 0.023224
0.000000 0.074306 0.050324
0.003435 0.064709 0.044617
0.006951 0.055420 0.038987
0.013012 0.055710 0.035741
0.019396 0.056329 0.032442
0.030621 0.061876 0.028349
0.042427 0.067560 0.024399
0.059852 0.074564 0.021819
0.077307 0.081188 0.019314
0.094969 0.085145 0.017332
0.113004 0.088931 0.015704
0.133049 0.091797 0.015987
0.153074 0.094470 0.016379
0.173013 0.096308 0.017238
0.193086 0.098215 0.018385
0.213638 0.100370 0.020560
0.234340 0.102202 0.022513
0.255495 0.103065 0.023804
0.275499 0.103523 0.024694
0.292563 0.102945 0.024560
0.310524 0.102531 0.024594
0.330456 0.102478 0.025001
0.350038 0.101860 0.025256
0.368951 0.100164 0.025221
0.387444 0.098366 0.025086
0.405237 0.096397 0.024784
0.422274 0.094554 0.024392
0.438205 0.092896 0.023868
0.453536 0.091312 0.023411
0.468098 0.089823 0.023041
0.482186 0.088299 0.022895
0.495736 0.086733 0.023001
0.509874 0.085156 0.023111
0.524600 0.083566 0.023224
0.539136 0.082099 0.023262
0.553506 0.080742 0.023236
0.566611 0.079640 0.023000
0.578733 0.078736 0.022601
0.589621 0.078048 0.022204
0.599666 0.077508 0.021807
0.610418 0.077150 0.021437
0.621594 0.076902 0.021083
0.631623 0.076650 0.020891
0.641053 0.076396 0.020785
0.650958 0.076145 0.020849
0.661080 0.075897 0.020991
0.671562 0.075649 0.021209
0.682185 0.075401 0.021457
0.691751 0.075259 0.021626
0.700966 0.075153 0.021767
0.709970 0.075019 0.021881
0.718917 0.074878 0.021988
0.727953 0.074851 0.022217
0.737010 0.074851 0.022473
0.745215 0.074761 0.022723
0.753262 0.074655 0.022971
0.760995 0.074642 0.023007
0.768684 0.074642 0.023014
0.776634 0.074642 0.023015
0.784610 0.074642 0.023015
0.792198 0.074775 0.023114
0.799760 0.074916 0.023221
0.806998 0.074921 0.023224
0.814226 0.074921 0.023224
0.000000 0.085111 0.056755
0.000000 0.075262 0.051139
0.000176 0.065673 0.045595
0.005798 0.064139 0.042303
0.011722 0.062974 0.038921
0.022152 0.067349 0.034186
0.033469 0.072071 0.029593
0.053358 0.080145 0.026377
0.073070 0.087993 0.023324
0.091539 0.094260 0.021410
0.110510 0.100033 0.019780
0.132199 0.103146 0.019685
0.153690 0.106036 0.019891
0.174318 0.107966 0.021396
0.195003 0.110116 0.023093
0.215886 0.113051 0.025474
0.236930 0.115530 0.027474
0.258455 0.116637 0.028329
0.278703 0.117013 0.028624
0.295687 0.115521 0.027490
0.313554 0.114701 0.026916
0.333361 0.115361 0.027572
0.352635 0.115142 0.027896
0.370893 0.113241 0.027584
0.389293 0.111398 0.027109
0.407932 0.109650 0.026364
0.425515 0.107905 0.025636
0.441557 0.106166 0.024934
0.457008 0.104184 0.024417
0.471698 0.101887 0.024138
0.485999 0.099762 0.023980
0.499860 0.097830 0.023961
0.513866 0.095762 0.023923
0.528017 0.093558 0.023866
0.542552 0.091347 0.023684
0.557427 0.089130 0.023391
0.570803 0.087414 0.022964
0.583014 0.086088 0.022433
0.593978 0.085080 0.021934
0.604088 0.084290 0.021458
0.614955 0.083771 0.021136
0.626275 0.083415 0.020908
0.636172 0.083087 0.020842
0.645323 0.082774 0.020862
0.655487 0.082419 0.021025
0.666110 0.082045 0.021253
0.676851 0.081735 0.021496
0.687639 0.081450 0.021744
0.697089 0.081304 0.021979
0.706094 0.081205 0.022208
0.715385 0.080942 0.022273
0.724757 0.080634 0.022291
0.733615 0.080576 0.022493
0.742355 0.080576 0.022737
0.750131 0.080593 0.022967
0.757729 0.080613 0.023195
0.765759 0.080615 0.023224
0.773851 0.080615 0.023224
0.782100 0.080615 0.023206
0.790365 0.080615 0.023186
0.797595 0.080829 0.023185
0.804757 0.081057 0.023185
0.811936 0.081064 0.023185
0.819116 0.081064 0.023185
0.000000 0.093497 0.060413
0.000000 0.085097 0.056057
0.000079 0.076868 0.051751
0.002599 0.073948 0.049018
0.005421 0.071504 0.046145
0.012765 0.076202 0.041166
0.021360 0.081085 0.036273
0.042053 0.087758 0.032214
0.062932 0.094420 0.028318
0.085117 0.101009 0.025561
0.107041 0.107408 0.023374
0.127557 0.112780 0.024264
0.148723 0.117721 0.025271
0.172705 0.120792 0.026784
0.196233 0.123820 0.028349
0.218132 0.126693 0.030101
0.239680 0.129111 0.031483
0.260173 0.130163 0.031754
0.279978 0.130574 0.031711
0.298026 0.129350 0.030861
0.316493 0.128640 0.030368
0.335882 0.129064 0.030662
0.354945 0.128941 0.030607
0.373384 0.127773 0.029886
0.391839 0.126582 0.029079
0.410320 0.125353 0.028129
0.428046 0.124071 0.027388
0.444671 0.122710 0.026954
0.460566 0.120892 0.026542
0.475524 0.118486 0.026161
0.490163 0.116180 0.025890
0.504441 0.113989 0.025744
0.518750 0.111928 0.025462
0.533090 0.109999 0.025043
0.547375 0.107231 0.024486
0.561612 0.103723 0.023807
0.574864 0.101022 0.023141
0.587351 0.098948 0.022484
0.598852 0.097519 0.022009
0.609679 0.096532 0.021659
0.620647 0.095506 0.021463
0.631700 0.094457 0.021361
0.641789 0.093617 0.021421
0.651373 0.092887 0.021567
0.661423 0.091849 0.021683
0.671684 0.090673 0.021785
0.681888 0.089967 0.021992
0.692069 0.089446 0.022240
0.701734 0.088763 0.022386
0.711226 0.088025 0.022497
0.720594 0.087322 0.022628
0.729926 0.086628 0.022765
0.738681 0.086498 0.022886
0.747303 0.086498 0.023004
0.755327 0.086621 0.023109
0.763240 0.086766 0.023211
0.771481 0.086784 0.023224
0.779769 0.086784 0.023224
0.787516 0.086784 0.023092
0.795206 0.086784 0.022946
0.802866 0.086880 0.022937
0.810523 0.086983 0.022937
0.817832 0.086986 0.022937
0.825130 0.086986 0.022937
0.000000 0.102162 0.064263
0.000000 0.094946 0.060938
0.000000 0.087826 0.057643
0.000000 0.083673 0.055304
0.000289 0.080070 0.052800
0.004905 0.084721 0.047822
0.010961 0.089493 0.042831
0.030937 0.095425 0.037718
0.051675 0.101465 0.032806
0.077745 0.108259 0.029292
0.102905 0.115106 0.026556
0.123153 0.122239 0.028017
0.144618 0.128901 0.029586
0.171365 0.133525 0.031623
0.197247 0.137721 0.033457
0.220043 0.140392 0.034562
0.242087 0.142650 0.035338
0.261876 0.143667 0.035121
0.281430 0.144169 0.034793
0.300381 0.143354 0.034179
0.319328 0.142843 0.033724
0.338266 0.143001 0.033618
0.357137 0.142906 0.033175
0.375878 0.142325 0.032089
0.394473 0.141655 0.031018
0.412824 0.140837 0.029970
0.430691 0.139946 0.029252
0.447849 0.138948 0.029016
0.464139 0.137351 0.028663
0.479313 0.134982 0.028161
0.494227 0.132606 0.027739
0.508848 0.130221 0.027409
0.523373 0.128167 0.026888
0.537803 0.126442 0.026178
0.551892 0.123377 0.025332
0.565679 0.119127 0.024367
0.578907 0.115761 0.023545
0.591700 0.113081 0.022834
0.603719 0.111285 0.022412
0.615209 0.110094 0.022188
0.626301 0.108588 0.022104
0.637156 0.106893 0.022104
0.647433 0.105562 0.022251
0.657407 0.104421 0.022475
0.667378 0.102781 0.022529
0.677348 0.100914 0.022506
0.687095 0.099726 0.022643
0.696754 0.098805 0.022844
0.706604 0.097635 0.022887
0.716519 0.096382 0.022877
0.725976 0.095245 0.023021
0.735304 0.094141 0.023207
0.743930 0.093889 0.023254
0.752393 0.093834 0.023268
0.760584 0.093851 0.023251
0.768723 0.093880 0.023227
0.777090 0.093830 0.023224
0.785489 0.093768 0.023224
0.792993 0.093818 0.023021
0.800404 0.093880 0.022796
0.808342 0.093884 0.022782
0.816315 0.093884 0.022782
0.823707 0.093824 0.022760
0.831081 0.093762 0.022736
0.000000 0.112037 0.068944
0.000000 0.104860 0.065658
0.000000 0.097760 0.062392
0.000000 0.093032 0.059730
0.000215 0.088787 0.056989
0.003658 0.091793 0.053074
0.007967 0.095273 0.048862
0.020645 0.103331 0.041782
0.035573 0.111193 0.035099
0.066257 0.117679 0.031199
0.095881 0.124205 0.027946
0.119781 0.130936 0.028187
0.144254 0.137896 0.029282
0.171205 0.145850 0.034083
0.197330 0.152473 0.037919
0.220503 0.154341 0.038308
0.243010 0.156010 0.038526
0.263516 0.157082 0.038231
0.283644 0.157912 0.037856
0.302808 0.158120 0.037273
0.321714 0.158190 0.036662
0.340054 0.157955 0.035989
0.358816 0.157587 0.035117
0.378384 0.156967 0.033867
0.397492 0.156249 0.032828
0.415836 0.155368 0.032142
0.433829 0.154561 0.031597
0.451310 0.153863 0.031259
0.467778 0.152730 0.030763
0.482944 0.151038 0.030064
0.497862 0.149066 0.029331
0.512498 0.146775 0.028559
0.526862 0.144717 0.027826
0.540953 0.142890 0.027132
0.555080 0.140651 0.026369
0.569238 0.138047 0.025545
0.582871 0.135405 0.024931
0.596097 0.132733 0.024480
0.608549 0.130800 0.024238
0.620471 0.129372 0.024140
0.631790 0.127502 0.024103
0.642747 0.125367 0.024103
0.653194 0.123636 0.024168
0.663373 0.122118 0.024266
0.673419 0.120218 0.024194
0.683405 0.118146 0.024044
0.693042 0.116103 0.023966
0.702544 0.114072 0.023914
0.712456 0.112637 0.023794
0.722504 0.111400 0.023650
0.732107 0.109860 0.023574
0.741585 0.108235 0.023517
0.749970 0.107650 0.023511
0.758103 0.107304 0.023517
