Plugins/FilmEmulator/Content/LUTs/FE_Fuji_Pro_160C_64.cube
TITLE "FE_Fuji_Pro_160C_33"
LUT_3D_SIZE 4
0.0008978 0.0012006 0.0011351
0.2335644 0.0043940 0.0045578
0.5705141 0.0119144 0.0122030
0.7664561 0.0217745 0.0229949
0.0155238 0.3176689 0.0100293
0.3052958 0.3427428 0.0182291
0.6171646 0.3603776 0.0309560
0.7842290 0.3788271 0.0459191
0.0546553 0.6168251 0.0286029
0.3791183 0.6347586 0.0394607
0.6599420 0.6434481 0.0543592
0.8065392 0.6522897 0.0717614
0.1152093 0.7730879 0.0553081
0.4616465 0.7794625 0.0680840
0.7018066 0.7861038 0.0808057
0.8280854 0.7856258 0.1021396
0.0048509 0.0070196 0.3081047
0.2673849 0.0150007 0.3198504
0.5932200 0.0258131 0.3395436
0.7745191 0.0386795 0.3504746
0.0259253 0.3132273 0.3580936
0.3384228 0.3389035 0.3755883
0.6299613 0.3570600 0.3846279
0.7933267 0.3758618 0.3938468
0.0707025 0.6130942 0.3919319
0.4157456 0.6314697 0.4098715
0.6719593 0.6405847 0.4189685
0.8148741 0.6497503 0.4281987
0.1359500 0.7707912 0.4327889
0.4874738 0.7774086 0.4418374
0.7129569 0.7842374 0.4511467
0.8356382 0.7839434 0.4602819
0.0163067 0.0207778 0.5845408
0.2948679 0.0309378 0.5955518
0.6155103 0.0446937 0.5978330
0.7822808 0.0600698 0.6086623
0.0380724 0.3119441 0.6225318
0.3614055 0.3286159 0.6224112
0.6535145 0.3559309 0.6316410
0.8018054 0.3747317 0.6406235
0.0910531 0.6118045 0.6388367
0.4406179 0.6205441 0.6471744
0.6941763 0.6394719 0.6559208
0.8226661 0.6487147 0.6560139
0.1596743 0.7699250 0.6602526
0.5003420 0.7766172 0.6683336
0.7234977 0.7834933 0.6683707
0.8357918 0.7832184 0.6762772
0.0332637 0.0387077 0.7347956
0.3245708 0.0517951 0.7359674
0.6260003 0.0670315 0.7441447
0.7899452 0.0867480 0.7454966
0.0535527 0.3111523 0.7543876
0.3848223 0.3279371 0.7543454
0.6650659 0.3552501 0.7613610
0.8099463 0.3740747 0.7616360
0.1121078 0.6109843 0.7669578
0.4656409 0.6198472 0.7668057
0.7050277 0.6388156 0.7734004
0.8301384 0.6480652 0.7734739
0.1868768 0.7693596 0.7767486
0.5256747 0.7761314 0.7766675
0.7338458 0.7757597 0.7826992
0.8428144 0.7827613 0.7827787
