Plugins/FilmEmulator/Content/LUTs/FE_Fuji_Pro_160S_64.cube
TITLE "FE_Fuji_Pro_160S_33"
LUT_3D_SIZE 4
0.0012194 0.0018939 0.0023375
0.2149058 0.0076974 0.0072664
0.4911864 0.0196611 0.0176092
0.6652229 0.0357873 0.0301851
0.0234272 0.2922096 0.0179682
0.2844998 0.3068528 0.0248511
0.5413493 0.3306662 0.0392989
0.7000678 0.3469358 0.0543897
0.0717479 0.5317338 0.0458455
0.3514628 0.5495014 0.0538520
0.5842999 0.5582760 0.0633048
0.7174407 0.5670711 0.0792888
0.1333915 0.6826363 0.0779878
0.4146383 0.6901644 0.0885054
0.6266872 0.6897931 0.0972025
0.7435094 0.6976087 0.1067977
0.0072331 0.0102216 0.2802039
0.2376017 0.0194053 0.2899177
0.5133315 0.0318055 0.2997946
0.6752313 0.0453969 0.3092062
0.0351911 0.2813319 0.3232642
0.3036892 0.3039523 0.3386008
0.5531166 0.3198509 0.3466079
0.7004002 0.3446338 0.3550810
0.0874759 0.5288450 0.3609112
0.3727896 0.5468332 0.3688711
0.5956783 0.5557911 0.3770025
0.7268562 0.5648324 0.3853211
0.1553668 0.6805649 0.3894202
0.4372488 0.6800593 0.3972886
0.6375519 0.6879663 0.4057210
0.7523386 0.6958755 0.4143668
0.0212380 0.0266351 0.5182872
0.2619442 0.0379197 0.5198578
0.5237380 0.0521332 0.5308138
0.6844802 0.0689045 0.5326954
0.0486043 0.2804087 0.5458011
0.3232927 0.3031013 0.5546529
0.5644606 0.3189888 0.5636976
0.7100487 0.3353441 0.5639838
0.1064895 0.5278115 0.5704926
0.3944089 0.5365018 0.5789343
0.6066847 0.5548722 0.5791277
0.7359151 0.5639167 0.5878706
0.1737000 0.6797186 0.5920722
0.4598953 0.6792282 0.6001523
0.6481113 0.6871946 0.6001264
0.7608367 0.6951144 0.6087183
0.0403609 0.0469557 0.6594350
0.2882116 0.0599400 0.6603406
0.5455656 0.0762604 0.6694360
0.6937385 0.0934608 0.6706515
0.0643078 0.2798170 0.6800992
0.3538967 0.2946493 0.6798645
0.5756868 0.3184724 0.6878245
0.7194034 0.3348131 0.6880767
0.1242757 0.5271577 0.6937330
0.4163635 0.5358858 0.7008191
0.6175452 0.5542761 0.7010018
0.7447423 0.5633615 0.7010372
0.1938185 0.6708446 0.7116778
0.4713137 0.6787340 0.7114838
0.6584908 0.6867066 0.7114624
0.7608956 0.6946479 0.7186624
