Plugins/FilmEmulator/Content/LUTs/FE_Fuji_Pro_160C_64.cube
TITLE "FE_Fuji_Pro_160C_33"
LUT_3D_SIZE 8
0.0008978 0.0012006 0.0011351
0.0528210 0.0017199 0.0018356
0.1797351 0.0035773 0.0037082
0.3414021 0.0060262 0.0064773
0.4962343 0.0093490 0.0096414
0.6068249 0.0132348 0.0135381
0.6973652 0.0175563 0.0178933
0.7664561 0.0217745 0.0229949
0.0037447 0.0938798 0.0032035
0.0728702 0.1038442 0.0052900
0.2084614 0.1111552 0.0084995
0.3645262 0.1191018 0.0121728
0.5108060 0.1276177 0.0164909
0.6216572 0.1367261 0.0210450
0.7111765 0.1464167 0.0260128
0.7696326 0.1566812 0.0323210
0.0116319 0.2669953 0.0079591
0.1002440 0.2737949 0.0106302
0.2388319 0.2812873 0.0143042
0.3958299 0.2890831 0.0187474
0.5320046 0.2971239 0.0239722
0.6416162 0.3053769 0.0296787
0.7184142 0.3228040 0.0355567
0.7847493 0.3315336 0.0425410
0.0245909 0.4227469 0.0145626
0.1272531 0.4316652 0.0178089
0.2739945 0.4411081 0.0219412
0.4296037 0.4507534 0.0270828
0.5546533 0.4502583 0.0323905
0.6623744 0.4601173 0.0387457
0.7368042 0.4700660 0.0463521
0.7917455 0.4801175 0.0534602
0.0406837 0.5564811 0.0230274
0.1546234 0.5554596 0.0264465
0.3129834 0.5650659 0.0305184
0.4649722 0.5747404 0.0365125
0.5899543 0.5742917 0.0420993
0.6831019 0.5840493 0.0503341
0.7453086 0.5837531 0.0559557
0.7989924 0.5935511 0.0643384
0.0619441 0.6458329 0.0319460
0.1873091 0.6545295 0.0368517
0.3444822 0.6539836 0.0409862
0.4887206 0.6629877 0.0456414
0.6008281 0.6626007 0.0525868
0.6928318 0.6715543 0.0605464
0.7632228 0.6712615 0.0671403
0.8062590 0.6801720 0.0770732
0.0864671 0.7178815 0.0428434
0.2254653 0.7256675 0.0476767
0.3777662 0.7252288 0.0529969
0.5127283 0.7331656 0.0589291
0.6236914 0.7328648 0.0653526
0.7132208 0.7325846 0.0724330
0.7714881 0.7404928 0.0803089
0.8211766 0.7402578 0.0888525
0.1152093 0.7730879 0.0553081
0.2605396 0.7726226 0.0592773
0.4124731 0.7795691 0.0657886
0.5495202 0.7792999 0.0704457
0.6463094 0.7790864 0.0754188
0.7226896 0.7860359 0.0835871
0.7797598 0.7858313 0.0924401
0.8280854 0.7856258 0.1021396
0.0016059 0.0024128 0.0986035
0.0620283 0.0043245 0.1065276
0.1932040 0.0070189 0.1112781
0.3515912 0.0102463 0.1159700
0.4954634 0.0140494 0.1246624
0.6183531 0.0180340 0.1294866
0.7077336 0.0223855 0.1387475
0.7661821 0.0278976 0.1439633
0.0058393 0.0922902 0.1189919
0.0830032 0.1023586 0.1270223
0.2252679 0.1097929 0.1313026
0.3769237 0.1178079 0.1401693
0.5241692 0.1263862 0.1449003
0.6341377 0.1355370 0.1497838
0.7117158 0.1452750 0.1548088
0.7789857 0.1555529 0.1650147
0.0156373 0.2561164 0.1391494
0.1092746 0.2711160 0.1436627
0.2575751 0.2788200 0.1482967
0.4085380 0.2867963 0.1579744
0.5452375 0.2950157 0.1630465
0.6537502 0.3034219 0.1682651
0.7292024 0.3120123 0.1736325
0.7852213 0.3207628 0.1791442
0.0292445 0.4196373 0.1554915
0.1383226 0.4287903 0.1603432
0.2843819 0.4384570 0.1654267
0.4425373 0.4483074 0.1706739
0.5677219 0.4479493 0.1813762
0.6629013 0.4580073 0.1870688
0.7372221 0.4681320 0.1929086
0.7920752 0.4783167 0.1988976
0.0483872 0.5537248 0.1726005
0.1677759 0.5528850 0.1777658
0.3241627 0.5626634 0.1832979
0.4657321 0.5622951 0.1888423
0.5905100 0.5722438 0.1947027
0.6835562 0.5821936 0.2007192
0.7552452 0.5819612 0.2067068
0.8073931 0.5919030 0.2130193
0.0705063 0.6435778 0.1848729
0.2025793 0.6524492 0.1905227
0.3563057 0.6519696 0.2021471
0.5018663 0.6610819 0.2083069
0.6133825 0.6608196 0.2144493
0.7039721 0.6699192 0.2209195
0.7635646 0.6697316 0.2273552
0.8144131 0.6787586 0.2341208
0.0941555 0.7160881 0.2036393
0.2344386 0.7240004 0.2097493
0.3900244 0.7236355 0.2158753
0.5258119 0.7316740 0.2223521
0.6359304 0.7314449 0.2287932
0.7135969 0.7312577 0.2353859
0.7806705 0.7392404 0.2423116
0.8214162 0.7390970 0.2491945
0.1252463 0.7716953 0.2172256
0.2704157 0.7712802 0.2234719
0.4250712 0.7783195 0.2300862
0.5499848 0.7781001 0.2366795
0.6582072 0.7778993 0.2434154
0.7331301 0.7849372 0.2505062
0.7886876 0.7847941 0.2575392
0.8283027 0.7846687 0.2647138
0.0039199 0.0057499 0.2542408
0.0697919 0.0082900 0.2628103
0.2073458 0.0117325 0.2717820
0.3617531 0.0155495 0.2732006
0.5069344 0.0200216 0.2820087
0.6292783 0.0248989 0.2908169
0.7070011 0.0299148 0.2996215
0.7746828 0.0359525 0.3006566
0.0082916 0.0918022 0.2842833
0.0903296 0.1019106 0.2844317
0.2339737 0.1093260 0.2923261
0.3889683 0.1173291 0.3004408
0.5244856 0.1258880 0.3087289
0.6344223 0.1350281 0.3091086
0.7223020 0.1447225 0.3175655
0.7791879 0.1550040 0.3261701
0.0193191 0.2551481 0.2986521
0.1187741 0.2701682 0.3065985
0.2672311 0.2778761 0.3146428
0.4209272 0.2858718 0.3228768
0.5580147 0.2941115 0.3230006
0.6540161 0.3025252 0.3314172
0.7294344 0.3111010 0.3399597
0.7854111 0.3198757 0.3401414
0.0347113 0.4184489 0.3187338
0.1499634 0.4276442 0.3268147
0.3049068 0.4373035 0.3351668
0.4553694 0.4369560 0.3350254
0.5803450 0.4469052 0.3435824
0.6743768 0.4569585 0.3522703
0.7471886 0.4671239 0.3524435
0.8005595 0.4773055 0.3612606
0.0550191 0.5525774 0.3383302
0.1815866 0.5518067 0.3380227
0.3353479 0.5616161 0.3465421
0.4785283 0.5612477 0.3549687
0.6029116 0.5712458 0.3551083
0.6946536 0.5812014 0.3639335
0.7554435 0.5809957 0.3726219
0.8075517 0.5909876 0.3728100
0.0767944 0.6425725 0.3489491
0.2105473 0.6514793 0.3575171
0.3680154 0.6510400 0.3660244
0.5147050 0.6602042 0.3661428
0.6255342 0.6599420 0.3748201
0.7041852 0.6690773 0.3838127
0.7728338 0.6689050 0.3837308
0.8145593 0.6779683 0.3928040
0.1024019 0.7152305 0.3681917
0.2434550 0.7231784 0.3770034
0.4021696 0.7228495 0.3768311
0.5387741 0.7225720 0.3855362
0.6477841 0.7307086 0.3856913
0.7240909 0.7305212 0.3944965
0.7808363 0.7385397 0.4036521
0.8215504 0.7384313 0.4035921
0.1305420 0.7710013 0.3787310
0.2803340 0.7705857 0.3873532
0.4375569 0.7776400 0.3963540
0.5626899 0.7774518 0.3962360
0.6584258 0.7772698 0.4051183
0.7333101 0.7843527 0.4053001
0.7888404 0.7842098 0.4142757
0.8356055 0.7840962 0.4142029
0.0073278 0.0102315 0.4043317
0.0787223 0.0134957 0.4056309
0.2142787 0.0179335 0.4163651
0.3721372 0.0222676 0.4176825
0.5185420 0.0267475 0.4279635
0.6284771 0.0321306 0.4291513
0.7167330 0.0386347 0.4395769
0.7741735 0.0447625 0.4405626
0.0114168 0.0914972 0.4287037
0.0982546 0.0979924 0.4286715
0.2429325 0.1090317 0.4384246
0.4010418 0.1170338 0.4387944
0.5372345 0.1255739 0.4484686
0.6462504 0.1346942 0.4489128
0.7224565 0.1443810 0.4586657
0.7879788 0.1546513 0.4591348
0.0239175 0.2544869 0.4459616
0.1289407 0.2695748 0.4460465
0.2770248 0.2772931 0.4553702
0.4333067 0.2853141 0.4554753
0.5582042 0.2935299 0.4649372
0.6655458 0.3019482 0.4651039
0.7395194 0.3105151 0.4745981
0.7940222 0.3192801 0.4748016
0.0411507 0.4176584 0.4600794
0.1561582 0.4269246 0.4693007
0.3155126 0.4366232 0.4693472
0.4555583 0.4362594 0.4785133
0.5805198 0.4462489 0.4786674
0.6745243 0.4563434 0.4788465
0.7473242 0.4664626 0.4883738
0.8007673 0.4662974 0.4882987
0.0624872 0.5518367 0.4728886
0.1888552 0.5510741 0.4818879
0.3466415 0.5609301 0.4819570
0.4912632 0.5605623 0.4911495
0.6030833 0.5705907 0.4913155
0.6948061 0.5805505 0.5008470
0.7648743 0.5803615 0.5007594
0.8076552 0.5903844 0.5009748
0.0871394 0.6418807 0.4846102
0.2269799 0.6508194 0.4939429
0.3798006 0.6504453 0.4937578
0.5148833 0.6596016 0.5032532
0.6256909 0.6593795 0.5031413
0.7148191 0.6684980 0.5126774
0.7729507 0.6683502 0.5126023
0.8222797 0.6774357 0.5128043
0.1113136 0.7146736 0.4960995
0.2619318 0.7226312 0.5054649
0.4143627 0.7223237 0.5052917
0.5389397 0.7220680 0.5145254
0.6479367 0.7302136 0.5146903
0.7242246 0.7300264 0.5239564
0.7809421 0.7380887 0.5241578
0.8290431 0.7379587 0.5240824
0.1415605 0.7705180 0.5073191
0.2904096 0.7701207 0.5164446
0.4377078 0.7772355 0.5165601
0.5752350 0.7769969 0.5257751
0.6698630 0.7768457 0.5256759
0.7432938 0.7839078 0.5352045
0.7973482 0.7837949 0.5351295
0.8356897 0.7837000 0.5350667
0.0122203 0.0161424 0.5184301
0.0888042 0.0199865 0.5287910
0.2299333 0.0248378 0.5300728
0.3946584 0.0298364 0.5312037
0.5302107 0.0345444 0.5414600
0.6393577 0.0415483 0.5426915
0.7162271 0.0463740 0.5526034
0.7825530 0.0537769 0.5536016
0.0152868 0.0912712 0.5403465
0.1067796 0.0977942 0.5403681
0.2520846 0.1088233 0.5502449
0.4131998 0.1168122 0.5506192
0.5498841 0.1253570 0.5510418
0.6578647 0.1344440 0.5606555
0.7326638 0.1441363 0.5611253
0.7880734 0.1543833 0.5707321
0.0296039 0.2539960 0.5578046
0.1399057 0.2611161 0.5576468
0.2870066 0.2768553 0.5671124
0.4457437 0.2848684 0.5672172
0.5707544 0.2931123 0.5673703
0.6656727 0.3015096 0.5766469
0.7396200 0.3101064 0.5768357
0.7941071 0.3188649 0.5770361
0.0467989 0.4170704 0.5717745
0.1691087 0.4264003 0.5716842
0.3262816 0.4361221 0.5717420
0.4681628 0.4357585 0.5806745
0.5928749 0.4457453 0.5808259
0.6856784 0.4557941 0.5900294
0.7569363 0.4659547 0.5902160
0.8089067 0.4657893 0.5901428
0.0680465 0.5512597 0.5842895
0.2039202 0.5505401 0.5839720
0.3580768 0.5604244 0.5840516
0.5039712 0.5600569 0.5929164
0.6152300 0.5700874 0.5930779
0.7055905 0.5800931 0.5932513
0.7649678 0.5798884 0.6021295
0.8155802 0.5898870 0.6023250
0.0947352 0.6413822 0.5866355
0.2356953 0.6503507 0.5956280
0.3917048 0.6499764 0.5954486
0.5275881 0.6591385 0.6045195
0.6375769 0.6589164 0.6044120
0.7149160 0.6681047 0.6045952
0.7730415 0.6679177 0.6133931
0.8223550 0.6770089 0.6135860
0.1208950 0.7142296 0.5977057
0.2715509 0.7222164 0.6066456
0.4266367 0.7219088 0.6064793
0.5515707 0.7216888 0.6063600
0.6595147 0.7298064 0.6153731
0.7343820 0.7296540 0.6152902
0.7896419 0.7377230 0.6154821
0.8291159 0.7375803 0.6242052
0.1533960 0.7701322 0.6084137
0.3006656 0.7697855 0.6082027
0.4501950 0.7768767 0.6171542
0.5753503 0.7766879 0.6170362
0.6699680 0.7765366 0.6169416
0.7433835 0.7836059 0.6258910
0.7974242 0.7834929 0.6258200
0.8357538 0.7833977 0.6257609
0.0184539 0.0231514 0.6120960
0.0961284 0.0267488 0.6126760
0.2378763 0.0320947 0.6224787
0.4058619 0.0371787 0.6233099
0.5419561 0.0430745 0.6242014
0.6503429 0.0498949 0.6251190
0.7259362 0.0557684 0.6345082
0.7820913 0.0646565 0.6354675
0.0214336 0.0910805 0.6216351
0.1160111 0.0976279 0.6304479
0.2710735 0.1047844 0.6307232
0.4254398 0.1166456 0.6313525
0.5624664 0.1251612 0.6403877
0.6579603 0.1342670 0.6408178
0.7327468 0.1439485 0.6412589
0.7882501 0.1489533 0.6498627
0.0351163 0.2536266 0.6380947
0.1456598 0.2607986 0.6379786
0.2971795 0.2765251 0.6468547
0.4582562 0.2845322 0.6469528
0.5831863 0.2927701 0.6470960
0.6769476 0.3011620 0.6556141
0.7494047 0.3097527 0.6557894
0.8024267 0.3185056 0.6559758
0.0531922 0.4166141 0.6511844
0.1759283 0.4259920 0.6511217
0.3373522 0.4357110 0.6511757
0.4807943 0.4353482 0.6593505
0.6050991 0.4453329 0.6594912
0.6965879 0.4554227 0.6596542
0.7570139 0.4655668 0.6679903
0.8089716 0.4654016 0.6679229
0.0772802 0.5507911 0.6626744
0.2118165 0.5501243 0.6624025
0.3696644 0.5600097 0.6624760
0.5040650 0.5597124 0.6623529
0.6272200 0.5696758 0.6706123
0.7058089 0.5694870 0.6705349
0.7740937 0.5795214 0.6707051
0.8156430 0.5895077 0.6789166
0.1029736 0.6409689 0.6648521
0.2446303 0.6499670 0.6729539
0.4037271 0.6495925 0.6727897
0.5402313 0.6587988 0.6729151
0.6376637 0.6586012 0.6728269
0.7252707 0.6677307 0.6809787
0.7819469 0.6675825 0.6809130
0.8224092 0.6767028 0.6811014
0.1311837 0.7138622 0.6748488
0.2813693 0.7219121 0.6748783
0.4389885 0.7215697 0.6826966
0.5641323 0.7213494 0.6825882
0.6595987 0.7295296 0.6827436
0.7344551 0.7293771 0.6826675
0.7897117 0.7374176 0.6907115
0.8291683 0.7373092 0.6906573
0.1661454 0.7698133 0.6844477
0.3111236 0.7694855 0.6842664
0.4627361 0.7766138 0.6843677
0.5877100 0.7764248 0.6842593
0.6811693 0.7762432 0.6920228
0.7530667 0.7833491 0.6921865
0.7974844 0.7832547 0.6921327
0.8427423 0.7831109 0.6998106
0.0247798 0.0299267 0.6807502
0.1084474 0.0345761 0.6813262
0.2553247 0.0400366 0.6820393
0.4171434 0.0463464 0.6906903
0.5536424 0.0537350 0.6915171
0.6497195 0.0600433 0.6921441
0.7354172 0.0670454 0.6927700
0.7903227 0.0748704 0.7011458
0.0288791 0.0909136 0.6878753
0.1259269 0.0975085 0.6880020
0.2808796 0.1046512 0.6960616
0.4377700 0.1164993 0.6966356
0.5625454 0.1250347 0.6970104
0.6693491 0.1341017 0.7050637
0.7426864 0.1437728 0.7054635
0.7967141 0.1487934 0.7056371
0.0398943 0.2533143 0.7027470
0.1577633 0.2604991 0.7026513
0.3075463 0.2762691 0.7029384
0.4583472 0.2842588 0.7106255
0.5832759 0.2924919 0.7107552
0.6770185 0.3009147 0.7109055
0.7494653 0.3095013 0.7110657
0.8024849 0.3182136 0.7186999
0.0604087 0.4162488 0.7068838
0.1901610 0.4256075 0.7143664
0.3486023 0.4353500 0.7144253
0.4934362 0.4350294 0.7143029
0.6051762 0.4450393 0.7144415
0.6966661 0.4550855 0.7220026
0.7663417 0.4652430 0.7221587
0.8090214 0.4651051 0.7221079
0.0841181 0.5400900 0.7170904
0.2199247 0.5498013 0.7170814
0.3814023 0.5596452 0.7245207
0.5167407 0.5593479 0.7244108
0.6272954 0.5693819 0.7245459
0.7163388 0.5691660 0.7244659
0.7741585 0.5791870 0.7318836
0.8232859 0.5891900 0.7320451
0.1119035 0.6406022 0.7266370
0.2537816 0.6496679 0.7266557
0.4158529 0.6492934 0.7265072
0.5403117 0.6585279 0.7266309
0.6493555 0.6582668 0.7337636
0.7253354 0.6674632 0.7339146
0.7820020 0.6673151 0.7338555
0.8298324 0.6764143 0.7340155
0.1422102 0.7135711 0.7283601
0.2913988 0.7216475 0.7283964
0.4390675 0.7213266 0.7354618
0.5765842 0.7210843 0.7353547
0.6709514 0.7292691 0.7354949
0.7443455 0.7291163 0.7354265
0.7981460 0.7371617 0.7426100
0.8363672 0.7370531 0.7425615
0.1728549 0.7695792 0.7370279
0.3326641 0.7692317 0.7368553
0.4753227 0.7763845 0.7369564
0.5999568 0.7761953 0.7368591
0.6812397 0.7760327 0.7437953
0.7531269 0.7831434 0.7439424
0.8056933 0.7830299 0.7438846
0.8427789 0.7829345 0.7438362
0.0332637 0.0387077 0.7347956
0.1174290 0.0431352 0.7351546
0.2640510 0.0499166 0.7358082
0.4286348 0.0557698 0.7363136
0.5530986 0.0622952 0.7368662
0.6606675 0.0695294 0.7443286
0.7349880 0.0776787 0.7449074
0.7899452 0.0867480 0.7454966
0.0357476 0.0907781 0.7397456
0.1365737 0.0973905 0.7398865
0.2908892 0.1045504 0.7401342
0.4503205 0.1122710 0.7404384
0.5751750 0.1205169 0.7476241
0.6695506 0.1293293 0.7479788
0.7428609 0.1387056 0.7483423
0.7967584 0.1486690 0.7487147
0.0473195 0.2530481 0.7461900
0.1707965 0.2602352 0.7528721
0.3289614 0.2678528 0.7529177
0.4709035 0.2840347 0.7532281
0.5955486 0.2922637 0.7533458
0.6880648 0.3006825 0.7534822
0.7589865 0.3092299 0.7602462
0.8025281 0.3179979 0.7604069
0.0685985 0.4158864 0.7566384
0.1976236 0.4253353 0.7566138
0.3601554 0.4248862 0.7564586
0.5060964 0.4347142 0.7631223
0.6172533 0.4447223 0.7632458
0.7073720 0.4548090 0.7633781
0.7663906 0.4649929 0.7635281
0.8168671 0.4648273 0.7634732
0.0953299 0.5397584 0.7590581
0.2369719 0.5494545 0.7655784
0.3932687 0.5593688 0.7656471
0.5293813 0.5590714 0.7655484
0.6391036 0.5691067 0.7656704
0.7163947 0.5689174 0.7656074
0.7742060 0.5789409 0.7721506
0.8233255 0.5889456 0.7722959
0.1215068 0.6403180 0.7675436
0.2727039 0.6493864 0.7675604
0.4280808 0.6490366 0.7674358
0.5528990 0.6582364 0.7739086
0.6608566 0.6580136 0.7738299
0.7354286 0.6672133 0.7739655
0.7906383 0.6670647 0.7739126
0.8298710 0.6761919 0.7740653
0.1540622 0.7133181 0.7690938
0.3016446 0.7213863 0.7754661
0.4515026 0.7211000 0.7753533
0.5766507 0.7208796 0.7752662
0.6710117 0.7290679 0.7753922
0.7443974 0.7289150 0.7753310
0.7981898 0.7369647 0.7816821
0.8364044 0.7368558 0.7816388
0.1868768 0.7693596 0.7767486
0.3438135 0.7690312 0.7766027
0.4879389 0.7761883 0.7766935
0.6000332 0.7759884 0.7828014
0.6922096 0.7758363 0.7827334
0.7625459 0.7829512 0.7828649
0.8057358 0.7828566 0.7828220
0.8428144 0.7827613 0.7827787
