Plugins/FilmEmulator/Content/LUTs/FE_Fuji_Superia_XTra_400_64.cube
TITLE "FE_Fuji_Superia_XTra_400_33"
LUT_3D_SIZE 4
0.0005767 0.0007424 0.0007809
0.2482278 0.0076283 0.0030622
0.5548391 0.0249872 0.0100022
0.7312827 0.0489016 0.0204115
0.0094260 0.3128082 0.0099502
0.2817630 0.3505831 0.0153810
0.5705184 0.3813396 0.0260141
0.7368822 0.4247700 0.0404184
0.0318917 0.6243817 0.0347273
0.3255508 0.6441962 0.0432480
0.5995880 0.6647310 0.0538202
0.7510783 0.6746182 0.0666274
0.0676201 0.7800433 0.0705770
0.3762732 0.7948151 0.0835276
0.6308334 0.8019433 0.0945228
0.7663220 0.8090773 0.1068096
0.0053707 0.0056455 0.3229944
0.2841438 0.0136149 0.3481849
0.5813656 0.0246903 0.3623856
0.7424352 0.0484279 0.3775523
0.0231185 0.3093992 0.3932161
0.3130960 0.3477918 0.4156629
0.5964314 0.3788364 0.4274251
0.7571661 0.4224809 0.4396792
0.0526402 0.6216810 0.4459462
0.3589962 0.6419842 0.4573810
0.6246395 0.6627409 0.4691092
0.7702524 0.6831785 0.4809527
0.0932381 0.7784581 0.4962009
0.4129196 0.7934918 0.5077704
0.6435178 0.8007500 0.5191982
0.7760733 0.8079830 0.5194135
0.0175388 0.0184485 0.6463438
0.3197650 0.0305044 0.6493492
0.6018881 0.0444656 0.6620618
0.7606059 0.0594654 0.6639988
0.0414591 0.3082284 0.6773247
0.3558286 0.3468921 0.6878979
0.6207144 0.3779684 0.6982476
0.7667449 0.4216479 0.6992584
0.0793670 0.6205607 0.7045896
0.3942910 0.6411167 0.7142143
0.6367818 0.6619666 0.7238163
0.7794541 0.6824576 0.7242536
0.1268246 0.7777356 0.7274094
0.4376468 0.7929404 0.7366328
0.6665361 0.8002355 0.7367613
0.7935154 0.8074597 0.7456771
0.0369453 0.0363057 0.7944071
0.3482887 0.0525947 0.7960119
0.6229789 0.0673245 0.8044232
0.7679743 0.0859911 0.8055983
0.0653394 0.3074372 0.8130652
0.3786971 0.3463365 0.8204297
0.6324248 0.3883300 0.8211056
0.7759158 0.4211150 0.8216194
0.1086827 0.6197753 0.8317734
0.4306211 0.6405358 0.8319610
0.6598502 0.6614671 0.8322453
0.7882689 0.6819763 0.8388112
0.1565542 0.7772384 0.8409300
0.4749326 0.7925462 0.8411356
0.6778649 0.7998790 0.8472264
0.8019016 0.8071342 0.8473412
