Plugins/FilmEmulator/Content/LUTs/FE_Fuji_Eterna_500_64.cube
TITLE "FE_Fuji_Eterna_500_33"
LUT_3D_SIZE 64
0.0037835 0.0027674 0.0036999
0.0047704 0.0027660 0.0036993
0.0086848 0.0027762 0.0036985
0.0148943 0.0028711 0.0037608
0.0218995 0.0029888 0.0039305
0.0303095 0.0031619 0.0040689
0.0391717 0.0033684 0.0042042
0.0488260 0.0035965 0.0043378
0.0587451 0.0038808 0.0044733
0.0680064 0.0042168 0.0046519
0.0818382 0.0046082 0.0048130
0.0913174 0.0049246 0.0050959
0.1056447 0.0054580 0.0053264
0.1177859 0.0059832 0.0055657
0.1311444 0.0065583 0.0058811
0.1407683 0.0069714 0.0062092
0.1565576 0.0077282 0.0064487
0.1679047 0.0082949 0.0066917
0.1799258 0.0089016 0.0071511
0.1926182 0.0095532 0.0074869
0.2060501 0.0102522 0.0078383
0.2204269 0.0110438 0.0082070
0.2355220 0.0118971 0.0084062
0.2513550 0.0128140 0.0088507
0.2595542 0.0132965 0.0093352
0.2764463 0.0143217 0.0096017
0.2851726 0.0148603 0.0101271
0.3026519 0.0159314 0.0104147
0.3116496 0.0164844 0.0109834
0.3300515 0.0176548 0.0112948
0.3394770 0.0182687 0.0116578
0.3490559 0.0189008 0.0124075
0.3587483 0.0195573 0.0128059
0.3784816 0.0209417 0.0132292
0.3883837 0.0216581 0.0136535
0.3983189 0.0223782 0.0140910
0.4083461 0.0231218 0.0145424
0.4184577 0.0238896 0.0150080
0.4286458 0.0246824 0.0154884
0.4389025 0.0255009 0.0159961
0.4492196 0.0263459 0.0165265
0.4595880 0.0272182 0.0170742
0.4699990 0.0281188 0.0176399
0.4804438 0.0290484 0.0182240
0.4904884 0.0300081 0.0188272
0.4996768 0.0310829 0.0194515
0.4996970 0.0310779 0.0200770
0.5088909 0.0321901 0.0207421
0.5180647 0.0333461 0.0207618
0.5272515 0.0345371 0.0214491
0.5364257 0.0357692 0.0221697
0.5364468 0.0357633 0.0229149
0.5456024 0.0370376 0.0237070
0.5547114 0.0383622 0.0237294
0.5638095 0.0397260 0.0245492
0.5638303 0.0397194 0.0253727
0.5728700 0.0411366 0.0253967
0.5818867 0.0425955 0.0262728
0.5819073 0.0425885 0.0271529
0.5896178 0.0441622 0.0271794
0.5973038 0.0458141 0.0281172
0.5973242 0.0458066 0.0290577
0.6049452 0.0475253 0.0290866
0.6125394 0.0492976 0.0300886
0.0037217 0.0049606 0.0037583
0.0052191 0.0053297 0.0037649
0.0096759 0.0058364 0.0038836
0.0156253 0.0063929 0.0040438
0.0230026 0.0070039 0.0041938
0.0306869 0.0074906 0.0043385
0.0396484 0.0083283 0.0044812
0.0494565 0.0089364 0.0046432
0.0595053 0.0095896 0.0047914
0.0689573 0.0102904 0.0049870
0.0799676 0.0110830 0.0052812
0.0925825 0.0119371 0.0055159
0.1034349 0.0123859 0.0057766
0.1154047 0.0133394 0.0061010
0.1285793 0.0143668 0.0063315
0.1432466 0.0149054 0.0066802
0.1537914 0.0159792 0.0069524
0.1651229 0.0165337 0.0072717
0.1834616 0.0171062 0.0076056
0.1963567 0.0183189 0.0079622
0.2103162 0.0189534 0.0083277
0.2251192 0.0196094 0.0087220
0.2327235 0.0202881 0.0091989
0.2484471 0.0217144 0.0094600
0.2651088 0.0224329 0.0099765
0.2736150 0.0231790 0.0102497
0.2911234 0.0239450 0.0108090
0.2999118 0.0247404 0.0111049
0.3181538 0.0255602 0.0114087
0.3274220 0.0264035 0.0121420
0.3368173 0.0272781 0.0125316
0.3463506 0.0281810 0.0129335
0.3660199 0.0291114 0.0133480
0.3759343 0.0300735 0.0137759
0.3860689 0.0300625 0.0146466
0.3959618 0.0311395 0.0151167
0.4059481 0.0322541 0.0156016
0.4160207 0.0334073 0.0161142
0.4261716 0.0346004 0.0166497
0.4363925 0.0358349 0.0172027
0.4469417 0.0358271 0.0177568
0.4572791 0.0371039 0.0183461
0.4676409 0.0384308 0.0183636
0.4780582 0.0397973 0.0189727
0.4883475 0.0397886 0.0195829
0.4975337 0.0412020 0.0202319
0.5067269 0.0426637 0.0209020
0.5067471 0.0426570 0.0215734
0.5159319 0.0442260 0.0222989
0.5250857 0.0458877 0.0223213
0.5345339 0.0458774 0.0230712
0.5436788 0.0475908 0.0238699
0.5436999 0.0475830 0.0246711
0.5527996 0.0493653 0.0246957
0.5618901 0.0512032 0.0255495
0.5619110 0.0511948 0.0264059
0.5709440 0.0531063 0.0264322
0.5802355 0.0530943 0.0273172
0.5879700 0.0550647 0.0282596
0.5876918 0.0571169 0.0282881
0.5956646 0.0571045 0.0292338
0.5954083 0.0592192 0.0302411
0.6033159 0.0592160 0.0302407
0.6109205 0.0614012 0.0312814
0.0034557 0.0115986 0.0040014
0.0056097 0.0124831 0.0041035
0.0100813 0.0134316 0.0041960
0.0164033 0.0139253 0.0043104
0.0233550 0.0149893 0.0044649
0.0312128 0.0155181 0.0045802
0.0403647 0.0166140 0.0047571
0.0504406 0.0171859 0.0049040
0.0607405 0.0177773 0.0051321
0.0704391 0.0190330 0.0054339
0.0817527 0.0196888 0.0056692
0.0912983 0.0203678 0.0059588
0.1058977 0.0210696 0.0061772
0.1182423 0.0217851 0.0065169
0.1270211 0.0232610 0.0067615
0.1415532 0.0240268 0.0071862
0.1577262 0.0248192 0.0075159
0.1693007 0.0256391 0.0078607
0.1815585 0.0264855 0.0082212
0.1945143 0.0273592 0.0085982
0.2083721 0.0282640 0.0088092
0.2232534 0.0282527 0.0092821
0.2387230 0.0291821 0.0097890
0.2466469 0.0301473 0.0100572
0.2632115 0.0312220 0.0106068
0.2716618 0.0323403 0.0108980
0.2890616 0.0334953 0.0111970
0.2978112 0.0346875 0.0118630
0.3161951 0.0346776 0.0122327
0.3253974 0.0359152 0.0126261
0.3347608 0.0371899 0.0134379
0.3540913 0.0385116 0.0138695
0.3640880 0.0385032 0.0143011
0.3739603 0.0398726 0.0147602
0.3838006 0.0412891 0.0152339
0.3939274 0.0412801 0.0157074
0.4038955 0.0427446 0.0162234
0.4139418 0.0443168 0.0167631
0.4243401 0.0443069 0.0173032
0.4345343 0.0459643 0.0178786
0.4447916 0.0476810 0.0184729
0.4553861 0.0476703 0.0190673
0.4657455 0.0494480 0.0197005
0.4761218 0.0512971 0.0197203
0.4864070 0.0512856 0.0203541
0.4955758 0.0531923 0.0210293
0.5050386 0.0531808 0.0217046
0.5142184 0.0551543 0.0224348
0.5142184 0.0551543 0.0224348
0.5233947 0.0571971 0.0232119
0.5325609 0.0593116 0.0240154
0.5419944 0.0592983 0.0248211
0.5417100 0.0615000 0.0248462
0.5511200 0.0614862 0.0256792
0.5602145 0.0637673 0.0265665
0.5695569 0.0637529 0.0274558
0.5692694 0.0661634 0.0274842
0.5785695 0.0661485 0.0284036
0.5862852 0.0686403 0.0284325
0.5863057 0.0686292 0.0293832
0.5940030 0.0711969 0.0303959
0.6019190 0.0711930 0.0303955
0.6016579 0.0738542 0.0314425
0.6095474 0.0738378 0.0325303
0.0035831 0.0205466 0.0043407
0.0062233 0.0212362 0.0044223
0.0110361 0.0219380 0.0044908
0.0173599 0.0226478 0.0045833
0.0248051 0.0233856 0.0046626
0.0332075 0.0241481 0.0048418
0.0414132 0.0249399 0.0049910
0.0517938 0.0257543 0.0052566
0.0600833 0.0266003 0.0054840
0.0724244 0.0274693 0.0058007
0.0809640 0.0283736 0.0060131
0.0938267 0.0293020 0.0063436
0.1049115 0.0302624 0.0066921
0.1171445 0.0313412 0.0069376
0.1306217 0.0324562 0.0072456
0.1455908 0.0336095 0.0075786
0.1565520 0.0335970 0.0079191
0.1680446 0.0347924 0.0082829
0.1802175 0.0360290 0.0086633
0.1930878 0.0373072 0.0091118
0.2070291 0.0372967 0.0093531
0.2216566 0.0386178 0.0098646
0.2370321 0.0399840 0.0104038
0.2531404 0.0414023 0.0106894
0.2615796 0.0413939 0.0109722
0.2788004 0.0428548 0.0115714
0.2873355 0.0444314 0.0119441
0.3053373 0.0444182 0.0123163
0.3143640 0.0460731 0.0131091
0.3235237 0.0477943 0.0135311
0.3427629 0.0477802 0.0139522
0.3523471 0.0495623 0.0144010
0.3623207 0.0495513 0.0148489
0.3721577 0.0513966 0.0153263
0.3819641 0.0533074 0.0158187
0.3920723 0.0532954 0.0163226
0.4122902 0.0552690 0.0168657
0.4226757 0.0552566 0.0174091
0.4328587 0.0573032 0.0179880
0.4433872 0.0572902 0.0185670
0.4536923 0.0594082 0.0191838
0.4643280 0.0593948 0.0198007
0.4640645 0.0615906 0.0204581
0.4744534 0.0638756 0.0211369
0.4847147 0.0638712 0.0211366
0.4938747 0.0662718 0.0218378
0.5033367 0.0662572 0.0225496
0.5125111 0.0687414 0.0233312
0.5219531 0.0687370 0.0233309
0.5219741 0.0687260 0.0241144
0.5311358 0.0712967 0.0249491
0.5405723 0.0712806 0.0257854
0.5496749 0.0739523 0.0258117
0.5496960 0.0739404 0.0266767
0.5587911 0.0766924 0.0275981
0.5681189 0.0766874 0.0275977
0.5678520 0.0795394 0.0285506
0.5771589 0.0795215 0.0295048
0.5848813 0.0824791 0.0295348
0.5849019 0.0824660 0.0305215
0.5928695 0.0824614 0.0305212
0.6005310 0.0855060 0.0315720
0.6005522 0.0854920 0.0326646
0.6081477 0.0886534 0.0326977
0.0038014 0.0295592 0.0046205
0.0067824 0.0305008 0.0046997
0.0121233 0.0315562 0.0048081
0.0184326 0.0326603 0.0048833
0.0254843 0.0326330 0.0049919
0.0341406 0.0337832 0.0050814
0.0425678 0.0349717 0.0053752
0.0513135 0.0362059 0.0056080
0.0617792 0.0374823 0.0058508
0.0718234 0.0374601 0.0061667
0.0833412 0.0387804 0.0065060
0.0966184 0.0401491 0.0067445
0.1080924 0.0401282 0.0071298
0.1206545 0.0415443 0.0074574
0.1296915 0.0430121 0.0078001
0.1446995 0.0429923 0.0081505
0.1554616 0.0445674 0.0085251
0.1729150 0.0462241 0.0089294
0.1855217 0.0462109 0.0091659
0.1987271 0.0479283 0.0096677
0.2128922 0.0497130 0.0099338
0.2203667 0.0496963 0.0104667
0.2356553 0.0515439 0.0107545
0.2519109 0.0515227 0.0113310
0.2601064 0.0534392 0.0116425
0.2772416 0.0554179 0.0120176
0.2859876 0.0553971 0.0127784
0.3037009 0.0574449 0.0131897
0.3129254 0.0574320 0.0136004
0.3315765 0.0595510 0.0140379
0.3412555 0.0595376 0.0144747
0.3508363 0.0617254 0.0154048
0.3607897 0.0617116 0.0158836
0.3706067 0.0640011 0.0164064
0.3907392 0.0639819 0.0169349
0.4006574 0.0663861 0.0174987
0.4109460 0.0663710 0.0180622
0.4210185 0.0688700 0.0180808
0.4314690 0.0688544 0.0186627
0.4417020 0.0714298 0.0192831
0.4522805 0.0714136 0.0199032
0.4626207 0.0740782 0.0205641
0.4732910 0.0740614 0.0212247
0.4730206 0.0768235 0.0219290
0.4832785 0.0768180 0.0219288
0.4924368 0.0796698 0.0226669
0.5018982 0.0796520 0.0234282
0.5113643 0.0796341 0.0242146
0.5205153 0.0825952 0.0242393
0.5205364 0.0825820 0.0250527
0.5297000 0.0856304 0.0259192
0.5391397 0.0856112 0.0267874
0.5482460 0.0887760 0.0268147
0.5482668 0.0887620 0.0277125
0.5576562 0.0887421 0.0286394
0.5667006 0.0920126 0.0286685
0.5760133 0.0919920 0.0296265
0.5760133 0.0919920 0.0296265
0.5837579 0.0953988 0.0306478
0.5917524 0.0953783 0.0316703
0.5914654 0.0989198 0.0317032
0.5994174 0.0988981 0.0327998
0.5994174 0.0988981 0.0327998
0.6070377 0.1025350 0.0339685
0.0041089 0.0404955 0.0049527
0.0075513 0.0404370 0.0050247
0.0128914 0.0418295 0.0051138
0.0196174 0.0432741 0.0053345
0.0271878 0.0432366 0.0054832
0.0351525 0.0448089 0.0055645
0.0438436 0.0464669 0.0057258
0.0529088 0.0464372 0.0059902
0.0636969 0.0481508 0.0063200
0.0739964 0.0499287 0.0066680
0.0859134 0.0499035 0.0069057
0.0959714 0.0517513 0.0071806
0.1073738 0.0517272 0.0075032
0.1198562 0.0536378 0.0078483
0.1335971 0.0556155 0.0082092
0.1437582 0.0555943 0.0085779
0.1601225 0.0576399 0.0089847
0.1719817 0.0576159 0.0094669
0.1843667 0.0597425 0.0097275
0.1976850 0.0597176 0.0102493
0.2117937 0.0619173 0.0105312
0.2268547 0.0618915 0.0110958
0.2344703 0.0641891 0.0114010
0.2506711 0.0641610 0.0120673
0.2673894 0.0665668 0.0124562
0.2761419 0.0665515 0.0128443
0.2934749 0.0690415 0.0132580
0.3025159 0.0690259 0.0136708
0.3114890 0.0715973 0.0145502
0.3303428 0.0715757 0.0150026
0.3397442 0.0742465 0.0154852
0.3495434 0.0742299 0.0159664
0.3592139 0.0769924 0.0164921
0.3792997 0.0769689 0.0170234
0.3893801 0.0769514 0.0175718
0.3992853 0.0798077 0.0181565
0.4095618 0.0797896 0.0187409
0.4196427 0.0827430 0.0193638
0.4300639 0.0827368 0.0193636
0.4402885 0.0857906 0.0200069
0.4508594 0.0857711 0.0206499
0.4614830 0.0857517 0.0213131
0.4718587 0.0889074 0.0220201
0.4821339 0.0888873 0.0227377
0.4818428 0.0921690 0.0227613
0.4912910 0.0921484 0.0235257
0.5007516 0.0921278 0.0243153
0.5099221 0.0955387 0.0251571
0.5193656 0.0955323 0.0251568
0.5285270 0.0990573 0.0260271
0.5285482 0.0990417 0.0268992
0.5379691 0.0990352 0.0268988
0.5470958 0.1026765 0.0278281
0.5564889 0.1026537 0.0287587
0.5564889 0.1026537 0.0287587
0.5655555 0.1064143 0.0297507
0.5748737 0.1063906 0.0307440
0.5748737 0.1063906 0.0307440
0.5826237 0.1102743 0.0318027
0.5906035 0.1102679 0.0318023
0.5906248 0.1102502 0.0329026
0.5982960 0.1142583 0.0340749
0.6061858 0.1142516 0.0340744
0.6062069 0.1142334 0.0352511
0.0044447 0.0521817 0.0053666
0.0082589 0.0521025 0.0055151
0.0137186 0.0539831 0.0056740
0.0202012 0.0539330 0.0057517
0.0279878 0.0558989 0.0059181
0.0362174 0.0579396 0.0061350
0.0452537 0.0579011 0.0063535
0.0545367 0.0600254 0.0064721
0.0657553 0.0599902 0.0067027
0.0763645 0.0621812 0.0070716
0.0854083 0.0621529 0.0073784
0.0990638 0.0644383 0.0077177
0.1107941 0.0644084 0.0080643
0.1236228 0.0668131 0.0084352
0.1329730 0.0667878 0.0088140
0.1482643 0.0692738 0.0092709
0.1593872 0.0692536 0.0095163
0.1710409 0.0718303 0.0100374
0.1835385 0.0718094 0.0103029
0.1966300 0.0744748 0.0108667
0.2108674 0.0744531 0.0111540
0.2258798 0.0744221 0.0117517
0.2414393 0.0771853 0.0121306
0.2496115 0.0771677 0.0125086
0.2662826 0.0800253 0.0129116
0.2750267 0.0799952 0.0137284
0.2923162 0.0829498 0.0141703
0.3013358 0.0829311 0.0146112
0.3195935 0.0859854 0.0150811
0.3290856 0.0859661 0.0155500
0.3387268 0.0859468 0.0160332
0.3482495 0.0891094 0.0165611
0.3682001 0.0890820 0.0170946
0.3779567 0.0923498 0.0176636
0.3880227 0.0923288 0.0182324
0.3981927 0.0923079 0.0188191
0.4081756 0.0957250 0.0194449
0.4185281 0.0957034 0.0200701
0.4289608 0.0956818 0.0207150
0.4391554 0.0992267 0.0207365
0.4497202 0.0992043 0.0214025
0.4600456 0.1028514 0.0221127
0.4707071 0.1028280 0.0228332
0.4809797 0.1028046 0.0236000
0.4901105 0.1065869 0.0236245
0.4901317 0.1065703 0.0244176
0.4995909 0.1065467 0.0252365
0.5087611 0.1104347 0.0261096
0.5182051 0.1104273 0.0261092
0.5276632 0.1104029 0.0269836
0.5273892 0.1144233 0.0279162
0.5368122 0.1144157 0.0279158
0.5462357 0.1143905 0.0288493
0.5553387 0.1185313 0.0298443
0.5553387 0.1185313 0.0298443
0.5647013 0.1185052 0.0308406
0.5737127 0.1227952 0.0308723
0.5737333 0.1227765 0.0319025
0.5817782 0.1227499 0.0330058
0.5894749 0.1271752 0.0330397
0.5894960 0.1271551 0.0341816
0.5974384 0.1271477 0.0341812
0.6050705 0.1316896 0.0353977
0.6050705 0.1316896 0.0353977
0.0049571 0.0649539 0.0058668
0.0090404 0.0648634 0.0059464
0.0151492 0.0672274 0.0061635
0.0215937 0.0671634 0.0063824
0.0288405 0.0696465 0.0065012
0.0373897 0.0695949 0.0067324
0.0467007 0.0721723 0.0068580
0.0563241 0.0721363 0.0069787
0.0654254 0.0720992 0.0072489
0.0759782 0.0747731 0.0074174
0.0881942 0.0747247 0.0079228
0.0985769 0.0774872 0.0082872
0.1102504 0.0774596 0.0084710
0.1230239 0.0803156 0.0088606
0.1372744 0.0802766 0.0093100
0.1475666 0.0832319 0.0098199
0.1586459 0.0832076 0.0100797
0.1765533 0.0831662 0.0106202
0.1891953 0.0862301 0.0109124
0.2029308 0.0861944 0.0114973
0.2173166 0.0893601 0.0118135
0.2248959 0.0893397 0.0121817
0.2406299 0.0892990 0.0129526
0.2568922 0.0925668 0.0133697
0.2654170 0.0925457 0.0137860
0.2825445 0.0959636 0.0142299
0.2913789 0.0959421 0.0146726
0.3095306 0.0959131 0.0151287
0.3186027 0.0994514 0.0156155
0.3280788 0.0994293 0.0161008
0.3374438 0.1030841 0.0166311
0.3570970 0.1030526 0.0171668
0.3671332 0.1030293 0.0177197
0.3768744 0.1068024 0.0183095
0.3869286 0.1067784 0.0188987
0.3970877 0.1067545 0.0195066
0.4070610 0.1106493 0.0201549
0.4174043 0.1106245 0.0208025
0.4278287 0.1105997 0.0214706
0.4380161 0.1146359 0.0214928
0.4485745 0.1146103 0.0221827
0.4591878 0.1145845 0.0229055
0.4695528 0.1187307 0.0236994
0.4798225 0.1187038 0.0244947
0.4892463 0.1186959 0.0244944
0.4984092 0.1229735 0.0253423
0.4984303 0.1229547 0.0261919
0.5078745 0.1229465 0.0261916
0.5170447 0.1273576 0.0270970
0.5265038 0.1273298 0.0280037
0.5359285 0.1273214 0.0280033
0.5356550 0.1318772 0.0289703
0.5450813 0.1318484 0.0299382
0.5544600 0.1318397 0.0299377
0.5638262 0.1318109 0.0309371
0.5635526 0.1365497 0.0320031
0.5728595 0.1365406 0.0320026
0.5809084 0.1365114 0.0331092
0.5806151 0.1414387 0.0331441
0.5886263 0.1414086 0.0342891
0.5886263 0.1414086 0.0342891
0.5965948 0.1413784 0.0354725
0.6042280 0.1464236 0.0367341
0.6042280 0.1464236 0.0367341
0.0054460 0.0780781 0.0064145
0.0099309 0.0779690 0.0065257
0.0161684 0.0807804 0.0067639
0.0231015 0.0807107 0.0068822
0.0309053 0.0836487 0.0071343
0.0385950 0.0835999 0.0072813
0.0482924 0.0835501 0.0074424
0.0581664 0.0866077 0.0076152
0.0676031 0.0865610 0.0079571
0.0784819 0.0897266 0.0081419
0.0877519 0.0896950 0.0083225
0.1019334 0.0896464 0.0086959
0.1138522 0.0929119 0.0091084
0.1271107 0.0928774 0.0093494
0.1366193 0.0962966 0.0098615
0.1524463 0.0962488 0.0103903
0.1638284 0.0962210 0.0106651
0.1757434 0.0997515 0.0112487
0.1885135 0.0997228 0.0115461
0.2022003 0.0996941 0.0118512
0.2165598 0.1033345 0.0126147
0.2318580 0.1033025 0.0130075
0.2395900 0.1070852 0.0134267
0.2560222 0.1070522 0.0138445
0.2645279 0.1070282 0.0142754
0.2816339 0.1109078 0.0151932
0.2904507 0.1108831 0.0156656
0.3085682 0.1108497 0.0161522
0.3176248 0.1148774 0.0166841
0.3270855 0.1148514 0.0172217
0.3464341 0.1148165 0.0177762
0.3560603 0.1189709 0.0183678
0.3660832 0.1189442 0.0189589
0.3760682 0.1189350 0.0189587
0.3858358 0.1232202 0.0195890
0.3959839 0.1231928 0.0202188
0.4062304 0.1231655 0.0208684
0.4162814 0.1275836 0.0215612
0.4266973 0.1275553 0.0222532
0.4371672 0.1275456 0.0222529
0.4477210 0.1275171 0.0229779
0.4580383 0.1320694 0.0237744
0.4686927 0.1320394 0.0245721
0.4789389 0.1320298 0.0245718
0.4880843 0.1367666 0.0254226
0.4975415 0.1367368 0.0262745
0.5070065 0.1367071 0.0271543
0.5067067 0.1416408 0.0271831
0.5161725 0.1416101 0.0280926
0.5256324 0.1415795 0.0290319
0.5350588 0.1415701 0.0290315
0.5347811 0.1466306 0.0300335
0.5442095 0.1465990 0.0310360
0.5535910 0.1465893 0.0310356
0.5626647 0.1517907 0.0321045
0.5626647 0.1517907 0.0321045
0.5719970 0.1517573 0.0332145
0.5800284 0.1517487 0.0332141
0.5797564 0.1571123 0.0343981
0.5877721 0.1570792 0.0355851
0.5957242 0.1570703 0.0355846
0.5957455 0.1570462 0.0368118
0.6033624 0.1625801 0.0368500
0.6033836 0.1625554 0.0381195
0.0061169 0.0902965 0.0069094
0.0109645 0.0934940 0.0071611
0.0172735 0.0933933 0.0073076
0.0238311 0.0967927 0.0074767
0.0319422 0.0967114 0.0078116
0.0398815 0.0966549 0.0079844
0.0498830 0.1001822 0.0081696
0.0579319 0.1001392 0.0083506
0.0699162 0.1000878 0.0085354
0.0811385 0.1037440 0.0087337
0.0906957 0.1037079 0.0089273
0.1015281 0.1036707 0.0091379
0.1134051 0.1074373 0.0096384
0.1266252 0.1073846 0.0101553
0.1413247 0.1073449 0.0104237
0.1518710 0.1112393 0.0109942
0.1632175 0.1112074 0.0112849
0.1750872 0.1152400 0.0115954
0.1878311 0.1151909 0.0122729
0.2014815 0.1151555 0.0126551
0.2157897 0.1193115 0.0130629
0.2310483 0.1192750 0.0134695
0.2470856 0.1192216 0.0143210
0.2553892 0.1191950 0.0147665
0.2723127 0.1234787 0.0152416
0.2809444 0.1234515 0.0157154
0.2987034 0.1234146 0.0162035
0.3075916 0.1278407 0.0167372
0.3168844 0.1278121 0.0172765
0.3359148 0.1277734 0.0178327
0.3453946 0.1323345 0.0184262
0.3552745 0.1323050 0.0190191
0.3652872 0.1322756 0.0196308
0.3750044 0.1370198 0.0202833
0.3850192 0.1370094 0.0202831
0.4053785 0.1369689 0.0209345
0.4157078 0.1369388 0.0216067
0.4258280 0.1418487 0.0223239
0.4363121 0.1418174 0.0230512
0.4468409 0.1418067 0.0230509
0.4571500 0.1468637 0.0238502
0.4571709 0.1468418 0.0246507
0.4678219 0.1468088 0.0254773
0.4780656 0.1467983 0.0254769
0.4872080 0.1520061 0.0263585
0.4966641 0.1519735 0.0272411
0.5061075 0.1519635 0.0272407
0.5152739 0.1573242 0.0281820
0.5152950 0.1573010 0.0291246
0.5247349 0.1572907 0.0291242
0.5341834 0.1572571 0.0300971
0.5433152 0.1627721 0.0311345
0.5433152 0.1627721 0.0311345
0.5527204 0.1627375 0.0321728
0.5620725 0.1627268 0.0321723
0.5617978 0.1684090 0.0333202
0.5711340 0.1683726 0.0344710
0.5791693 0.1683631 0.0344706
0.5791909 0.1683376 0.0356605
0.5868960 0.1741952 0.0356976
0.5948741 0.1741591 0.0369280
0.5948741 0.1741591 0.0369280
0.6028062 0.1741230 0.0381996
0.6103802 0.1801423 0.0382392
0.0067065 0.1043767 0.0074983
0.0117038 0.1080693 0.0078412
0.0178160 0.1079615 0.0080135
0.0255473 0.1078675 0.0081899
0.0330100 0.1117520 0.0083797
0.0412055 0.1116876 0.0085649
0.0516297 0.1116221 0.0087542
0.0598818 0.1156525 0.0089575
0.0696323 0.1156023 0.0091686
0.0808976 0.1155507 0.0094109
0.0938100 0.1197031 0.0096699
0.1049776 0.1196591 0.0099256
0.1173235 0.1196153 0.0101880
0.1261272 0.1239154 0.0104685
0.1407850 0.1238552 0.0110296
0.1514364 0.1238200 0.0113211
0.1685165 0.1282256 0.0119401
0.1808680 0.1281868 0.0123121
0.1939801 0.1281479 0.0126955
0.2078952 0.1326918 0.0135129
0.2152295 0.1326623 0.0139335
0.2304593 0.1326220 0.0143669
0.2462365 0.1373662 0.0148294
0.2545206 0.1373360 0.0152905
0.2716359 0.1372946 0.0157656
0.2802539 0.1372648 0.0162555
0.2977397 0.1421739 0.0167908
0.3068589 0.1421424 0.0173318
0.3255580 0.1420998 0.0178898
0.3348816 0.1471666 0.0184854
0.3446105 0.1471342 0.0190802
0.3544796 0.1471018 0.0196938
0.3644819 0.1470694 0.0203269
0.3841942 0.1522738 0.0210020
0.3943064 0.1522623 0.0210018
0.4045373 0.1522293 0.0216761
0.4148594 0.1521963 0.0223718
0.4249737 0.1575634 0.0231252
0.4354526 0.1575283 0.0239016
0.4459765 0.1575166 0.0239012
0.4562814 0.1630379 0.0247294
0.4669290 0.1630019 0.0255585
0.4669498 0.1629779 0.0264152
0.4771909 0.1629663 0.0264148
0.4863317 0.1686455 0.0273282
0.4957865 0.1686099 0.0282425
0.5052297 0.1685988 0.0282421
0.5146958 0.1685633 0.0291863
0.5144172 0.1744120 0.0301935
0.5238577 0.1744006 0.0301931
0.5333079 0.1743640 0.0312008
0.5427189 0.1743526 0.0312003
0.5424417 0.1803626 0.0322753
0.5518501 0.1803240 0.0333910
0.5612055 0.1803123 0.0333905
0.5705445 0.1802737 0.0345437
0.5705445 0.1802737 0.0345437
0.5783102 0.1864343 0.0357732
0.5863119 0.1864238 0.0357727
0.5863332 0.1863962 0.0370062
0.5943142 0.1863581 0.0382804
0.5940271 0.1926454 0.0383201
0.6019641 0.1926064 0.0396380
0.6098306 0.1925956 0.0396374
0.0073169 0.1204441 0.0082222
0.0129473 0.1202875 0.0084021
0.0190308 0.1245308 0.0085960
0.0263792 0.1244328 0.0087854
0.0341496 0.1243525 0.0089792
0.0425998 0.1287632 0.0092002
0.0514171 0.1286965 0.0094431
0.0619776 0.1286300 0.0096924
0.0720105 0.1331894 0.0099590
0.0836308 0.1331309 0.0102220
0.0935363 0.1330829 0.0104921
0.1046746 0.1330346 0.0107694
0.1168698 0.1377836 0.0110657
0.1304338 0.1377341 0.0113580
0.1403840 0.1376954 0.0116581
0.1564139 0.1426090 0.0119788
0.1680408 0.1425662 0.0123519
0.1803755 0.1425039 0.0131335
0.1934594 0.1424612 0.0135422
0.2073311 0.1475273 0.0139785
0.2221479 0.1474831 0.0144133
0.2298502 0.1474509 0.0148616
0.2455972 0.1526662 0.0153399
0.2623092 0.1526208 0.0158165
0.2709681 0.1525664 0.0168275
0.2883339 0.1525209 0.0173694
0.2970165 0.1579201 0.0173877
0.3061227 0.1578856 0.0179477
0.3247968 0.1578389 0.0185252
0.3343722 0.1578045 0.0191212
0.3438261 0.1633352 0.0197572
0.3536842 0.1632998 0.0203923
0.3736324 0.1632521 0.0210471
0.3833697 0.1689393 0.0217461
0.3934927 0.1689032 0.0224439
0.4036965 0.1688906 0.0224436
0.4140118 0.1688542 0.0231748
0.4241205 0.1746984 0.0239783
0.4345936 0.1746601 0.0247827
0.4451124 0.1746472 0.0247823
0.4557095 0.1746091 0.0256132
0.4663547 0.1745708 0.0264713
0.4762954 0.1806002 0.0264990
0.4857337 0.1805625 0.0273862
0.4857546 0.1805365 0.0283028
0.4951876 0.1805248 0.0283024
0.5043519 0.1866919 0.0292794
0.5138179 0.1866532 0.0302574
0.5232591 0.1866411 0.0302570
0.5232800 0.1866144 0.0312672
0.5324358 0.1928690 0.0323435
0.5418488 0.1928567 0.0323431
0.5512590 0.1928160 0.0334611
0.5512590 0.1928160 0.0334611
0.5603523 0.1990752 0.0346518
0.5696949 0.1990334 0.0358473
0.5696949 0.1990334 0.0358473
0.5777581 0.1989933 0.0370828
0.5857624 0.1989823 0.0370823
0.5855016 0.2054081 0.0383983
0.5934660 0.2053967 0.0383978
0.6014064 0.2053556 0.0397182
0.6014064 0.2053556 0.0397182
0.6092975 0.2053145 0.0410825
0.0082981 0.1338683 0.0088101
0.0138231 0.1385330 0.0090128
0.0203869 0.1384070 0.0092237
0.0272676 0.1383072 0.0094666
0.0352890 0.1431978 0.0097265
0.0441014 0.1431145 0.0099829
0.0532151 0.1430415 0.0102463
0.0641761 0.1429684 0.0105166
0.0745397 0.1480304 0.0108059
0.0833812 0.1479779 0.0110913
0.0968356 0.1479134 0.0113840
0.1082078 0.1531517 0.0113956
0.1208884 0.1530973 0.0116965
0.1300541 0.1530551 0.0120055
0.1451949 0.1529972 0.0123792
0.1559736 0.1583762 0.0127784
0.1675737 0.1583294 0.0131762
0.1798697 0.1582826 0.0135863
0.1929249 0.1582358 0.0140090
0.2067796 0.1637443 0.0149101
0.2215671 0.1636958 0.0153735
0.2371205 0.1636475 0.0158511
0.2451904 0.1636123 0.0163436
0.2616567 0.1692961 0.0168818
0.2702865 0.1692591 0.0174257
0.2876247 0.1692095 0.0179866
0.2965570 0.1691729 0.0185656
0.3146421 0.1750137 0.0191831
0.3240538 0.1749762 0.0198000
0.3335997 0.1749628 0.0197997
