Plugins/FilmEmulator/Content/LUTs/FE_Fujifilm_Eterna_400T_8583_64.cube
# FilmEmulator LUT (resampled to 64)
LUT_3D_SIZE 8
0.014465 0.013245 0.010254
0.128017 0.015795 0.002960
0.302464 0.028207 0.017138
0.449263 0.028726 0.022017
0.557774 0.025526 0.023224
0.646227 0.023294 0.020822
0.718946 0.022217 0.021240
0.786285 0.021729 0.021729
0.000000 0.074306 0.050324
0.094969 0.085145 0.017332
0.275499 0.103523 0.024694
0.438205 0.092896 0.023868
0.566611 0.079640 0.023000
0.661080 0.075897 0.020991
0.745215 0.074761 0.022723
0.814226 0.074921 0.023224
0.000000 0.154624 0.070008
0.015104 0.153646 0.055594
0.275190 0.225774 0.037378
0.464270 0.230864 0.040290
0.602411 0.223259 0.035870
0.707333 0.212187 0.031967
0.793864 0.200828 0.030528
0.863826 0.192483 0.030095
0.000000 0.206970 0.073003
0.000909 0.202352 0.071663
0.219634 0.302609 0.001334
0.446787 0.362336 0.028445
0.613947 0.365971 0.037071
0.735033 0.359802 0.037853
0.825593 0.352345 0.038182
0.900565 0.346745 0.037432
0.000000 0.247641 0.083409
0.000000 0.250530 0.084203
0.045916 0.349106 0.026774
0.394378 0.433143 0.000000
0.596580 0.484120 0.001224
0.736489 0.487162 0.006910
0.834332 0.484231 0.008755
0.917166 0.480844 0.009535
0.000000 0.270735 0.088858
0.000000 0.285035 0.094862
0.009781 0.356085 0.099960
0.364320 0.498342 0.000000
0.551636 0.544065 0.000000
0.717829 0.588245 0.000000
0.821440 0.592980 0.000000
0.910522 0.594661 0.000000
0.000000 0.290213 0.097063
0.000000 0.304162 0.098085
0.000443 0.366528 0.109637
0.295794 0.529569 0.000000
0.540094 0.603256 0.000000
0.677538 0.644024 0.000000
0.802430 0.677130 0.000000
0.897256 0.681309 0.000000
0.000000 0.303345 0.097534
0.000000 0.319419 0.100651
0.000004 0.381936 0.113730
0.175921 0.521192 0.000009
0.519823 0.633375 0.000000
0.658739 0.681178 0.000000
0.776132 0.725006 0.000000
0.880615 0.756348 0.000000
0.000000 0.028704 0.093000
0.097054 0.021299 0.117288
0.287909 0.032282 0.112139
0.449590 0.035213 0.081677
0.568456 0.028901 0.076455
0.657416 0.027255 0.074612
0.732459 0.026627 0.075498
0.797381 0.026537 0.076385
0.000000 0.073846 0.071858
0.047889 0.085793 0.097256
0.262455 0.112365 0.102180
0.436303 0.099826 0.079394
0.570337 0.084161 0.076549
0.671710 0.079116 0.075143
0.756123 0.079300 0.076595
0.824370 0.080559 0.076595
0.000000 0.164952 0.088552
0.015104 0.161902 0.104698
0.245719 0.230179 0.089706
0.453111 0.243562 0.096057
0.601022 0.235085 0.091948
0.713039 0.222798 0.087506
0.799807 0.211494 0.086094
0.871715 0.202660 0.084312
0.000000 0.229659 0.080392
0.000909 0.221957 0.092033
0.131438 0.311467 0.031439
0.418593 0.368243 0.065080
0.604488 0.379334 0.086059
0.732924 0.373440 0.088122
0.825762 0.366164 0.088935
0.904013 0.357297 0.089584
0.000000 0.268530 0.088160
0.000000 0.273964 0.093880
0.029153 0.348551 0.097375
0.375094 0.452586 0.038211
0.576325 0.493728 0.052997
0.726668 0.499952 0.053922
0.827720 0.496206 0.056273
0.913118 0.491780 0.057530
0.000000 0.292223 0.097621
0.000000 0.303107 0.103947
0.009781 0.375274 0.111983
0.326431 0.516737 0.024139
0.540482 0.557508 0.042183
0.701342 0.596589 0.053217
0.811450 0.602317 0.053401
0.903258 0.604520 0.053401
0.000000 0.301944 0.107695
0.000000 0.313388 0.120847
0.000443 0.381973 0.113928
0.222992 0.533191 0.014496
0.530068 0.621333 0.030573
0.666759 0.652578 0.044571
0.791454 0.683164 0.053128
0.888518 0.688488 0.053401
0.000000 0.300205 0.132115
0.000000 0.316159 0.142444
0.000004 0.387078 0.132217
0.110853 0.520654 0.020037
0.506894 0.650300 0.021367
0.654984 0.695660 0.035119
0.764850 0.728651 0.046143
0.872820 0.760646 0.053401
0.000000 0.046574 0.142587
0.031828 0.053381 0.238142
0.274181 0.043223 0.238696
0.439092 0.051889 0.240606
0.568604 0.066817 0.227286
0.660841 0.071142 0.213333
0.738416 0.073539 0.202490
0.803480 0.073778 0.198059
0.000000 0.089316 0.162163
0.002003 0.086893 0.181169
0.240256 0.109506 0.241647
0.422389 0.113501 0.244473
0.568679 0.122094 0.236704
0.675578 0.127773 0.223396
0.761502 0.131612 0.213972
0.832033 0.134027 0.212960
0.000000 0.165267 0.171843
0.002003 0.166541 0.192505
0.164957 0.218854 0.229155
0.449224 0.278384 0.263141
0.603324 0.271924 0.246304
0.717947 0.257323 0.227817
0.804019 0.244819 0.218759
0.879583 0.238715 0.218281
0.000000 0.228747 0.174461
0.000779 0.229810 0.183071
0.061633 0.293842 0.213331
0.402804 0.386152 0.234365
0.602144 0.403681 0.227411
0.730230 0.394037 0.201787
0.823809 0.384647 0.192548
0.905213 0.376007 0.190937
0.000000 0.262338 0.174351
0.000000 0.270170 0.182890
0.029153 0.329707 0.198350
0.322053 0.460381 0.167014
0.550449 0.500421 0.133952
0.709480 0.512731 0.117696
0.816718 0.509492 0.116074
0.904275 0.505841 0.115870
0.000000 0.274886 0.172978
0.000000 0.290312 0.180984
0.009781 0.357684 0.194744
0.186315 0.501496 0.124659
0.526134 0.578631 0.090225
0.676265 0.602167 0.106434
0.795038 0.612587 0.106803
0.890000 0.614161 0.106803
0.000000 0.284235 0.178444
0.000000 0.302381 0.186189
0.000443 0.364307 0.197816
0.043644 0.502213 0.127589
0.510448 0.642751 0.067575
0.659095 0.671834 0.089141
0.770548 0.688327 0.106256
0.873353 0.696443 0.106803
0.000000 0.292049 0.187591
0.000000 0.311923 0.195943
0.000004 0.374091 0.206830
0.022897 0.478045 0.184740
0.476850 0.667326 0.065851
0.647474 0.715165 0.070235
0.760406 0.744908 0.092283
0.854562 0.764178 0.106803
0.000000 0.064326 0.204119
0.000000 0.076360 0.309753
0.274440 0.068331 0.318627
0.431856 0.066007 0.331896
0.555582 0.065708 0.340742
0.656068 0.076998 0.341857
0.737652 0.081525 0.337149
0.803027 0.083309 0.334181
0.000000 0.103243 0.228239
0.000000 0.104502 0.245161
0.208028 0.112581 0.352057
0.417032 0.111702 0.358979
0.554516 0.118470 0.362949
0.669685 0.132898 0.363933
0.759623 0.140713 0.362882
0.831891 0.143518 0.362022
0.000000 0.194475 0.266069
0.000000 0.197442 0.283231
0.043176 0.216861 0.356675
0.428674 0.271044 0.387867
0.586198 0.273481 0.389643
0.715180 0.272748 0.390197
0.804701 0.264781 0.387111
0.881105 0.256234 0.384889
0.000000 0.259478 0.276108
0.000000 0.271081 0.293579
0.022760 0.303267 0.318973
0.364108 0.379313 0.360549
0.611794 0.440265 0.407232
0.743044 0.433616 0.395890
0.837714 0.424733 0.389279
0.919536 0.417446 0.386487
0.000000 0.287565 0.245950
0.000000 0.303358 0.257953
0.022585 0.353899 0.286883
0.207597 0.442618 0.313159
0.553661 0.527216 0.361209
0.726280 0.548232 0.374551
0.833542 0.543137 0.369566
0.923210 0.537782 0.367712
0.000000 0.307839 0.248701
0.000000 0.330667 0.260669
0.009781 0.379702 0.277032
0.072599 0.455412 0.273622
0.507700 0.591971 0.314173
0.676075 0.623076 0.319112
0.806199 0.638154 0.323916
0.903977 0.639299 0.324686
0.000000 0.318478 0.251232
0.000000 0.340434 0.260513
0.000443 0.379190 0.267234
0.043633 0.462543 0.272711
0.445499 0.623116 0.269765
0.634143 0.673871 0.271283
0.769597 0.703839 0.276788
0.880472 0.717118 0.288218
0.000000 0.325178 0.253497
0.000000 0.347788 0.262585
0.000004 0.384489 0.266313
0.022897 0.463803 0.278112
0.385215 0.628183 0.249021
0.611644 0.711583 0.257401
0.741756 0.745921 0.243431
0.852922 0.776424 0.251809
0.000000 0.084830 0.258061
0.026195 0.088855 0.367313
0.288024 0.085289 0.356461
0.432655 0.084760 0.379192
0.548782 0.081357 0.398575
0.640590 0.076652 0.415687
0.733053 0.081603 0.425521
0.799251 0.085196 0.424600
0.000000 0.116761 0.286960
0.000000 0.120633 0.317400
0.183925 0.121643 0.436098
0.422475 0.117905 0.440652
0.551985 0.125214 0.451481
0.658726 0.133917 0.461869
0.750299 0.139520 0.466191
0.823999 0.142295 0.464906
0.000000 0.208041 0.351655
0.000000 0.215431 0.369496
0.006680 0.229612 0.437101
0.423480 0.276385 0.490241
0.581455 0.275214 0.498860
0.700279 0.268023 0.502398
0.791330 0.261676 0.505381
0.870308 0.254226 0.502323
0.000000 0.297069 0.363708
0.000000 0.315289 0.385839
0.000996 0.337156 0.410104
0.298043 0.362206 0.449568
0.591784 0.437099 0.513263
0.733252 0.441437 0.524796
0.830269 0.433921 0.526384
0.914147 0.425093 0.523854
0.000000 0.334857 0.357574
0.000000 0.359551 0.375041
0.000996 0.387315 0.387890
0.124004 0.410153 0.376109
0.544656 0.534598 0.486671
0.737411 0.578743 0.525474
0.844634 0.574997 0.525423
0.934326 0.569999 0.525092
0.000000 0.345806 0.319271
0.000000 0.368467 0.325469
0.000996 0.399168 0.341586
0.050924 0.461389 0.369166
0.468844 0.584730 0.436400
0.679774 0.644093 0.476101
0.818465 0.667979 0.497195
0.917074 0.667695 0.498382
0.000000 0.349053 0.305208
0.000000 0.373890 0.320444
0.000433 0.413109 0.337996
0.043509 0.485072 0.362330
0.382488 0.606142 0.384541
0.637716 0.699320 0.438471
0.776410 0.727676 0.452420
0.891592 0.744287 0.467111
0.000000 0.353040 0.305599
0.000000 0.378577 0.318939
0.000004 0.419339 0.334424
0.022897 0.477894 0.349253
0.303441 0.598947 0.344419
0.604670 0.728364 0.410603
0.745718 0.768587 0.418938
0.860134 0.799299 0.436223
0.000000 0.098040 0.325435
0.077175 0.095302 0.400841
0.312877 0.096212 0.394058
0.440759 0.099469 0.405955
0.546622 0.097343 0.431736
0.628581 0.092350 0.460229
0.714311 0.087543 0.484721
0.792537 0.082485 0.501229
0.000000 0.126533 0.328247
0.000000 0.132578 0.399222
0.209113 0.129283 0.486310
0.437564 0.127273 0.488280
0.555113 0.133412 0.504408
0.653652 0.140894 0.524038
0.740357 0.145563 0.540697
0.822985 0.148211 0.554453
0.000000 0.223908 0.402553
0.000000 0.229532 0.415416
0.010036 0.239141 0.500629
0.423548 0.279990 0.549746
0.588614 0.279835 0.566039
0.697763 0.270944 0.576408
0.783437 0.263712 0.587176
0.866776 0.258749 0.595965
0.000000 0.327095 0.433038
0.000000 0.343216 0.452430
0.000004 0.359185 0.473364
0.295773 0.371747 0.521029
0.593879 0.445105 0.590832
0.721921 0.438336 0.600272
0.812631 0.428412 0.608013
0.902452 0.423354 0.616968
0.000000 0.382021 0.441409
0.000000 0.404332 0.459147
0.000004 0.429195 0.475664
0.143301 0.441319 0.484184
0.535505 0.539763 0.558541
0.740022 0.595100 0.620520
0.843270 0.588995 0.628711
0.932652 0.581157 0.632529
0.000000 0.403921 0.429506
0.000000 0.429105 0.443654
0.000004 0.455199 0.450063
0.022920 0.474993 0.432528
0.410615 0.547183 0.485235
0.680408 0.655517 0.579954
0.823550 0.686127 0.611822
0.923671 0.688978 0.620255
0.000000 0.409487 0.420209
0.000000 0.434770 0.423731
0.000004 0.455636 0.409177
0.020435 0.490851 0.419579
0.318539 0.570690 0.445047
0.630400 0.700608 0.542709
0.776021 0.737623 0.568999
0.898048 0.763331 0.594158
0.000000 0.412868 0.409472
0.000000 0.435138 0.406489
0.000004 0.454492 0.396341
0.020113 0.502286 0.415015
0.237654 0.582197 0.416665
0.586221 0.727120 0.514540
0.749298 0.785466 0.544689
0.864467 0.816515 0.562683
0.000000 0.100141 0.418544
0.167741 0.101108 0.419127
0.348202 0.102740 0.413559
0.454101 0.109788 0.413632
0.549226 0.108808 0.443206
0.620988 0.105413 0.476750
0.696968 0.100362 0.511376
0.769658 0.093763 0.541731
0.000000 0.138017 0.384895
0.000000 0.139460 0.504874
0.254883 0.133762 0.524482
0.460321 0.138053 0.521012
0.565899 0.142901 0.540589
0.649448 0.147983 0.562328
0.728349 0.151902 0.586578
0.806052 0.153827 0.609197
0.000000 0.238280 0.450603
0.000000 0.242920 0.462953
0.019635 0.250041 0.572620
0.438835 0.284964 0.592517
0.597965 0.284970 0.614840
0.697437 0.274428 0.629509
0.774087 0.265082 0.648300
0.853727 0.259951 0.662710
0.000000 0.348820 0.491695
0.000000 0.358651 0.505966
0.000004 0.366708 0.533813
0.313444 0.380941 0.570363
0.602402 0.452581 0.646090
0.723512 0.445036 0.661108
0.805649 0.434590 0.676819
0.887508 0.425299 0.690593
0.000000 0.420775 0.503557
0.000000 0.436920 0.517230
0.000004 0.456355 0.532558
0.177797 0.460690 0.537665
0.509735 0.526231 0.598752
0.726336 0.588979 0.672134
0.826944 0.586261 0.692113
0.913492 0.579455 0.707354
0.000000 0.447744 0.495232
0.000000 0.466746 0.506689
0.000004 0.490381 0.518042
0.040341 0.504423 0.515622
0.374651 0.517841 0.500592
0.677312 0.659221 0.641883
0.826323 0.700448 0.691983
0.920754 0.703112 0.709334
0.000000 0.453950 0.482374
0.000000 0.475904 0.491670
0.000004 0.501615 0.495306
0.001588 0.516378 0.476325
0.280758 0.539425 0.468044
0.607626 0.680305 0.590736
0.777124 0.744663 0.651183
0.893219 0.771192 0.683213
0.000000 0.457228 0.474174
0.000000 0.479447 0.478351
0.000004 0.503815 0.476694
0.001588 0.513298 0.452428
0.222453 0.558873 0.452671
0.550754 0.692517 0.555027
0.743014 0.777722 0.619548
0.857570 0.814021 0.649166
0.133606 0.104553 0.433228
0.242375 0.106833 0.434767
0.381008 0.108821 0.430542
0.469862 0.115204 0.428750
0.554766 0.118303 0.445361
0.618042 0.115487 0.479405
0.684239 0.111755 0.518625
0.749664 0.106049 0.562500
0.000000 0.147988 0.493334
0.076010 0.141735 0.554278
0.327678 0.143515 0.549810
0.485220 0.145454 0.544271
0.579458 0.149409 0.552351
0.651459 0.153715 0.578685
0.721437 0.157173 0.607693
0.788513 0.158168 0.635965
0.000000 0.248714 0.484031
0.000000 0.254390 0.532714
0.163596 0.263690 0.608439
0.470648 0.288696 0.622733
0.615887 0.290224 0.637293
0.700005 0.274956 0.655829
0.769954 0.267788 0.677123
0.838898 0.260869 0.700496
0.000000 0.365064 0.537907
0.000000 0.371705 0.547629
0.009107 0.370628 0.595201
0.354322 0.395603 0.615943
0.610962 0.455203 0.676857
0.730029 0.451227 0.698326
0.801538 0.437365 0.715040
0.877585 0.431593 0.735948
0.000000 0.451739 0.556466
0.000000 0.466166 0.569133
0.000004 0.479728 0.579850
0.237175 0.471838 0.580645
0.511147 0.526485 0.638614
0.730434 0.593343 0.717257
0.816454 0.586570 0.736390
0.895015 0.577462 0.753832
0.000000 0.485810 0.554387
0.000000 0.499892 0.560030
0.000004 0.518156 0.572371
0.116999 0.528075 0.571568
0.371540 0.516683 0.542651
0.701920 0.686170 0.709569
0.829166 0.714836 0.751602
0.914259 0.713004 0.770307
0.000000 0.497668 0.543052
0.000000 0.514612 0.552810
0.000004 0.535693 0.557772
0.000031 0.551894 0.548186
0.297069 0.534789 0.495842
0.584679 0.657597 0.617954
0.769527 0.744247 0.710285
0.890237 0.778508 0.753797
0.000000 0.500824 0.531403
0.000000 0.517600 0.538112
0.000004 0.541814 0.543623
0.000031 0.556684 0.530391
0.234698 0.552760 0.486921
0.525652 0.664224 0.581805
0.735731 0.770351 0.676509
0.850586 0.814667 0.723480
