Plugins/FilmEmulator/Content/LUTs/FE_Fuji_Pro_400H_64.cube
TITLE "FE_Fuji_Pro_400H_33"
LUT_3D_SIZE 4
0.0043212 0.0072840 0.0068190
0.2440170 0.0088046 0.0092908
0.5605799 0.0169268 0.0181209
0.7516525 0.0278865 0.0295549
0.0162723 0.3050820 0.0136897
0.2901057 0.3117233 0.0241306
0.5850582 0.3198544 0.0372460
0.7530040 0.3380389 0.0510740
0.0521124 0.5706297 0.0309832
0.3643513 0.5786938 0.0452953
0.6286165 0.5774598 0.0599118
0.7770962 0.5868377 0.0761277
0.1029025 0.7222354 0.0528187
0.4232818 0.7207845 0.0695867
0.6617523 0.7199358 0.0852257
0.7926570 0.7277179 0.1040162
0.0077886 0.0118589 0.2887793
0.2709391 0.0208760 0.2988923
0.5838462 0.0325876 0.3168558
0.7599791 0.0464637 0.3267561
0.0274446 0.3084975 0.3217882
0.3258837 0.3257821 0.3383989
0.5997759 0.3346059 0.3469002
0.7644939 0.3437604 0.3555410
0.0694534 0.5755585 0.3436557
0.3911691 0.5843411 0.3606642
0.6428671 0.5836324 0.3692156
0.7877052 0.5933827 0.3781036
0.1246639 0.7184612 0.3724768
0.4515148 0.7174654 0.3810703
0.6752126 0.7254402 0.3900533
0.8028082 0.7250426 0.3988906
0.0196721 0.0274640 0.5220586
0.2995015 0.0387306 0.5331540
0.5931981 0.0534302 0.5443073
0.7677356 0.0689360 0.5457894
0.0411592 0.3258118 0.5475210
0.3502115 0.3337803 0.5567602
0.6261055 0.3427167 0.5661302
0.7747874 0.3520746 0.5662920
0.0878659 0.5840845 0.5625881
0.4176600 0.5827195 0.5715946
0.6557966 0.5923181 0.5808945
0.7972716 0.6020088 0.5901492
0.1494938 0.7255505 0.5843232
0.4786001 0.7246847 0.5841450
0.6878535 0.7241832 0.5931380
0.8118441 0.7321705 0.6023174
0.0371242 0.0464475 0.6685184
0.3192326 0.0595898 0.6696543
0.6167138 0.0739616 0.6789833
0.7758604 0.0920952 0.6801315
0.0569698 0.3342181 0.6802854
0.3750966 0.3424410 0.6883853
0.6389008 0.3515865 0.6884944
0.7843226 0.3710068 0.6968448
0.1109444 0.5829064 0.6932492
0.4440686 0.5919214 0.7012093
0.6682469 0.6015574 0.7013239
0.7975643 0.6010811 0.7090827
0.1786146 0.7246603 0.7040749
0.4921308 0.7322630 0.7041328
0.6996979 0.7317700 0.7118315
0.8206072 0.7314315 0.7117719
