Plugins/FilmEmulator/Content/LUTs/FE_Fuji_CA_Super_C_64.cube
TITLE "FE_Fuji_CA_Super_C_33"
LUT_3D_SIZE 64
0.0000000 0.0470690 0.0707880
0.0000000 0.0470690 0.0707880
0.0268573 0.0513800 0.0710615
0.1001686 0.0617028 0.0717907
0.1761602 0.0730296 0.0727102
0.2508268 0.0848536 0.0738003
0.3207582 0.0966339 0.0750168
0.3879528 0.1086827 0.0763929
0.4514166 0.1208089 0.0779119
0.5101860 0.1327757 0.0795407
0.5688053 0.1455205 0.0814167
0.6198892 0.1573822 0.0832928
0.6701032 0.1698313 0.0853969
0.7185453 0.1826981 0.0877167
0.7637657 0.1956480 0.0902119
0.8052474 0.2091467 0.0931641
0.8423264 0.2225850 0.0966007
0.8753698 0.2356846 0.1003235
0.9087595 0.2499933 0.1047058
0.9387490 0.2638306 0.1091998
0.9688579 0.2787524 0.1142797
0.9985785 0.2950414 0.1199739
1.0000000 0.3112884 0.1261733
1.0000000 0.3263584 0.1326052
1.0000000 0.3442898 0.1411327
1.0000000 0.3604195 0.1496390
1.0000000 0.3767615 0.1587883
1.0000000 0.3909248 0.1670206
1.0000000 0.4049588 0.1756195
1.0000000 0.4187285 0.1842530
1.0000000 0.4323963 0.1929747
1.0000000 0.4457033 0.2016046
1.0000000 0.4563813 0.2086766
1.0000000 0.4682919 0.2171075
1.0000000 0.4774023 0.2239051
1.0000000 0.4861327 0.2308660
1.0000000 0.4944310 0.2377310
1.0000000 0.5018091 0.2437904
1.0000000 0.5082920 0.2501434
1.0000000 0.5156243 0.2570334
1.0000000 0.5211681 0.2624829
1.0000000 0.5266345 0.2678958
1.0000000 0.5320619 0.2734400
1.0000000 0.5380529 0.2792829
1.0000000 0.5425800 0.2844948
1.0000000 0.5475864 0.2901552
1.0000000 0.5525292 0.2957722
1.0000000 0.5573704 0.3016314
1.0000000 0.5613766 0.3062675
1.0000000 0.5654578 0.3117418
1.0000000 0.5693080 0.3164974
1.0000000 0.5732481 0.3221554
1.0000000 0.5765034 0.3265499
1.0000000 0.5808861 0.3325891
1.0000000 0.5841039 0.3370741
1.0000000 0.5872946 0.3415288
1.0000000 0.5906019 0.3460702
1.0000000 0.5938618 0.3505797
1.0000000 0.5970937 0.3550580
1.0000000 0.6003491 0.3595752
1.0000000 0.6035976 0.3641533
1.0000000 0.6068077 0.3686925
1.0000000 0.6099901 0.3731992
1.0000000 0.6121371 0.3763100
0.0000000 0.0584593 0.0715032
0.0000000 0.0584929 0.0715055
0.0329170 0.0632638 0.0718195
0.1068731 0.0738919 0.0725986
0.1828532 0.0854275 0.0735662
0.2567699 0.0973393 0.0746967
0.3271496 0.1091390 0.0759556
0.3925422 0.1210678 0.0773492
0.4561999 0.1334246 0.0789285
0.5151463 0.1456257 0.0806216
0.5707868 0.1579512 0.0824634
0.6216828 0.1700007 0.0843914
0.6720718 0.1824058 0.0865391
0.7169095 0.1945202 0.0887422
0.7619729 0.2075315 0.0913845
0.8034141 0.2203904 0.0944611
0.8405988 0.2324864 0.0978760
0.8737620 0.2443538 0.1016168
0.9073340 0.2572279 0.1058376
0.9410738 0.2712018 0.1104991
0.9678667 0.2832551 0.1150890
0.9979870 0.2975933 0.1202482
1.0000000 0.3120598 0.1262587
1.0000000 0.3263584 0.1326052
1.0000000 0.3442898 0.1411327
1.0000000 0.3604195 0.1496390
1.0000000 0.3767615 0.1587883
1.0000000 0.3909248 0.1670206
1.0000000 0.4049588 0.1756195
1.0000000 0.4187285 0.1842530
1.0000000 0.4323963 0.1929747
1.0000000 0.4457033 0.2016046
1.0000000 0.4563813 0.2086766
1.0000000 0.4682919 0.2171075
1.0000000 0.4774023 0.2239051
1.0000000 0.4861327 0.2308660
1.0000000 0.4944310 0.2377310
1.0000000 0.5018091 0.2437904
1.0000000 0.5082920 0.2501434
1.0000000 0.5156243 0.2570334
1.0000000 0.5211681 0.2624829
1.0000000 0.5266345 0.2678958
1.0000000 0.5320619 0.2734400
1.0000000 0.5373317 0.2789012
1.0000000 0.5425800 0.2844948
1.0000000 0.5475864 0.2901552
1.0000000 0.5525292 0.2957722
1.0000000 0.5573704 0.3016314
1.0000000 0.5608572 0.3059821
1.0000000 0.5654578 0.3117418
1.0000000 0.5693080 0.3164974
1.0000000 0.5732481 0.3221554
1.0000000 0.5765034 0.3265499
1.0000000 0.5808861 0.3325891
1.0000000 0.5841039 0.3370741
1.0000000 0.5872946 0.3415288
1.0000000 0.5906019 0.3460702
1.0000000 0.5938618 0.3505797
1.0000000 0.5970937 0.3550580
1.0000000 0.6003491 0.3595752
1.0000000 0.6035976 0.3641533
1.0000000 0.6068077 0.3686925
1.0000000 0.6099901 0.3731992
1.0000000 0.6121371 0.3763100
0.0000000 0.1348481 0.0767712
0.0000000 0.1351694 0.0767958
0.0433173 0.1396779 0.0771661
0.1163745 0.1492589 0.0780237
0.1900755 0.1595044 0.0790570
0.2632779 0.1703272 0.0802768
0.3311090 0.1820228 0.0816925
0.3961831 0.1929242 0.0831812
0.4566619 0.2047143 0.0848703
0.5151082 0.2158317 0.0866514
0.5703374 0.2270548 0.0885825
0.6208971 0.2389920 0.0906940
0.6672400 0.2497201 0.0928568
0.7146647 0.2624177 0.0957432
0.7593325 0.2743179 0.0990351
0.7966394 0.2849831 0.1024781
0.8330069 0.2970334 0.1063817
0.8691299 0.3089295 0.1106907
0.8987299 0.3203146 0.1148677
0.9319627 0.3330119 0.1197684
0.9580516 0.3438089 0.1243873
0.9874793 0.3579292 0.1307127
1.0000000 0.3712144 0.1377569
1.0000000 0.3841732 0.1447869
1.0000000 0.3984954 0.1534286
1.0000000 0.4095085 0.1609777
1.0000000 0.4232541 0.1696314
1.0000000 0.4364418 0.1786117
1.0000000 0.4482616 0.1864324
1.0000000 0.4590633 0.1947979
1.0000000 0.4695662 0.2025108
1.0000000 0.4785979 0.2094494
1.0000000 0.4881143 0.2171380
1.0000000 0.4957902 0.2239240
1.0000000 0.5021622 0.2305865
1.0000000 0.5080839 0.2364724
1.0000000 0.5142843 0.2431518
1.0000000 0.5194240 0.2489686
1.0000000 0.5238490 0.2541972
1.0000000 0.5284039 0.2599199
1.0000000 0.5316875 0.2650116
1.0000000 0.5355550 0.2702270
1.0000000 0.5386009 0.2753862
1.0000000 0.5422482 0.2808470
1.0000000 0.5450228 0.2858719
1.0000000 0.5475864 0.2901552
1.0000000 0.5525292 0.2957722
1.0000000 0.5573704 0.3016314
1.0000000 0.5608572 0.3059821
1.0000000 0.5654578 0.3117418
1.0000000 0.5693080 0.3164974
1.0000000 0.5732481 0.3221554
1.0000000 0.5765034 0.3265499
1.0000000 0.5808861 0.3325891
1.0000000 0.5841039 0.3370741
1.0000000 0.5872946 0.3415288
1.0000000 0.5906019 0.3460702
1.0000000 0.5938618 0.3505797
1.0000000 0.5970937 0.3550580
1.0000000 0.6003491 0.3595752
1.0000000 0.6035976 0.3641533
1.0000000 0.6068077 0.3686925
1.0000000 0.6099901 0.3731992
1.0000000 0.6121371 0.3763100
0.0000000 0.2228744 0.0858774
0.0054604 0.2236009 0.0849080
0.0559474 0.2293747 0.0848473
0.1269778 0.2364549 0.0854619
0.2000416 0.2457897 0.0866199
0.2699980 0.2553052 0.0879215
0.3352016 0.2647486 0.0893319
0.3972601 0.2743181 0.0908797
0.4573492 0.2841987 0.0926019
0.5148869 0.2956663 0.0946397
0.5662558 0.3052865 0.0965648
0.6162286 0.3152807 0.0988888
0.6648934 0.3270242 0.1020167
0.7082647 0.3369716 0.1052691
0.7522569 0.3478057 0.1090120
0.7920873 0.3583713 0.1130348
0.8275242 0.3697753 0.1172344
0.8597583 0.3796381 0.1214004
0.8890135 0.3892459 0.1257778
0.9215799 0.4008064 0.1311294
0.9468426 0.4118045 0.1370485
0.9755777 0.4238240 0.1441873
1.0000000 0.4360114 0.1521446
1.0000000 0.4482149 0.1598998
1.0000000 0.4594837 0.1678274
1.0000000 0.4710154 0.1763003
1.0000000 0.4828432 0.1850783
1.0000000 0.4940042 0.1928617
1.0000000 0.5056434 0.2013056
1.0000000 0.5153154 0.2095786
1.0000000 0.5231714 0.2166160
1.0000000 0.5330447 0.2239499
1.0000000 0.5401556 0.2310274
1.0000000 0.5475910 0.2386594
1.0000000 0.5541722 0.2448182
1.0000000 0.5593637 0.2516423
1.0000000 0.5643131 0.2575654
1.0000000 0.5679481 0.2628978
1.0000000 0.5730300 0.2688172
1.0000000 0.5762778 0.2740166
1.0000000 0.5799382 0.2796634
1.0000000 0.5828384 0.2848541
1.0000000 0.5863144 0.2892348
1.0000000 0.5889325 0.2946358
1.0000000 0.5914345 0.2999427
1.0000000 0.5937246 0.3042922
1.0000000 0.5968096 0.3099890
1.0000000 0.5983562 0.3140313
1.0000000 0.6002930 0.3183750
1.0000000 0.6017488 0.3225839
1.0000000 0.6043051 0.3282042
1.0000000 0.6055667 0.3322911
1.0000000 0.6072272 0.3367492
1.0000000 0.6091787 0.3410294
1.0000000 0.6103134 0.3451248
1.0000000 0.6114455 0.3493000
1.0000000 0.6125232 0.3522828
1.0000000 0.6143486 0.3565269
1.0000000 0.6153692 0.3605991
1.0000000 0.6163893 0.3648272
1.0000000 0.6173092 0.3677738
1.0000000 0.6190253 0.3720427
1.0000000 0.6199490 0.3761906
1.0000000 0.6208175 0.3792021
0.0029911 0.3072251 0.1025898
0.0140130 0.3063608 0.1004591
0.0681820 0.3119888 0.0996060
0.1391878 0.3197625 0.0991368
0.2093261 0.3279284 0.0989686
0.2778115 0.3364265 0.0991478
0.3424292 0.3449804 0.0995727
0.4022145 0.3534195 0.1003335
0.4616341 0.3623769 0.1017035
0.5157357 0.3710957 0.1036509
0.5661023 0.3797634 0.1061093
0.6155661 0.3888677 0.1091132
0.6634846 0.3983321 0.1126186
0.7063035 0.4091423 0.1164981
0.7459403 0.4181358 0.1204034
0.7848723 0.4276289 0.1245405
0.8197118 0.4367741 0.1287669
0.8513513 0.4457042 0.1333734
0.8829970 0.4569830 0.1391490
0.9116498 0.4664106 0.1452833
0.9367000 0.4753233 0.1521714
0.9646304 0.4861354 0.1596205
0.9870859 0.4972447 0.1672647
1.0000000 0.5086177 0.1757597
1.0000000 0.5187475 0.1839535
1.0000000 0.5290122 0.1918118
1.0000000 0.5396811 0.2006382
1.0000000 0.5500333 0.2084249
1.0000000 0.5589247 0.2160469
1.0000000 0.5675584 0.2239786
1.0000000 0.5759473 0.2318819
1.0000000 0.5838348 0.2392833
1.0000000 0.5914044 0.2468407
1.0000000 0.5967779 0.2531107
1.0000000 0.6018478 0.2593229
1.0000000 0.6064731 0.2661468
1.0000000 0.6108853 0.2722224
1.0000000 0.6160463 0.2782772
1.0000000 0.6190518 0.2836391
1.0000000 0.6225836 0.2885106
1.0000000 0.6251861 0.2936480
1.0000000 0.6277626 0.2991204
1.0000000 0.6312441 0.3037438
1.0000000 0.6335626 0.3090788
1.0000000 0.6357733 0.3136607
1.0000000 0.6378111 0.3191421
1.0000000 0.6398240 0.3235533
1.0000000 0.6427045 0.3282849
1.0000000 0.6440030 0.3335337
1.0000000 0.6457036 0.3379296
1.0000000 0.6468397 0.3421028
1.0000000 0.6483141 0.3464993
1.0000000 0.6504809 0.3508451
1.0000000 0.6515050 0.3549546
1.0000000 0.6525046 0.3590974
1.0000000 0.6538087 0.3622705
1.0000000 0.6547408 0.3663263
1.0000000 0.6566804 0.3706681
1.0000000 0.6575768 0.3748292
1.0000000 0.6584399 0.3777650
1.0000000 0.6589957 0.3816559
1.0000000 0.6597960 0.3846385
1.0000000 0.6616302 0.3890729
1.0000000 0.6623931 0.3920227
0.0086615 0.3846036 0.1331072
0.0246083 0.3860427 0.1285061
0.0830607 0.3915145 0.1255038
0.1528414 0.3984265 0.1224115
0.2203853 0.4055520 0.1198938
0.2889457 0.4132779 0.1183752
0.3512363 0.4207832 0.1172518
0.4106475 0.4284290 0.1170904
0.4668242 0.4342165 0.1173054
0.5175092 0.4416822 0.1177756
0.5671242 0.4494855 0.1186029
0.6157407 0.4576758 0.1208014
0.6597713 0.4656278 0.1244323
0.7018684 0.4756182 0.1285338
0.7438315 0.4843477 0.1327407
0.7786577 0.4921421 0.1371073
0.8126861 0.5003219 0.1419315
0.8437073 0.5083461 0.1476802
0.8749973 0.5170881 0.1538987
0.9027376 0.5272092 0.1612146
0.9273160 0.5352409 0.1681026
0.9514446 0.5437889 0.1754294
0.9767260 0.5536031 0.1836364
1.0000000 0.5638347 0.1916298
1.0000000 0.5729100 0.1998776
1.0000000 0.5834567 0.2079343
1.0000000 0.5916615 0.2153744
1.0000000 0.6010522 0.2238394
1.0000000 0.6089309 0.2317034
1.0000000 0.6165848 0.2397931
1.0000000 0.6240122 0.2472770
1.0000000 0.6310817 0.2549534
1.0000000 0.6377866 0.2624484
1.0000000 0.6423647 0.2686040
1.0000000 0.6468482 0.2749188
1.0000000 0.6508493 0.2809602
1.0000000 0.6547490 0.2869938
1.0000000 0.6586888 0.2926677
1.0000000 0.6620076 0.2984575
1.0000000 0.6644808 0.3039041
1.0000000 0.6673511 0.3088049
1.0000000 0.6695910 0.3141822
1.0000000 0.6716577 0.3187224
1.0000000 0.6748230 0.3245869
1.0000000 0.6767169 0.3290361
1.0000000 0.6785055 0.3335620
1.0000000 0.6798391 0.3378173
1.0000000 0.6814248 0.3433158
1.0000000 0.6829365 0.3477619
1.0000000 0.6851448 0.3522387
1.0000000 0.6864622 0.3565833
1.0000000 0.6874369 0.3606646
1.0000000 0.6884082 0.3648369
1.0000000 0.6895899 0.3680010
1.0000000 0.6904655 0.3720607
1.0000000 0.6924240 0.3764020
1.0000000 0.6932391 0.3805453
1.0000000 0.6940194 0.3834682
1.0000000 0.6948040 0.3875443
1.0000000 0.6955716 0.3916993
1.0000000 0.6962762 0.3946581
1.0000000 0.6969870 0.3988177
1.0000000 0.6985378 0.4018171
1.0000000 0.6992171 0.4060044
0.0153777 0.4528142 0.1636966
0.0359840 0.4544995 0.1601840
0.0965735 0.4574921 0.1571586
0.1658369 0.4637353 0.1542166
0.2323960 0.4701405 0.1514056
0.2988924 0.4769880 0.1487996
0.3586811 0.4835765 0.1463617
0.4175502 0.4905165 0.1442218
0.4703841 0.4971817 0.1417638
0.5232192 0.5043107 0.1405486
0.5723832 0.5114288 0.1388127
0.6170484 0.5183516 0.1382772
0.6607814 0.5256144 0.1386334
0.7021399 0.5329870 0.1408051
0.7400130 0.5402331 0.1451931
0.7740874 0.5472289 0.1504064
0.8073648 0.5545721 0.1563432
0.8378141 0.5618082 0.1629158
0.8684996 0.5696966 0.1697534
0.8956742 0.5790448 0.1770595
0.9198096 0.5863152 0.1842422
0.9436375 0.5941122 0.1918007
0.9679804 0.6028554 0.1993909
0.9911414 0.6120807 0.2073944
1.0000000 0.6202282 0.2155747
1.0000000 0.6283752 0.2234466
1.0000000 0.6372207 0.2308583
1.0000000 0.6455864 0.2394377
1.0000000 0.6525797 0.2476140
1.0000000 0.6593814 0.2550340
1.0000000 0.6648829 0.2627231
1.0000000 0.6710670 0.2701788
1.0000000 0.6760499 0.2769905
1.0000000 0.6814133 0.2836043
1.0000000 0.6854018 0.2898536
1.0000000 0.6889582 0.2960080
1.0000000 0.6924237 0.3020965
1.0000000 0.6954767 0.3070844
1.0000000 0.6978348 0.3127078
1.0000000 0.7005495 0.3185925
1.0000000 0.7025905 0.3231366
1.0000000 0.7057524 0.3291212
1.0000000 0.7075821 0.3336393
1.0000000 0.7093930 0.3382122
1.0000000 0.7110739 0.3428318
1.0000000 0.7126586 0.3484259
1.0000000 0.7142313 0.3529537
1.0000000 0.7152405 0.3571507
1.0000000 0.7177011 0.3618824
1.0000000 0.7189963 0.3662692
1.0000000 0.7198578 0.3703785
1.0000000 0.7207158 0.3733567
1.0000000 0.7218451 0.3776738
1.0000000 0.7226172 0.3816726
1.0000000 0.7233866 0.3858207
1.0000000 0.7252414 0.3890565
1.0000000 0.7259557 0.3931159
1.0000000 0.7266451 0.3971755
1.0000000 0.7273308 0.4001606
1.0000000 0.7280028 0.4043220
1.0000000 0.7286226 0.4072204
1.0000000 0.7292438 0.4113170
1.0000000 0.7298607 0.4143253
1.0000000 0.7313581 0.4174122
0.0226690 0.5105371 0.1955562
0.0481838 0.5124310 0.1911454
0.1127441 0.5173866 0.1884444
0.1814432 0.5230163 0.1850920
0.2455817 0.5286392 0.1822302
0.3098692 0.5346758 0.1795733
0.3692813 0.5406557 0.1774843
0.4257463 0.5467470 0.1755390
0.4779612 0.5527793 0.1740499
0.5271093 0.5588638 0.1720605
0.5756671 0.5653111 0.1702988
0.6196479 0.5715818 0.1686339
0.6628706 0.5782019 0.1672953
0.7034679 0.5829905 0.1659273
0.7404295 0.5895838 0.1646047
0.7736691 0.5959359 0.1658841
0.8030437 0.6037589 0.1722289
0.8329248 0.6102698 0.1787718
0.8630121 0.6173704 0.1859132
0.8899603 0.6242813 0.1931378
0.9136688 0.6308819 0.1997591
0.9372028 0.6380079 0.2073818
0.9606555 0.6458175 0.2148806
0.9805754 0.6531273 0.2222534
1.0000000 0.6614913 0.2307476
1.0000000 0.6693394 0.2384483
1.0000000 0.6770197 0.2465051
1.0000000 0.6834244 0.2545679
1.0000000 0.6896849 0.2621007
1.0000000 0.6957685 0.2697064
1.0000000 0.7016423 0.2781100
1.0000000 0.7062088 0.2849593
1.0000000 0.7114001 0.2923514
1.0000000 0.7164103 0.2990826
1.0000000 0.7199097 0.3045462
1.0000000 0.7230419 0.3105749
1.0000000 0.7260882 0.3168972
1.0000000 0.7282153 0.3215243
1.0000000 0.7308335 0.3275311
1.0000000 0.7327238 0.3322440
1.0000000 0.7349832 0.3382784
1.0000000 0.7367096 0.3428160
1.0000000 0.7395948 0.3478622
1.0000000 0.7411877 0.3535735
1.0000000 0.7426291 0.3580548
1.0000000 0.7440282 0.3626495
1.0000000 0.7450652 0.3669165
1.0000000 0.7462528 0.3712965
1.0000000 0.7471337 0.3754343
1.0000000 0.7482811 0.3798612
1.0000000 0.7502500 0.3831421
1.0000000 0.7512556 0.3874027
1.0000000 0.7519945 0.3915125
1.0000000 0.7526692 0.3955958
1.0000000 0.7533454 0.3985091
1.0000000 0.7542417 0.4027495
1.0000000 0.7548494 0.4056863
1.0000000 0.7554519 0.4098220
1.0000000 0.7560556 0.4127458
1.0000000 0.7577879 0.4171301
1.0000000 0.7581478 0.4198985
1.0000000 0.7586867 0.4240967
1.0000000 0.7592263 0.4270407
1.0000000 0.7597273 0.4299356
0.0315658 0.5650342 0.2277197
0.0638771 0.5671844 0.2236960
0.1291445 0.5717038 0.2204541
0.1962404 0.5766745 0.2175971
0.2595346 0.5817057 0.2148538
0.3214827 0.5869893 0.2125293
0.3786950 0.5922386 0.2093620
0.4345922 0.5977332 0.2074950
0.4862586 0.6031993 0.2049472
0.5349103 0.6087244 0.2027166
0.5797052 0.6141816 0.2007860
0.6233766 0.6198915 0.1992472
0.6657138 0.6258487 0.1982061
0.7022331 0.6313790 0.1972296
0.7383535 0.6372552 0.1967799
0.7707862 0.6429471 0.1957368
0.8029307 0.6468803 0.1944804
0.8292482 0.6522508 0.1948020
0.8584142 0.6606930 0.2019277
0.8848094 0.6669002 0.2092007
0.9080706 0.6728518 0.2157869
0.9312761 0.6793280 0.2227883
0.9541305 0.6863477 0.2304960
0.9732684 0.6928278 0.2381035
0.9907790 0.6993605 0.2461217
1.0000000 0.7059288 0.2537256
1.0000000 0.7127563 0.2625148
1.0000000 0.7184751 0.2700449
1.0000000 0.7256868 0.2780427
1.0000000 0.7310663 0.2857301
1.0000000 0.7362239 0.2933638
1.0000000 0.7402536 0.3001540
1.0000000 0.7440528 0.3069414
1.0000000 0.7479129 0.3138153
1.0000000 0.7509441 0.3202227
1.0000000 0.7537248 0.3256020
1.0000000 0.7558731 0.3313192
1.0000000 0.7596760 0.3370025
1.0000000 0.7615083 0.3428039
1.0000000 0.7635822 0.3478158
1.0000000 0.7651711 0.3525141
1.0000000 0.7666774 0.3582634
1.0000000 0.7681051 0.3628452
1.0000000 0.7695172 0.3675001
1.0000000 0.7707877 0.3720796
1.0000000 0.7720216 0.3766007
1.0000000 0.7732018 0.3810609
1.0000000 0.7753171 0.3856349
1.0000000 0.7763566 0.3889139
1.0000000 0.7770948 0.3929862
1.0000000 0.7779800 0.3972401
1.0000000 0.7786328 0.4013499
1.0000000 0.7792851 0.4042936
1.0000000 0.7800748 0.4084971
1.0000000 0.7806578 0.4125807
1.0000000 0.7812463 0.4155496
1.0000000 0.7817696 0.4196178
1.0000000 0.7835838 0.4228976
1.0000000 0.7840999 0.4270076
1.0000000 0.7845947 0.4299610
1.0000000 0.7850664 0.4328771
1.0000000 0.7855300 0.4369814
1.0000000 0.7858387 0.4397005
1.0000000 0.7862737 0.4426733
0.0449896 0.6218756 0.2618318
0.0824929 0.6240581 0.2584877
0.1464758 0.6279705 0.2545031
0.2111852 0.6322000 0.2520605
0.2747976 0.6338226 0.2480099
0.3342807 0.6383806 0.2449640
0.3889723 0.6428869 0.2421538
0.4441936 0.6477646 0.2406424
0.4926574 0.6523837 0.2384428
0.5406037 0.6573068 0.2355731
0.5844039 0.6621306 0.2338518
0.6276606 0.6672552 0.2324908
0.6660945 0.6721759 0.2302887
0.7046713 0.6774765 0.2295099
0.7400715 0.6827487 0.2280041
0.7717525 0.6878247 0.2276220
0.7999907 0.6927098 0.2265413
0.8285326 0.6980259 0.2260966
0.8541538 0.7031995 0.2252011
0.8798796 0.7088010 0.2262731
0.9026513 0.7140915 0.2329819
0.9254695 0.7198977 0.2396642
0.9476885 0.7261215 0.2475215
0.9660372 0.7317853 0.2554276
0.9829544 0.7375596 0.2628046
0.9983771 0.7433699 0.2714045
1.0000000 0.7484981 0.2787941
1.0000000 0.7563209 0.2877091
1.0000000 0.7611432 0.2953265
1.0000000 0.7658296 0.3029137
1.0000000 0.7695628 0.3098934
1.0000000 0.7737870 0.3173994
1.0000000 0.7769913 0.3231778
1.0000000 0.7797800 0.3297319
1.0000000 0.7824202 0.3361380
1.0000000 0.7848439 0.3415436
1.0000000 0.7871269 0.3479822
1.0000000 0.7887599 0.3527171
1.0000000 0.7924554 0.3585408
1.0000000 0.7938444 0.3632520
1.0000000 0.7955544 0.3693523
1.0000000 0.7968335 0.3739458
1.0000000 0.7980602 0.3786109
1.0000000 0.7992635 0.3832289
1.0000000 0.8003329 0.3876768
1.0000000 0.8011168 0.3918830
1.0000000 0.8021308 0.3963517
1.0000000 0.8030394 0.3995796
1.0000000 0.8036953 0.4036063
1.0000000 0.8060840 0.4085352
1.0000000 0.8066524 0.4114546
1.0000000 0.8074017 0.4156939
1.0000000 0.8079264 0.4196976
1.0000000 0.8084316 0.4226339
1.0000000 0.8089214 0.4267104
1.0000000 0.8094230 0.4296106
1.0000000 0.8098615 0.4336055
1.0000000 0.8103102 0.4365545
1.0000000 0.8107450 0.4406834
1.0000000 0.8111674 0.4435679
1.0000000 0.8130603 0.4469385
1.0000000 0.8134569 0.4498386
1.0000000 0.8138354 0.4540223
1.0000000 0.8140657 0.4567683
0.0611900 0.6751375 0.2973676
0.1033669 0.6772788 0.2926006
0.1666325 0.6806269 0.2896575
0.2290794 0.6841910 0.2868555
0.2899910 0.6879465 0.2841983
0.3487875 0.6918846 0.2806407
0.4029146 0.6957823 0.2784342
0.4552091 0.6998695 0.2751610
0.5026624 0.7038460 0.2734540
0.5498103 0.7055658 0.2701643
0.5903496 0.7095474 0.2686225
0.6325990 0.7140259 0.2666975
0.6700978 0.7183222 0.2648239
0.7079288 0.7229982 0.2634133
0.7394562 0.7272105 0.2621444
0.7702539 0.7316409 0.2611143
0.7978262 0.7359179 0.2602773
0.8256558 0.7405944 0.2590094
0.8506365 0.7451262 0.2587537
0.8753499 0.7500071 0.2582280
0.8974814 0.7547545 0.2585953
0.9197628 0.7599905 0.2590547
0.9412905 0.7654189 0.2664412
0.9588220 0.7702940 0.2736892
0.9751287 0.7752790 0.2820311
0.9900318 0.7803490 0.2898701
1.0000000 0.7847444 0.2973546
1.0000000 0.7890632 0.3048604
1.0000000 0.7950865 0.3131860
1.0000000 0.7991170 0.3208276
1.0000000 0.8029665 0.3275189
1.0000000 0.8059660 0.3345439
1.0000000 0.8091931 0.3418905
1.0000000 0.8115867 0.3474301
1.0000000 0.8138008 0.3530484
1.0000000 0.8158455 0.3594693
1.0000000 0.8173904 0.3642909
1.0000000 0.8191362 0.3695987
1.0000000 0.8204802 0.3754559
1.0000000 0.8219801 0.3804347
1.0000000 0.8248271 0.3858410
1.0000000 0.8259075 0.3904656
1.0000000 0.8269445 0.3950161
1.0000000 0.8279604 0.3995763
1.0000000 0.8288600 0.4040375
1.0000000 0.8297707 0.4073968
1.0000000 0.8305898 0.4117177
1.0000000 0.8311360 0.4157784
1.0000000 0.8318783 0.4201214
1.0000000 0.8323945 0.4230301
1.0000000 0.8330286 0.4271909
1.0000000 0.8335042 0.4301312
1.0000000 0.8355021 0.4348242
1.0000000 0.8359225 0.4376872
1.0000000 0.8364745 0.4418558
1.0000000 0.8368760 0.4447557
1.0000000 0.8372291 0.4488276
1.0000000 0.8376001 0.4517000
1.0000000 0.8379700 0.4545572
1.0000000 0.8382875 0.4585816
1.0000000 0.8384952 0.4613346
1.0000000 0.8388245 0.4642286
1.0000000 0.8391494 0.4671019
1.0000000 0.8394282 0.4711185
0.0785159 0.7217580 0.3295022
0.1234735 0.7236909 0.3260613
0.1864544 0.7265600 0.3229609
0.2476625 0.7295871 0.3199856
0.3073386 0.7327884 0.3173540
0.3615692 0.7359472 0.3147823
0.4154607 0.7393457 0.3123905
0.4669690 0.7428687 0.3102232
0.5137770 0.7463398 0.3081837
0.5572702 0.7498280 0.3062367
0.5971632 0.7533083 0.3032108
0.6383858 0.7571558 0.3018558
0.6751308 0.7608758 0.3005273
0.7091554 0.7646270 0.2982213
0.7425669 0.7685777 0.2975243
0.7723743 0.7724277 0.2957743
0.7992785 0.7761844 0.2942498
0.8236454 0.7798534 0.2930250
0.8479583 0.7837806 0.2931072
0.8718997 0.7880053 0.2928166
0.8931873 0.7921280 0.2918779
0.9149515 0.7967126 0.2924599
0.9361507 0.7994852 0.2928278
0.9529085 0.8038461 0.2937322
0.9684918 0.8081810 0.2997824
0.9803417 0.8138636 0.3078038
0.9934839 0.8182331 0.3158875
1.0000000 0.8218982 0.3234618
1.0000000 0.8254439 0.3309863
1.0000000 0.8288770 0.3387229
1.0000000 0.8321353 0.3455288
1.0000000 0.8346858 0.3524243
1.0000000 0.8369410 0.3582944
1.0000000 0.8389584 0.3649362
1.0000000 0.8408490 0.3704219
1.0000000 0.8426058 0.3759028
1.0000000 0.8442027 0.3822960
1.0000000 0.8453743 0.3870402
1.0000000 0.8483767 0.3929557
1.0000000 0.8493640 0.3976141
1.0000000 0.8503397 0.4022373
1.0000000 0.8514857 0.4071013
1.0000000 0.8523531 0.4116582
1.0000000 0.8532020 0.4150777
1.0000000 0.8537486 0.4191326
1.0000000 0.8544940 0.4235103
1.0000000 0.8551751 0.4278831
1.0000000 0.8558196 0.4310631
1.0000000 0.8562648 0.4350473
1.0000000 0.8568186 0.4392769
1.0000000 0.8572148 0.4421806
1.0000000 0.8590423 0.4468542
1.0000000 0.8595442 0.4498865
1.0000000 0.8598660 0.4538659
1.0000000 0.8602089 0.4567689
1.0000000 0.8605386 0.4596386
1.0000000 0.8608206 0.4636034
1.0000000 0.8611250 0.4664014
1.0000000 0.8614260 0.4693184
1.0000000 0.8616980 0.4721779
1.0000000 0.8619434 0.4762003
1.0000000 0.8622112 0.4790165
1.0000000 0.8623710 0.4817053
1.0000000 0.8626083 0.4845816
0.0968570 0.7635334 0.3613038
0.1453693 0.7652919 0.3576240
0.2058179 0.7675976 0.3557757
0.2659073 0.7701328 0.3527501
0.3236059 0.7727947 0.3498452
0.3774140 0.7754729 0.3483868
0.4286443 0.7782798 0.3458740
0.4769646 0.7811592 0.3435224
0.5229550 0.7841383 0.3412991
0.5656048 0.7871386 0.3392293
0.6073118 0.7903186 0.3374813
0.6449969 0.7934428 0.3357829
0.6811293 0.7966905 0.3342549
0.7141870 0.7999134 0.3329296
0.7438918 0.8030511 0.3316492
0.7728652 0.8063601 0.3305944
0.7990898 0.8096385 0.3285707
0.8255311 0.8131835 0.3281361
0.8491811 0.8166748 0.3266382
0.8698328 0.8199564 0.3263944
0.8902379 0.8235060 0.3255630
0.9115075 0.8275230 0.3264124
0.9315212 0.8317397 0.3268988
0.9475914 0.8355031 0.3272431
0.9623212 0.8393133 0.3278693
0.9747195 0.8408911 0.3276911
0.9867060 0.8464655 0.3349777
0.9962137 0.8495681 0.3425368
1.0000000 0.8525906 0.3493760
1.0000000 0.8554927 0.3570589
