Plugins/FilmEmulator/Content/LUTs/FE_Fuji_Superia_XTra_400_64.cube
TITLE "FE_Fuji_Superia_XTra_400_33"
LUT_3D_SIZE 8
0.0005767 0.0007424 0.0007809
0.0586455 0.0020678 0.0011802
0.1926766 0.0059268 0.0024373
0.3440996 0.0116419 0.0045877
0.4822270 0.0193760 0.0076701
0.5904925 0.0283674 0.0114269
0.6698132 0.0380796 0.0156152
0.7312827 0.0489016 0.0204115
0.0026585 0.0859334 0.0023775
0.0730123 0.0999894 0.0034231
0.2098423 0.1167901 0.0055360
0.3501162 0.1310460 0.0088386
0.4800179 0.1468901 0.0130841
0.5899646 0.1643981 0.0178032
0.6703858 0.1836541 0.0231989
0.7327319 0.1974231 0.0289211
0.0072988 0.2572715 0.0073313
0.0890336 0.2732953 0.0094672
0.2294109 0.2816570 0.0112622
0.3657789 0.2999720 0.0146329
0.4982802 0.3190632 0.0190366
0.5958700 0.3389160 0.0247802
0.6763220 0.3489091 0.0308445
0.7380654 0.3697202 0.0384572
0.0145062 0.4183700 0.0155261
0.1095676 0.4278179 0.0176867
0.2432440 0.4496719 0.0210802
0.3849113 0.4605182 0.0240516
0.5065541 0.4715497 0.0274435
0.6041102 0.4827416 0.0326921
0.6838303 0.4939995 0.0407184
0.7447416 0.5170686 0.0485703
0.0245196 0.5564328 0.0254247
0.1286395 0.5664666 0.0289794
0.2678554 0.5771747 0.0330389
0.4055405 0.5880857 0.0360823
0.5284177 0.5876057 0.0411314
0.6131743 0.5986738 0.0449233
0.6919955 0.6096492 0.0512209
0.7522003 0.6205572 0.0583158
0.0363536 0.6570013 0.0380456
0.1510023 0.6557401 0.0433269
0.2849474 0.6657519 0.0472995
0.4274093 0.6757590 0.0516265
0.5381414 0.6857414 0.0563196
0.6343924 0.6854131 0.0613088
0.7005624 0.6953677 0.0640301
0.7597381 0.7051165 0.0697460
0.0494780 0.7273431 0.0543250
0.1695091 0.7357692 0.0591869
0.3130167 0.7352389 0.0617256
0.4376019 0.7440544 0.0672396
0.5484332 0.7527353 0.0732174
0.6439948 0.7524790 0.0763359
0.7092752 0.7610537 0.0830673
0.7584435 0.7608857 0.0865654
0.0676201 0.7800433 0.0705770
0.1967025 0.7874256 0.0767901
0.3322586 0.7870222 0.0800333
0.4604777 0.7946153 0.0870389
0.5714900 0.7943667 0.0906522
0.6537713 0.8018945 0.0945172
0.7180743 0.8092198 0.1026046
0.7663220 0.8090773 0.1068096
0.0019054 0.0016807 0.0916064
0.0732572 0.0033361 0.0969169
0.2094176 0.0056221 0.1022320
0.3565556 0.0115271 0.1128319
0.4840914 0.0184112 0.1187625
0.5921227 0.0269879 0.1247050
0.6821246 0.0362661 0.1306244
0.7418884 0.0486114 0.1367931
0.0054185 0.0883230 0.1193678
0.0841269 0.1029926 0.1244557
0.2271564 0.1157249 0.1297353
0.3624431 0.1300325 0.1352531
0.4938276 0.1459065 0.1409831
0.6031321 0.1634301 0.1469272
0.6823120 0.1826981 0.1530906
0.7432842 0.1964992 0.1593020
0.0118755 0.2551137 0.1437159
0.1023476 0.2714049 0.1494173
0.2389526 0.2798788 0.1552668
0.3786104 0.2982668 0.1615159
0.5119262 0.3174471 0.1679840
0.6089051 0.3374036 0.1746771
0.6880912 0.3475026 0.1813980
0.7484410 0.3684081 0.1884817
0.0208479 0.4161491 0.1637677
0.1200433 0.4258704 0.1699831
0.2620308 0.4478094 0.1766777
0.3978246 0.4587539 0.1834298
0.5200743 0.4698509 0.1903569
0.6169852 0.4811455 0.1974783
0.6953872 0.4925455 0.2048103
0.7454314 0.5157620 0.2125766
0.0322273 0.5544776 0.1921501
0.1404867 0.5647759 0.1921650
0.2876488 0.5755686 0.1992787
0.4185490 0.5865620 0.2066344
0.5417482 0.5861536 0.2139873
0.6258494 0.5972692 0.2217768
0.7033427 0.6083276 0.2297736
0.7528374 0.6193877 0.2299736
0.0456289 0.6554369 0.2156999
0.1644788 0.6543773 0.2155201
0.3054021 0.6644455 0.2232924
0.4404941 0.6745372 0.2312986
0.5513356 0.6845722 0.2395286
0.6351810 0.6843388 0.2394841
0.7116668 0.6942796 0.2479309
0.7603414 0.7041111 0.2565951
0.0595800 0.7261651 0.2327906
0.1837569 0.7347097 0.2409416
0.3240488 0.7342093 0.2491227
0.4506864 0.7430744 0.2577758
0.5614820 0.7518314 0.2579659
0.6560842 0.7515752 0.2665888
0.7201276 0.7601982 0.2756614
0.7681234 0.7600557 0.2756258
0.0777175 0.7791258 0.2590984
0.2047540 0.7866123 0.2678941
0.3435589 0.7862327 0.2677929
0.4735912 0.7938697 0.2768570
0.5843446 0.7936213 0.2858341
0.6656399 0.8011922 0.2860517
0.7287317 0.8085595 0.2955078
0.7757465 0.8084171 0.3048794
0.0043257 0.0044219 0.2658563
0.0824634 0.0069216 0.2768893
0.2311616 0.0105579 0.2792302
0.3778522 0.0142118 0.2900395
0.4968269 0.0191493 0.2918090
0.6046585 0.0268985 0.3032408
0.6823762 0.0377071 0.3149495
0.7423272 0.0484644 0.3165655
0.0094457 0.0878984 0.3021783
0.0964462 0.1026290 0.3124239
0.2359762 0.1153679 0.3130882
0.3857008 0.1296216 0.3235545
0.5067945 0.1454872 0.3243308
0.6036779 0.1629888 0.3350534
0.6828070 0.1822155 0.3459670
0.7437021 0.1960095 0.3465092
0.0177642 0.2542397 0.3292927
0.1170183 0.2706657 0.3395286
0.2567673 0.2885034 0.3399520
0.3908200 0.2975796 0.3503054
0.5248121 0.3167647 0.3508097
0.6211978 0.3366985 0.3616620
0.6885188 0.3468524 0.3619139
0.7488161 0.3677400 0.3729262
0.0273438 0.4151573 0.3541100
0.1365933 0.4249815 0.3644640
0.2811063 0.4469865 0.3649098
0.4102389 0.4579636 0.3756073
0.5329233 0.4690922 0.3758287
0.6291645 0.4803846 0.3866952
0.6957885 0.4918559 0.3869565
0.7552534 0.5150333 0.3982823
0.0403579 0.5535670 0.3785699
0.1593858 0.5639090 0.3892627
0.2978430 0.5748204 0.3894328
0.4311427 0.5858177 0.4004194
0.5419065 0.5968941 0.4006586
0.6378959 0.5965644 0.4114718
0.7037174 0.6076991 0.4117404
0.7624513 0.6187285 0.4120088
0.0548987 0.6546612 0.4027901
0.1784481 0.6536760 0.4025475
0.3159426 0.6637904 0.4136322
0.4532061 0.6739213 0.4138497
0.5640262 0.6839664 0.4250925
0.6467935 0.6939439 0.4253553
0.7120347 0.6937169 0.4363866
0.7697382 0.7035550 0.4366594
0.0715175 0.7255076 0.4158890
0.1985729 0.7341318 0.4270091
0.3348984 0.7336888 0.4268802
0.4634339 0.7425641 0.4382047
0.5740916 0.7513327 0.4384519
0.6564667 0.7511051 0.4495589
0.7204509 0.7597643 0.4498339
0.7684253 0.7595965 0.4610187
0.0891168 0.7786070 0.4399124
0.2208260 0.7861376 0.4512184
0.3661099 0.7857572 0.4510877
0.4863501 0.7934546 0.4513270
0.5847323 0.7932309 0.4624927
0.6659963 0.8008124 0.4627608
0.7290486 0.8081902 0.4743230
0.7760084 0.8080695 0.4742774
0.0080870 0.0085893 0.4421805
0.0974635 0.0119969 0.4442092
0.2464717 0.0161416 0.4462260
0.3869042 0.0208253 0.4591824
0.5199394 0.0257466 0.4606935
0.6157024 0.0318060 0.4734275
0.6934256 0.0376311 0.4746587
0.7521382 0.0483673 0.4765461
0.0146963 0.0876132 0.4708872
0.1102816 0.1024034 0.4717819
0.2537407 0.1151223 0.4837984
0.3975240 0.1345422 0.4849885
0.5192086 0.1509166 0.4858840
0.6158661 0.1626959 0.4977254
0.6938280 0.1819146 0.4986502
0.7534780 0.1956693 0.5105218
0.0243629 0.2536559 0.4912050
0.1331232 0.2701739 0.5027721
0.2754921 0.2880267 0.5032594
0.4149429 0.2971205 0.5034734
0.5251613 0.3163247 0.5153180
0.6215066 0.3362743 0.5159050
0.6994514 0.3463568 0.5274298
0.7584449 0.3672616 0.5280322
0.0358208 0.4144360 0.5189177
0.1486701 0.4244370 0.5189457
0.2910222 0.4464761 0.5194406
0.4225940 0.4574496 0.5309156
0.5455723 0.4685765 0.5311530
0.6410129 0.4799015 0.5314109
0.7065589 0.4913377 0.5429161
0.7554789 0.5145872 0.5435311
0.0483847 0.5529346 0.5340619
0.1731009 0.5633901 0.5341201
0.3081113 0.5743117 0.5455306
0.4436496 0.5853447 0.5457535
0.5544993 0.5964252 0.5460032
0.6496258 0.5960956 0.5571122
0.7143073 0.6072341 0.5573884
0.7626718 0.6183046 0.5576733
0.0659074 0.6541079 0.5481938
0.1928566 0.6531679 0.5591337
0.3370631 0.6633214 0.5593236
0.4658484 0.6734914 0.5595551
0.5765023 0.6835436 0.5709218
0.6583955 0.6935281 0.5711876
0.7224302 0.6933303 0.5711342
0.7699538 0.7031790 0.5824673
0.0820443 0.7250495 0.5616254
0.2142026 0.7337195 0.5728505
0.3566599 0.7332773 0.5727206
0.4760985 0.7422157 0.5729589
0.5864981 0.7509661 0.5842455
0.6678994 0.7507644 0.5841838
0.7307242 0.7594314 0.5844561
0.7772831 0.7678956 0.5956949
0.1019883 0.7782100 0.5856795
0.2377118 0.7858056 0.5858168
0.3779042 0.7854497 0.5856960
0.4990123 0.7931327 0.5968819
0.5967298 0.8006926 0.5971349
0.6772727 0.8005212 0.5970739
0.7391238 0.8079070 0.6081923
0.7848736 0.8077859 0.6081486
0.0135083 0.0142928 0.5692045
0.1102535 0.0183612 0.5817235
0.2535482 0.0236653 0.5834383
0.3969223 0.0280212 0.5845878
0.5304297 0.0345963 0.5860767
0.6259508 0.0409069 0.5981888
0.7029022 0.0463522 0.5990700
0.7518691 0.0525100 0.5999693
0.0210269 0.0874042 0.5937895
0.1257255 0.1022286 0.5947040
0.2722916 0.1149460 0.6063321
0.4096826 0.1343560 0.6074860
0.5318207 0.1507115 0.6083471
0.6278304 0.1624773 0.6196359
0.7045774 0.1816751 0.6205140
0.7536508 0.1954600 0.6210965
0.0319126 0.2532053 0.6134032
0.1449058 0.2698219 0.6244074
0.2852264 0.2876938 0.6248774
0.4272720 0.2967802 0.6250794
0.5377377 0.3160012 0.6256250
0.6334069 0.3359096 0.6367246
0.7100700 0.3460170 0.6369730
0.7586157 0.3669477 0.6375437
0.0447877 0.4139206 0.6289825
0.1683361 0.4239570 0.6395385
0.3111507 0.4460329 0.6400084
0.4472027 0.4570356 0.6402140
0.5580789 0.4681995 0.6404436
0.6412488 0.4795274 0.6510648
0.7167770 0.5026769 0.6516151
0.7648671 0.5142075 0.6518773
0.0608468 0.5523973 0.6431112
0.1872264 0.5629441 0.6535333
0.3288844 0.5739033 0.6537076
0.4561696 0.5849742 0.6539204
0.5669619 0.5960579 0.6541497
0.6498377 0.5957651 0.6642882
0.7246154 0.6068696 0.6645314
0.7718705 0.6179432 0.6647903
0.0755636 0.6536860 0.6561413
0.2078992 0.6634864 0.6664072
0.3479657 0.6629801 0.6662886
0.4784752 0.6731541 0.6664988
0.5767065 0.6832752 0.6667334
0.6586051 0.6932346 0.6769864
0.7226171 0.6930372 0.6769387
0.7789389 0.7028871 0.6771848
0.0939642 0.7246758 0.6683572
0.2306724 0.7334170 0.6684745
0.3682747 0.7329765 0.6783535
0.4886988 0.7419215 0.6785676
0.5987142 0.7507044 0.6787903
0.6791022 0.7504764 0.6885629
0.7309077 0.7591783 0.6888126
0.7860644 0.7676456 0.6890540
0.1163876 0.7779104 0.6800652
0.2554303 0.7855446 0.6801989
0.3898114 0.7851903 0.6899040
0.5115931 0.7929028 0.6901142
0.6088539 0.8004689 0.6903406
0.6882926 0.8002970 0.6902862
0.7392859 0.8077132 0.7001678
0.7850152 0.8075920 0.7001290
0.0199808 0.0209566 0.6676511
0.1247411 0.0257970 0.6787493
0.2706538 0.0305093 0.6797346
0.4189997 0.0376383 0.6810544
0.5414590 0.0426531 0.6818308
0.6363133 0.0503765 0.6829066
0.7017897 0.0570602 0.6934701
0.7602055 0.0645921 0.6942664
0.0275526 0.0872394 0.6872923
0.1427917 0.1020789 0.6881345
0.2816550 0.1194671 0.6891335
0.4219187 0.1342011 0.6995389
0.5443560 0.1505408 0.7003020
0.6393011 0.1685602 0.7010795
0.7047328 0.1815172 0.7015923
0.7628438 0.2024940 0.7118129
0.0399325 0.2528346 0.7047371
0.1575268 0.2695499 0.7050474
0.3050587 0.2874140 0.7054670
0.4393567 0.3061576 0.7152951
0.5502535 0.3157074 0.7155003
0.6450911 0.3356357 0.7159842
0.7099674 0.3562698 0.7164823
0.7678890 0.3666612 0.7167077
0.0538200 0.4134707 0.7184035
0.1822283 0.4349296 0.7187261
0.3215596 0.4457279 0.7188796
0.4596975 0.4567279 0.7190608
0.5704992 0.4678567 0.7283725
0.6528246 0.4792175 0.7285873
0.7169287 0.5024042 0.7290755
0.7739744 0.5138960 0.7292973
0.0697353 0.5520079 0.7215930
0.2020979 0.5626000 0.7307345
0.3396103 0.5735986 0.7308941
0.4687102 0.5846705 0.7310800
0.5793049 0.5957566 0.7312805
0.6610072 0.6068292 0.7403567
0.7247646 0.6066079 0.7403147
0.7720021 0.6176839 0.7405390
0.0905862 0.6532886 0.7329915
0.2239965 0.6631725 0.7419223
0.3589981 0.6627005 0.7418272
0.4910352 0.6728777 0.7420092
0.5889800 0.6830032 0.7422124
0.6698997 0.6929966 0.7424223
0.7327681 0.6927692 0.7510089
0.7790676 0.7026564 0.7512271
0.1074239 0.7243574 0.7435986
0.2480223 0.7331412 0.7437086
0.3800123 0.7327294 0.7522215
0.5012483 0.7416801 0.7524056
0.5988935 0.7504972 0.7526035
0.6792449 0.7502952 0.7525563
0.7408502 0.7589726 0.7527672
0.7861906 0.7674479 0.7613760
0.1268539 0.7776636 0.7536804
0.2646452 0.7853325 0.7538027
0.4017966 0.7850004 0.7537165
0.5241235 0.7927184 0.7538999
0.6208360 0.8002672 0.7624632
0.6884533 0.8001195 0.7624239
0.7490295 0.8075381 0.7626293
0.7935460 0.8074166 0.7625960
0.0271746 0.0281966 0.7447354
0.1408159 0.0332481 0.7454720
0.2883981 0.0392768 0.7463401
0.4297937 0.0463909 0.7472492
0.5524088 0.0525270 0.7479279
0.6353465 0.0594809 0.7571192
0.7112893 0.0673066 0.7578040
0.7685391 0.0760987 0.7584937
0.0360685 0.0870958 0.7514160
0.1552477 0.1019674 0.7521775
0.3013380 0.1193270 0.7614388
0.4342177 0.1340770 0.7620887
0.5567999 0.1504040 0.7627494
0.6394522 0.1684301 0.7634286
0.7151871 0.1813573 0.7638654
0.7629623 0.2023436 0.7726774
0.0500183 0.2525132 0.7665516
0.1780920 0.2692741 0.7668329
0.3153327 0.2871916 0.7672090
0.4517822 0.3059258 0.7756575
0.5626701 0.3154715 0.7758337
0.6565911 0.3353918 0.7762489
0.7203123 0.3560182 0.7766757
0.7680060 0.3664416 0.7768750
0.0645978 0.4130861 0.7782977
0.1967771 0.4346221 0.7785881
0.3321382 0.4454562 0.7787261
0.4722312 0.4564536 0.7788813
0.5706364 0.4676535 0.7790611
0.6642097 0.4789413 0.7870038
0.7271248 0.5021269 0.7874190
0.7740895 0.5136573 0.7876139
0.0836468 0.5516104 0.7810234
0.2178295 0.5623232 0.7811067
0.3613937 0.5732909 0.7889566
0.4812788 0.5843998 0.7891207
0.5915363 0.5954883 0.7892914
0.6722434 0.6065958 0.7894745
0.7348309 0.6063740 0.7894384
0.7808996 0.6174201 0.7970988
0.1036031 0.6529595 0.7907277
0.2409573 0.6629200 0.7908237
0.3821577 0.6624463 0.7907414
0.5035647 0.6726316 0.7983383
0.6011307 0.6827609 0.7985100
0.6810082 0.6927583 0.7986873
0.7426493 0.6925598 0.7986522
0.7877529 0.7024506 0.7988405
0.1223889 0.7240677 0.7996640
0.2570676 0.7329224 0.7997699
0.3918594 0.7325366 0.7996961
0.5137607 0.7414917 0.7998551
0.6109310 0.7503129 0.8000258
0.6901902 0.7500848 0.8071631
0.7505556 0.7587670 0.8073398
0.7862849 0.7672998 0.8075277
0.1440199 0.7774367 0.8009390
0.2835422 0.7851415 0.8010514
0.4139113 0.7848107 0.8081340
0.5366341 0.7925338 0.8082881
0.6209680 0.8001342 0.8084592
0.6992090 0.7999621 0.8084201
0.7491353 0.8074087 0.8086019
0.7936534 0.8072658 0.8155169
0.0369453 0.0363057 0.7944071
0.1586144 0.0427758 0.7950650
0.3070489 0.0483987 0.7956046
0.4406357 0.0571280 0.7963969
0.5633071 0.0646339 0.8042423
0.6458353 0.0701453 0.8046209
0.7205919 0.0792783 0.8052080
0.7679743 0.0859911 0.8055983
0.0450341 0.0905928 0.7991053
0.1685977 0.1018563 0.8067535
0.3115197 0.1192296 0.8074909
0.4465865 0.1339688 0.8080485
0.5691592 0.1502846 0.8086152
0.6510112 0.1682988 0.8091975
0.7153014 0.1812394 0.8095776
0.7720879 0.2021911 0.8170623
0.0600715 0.2522438 0.8118511
0.1924703 0.2690579 0.8121043
0.3362883 0.2869678 0.8124269
0.4642326 0.3057516 0.8127751
0.5749949 0.3152656 0.8197511
0.6567174 0.3352124 0.8201100
0.7204255 0.3558334 0.8204736
0.7769961 0.3662188 0.8206381
0.0774478 0.4127349 0.8218284
0.2121961 0.4343490 0.8220878
0.3536645 0.4451823 0.8222058
0.4847874 0.4562140 0.8223432
0.5829089 0.4674133 0.8224965
0.6640347 0.4904707 0.8228531
0.7272361 0.5019237 0.8295520
0.7829130 0.5134150 0.8297120
0.0957508 0.5512875 0.8241501
0.2344540 0.5620475 0.8242277
0.3729706 0.5730863 0.8243518
0.4937987 0.5841637 0.8309857
0.6036412 0.5952541 0.8311304
0.6723666 0.6064005 0.8312907
0.7349400 0.6061785 0.8312601
0.7809799 0.6172588 0.8314250
0.1132042 0.6526995 0.8323369
0.2498219 0.6627024 0.8324242
0.3940306 0.6622279 0.8323553
0.5160534 0.6724470 0.8324945
0.6131233 0.6825791 0.8326437
0.6811303 0.6925830 0.8390484
0.7427567 0.6923845 0.8390192
0.7878468 0.7022786 0.8391779
0.1332926 0.7238666 0.8336375
0.2755951 0.7327289 0.8337305
0.4158240 0.7323142 0.8398863
0.5262655 0.7413040 0.8400254
0.6228455 0.7501295 0.8401693
0.6902901 0.7499558 0.8401404
0.7506434 0.7586409 0.8402935
0.7947487 0.7671487 0.8404511
0.1565542 0.7772384 0.8409300
0.2933596 0.7849767 0.8410304
0.4260969 0.7846683 0.8409734
0.5490617 0.7923951 0.8411070
0.6327671 0.7999775 0.8472450
0.6993271 0.7998297 0.8472171
0.7586184 0.8072557 0.8473648
0.8019016 0.8071342 0.8473412
