Plugins/FilmEmulator/Content/LUTs/FE_Fuji_3513DI_64.cube
TITLE "FE_Fuji_3513DI_33"
LUT_3D_SIZE 8
0.0000000 0.0474503 0.2747737
0.1082788 0.0613919 0.2395130
0.4840220 0.1158840 0.2115874
0.7887286 0.1956698 0.2317804
1.0000000 0.2758343 0.2645258
1.0000000 0.3589010 0.2993025
1.0000000 0.4268579 0.3370249
1.0000000 0.4855538 0.3762939
0.1140556 0.5300892 0.2297933
0.1989635 0.5268041 0.2240489
0.5087581 0.5459037 0.2365935
0.7619487 0.5800891 0.2640234
0.9513282 0.6186743 0.2980396
1.0000000 0.6538351 0.3363008
1.0000000 0.6832163 0.3772025
1.0000000 0.7045754 0.4139802
0.3138968 0.8956624 0.3460893
0.3701144 0.8912537 0.3299765
0.5981003 0.8911930 0.3324333
0.7812007 0.8929704 0.3429895
0.9172035 0.9001436 0.3798648
0.9861896 0.9089506 0.4241009
1.0000000 0.9146262 0.4635982
1.0000000 0.9189034 0.4990184
0.4583338 0.9925519 0.4768298
0.4872195 0.9903262 0.4538249
0.6685945 0.9849176 0.4542735
0.8123903 0.9810856 0.4601144
0.9158713 0.9804144 0.4729607
0.9695536 0.9806740 0.4963701
0.9928720 0.9805213 0.5337472
1.0000000 0.9803264 0.5669883
0.5468057 1.0000000 0.5838982
0.5653918 1.0000000 0.5612251
0.7173486 1.0000000 0.5610470
0.8378787 1.0000000 0.5643657
0.9216742 1.0000000 0.5742388
0.9651665 1.0000000 0.5861816
0.9841781 1.0000000 0.5957172
0.9938711 1.0000000 0.6194842
0.6078283 1.0000000 0.6707618
0.6186630 1.0000000 0.6470712
0.7499243 1.0000000 0.6455306
0.8563579 1.0000000 0.6480477
0.9291233 1.0000000 0.6556892
0.9661245 1.0000000 0.6659830
0.9818668 1.0000000 0.6732799
0.9895842 1.0000000 0.6791509
0.6530744 1.0000000 0.7382480
0.6563521 1.0000000 0.7172480
0.7739982 1.0000000 0.7153376
0.8685603 1.0000000 0.7167183
0.9346353 1.0000000 0.7226094
0.9683202 1.0000000 0.7303890
0.9819992 1.0000000 0.7368234
0.9885415 1.0000000 0.7405457
0.6906428 1.0000000 0.7956606
0.6860616 1.0000000 0.7748810
0.7906252 1.0000000 0.7729393
0.8788834 1.0000000 0.7738425
0.9391667 1.0000000 0.7783917
0.9702657 1.0000000 0.7832747
0.9830332 1.0000000 0.7890524
0.9887565 1.0000000 0.7917559
0.3359531 0.2473172 0.7630535
0.6448250 0.2991568 0.7487855
0.8864427 0.3628368 0.7376423
1.0000000 0.4428247 0.7337789
1.0000000 0.5079038 0.7317106
1.0000000 0.5622913 0.7306397
1.0000000 0.6050817 0.7273488
1.0000000 0.6408942 0.7267134
0.4647896 0.7537003 0.8004460
0.6954767 0.7687696 0.7945966
0.8692629 0.7868786 0.7916457
0.9720605 0.8062232 0.7916181
1.0000000 0.8222445 0.7918317
1.0000000 0.8319607 0.7892257
1.0000000 0.8396301 0.7887745
1.0000000 0.8464302 0.7857324
0.5905478 0.9355335 0.8473253
0.7594155 0.9351002 0.8438917
0.8868853 0.9391991 0.8432316
0.9583769 0.9447241 0.8464268
0.9907011 0.9482149 0.8473885
1.0000000 0.9515107 0.8480568
1.0000000 0.9530101 0.8478103
1.0000000 0.9546461 0.8455840
0.6691162 0.9858402 0.8836236
0.8072278 0.9826974 0.8830972
0.9059476 0.9820412 0.8829987
0.9615827 0.9826241 0.8843982
0.9851278 0.9837914 0.8871151
0.9963546 0.9846951 0.8880277
1.0000000 0.9849882 0.8880917
1.0000000 0.9854110 0.8877295
0.7189702 1.0000000 0.9101169
0.8374586 0.9975063 0.9085951
0.9207876 0.9953572 0.9099385
0.9662082 0.9946989 0.9124504
0.9849674 0.9948738 0.9136710
0.9936529 0.9950578 0.9155740
0.9980282 0.9952001 0.9158599
1.0000000 0.9952630 0.9167587
0.7508407 1.0000000 0.9285024
0.8555337 1.0000000 0.9281557
0.9294479 1.0000000 0.9291610
0.9693799 0.9991190 0.9312400
0.9858908 0.9988259 0.9322839
0.9931202 0.9987663 0.9339066
0.9966874 0.9987277 0.9350751
0.9986253 0.9987108 0.9349583
0.7730547 1.0000000 0.9426646
0.8693523 1.0000000 0.9422592
0.9354625 1.0000000 0.9429484
0.9723514 1.0000000 0.9446855
0.9870008 1.0000000 0.9462795
0.9932511 1.0000000 0.9475729
0.9962893 1.0000000 0.9484128
0.9979263 1.0000000 0.9490024
0.7886756 1.0000000 0.9546661
0.8790165 1.0000000 0.9541166
0.9395851 1.0000000 0.9544609
0.9745597 1.0000000 0.9558050
0.9876523 1.0000000 0.9569275
0.9935728 1.0000000 0.9579016
0.9962643 1.0000000 0.9586353
0.9977594 1.0000000 0.9590999
0.7782882 0.5945167 0.9752183
0.9269302 0.6410438 0.9679587
1.0000000 0.6775391 0.9630371
1.0000000 0.7030903 0.9595660
1.0000000 0.7231742 0.9567419
1.0000000 0.7525538 0.9549190
1.0000000 0.7773649 0.9524956
1.0000000 0.7974174 0.9503535
0.8310654 0.8898637 0.9657764
0.9306229 0.9017498 0.9634262
0.9767142 0.9121308 0.9621021
0.9990054 0.9189477 0.9620316
1.0000000 0.9245476 0.9612430
1.0000000 0.9280654 0.9605137
1.0000000 0.9314842 0.9605340
1.0000000 0.9331257 0.9596791
0.8707852 0.9653627 0.9705089
0.9450209 0.9690275 0.9702637
0.9768119 0.9721894 0.9699317
0.9915285 0.9741874 0.9703413
0.9994555 0.9759877 0.9701474
1.0000000 0.9772283 0.9698634
1.0000000 0.9779141 0.9701135
1.0000000 0.9785497 0.9696231
0.8964557 0.9883063 0.9766200
0.9552044 0.9888106 0.9767329
0.9802448 0.9898441 0.9772415
0.9910418 0.9904739 0.9772114
0.9966573 0.9911146 0.9771978
0.9996499 0.9916013 0.9776068
1.0000000 0.9919045 0.9773984
1.0000000 0.9919817 0.9774890
0.9137706 0.9961610 0.9818045
0.9625620 0.9954585 0.9819635
0.9827379 0.9956797 0.9820021
0.9918008 0.9960029 0.9825039
0.9961551 0.9962587 0.9825695
0.9984354 0.9964493 0.9829317
0.9997147 0.9964899 0.9827550
1.0000000 0.9965833 0.9829147
0.9231648 0.9991949 0.9855058
0.9667497 0.9981582 0.9856582
0.9849311 0.9980479 0.9860777
0.9926137 0.9981456 0.9862058
0.9962343 0.9982506 0.9865921
0.9981074 0.9983311 0.9865885
0.9991642 0.9983450 0.9867906
0.9997474 0.9983792 0.9869003
0.9297748 1.0000000 0.9884729
0.9702427 0.9993924 0.9885997
0.9865283 0.9991220 0.9889624
0.9933007 0.9991156 0.9890732
0.9964405 0.9991233 0.9893811
0.9980546 0.9991562 0.9896374
0.9989489 0.9991819 0.9895765
0.9994628 0.9991946 0.9896927
0.9340940 1.0000000 0.9905665
0.9726120 0.9999930 0.9906547
0.9876413 0.9996395 0.9909618
0.9937981 0.9995550 0.9912685
0.9966582 0.9995548 0.9915452
0.9981486 0.9995698 0.9915813
0.9988869 0.9995762 0.9917309
0.9993372 0.9995791 0.9918405
0.9521788 0.8204796 1.0000000
0.9894377 0.8386037 1.0000000
1.0000000 0.8516244 0.9989710
1.0000000 0.8615236 0.9977353
1.0000000 0.8691387 0.9964558
1.0000000 0.8746850 0.9957119
1.0000000 0.8786149 0.9951092
1.0000000 0.8876333 0.9942341
0.9612501 0.9511201 0.9949520
0.9836305 0.9566269 0.9942176
0.9948360 0.9600062 0.9938111
1.0000000 0.9629846 0.9935117
1.0000000 0.9646425 0.9933022
1.0000000 0.9661927 0.9928800
1.0000000 0.9674329 0.9926966
1.0000000 0.9678949 0.9925237
0.9709328 0.9839932 0.9945604
0.9862268 0.9858321 0.9943398
0.9935970 0.9868519 0.9940746
0.9976155 0.9878423 0.9940317
0.9999563 0.9885789 0.9940010
1.0000000 0.9891108 0.9939614
1.0000000 0.9892971 0.9939083
1.0000000 0.9895714 0.9938395
0.9772980 0.9936571 0.9952607
0.9889033 0.9943584 0.9952086
0.9942805 0.9947868 0.9952224
0.9971582 0.9951878 0.9952571
0.9987950 0.9954825 0.9952872
0.9997569 0.9956921 0.9952992
1.0000000 0.9958371 0.9952875
1.0000000 0.9958583 0.9952464
0.9811677 0.9970383 0.9960605
0.9907193 0.9973211 0.9960676
0.9950737 0.9975669 0.9961185
0.9974104 0.9977638 0.9961828
0.9985866 0.9978524 0.9962155
0.9993205 0.9979520 0.9962422
0.9997858 0.9980244 0.9962528
1.0000000 0.9980698 0.9962362
0.9833283 0.9985011 0.9967463
0.9919783 0.9985937 0.9967747
0.9956784 0.9987119 0.9968331
0.9976349 0.9988149 0.9969004
0.9986444 0.9988644 0.9969462
0.9992275 0.9989169 0.9969790
0.9995746 0.9989522 0.9969912
0.9997962 0.9989760 0.9969859
0.9850541 0.9992001 0.9973094
0.9928278 0.9991936 0.9973416
0.9961116 0.9992489 0.9973993
0.9978299 0.9993064 0.9974642
0.9987100 0.9993493 0.9975133
0.9992077 0.9993796 0.9975462
0.9995170 0.9993888 0.9975621
0.9996994 0.9994024 0.9975612
0.9862731 0.9995805 0.9977137
0.9934350 0.9995167 0.9977420
0.9965248 0.9995373 0.9977992
0.9979901 0.9995679 0.9978523
0.9987794 0.9995945 0.9979563
0.9992405 0.9996064 0.9979877
0.9994945 0.9996194 0.9980038
0.9996546 0.9996280 0.9980072
0.9887770 0.9234912 1.0000000
0.9984335 0.9301798 1.0000000
1.0000000 0.9342912 1.0000000
1.0000000 0.9372662 1.0000000
1.0000000 0.9402436 1.0000000
1.0000000 0.9415751 1.0000000
1.0000000 0.9423574 1.0000000
1.0000000 0.9435210 1.0000000
0.9891527 0.9779776 0.9995250
0.9949047 0.9799222 0.9992481
0.9984814 0.9811465 0.9990686
1.0000000 0.9822385 0.9989246
1.0000000 0.9827355 0.9988278
1.0000000 0.9833246 0.9987298
1.0000000 0.9837386 0.9986436
1.0000000 0.9838981 0.9986417
0.9915850 0.9923495 0.9988194
0.9955243 0.9929605 0.9987281
0.9976938 0.9934952 0.9986672
0.9989828 0.9938838 0.9986237
0.9998152 0.9941785 0.9985884
1.0000000 0.9942687 0.9985568
1.0000000 0.9944394 0.9985692
1.0000000 0.9945433 0.9985331
0.9933339 0.9966909 0.9988269
0.9962958 0.9970254 0.9987898
0.9978687 0.9972610 0.9987720
0.9987860 0.9974306 0.9987603
0.9993703 0.9975094 0.9987509
0.9997229 0.9975955 0.9987377
0.9999554 0.9976730 0.9987592
1.0000000 0.9977152 0.9987392
0.9944879 0.9983215 0.9989265
0.9968781 0.9985006 0.9989488
0.9981788 0.9986302 0.9989498
0.9988792 0.9987178 0.9989511
0.9993166 0.9987584 0.9989504
0.9995791 0.9988016 0.9989446
0.9997419 0.9988380 0.9989651
0.9998634 0.9988589 0.9989516
0.9952589 0.9990563 0.9990751
0.9972989 0.9991520 0.9990748
0.9983933 0.9992267 0.9990836
0.9989729 0.9992816 0.9991168
0.9993333 0.9993195 0.9991218
0.9995449 0.9993319 0.9991198
0.9996893 0.9993500 0.9991153
0.9997805 0.9993657 0.9991317
0.9957667 0.9994124 0.9991830
0.9976438 0.9994733 0.9992130
0.9985478 0.9995179 0.9992228
0.9990801 0.9995527 0.9992337
0.9993690 0.9995753 0.9992388
0.9995593 0.9995871 0.9992623
0.9996722 0.9995977 0.9992588
0.9997520 0.9996052 0.9992525
0.9961261 0.9996135 0.9993004
0.9978442 0.9996484 0.9993074
0.9986656 0.9996777 0.9993184
0.9991453 0.9997027 0.9993489
0.9994173 0.9997193 0.9993566
0.9995751 0.9997254 0.9993585
0.9996811 0.9997334 0.9993580
0.9997482 0.9997399 0.9993716
0.9966410 0.9647579 1.0000000
1.0000000 0.9667645 1.0000000
1.0000000 0.9686900 1.0000000
1.0000000 0.9695622 1.0000000
1.0000000 0.9704549 1.0000000
1.0000000 0.9709215 1.0000000
1.0000000 0.9715255 1.0000000
1.0000000 0.9716049 1.0000000
0.9962485 0.9891389 1.0000000
0.9980562 0.9899230 1.0000000
0.9992663 0.9903169 0.9999709
1.0000000 0.9907156 0.9999086
1.0000000 0.9910613 0.9998797
1.0000000 0.9912671 0.9998382
1.0000000 0.9912724 0.9998108
1.0000000 0.9914034 0.9997758
0.9969240 0.9960130 0.9997025
0.9981695 0.9962615 0.9996805
0.9988898 0.9964668 0.9996503
0.9993943 0.9966302 0.9996256
0.9996805 0.9967506 0.9996221
0.9999199 0.9967703 0.9996062
1.0000000 0.9968284 0.9995881
1.0000000 0.9968935 0.9995880
0.9975138 0.9981858 0.9996333
0.9984381 0.9983068 0.9996300
0.9989907 0.9984113 0.9996171
0.9993269 0.9984831 0.9996067
0.9995456 0.9985435 0.9996106
0.9996932 0.9985785 0.9996011
0.9998126 0.9986079 0.9995916
0.9998898 0.9986063 0.9995953
0.9979657 0.9990289 0.9996457
0.9986707 0.9991111 0.9996488
0.9991064 0.9991689 0.9996437
0.9993849 0.9992114 0.9996397
0.9995413 0.9992417 0.9996456
0.9996614 0.9992477 0.9996404
0.9997443 0.9992620 0.9996341
0.9998067 0.9992779 0.9996386
0.9982471 0.9994289 0.9996751
0.9988730 0.9994794 0.9996724
0.9992225 0.9995078 0.9996809
0.9994380 0.9995325 0.9996796
0.9995783 0.9995500 0.9996775
0.9996666 0.9995642 0.9996833
0.9997386 0.9995738 0.9996795
0.9997884 0.9995832 0.9996840
0.9984368 0.9996293 0.9997073
0.9989849 0.9996570 0.9997071
0.9992980 0.9996810 0.9997079
0.9994957 0.9997004 0.9997166
0.9996070 0.9997113 0.9997154
0.9996886 0.9997214 0.9997216
0.9997442 0.9997272 0.9997188
0.9997883 0.9997318 0.9997155
0.9985697 0.9997409 0.9997300
0.9990703 0.9997616 0.9997386
0.9993675 0.9997799 0.9997409
0.9995335 0.9997920 0.9997419
0.9996386 0.9998015 0.9997489
0.9997057 0.9998071 0.9997475
0.9997580 0.9998128 0.9997527
0.9997960 0.9998161 0.9997502
0.9987495 0.9815798 1.0000000
1.0000000 0.9822348 1.0000000
1.0000000 0.9829035 1.0000000
1.0000000 0.9834062 1.0000000
1.0000000 0.9835774 1.0000000
1.0000000 0.9838833 1.0000000
1.0000000 0.9839365 1.0000000
1.0000000 0.9841166 1.0000000
0.9983463 0.9942037 1.0000000
0.9990183 0.9943848 1.0000000
0.9994697 0.9945998 1.0000000
0.9997541 0.9947709 1.0000000
0.9999977 0.9948992 1.0000000
1.0000000 0.9949197 1.0000000
1.0000000 0.9949889 1.0000000
1.0000000 0.9950675 1.0000000
0.9985837 0.9976925 0.9999199
0.9990582 0.9978227 0.9999006
0.9993232 0.9979127 0.9998935
0.9995291 0.9979369 0.9998847
0.9996763 0.9979981 0.9998810
0.9997801 0.9980322 0.9998724
0.9998648 0.9980724 0.9998705
0.9999273 0.9980912 0.9998631
0.9988577 0.9988925 0.9998560
0.9991804 0.9989583 0.9998526
0.9993947 0.9990037 0.9998467
0.9995378 0.9990408 0.9998463
0.9996369 0.9990642 0.9998420
0.9997136 0.9990695 0.9998431
0.9997719 0.9990830 0.9998385
0.9998199 0.9990937 0.9998338
0.9990358 0.9993927 0.9998459
0.9993117 0.9994311 0.9998423
0.9994681 0.9994552 0.9998396
0.9995788 0.9994659 0.9998415
0.9996629 0.9994808 0.9998392
0.9997222 0.9994941 0.9998407
0.9997660 0.9995019 0.9998382
0.9998000 0.9995103 0.9998394
0.9991592 0.9996228 0.9998472
0.9993936 0.9996477 0.9998459
0.9995345 0.9996660 0.9998483
0.9996282 0.9996782 0.9998473
0.9996887 0.9996821 0.9998494
0.9997392 0.9996893 0.9998479
0.9997774 0.9996963 0.9998497
0.9998036 0.9996997 0.9998477
0.9992642 0.9997480 0.9998521
0.9994659 0.9997653 0.9998528
0.9995776 0.9997731 0.9998557
0.9996594 0.9997819 0.9998560
0.9997180 0.9997894 0.9998585
0.9997607 0.9997942 0.9998576
0.9997905 0.9997985 0.9998593
0.9998152 0.9998013 0.9998580
0.9993248 0.9998181 0.9998580
0.9995086 0.9998310 0.9998594
0.9996197 0.9998404 0.9998628
0.9996914 0.9998468 0.9998635
0.9997389 0.9998517 0.9998659
0.9997759 0.9998530 0.9998659
0.9998050 0.9998565 0.9998680
0.9998245 0.9998584 0.9998673
0.9994196 0.9896613 1.0000000
0.9998416 0.9900019 1.0000000
1.0000000 0.9901038 1.0000000
1.0000000 0.9903457 1.0000000
1.0000000 0.9905069 1.0000000
1.0000000 0.9904994 1.0000000
1.0000000 0.9905999 1.0000000
1.0000000 0.9907050 1.0000000
0.9991169 0.9964786 1.0000000
0.9993884 0.9966099 1.0000000
0.9995939 0.9967064 1.0000000
0.9997449 0.9967234 1.0000000
0.9998568 0.9967791 1.0000000
0.9999428 0.9968345 1.0000000
1.0000000 0.9968680 1.0000000
1.0000000 0.9968379 1.0000000
0.9992316 0.9985116 0.9999545
0.9994015 0.9985655 0.9999497
0.9995393 0.9986091 0.9999439
0.9996383 0.9986459 0.9999412
0.9997177 0.9986733 0.9999371
0.9997697 0.9986678 0.9999374
0.9998149 0.9986830 0.9999342
0.9998494 0.9986987 0.9999333
0.9993498 0.9992505 0.9999119
0.9994873 0.9992813 0.9999105
0.9995881 0.9993040 0.9999079
0.9996605 0.9993231 0.9999075
0.9997126 0.9993224 0.9999062
0.9997545 0.9993349 0.9999062
0.9997867 0.9993427 0.9999045
0.9998116 0.9993508 0.9999046
0.9994537 0.9995735 0.9998996
0.9995551 0.9995905 0.9998999
0.9996355 0.9996040 0.9998989
0.9996935 0.9996154 0.9998995
0.9997380 0.9996167 0.9998989
0.9997706 0.9996240 0.9998994
0.9997954 0.9996285 0.9998984
0.9998130 0.9996328 0.9998988
0.9995186 0.9997270 0.9998975
0.9996122 0.9997387 0.9998974
0.9996786 0.9997482 0.9998986
0.9997258 0.9997506 0.9998984
0.9997603 0.9997563 0.9998994
0.9997878 0.9997611 0.9999003
0.9998086 0.9997642 0.9998997
0.9998250 0.9997672 0.9999003
0.9995738 0.9998126 0.9998987
0.9996476 0.9998171 0.9998990
0.9997063 0.9998240 0.9999006
0.9997526 0.9998295 0.9999010
0.9997822 0.9998335 0.9999021
0.9998061 0.9998365 0.9999021
0.9998235 0.9998391 0.9999030
0.9998378 0.9998409 0.9999026
0.9996069 0.9998612 0.9998999
0.9996811 0.9998678 0.9999019
0.9997333 0.9998726 0.9999026
0.9997711 0.9998766 0.9999042
0.9998003 0.9998796 0.9999045
0.9998193 0.9998819 0.9999055
0.9998358 0.9998821 0.9999065
0.9998471 0.9998833 0.9999062
