Plugins/FilmEmulator/Content/LUTs/FE_Fuji_Pro_400H_64.cube
TITLE "FE_Fuji_Pro_400H_33"
LUT_3D_SIZE 64
0.0043212 0.0072840 0.0068190
0.0049693 0.0072813 0.0068186
0.0065487 0.0071935 0.0067435
0.0102953 0.0070270 0.0066290
0.0153474 0.0069956 0.0066127
0.0212079 0.0069901 0.0066258
0.0284905 0.0069848 0.0067386
0.0372820 0.0069913 0.0068347
0.0466615 0.0070377 0.0069881
0.0587841 0.0070774 0.0071004
0.0705631 0.0071476 0.0072395
0.0811490 0.0072191 0.0073815
0.0976138 0.0073124 0.0075135
0.1118649 0.0074402 0.0076675
0.1225059 0.0075707 0.0078246
0.1403158 0.0076584 0.0079311
0.1602264 0.0078621 0.0081744
0.1747535 0.0080144 0.0083565
0.1903992 0.0081698 0.0085427
0.2072024 0.0083282 0.0087330
0.2251088 0.0084897 0.0089275
0.2440170 0.0088046 0.0092908
0.2640103 0.0091310 0.0096688
0.2742875 0.0094695 0.0100620
0.2959197 0.0096433 0.0102646
0.3184101 0.0100005 0.0106819
0.3300070 0.0101840 0.0108969
0.3416095 0.0106719 0.0114402
0.3659539 0.0109356 0.0117322
0.3781253 0.0114830 0.0123385
0.3906601 0.0117667 0.0126532
0.4162771 0.0120571 0.0129759
0.4291562 0.0123548 0.0133067
0.4421440 0.0126597 0.0136458
0.4550025 0.0133175 0.0143685
0.4681052 0.0137233 0.0147919
0.4812644 0.0141414 0.0152276
0.4944608 0.0145720 0.0156760
0.5076764 0.0150156 0.0161374
0.5208927 0.0154725 0.0166122
0.5340914 0.0159430 0.0171009
0.5473636 0.0164277 0.0176036
0.5605799 0.0169268 0.0181209
0.5737218 0.0174409 0.0186533
0.5870210 0.0174399 0.0186532
0.5999565 0.0179692 0.0192008
0.6127325 0.0185856 0.0198395
0.6253647 0.0192229 0.0204990
0.6250908 0.0198829 0.0211802
0.6378371 0.0198816 0.0211801
0.6501353 0.0205624 0.0218834
0.6622454 0.0212663 0.0226096
0.6619838 0.0219953 0.0233597
0.6742215 0.0219937 0.0233595
0.6860147 0.0227455 0.0241337
0.6975795 0.0235225 0.0249331
0.6973321 0.0243275 0.0257588
0.7089067 0.0243255 0.0257584
0.7199860 0.0251553 0.0266105
0.7197456 0.0260320 0.0275418
0.7308066 0.0260297 0.0275415
0.7305699 0.0269449 0.0285312
0.7413633 0.0269425 0.0285308
0.7516525 0.0278865 0.0295549
0.0042443 0.0081697 0.0068364
0.0051945 0.0082465 0.0066975
0.0072056 0.0084020 0.0066480
0.0109261 0.0084752 0.0066463
0.0164764 0.0085490 0.0066847
0.0228985 0.0086999 0.0067892
0.0295605 0.0088550 0.0069219
0.0386500 0.0090127 0.0070529
0.0484448 0.0091743 0.0071761
0.0582081 0.0095131 0.0073209
0.0698591 0.0096851 0.0074299
0.0841555 0.0098599 0.0075636
0.0966229 0.0100388 0.0077187
0.1108075 0.0100349 0.0078737
0.1270301 0.0102170 0.0080464
0.1453555 0.0104464 0.0082261
0.1587389 0.0107043 0.0084104
0.1731289 0.0109684 0.0085987
0.1886302 0.0112391 0.0087912
0.2052822 0.0115165 0.0089880
0.2231994 0.0115119 0.0093462
0.2420745 0.0117945 0.0097238
0.2620316 0.0120858 0.0099210
0.2830520 0.0123825 0.0103217
0.2938350 0.0126887 0.0105309
0.3165263 0.0126840 0.0109500
0.3280373 0.0129973 0.0112103
0.3519091 0.0133404 0.0117840
0.3642691 0.0133375 0.0120781
0.3765595 0.0137445 0.0123878
0.4018880 0.0141607 0.0130222
0.4148467 0.0141576 0.0133469
0.4276606 0.0145893 0.0136888
0.4405847 0.0150339 0.0140393
0.4538823 0.0150305 0.0144071
0.4669795 0.0154880 0.0148317
0.4938683 0.0154834 0.0152583
0.5070835 0.0159544 0.0157076
0.5203001 0.0164395 0.0161699
0.5337825 0.0164353 0.0166345
0.5470561 0.0169347 0.0171237
0.5470821 0.0169312 0.0176154
0.5602998 0.0174454 0.0181331
0.5737218 0.0174409 0.0186533
0.5867705 0.0179703 0.0192010
0.5999565 0.0179692 0.0192008
0.6127325 0.0185856 0.0198395
0.6253647 0.0192229 0.0204990
0.6250908 0.0198829 0.0211802
0.6375672 0.0205639 0.0218836
0.6501353 0.0205624 0.0218834
0.6622454 0.0212663 0.0226096
0.6619838 0.0219953 0.0233597
0.6739644 0.0227472 0.0241340
0.6860147 0.0227455 0.0241337
0.6975795 0.0235225 0.0249331
0.6973321 0.0243275 0.0257588
0.7089067 0.0243255 0.0257584
0.7199860 0.0251553 0.0266105
0.7197456 0.0260320 0.0275418
0.7308066 0.0260297 0.0275415
0.7413633 0.0269425 0.0285308
0.7411326 0.0278892 0.0295553
0.7516525 0.0278865 0.0295549
0.0042725 0.0135272 0.0067326
0.0054034 0.0139360 0.0067156
0.0078520 0.0143513 0.0067317
0.0118437 0.0143349 0.0068144
0.0174765 0.0147601 0.0069252
0.0234270 0.0152013 0.0070579
0.0317451 0.0151878 0.0071883
0.0396603 0.0156445 0.0073323
0.0498381 0.0156342 0.0074382
0.0598805 0.0161057 0.0075965
0.0718942 0.0165914 0.0077542
0.0866723 0.0165819 0.0079098
0.0994366 0.0170846 0.0080207
0.1140277 0.0170762 0.0082274
0.1306953 0.0175927 0.0084126
0.1430404 0.0175866 0.0085962
0.1562185 0.0181202 0.0087897
0.1781001 0.0181124 0.0089816
0.1939757 0.0187332 0.0092652
0.2111473 0.0187247 0.0096343
0.2292190 0.0193650 0.0100256
0.2486073 0.0193591 0.0102233
0.2584979 0.0200224 0.0106383
0.2795030 0.0200164 0.0108479
0.3012691 0.0206998 0.0113270
0.3126605 0.0206945 0.0116098
0.3358585 0.0214034 0.0119087
0.3479626 0.0213941 0.0125104
0.3599657 0.0221281 0.0128322
0.3851061 0.0221209 0.0131521
0.3976183 0.0228794 0.0134903
0.4105295 0.0228735 0.0138265
0.4232904 0.0236528 0.0145532
0.4364598 0.0236462 0.0149720
0.4630617 0.0236378 0.0154026
0.4761653 0.0244464 0.0158575
0.4896322 0.0244395 0.0163132
0.5028064 0.0252749 0.0167946
0.5163080 0.0252677 0.0172769
0.5297714 0.0252658 0.0172769
0.5430156 0.0261460 0.0177865
0.5565331 0.0261385 0.0182969
0.5696548 0.0270573 0.0188364
0.5696808 0.0270517 0.0193765
0.5830401 0.0270432 0.0200058
0.5959705 0.0279921 0.0206713
0.6090657 0.0279898 0.0206711
0.6217321 0.0289711 0.0213583
0.6345512 0.0289618 0.0220508
0.6345790 0.0289550 0.0227656
0.6468883 0.0299763 0.0227830
0.6593398 0.0299666 0.0235209
0.6716508 0.0299569 0.0242821
0.6713575 0.0310153 0.0243009
0.6834832 0.0310051 0.0250869
0.6953726 0.0309950 0.0258978
0.6950905 0.0320891 0.0259178
0.7067381 0.0320786 0.0267550
0.7181296 0.0320675 0.0276697
0.7178599 0.0331984 0.0276911
0.7289920 0.0331868 0.0286636
0.7398506 0.0331751 0.0296694
0.7395937 0.0343440 0.0296923
0.7501787 0.0343318 0.0307333
0.0043608 0.0224724 0.0067946
0.0056549 0.0224563 0.0068327
0.0083703 0.0232071 0.0069417
0.0125931 0.0231795 0.0070740
0.0187005 0.0231535 0.0071779
0.0250841 0.0239325 0.0073325
0.0326868 0.0239131 0.0074741
0.0408227 0.0247229 0.0075878
0.0513967 0.0247055 0.0077210
0.0617278 0.0255433 0.0078819
0.0742811 0.0255279 0.0080400
0.0854531 0.0255167 0.0081471
0.1026384 0.0263970 0.0083983
0.1124531 0.0263870 0.0085816
0.1289005 0.0273104 0.0087757
0.1475576 0.0272972 0.0089671
0.1612300 0.0272871 0.0091628
0.1757565 0.0282411 0.0095353
0.1916654 0.0282272 0.0099150
0.2086693 0.0282174 0.0101105
0.2265788 0.0292032 0.0105212
0.2458098 0.0291933 0.0107285
0.2659123 0.0302123 0.0111641
0.2764722 0.0302044 0.0114233
0.2983628 0.0301878 0.0120007
0.3094129 0.0312470 0.0123098
0.3327604 0.0312356 0.0126168
0.3447873 0.0312271 0.0129315
0.3691668 0.0323129 0.0135950
0.3817933 0.0323042 0.0139338
0.3945667 0.0322955 0.0142809
0.4071284 0.0334261 0.0146665
0.4332620 0.0334131 0.0150884
0.4465109 0.0334032 0.0155223
0.4595223 0.0345707 0.0159811
0.4729286 0.0345604 0.0164404
0.4863861 0.0345502 0.0169127
0.4995466 0.0357565 0.0174119
0.5130478 0.0357459 0.0179117
0.5265424 0.0357353 0.0184256
0.5397877 0.0370010 0.0189691
0.5533195 0.0369899 0.0195128
0.5667581 0.0369864 0.0195127
0.5801389 0.0369744 0.0201464
0.5930796 0.0383219 0.0208172
0.5931084 0.0383130 0.0214926
0.6062330 0.0383093 0.0214925
0.6189173 0.0397038 0.0222073
0.6317732 0.0396907 0.0229269
0.6444538 0.0396776 0.0236693
0.6441355 0.0411336 0.0236885
0.6566309 0.0411200 0.0244551
0.6689885 0.0411063 0.0252459
0.6689885 0.0411063 0.0252459
0.6808563 0.0425986 0.0260829
0.6927983 0.0425844 0.0269253
0.7044697 0.0425800 0.0269250
0.7044964 0.0425695 0.0278458
0.7156557 0.0441119 0.0288469
0.7268145 0.0441072 0.0288465
0.7268407 0.0440962 0.0298590
0.7374577 0.0457030 0.0298827
0.7374831 0.0456916 0.0309306
0.7481235 0.0456752 0.0320139
0.0045596 0.0328355 0.0069447
0.0060217 0.0328082 0.0070531
0.0091311 0.0327686 0.0071829
0.0139702 0.0338845 0.0073209
0.0192494 0.0338519 0.0074621
0.0258465 0.0338229 0.0075696
0.0337372 0.0349875 0.0077312
0.0421754 0.0349626 0.0078861
0.0531983 0.0349370 0.0080441
0.0638675 0.0361483 0.0081575
0.0769501 0.0361247 0.0083675
0.0884929 0.0361063 0.0085500
0.1014842 0.0373787 0.0087434
0.1164540 0.0373600 0.0089341
0.1335558 0.0373412 0.0091289
0.1461345 0.0373245 0.0094099
0.1595264 0.0386791 0.0097927
0.1818502 0.0386608 0.0099857
0.1981900 0.0386413 0.0103832
0.2154152 0.0400422 0.0108053
0.2339639 0.0400279 0.0110182
0.2436802 0.0400114 0.0114960
0.2639062 0.0399959 0.0117829
0.2848859 0.0414485 0.0120869
0.2959232 0.0414295 0.0126975
0.3186957 0.0414136 0.0130142
0.3301511 0.0429203 0.0133496
0.3543036 0.0429040 0.0136823
0.3667025 0.0428920 0.0140233
0.3792930 0.0428801 0.0143726
0.3917339 0.0444286 0.0151858
0.4175455 0.0444106 0.0156225
0.4306641 0.0443971 0.0160717
0.4435547 0.0460066 0.0165470
0.4568738 0.0459926 0.0170223
0.4702678 0.0459787 0.0175111
0.4836904 0.0459741 0.0175111
0.4968309 0.0476382 0.0180284
0.5103314 0.0476238 0.0185456
0.5238290 0.0476093 0.0190775
0.5374140 0.0475948 0.0196243
0.5506172 0.0493135 0.0202781
0.5641003 0.0492972 0.0209362
0.5774707 0.0492921 0.0209360
0.5907680 0.0492757 0.0216151
0.6036133 0.0510523 0.0223340
0.6036420 0.0510406 0.0230578
0.6166543 0.0510353 0.0230576
0.6295394 0.0510183 0.0238041
0.6419325 0.0528546 0.0245943
0.6419325 0.0528546 0.0245943
0.6544618 0.0528369 0.0253896
0.6668566 0.0528192 0.0262101
0.6790401 0.0528135 0.0262098
0.6787524 0.0547840 0.0270792
0.6907376 0.0547649 0.0280048
0.7024524 0.0547589 0.0280044
0.7024798 0.0547453 0.0289881
0.7136467 0.0567911 0.0290119
0.7248791 0.0567707 0.0300297
0.7249053 0.0567566 0.0310827
0.7358401 0.0567503 0.0310822
0.7465234 0.0567299 0.0321707
0.7462501 0.0588524 0.0321975
0.0047907 0.0435847 0.0071783
0.0064529 0.0435469 0.0072839
0.0099687 0.0450851 0.0074407
0.0149524 0.0450337 0.0075475
0.0207345 0.0449900 0.0076930
0.0279447 0.0449501 0.0078277
0.0365295 0.0465559 0.0079909
0.0458369 0.0465223 0.0081509
0.0551672 0.0464960 0.0082594
0.0662080 0.0481617 0.0085143
0.0798616 0.0481312 0.0086998
0.0918035 0.0481067 0.0088895
0.1053533 0.0480823 0.0090833
0.1208024 0.0498106 0.0092889
0.1323473 0.0497850 0.0096589
0.1514336 0.0497537 0.0100434
0.1654014 0.0497353 0.0102413
0.1802917 0.0515203 0.0106576
0.1965109 0.0515013 0.0108676
0.2138519 0.0514753 0.0112999
0.2323050 0.0514554 0.0115621
0.2518956 0.0514258 0.0121465
0.2618461 0.0532801 0.0124597
0.2829956 0.0532591 0.0127705
0.3051788 0.0532381 0.0130889
0.3166745 0.0532137 0.0137496
0.3280799 0.0551969 0.0141042
0.3521565 0.0551754 0.0144555
0.3645215 0.0551593 0.0148341
0.3770830 0.0551423 0.0152609
0.4022546 0.0571860 0.0157129
0.4152205 0.0571685 0.0161646
0.4283175 0.0571509 0.0166291
0.4415282 0.0571334 0.0171068
0.4548345 0.0571159 0.0175980
0.4678645 0.0592350 0.0181183
0.4813049 0.0592168 0.0186381
0.4947845 0.0591987 0.0191726
0.5082574 0.0591925 0.0191725
0.5214012 0.0613842 0.0197387
0.5349952 0.0613637 0.0203796
0.5485495 0.0613432 0.0210410
0.5620434 0.0613227 0.0217234
0.5754277 0.0613163 0.0217233
0.5883954 0.0635801 0.0224463
0.6015947 0.0635589 0.0231735
0.6146584 0.0635376 0.0239237
0.6146584 0.0635376 0.0239237
0.6275685 0.0635163 0.0246978
0.6399776 0.0658564 0.0255178
0.6525097 0.0658492 0.0255175
0.6525372 0.0658343 0.0263423
0.6649641 0.0658122 0.0271929
0.6771818 0.0658049 0.0271926
0.6888891 0.0682230 0.0281455
0.6889172 0.0682063 0.0291340
0.7006700 0.0681986 0.0291336
0.7121984 0.0681741 0.0301556
0.7121984 0.0681741 0.0301556
0.7231759 0.0706731 0.0312385
0.7232022 0.0706558 0.0323327
0.7341794 0.0706477 0.0323323
0.7449054 0.0706224 0.0334633
0.7449054 0.0706224 0.0334633
0.0050170 0.0560547 0.0073812
0.0071010 0.0559982 0.0075149
0.0109074 0.0580263 0.0076659
0.0160195 0.0579639 0.0077759
0.0223559 0.0579043 0.0079792
0.0289710 0.0578608 0.0080850
0.0379090 0.0578132 0.0082468
0.0475958 0.0599311 0.0084660
0.0572678 0.0598938 0.0086504
0.0688599 0.0598565 0.0088388
0.0792786 0.0598258 0.0090315
0.0954404 0.0597882 0.0092282
0.1044770 0.0619934 0.0095203
0.1199599 0.0619541 0.0098993
0.1375043 0.0619236 0.0100943
0.1504011 0.0618919 0.0104960
0.1641100 0.0641662 0.0109229
0.1870177 0.0641349 0.0111380
0.2037180 0.0641009 0.0116208
0.2215249 0.0640750 0.0119108
0.2308571 0.0640565 0.0122081
0.2501006 0.0664009 0.0128356
0.2706593 0.0663744 0.0131556
0.2813302 0.0663555 0.0134836
0.3034348 0.0663291 0.0138196
0.3148734 0.0663103 0.0141640
0.3381274 0.0687441 0.0145290
0.3502764 0.0687103 0.0153385
0.3626128 0.0686890 0.0157795
0.3878078 0.0686603 0.0162331
0.4006062 0.0686392 0.0166995
0.4132112 0.0711587 0.0171937
0.4262635 0.0711510 0.0171936
0.4394577 0.0711291 0.0176873
0.4660967 0.0710996 0.0181948
0.4795305 0.0710778 0.0187168
0.4930061 0.0710560 0.0192535
0.5061480 0.0736580 0.0198220
0.5196519 0.0736335 0.0204656
0.5332499 0.0736089 0.0211297
0.5467807 0.0736009 0.0211296
0.5468103 0.0735843 0.0218150
0.5599611 0.0762703 0.0225411
0.5733885 0.0762447 0.0232713
0.5866901 0.0762364 0.0232711
0.5999058 0.0762109 0.0240245
0.6129880 0.0761854 0.0248018
0.6258905 0.0761771 0.0248015
0.6255765 0.0790090 0.0256255
0.6383439 0.0789826 0.0264535
0.6509008 0.0789738 0.0264532
0.6633551 0.0789473 0.0273073
0.6633836 0.0789287 0.0282408
0.6753060 0.0818899 0.0282647
0.6873589 0.0818608 0.0292569
0.6873589 0.0818608 0.0292569
0.6991715 0.0818317 0.0302831
0.7107326 0.0818026 0.0313444
0.7107326 0.0818026 0.0313444
0.7217360 0.0848423 0.0324695
0.7327487 0.0848326 0.0324690
0.7327746 0.0848120 0.0336053
0.7435118 0.0848024 0.0336048
0.7435367 0.0847819 0.0347795
0.0051874 0.0698065 0.0076274
0.0076203 0.0697299 0.0077741
0.0116458 0.0696472 0.0079097
0.0172197 0.0721439 0.0080743
0.0231344 0.0720805 0.0082357
0.0300671 0.0720264 0.0083449
0.0393335 0.0719628 0.0085950
0.0495389 0.0719100 0.0087820
0.0595851 0.0718656 0.0089733
0.0716405 0.0744733 0.0091765
0.0824479 0.0744354 0.0093764
0.0947475 0.0743886 0.0097497
0.1087280 0.0743420 0.0101377
0.1248365 0.0743052 0.0103373
0.1365505 0.0770034 0.0107577
0.1561360 0.0769657 0.0109695
0.1704687 0.0769268 0.0114058
0.1859886 0.0768964 0.0116704
0.2026220 0.0768520 0.0122601
0.2203575 0.0768210 0.0125659
0.2389568 0.0796624 0.0128903
0.2488059 0.0796396 0.0132117
0.2693116 0.0795941 0.0138786
0.2908301 0.0795625 0.0142243
0.3019872 0.0795398 0.0145786
0.3247078 0.0824995 0.0149733
0.3365857 0.0824740 0.0154040
0.3486853 0.0824485 0.0158470
0.3734786 0.0824140 0.0163024
0.3861427 0.0823886 0.0167708
0.3989205 0.0823633 0.0172525
0.4114982 0.0854276 0.0177632
0.4377136 0.0853921 0.0182729
0.4509941 0.0853659 0.0187971
0.4643577 0.0853398 0.0193361
0.4777583 0.0853304 0.0193360
0.4912294 0.0853043 0.0198901
0.5043635 0.0884664 0.0205536
0.5178684 0.0884371 0.0212206
0.5314697 0.0884077 0.0219088
0.5450065 0.0883979 0.0219086
0.5585182 0.0883686 0.0226188
0.5719548 0.0883392 0.0233514
0.5716249 0.0916137 0.0241283
0.5849401 0.0916036 0.0241281
0.5981721 0.0915732 0.0249087
0.6112727 0.0915428 0.0257140
0.6241962 0.0915325 0.0257137
0.6242245 0.0915123 0.0265448
0.6370100 0.0914819 0.0274018
0.6492512 0.0948726 0.0274250
0.6617342 0.0948398 0.0283622
0.6617634 0.0948170 0.0293582
0.6740384 0.0948063 0.0293578
0.6861157 0.0947728 0.0303874
0.6861157 0.0947728 0.0303874
0.6976421 0.0982501 0.0314792
0.7092097 0.0982389 0.0314787
0.7092369 0.0982155 0.0325812
0.7205716 0.0981808 0.0337207
0.7316127 0.0981696 0.0337202
0.7316387 0.0981461 0.0348990
0.7424048 0.0981349 0.0348984
0.7526391 0.1017232 0.0361473
0.0056467 0.0837377 0.0078462
0.0085413 0.0836407 0.0079977
0.0125092 0.0835502 0.0081572
0.0178439 0.0865946 0.0083273
0.0249972 0.0865135 0.0084491
0.0326764 0.0864366 0.0087265
0.0408586 0.0863755 0.0089164
0.0515530 0.0863125 0.0091103
0.0619854 0.0862596 0.0093087
0.0711882 0.0894352 0.0096033
0.0858381 0.0893688 0.0099854
0.0985901 0.0893252 0.0101819
0.1131865 0.0892695 0.0105870
0.1240945 0.0892242 0.0110082
0.1421566 0.0891806 0.0112248
0.1554097 0.0891476 0.0114457
0.1694922 0.0924195 0.0120140
0.1930702 0.0923714 0.0123135
0.2015031 0.0923293 0.0129355
0.2191653 0.0922922 0.0132580
0.2379497 0.0922552 0.0135884
0.2578508 0.0922184 0.0139269
0.2679193 0.0956189 0.0142863
0.2893679 0.0955810 0.0146421
0.3118472 0.0955424 0.0150255
0.3234897 0.0954944 0.0159022
0.3353440 0.0954651 0.0163592
0.3596856 0.0954251 0.0168292
0.3718350 0.0989299 0.0173275
0.3844513 0.0989189 0.0173275
0.4100924 0.0988778 0.0178248
0.4231396 0.0988477 0.0183363
0.4363079 0.0988176 0.0188623
0.4495785 0.0987875 0.0194032
0.4629340 0.0987574 0.0199592
0.4759946 0.1023698 0.0206251
0.4894347 0.1023585 0.0206249
0.5029321 0.1023249 0.0212942
0.5164374 0.1022912 0.0219847
0.5300412 0.1022575 0.0226972
0.5436122 0.1022238 0.0234324
0.5571011 0.1022124 0.0234322
0.5701867 0.1059378 0.0242116
0.5835423 0.1059029 0.0249948
0.5835423 0.1059029 0.0249948
0.5967870 0.1058680 0.0258029
0.6099023 0.1058331 0.0266365
0.6228421 0.1058213 0.0266362
0.6356462 0.1057864 0.0274961
0.6353346 0.1096385 0.0284604
0.6479363 0.1096262 0.0284601
0.6604412 0.1095880 0.0294590
0.6727397 0.1095756 0.0294586
0.6727686 0.1095497 0.0304921
0.6848700 0.1095114 0.0315605
0.6967058 0.1094990 0.0315600
0.6964165 0.1135314 0.0326937
0.7080106 0.1135184 0.0326932
0.7193736 0.1134788 0.0338365
0.7193736 0.1134788 0.0338365
0.7304696 0.1134391 0.0350187
0.7304696 0.1134391 0.0350187
0.7412907 0.1133995 0.0362409
0.7518306 0.1133597 0.0375044
0.0059695 0.0969165 0.0081342
0.0093681 0.1003784 0.0083034
0.0139691 0.1002714 0.0084129
0.0193129 0.1001717 0.0086648
0.0259588 0.1000844 0.0088530
0.0339938 0.1000033 0.0090454
0.0425864 0.0999330 0.0092421
0.0512179 0.1035568 0.0094515
0.0615897 0.1034820 0.0098275
0.0742358 0.1034200 0.0100207
0.0854088 0.1033563 0.0104194
0.0981091 0.1032926 0.0108338
0.1126351 0.1032425 0.0110469
0.1292559 0.1031786 0.0114861
0.1413135 0.1069304 0.0117627
0.1614817 0.1068572 0.0123569
0.1762735 0.1068144 0.0126650
0.1922115 0.1067717 0.0129807
0.2092553 0.1067291 0.0133043
0.2274344 0.1066687 0.0139757
0.2467201 0.1066264 0.0143238
0.2565155 0.1105014 0.0146932
0.2773865 0.1104569 0.0150780
0.2882273 0.1104232 0.0155116
0.3106564 0.1103771 0.0159575
0.3222514 0.1103435 0.0164162
0.3461118 0.1102975 0.0168877
0.3583782 0.1102640 0.0173727
0.3705028 0.1143148 0.0178872
0.3958389 0.1142676 0.0184004
0.4087334 0.1142332 0.0189282
0.4217674 0.1141986 0.0194709
0.4348978 0.1141861 0.0194708
0.4481583 0.1141517 0.0200287
0.4615091 0.1141144 0.0206790
0.4749275 0.1140772 0.0213499
0.4880133 0.1183752 0.0220622
0.5014788 0.1183621 0.0220620
0.5149841 0.1183236 0.0227770
0.5285902 0.1182850 0.0235148
0.5421659 0.1182465 0.0242759
0.5556612 0.1182333 0.0242757
0.5691154 0.1181948 0.0250610
0.5821055 0.1226285 0.0258944
0.5953342 0.1226148 0.0258941
0.5953630 0.1225885 0.0267309
0.6084933 0.1225486 0.0275938
0.6214496 0.1225350 0.0275935
0.6342740 0.1224936 0.0285363
0.6469211 0.1224513 0.0295378
0.6469211 0.1224513 0.0295378
0.6590965 0.1270215 0.0306011
0.6714184 0.1270072 0.0306007
0.6714472 0.1269777 0.0316732
0.6835454 0.1269634 0.0316728
0.6954359 0.1269196 0.0327814
0.6954635 0.1268901 0.0339282
0.7070782 0.1268757 0.0339277
0.7184626 0.1268319 0.0351130
0.7181497 0.1315887 0.0351443
0.7292750 0.1315434 0.0363708
0.7401011 0.1315285 0.0363702
0.7401263 0.1314980 0.0376387
0.7506725 0.1314831 0.0376381
0.0065600 0.1160834 0.0083894
0.0099536 0.1159558 0.0085118
0.0150219 0.1158158 0.0087906
0.0209002 0.1157067 0.0089814
0.0270108 0.1156182 0.0091765
0.0353620 0.1155259 0.0093759
0.0443848 0.1154385 0.0096639
0.0534379 0.1153558 0.0100482
0.0641415 0.1196670 0.0102551
0.0774036 0.1195803 0.0106628
0.0890138 0.1195075 0.0110868
0.1021915 0.1194506 0.0113048
0.1173675 0.1193932 0.0115271
0.1345962 0.1193133 0.0120886
0.1472555 0.1192659 0.0123901
0.1607060 0.1237275 0.0127106
0.1754532 0.1236583 0.0133523
0.1913327 0.1236094 0.0136850
0.2083170 0.1235606 0.0140259
0.2264204 0.1235120 0.0143752
0.2456455 0.1234635 0.0147330
0.2659601 0.1234141 0.0151188
0.2765347 0.1233534 0.0160009
0.2980974 0.1279453 0.0164756
0.3094219 0.1279068 0.0169489
0.3327500 0.1278782 0.0169487
0.3447796 0.1278398 0.0174354
0.3570233 0.1278015 0.0179359
0.3820517 0.1277489 0.0184505
0.3947771 0.1277108 0.0189797
0.4076593 0.1276727 0.0195239
0.4203122 0.1324184 0.0201015
0.4334590 0.1323757 0.0207541
0.4466829 0.1323612 0.0207539
0.4734074 0.1323041 0.0214271
0.4868697 0.1322615 0.0221219
0.5003633 0.1322190 0.0228389
0.5138685 0.1321764 0.0235786
0.5274465 0.1321618 0.0235784
0.5274764 0.1321337 0.0243418
0.5406752 0.1370183 0.0251518
0.5541770 0.1370032 0.0251515
0.5676399 0.1369591 0.0259645
0.5810145 0.1369150 0.0268033
0.5942526 0.1368999 0.0268030
0.6073940 0.1368559 0.0276682
0.6074244 0.1368253 0.0286138
0.6203935 0.1368101 0.0286135
0.6328748 0.1418393 0.0296443
0.6455123 0.1418237 0.0296439
0.6455422 0.1417912 0.0306837
0.6580859 0.1417429 0.0317587
0.6704252 0.1417272 0.0317583
0.6825711 0.1416789 0.0328698
0.6825711 0.1416789 0.0328698
0.6944811 0.1416307 0.0340192
0.7061166 0.1416147 0.0340187
0.7058232 0.1468095 0.0352390
0.7172096 0.1467930 0.0352385
0.7283574 0.1467433 0.0364681
0.7283574 0.1467433 0.0364681
0.7392319 0.1466932 0.0377393
0.7392319 0.1466932 0.0377393
0.7498264 0.1466433 0.0390534
0.0072539 0.1296779 0.0087228
0.0109443 0.1295330 0.0089117
0.0161721 0.1293943 0.0091048
0.0216783 0.1341238 0.0093109
0.0293907 0.1340078 0.0095130
0.0367776 0.1339016 0.0098912
0.0462457 0.1338108 0.0100855
0.0556599 0.1337167 0.0104864
0.0669500 0.1336224 0.0109033
0.0807876 0.1335438 0.0111175
0.0928612 0.1334637 0.0115594
0.1065867 0.1333977 0.0118272
0.1167751 0.1383139 0.0121332
0.1339291 0.1382213 0.0127459
0.1465352 0.1381672 0.0130635
0.1673053 0.1380975 0.0133889
0.1826091 0.1380211 0.0140645
0.1989936 0.1379672 0.0144147
0.2164908 0.1379134 0.0147736
0.2351105 0.1378587 0.0151603
0.2445742 0.1429278 0.0156105
0.2648310 0.1428691 0.0160591
0.2861256 0.1428106 0.0165206
0.2971760 0.1427682 0.0169952
0.3200065 0.1427099 0.0174831
0.3317923 0.1426676 0.0179850
0.3438040 0.1426252 0.0185010
0.3684368 0.1425672 0.0190315
0.3810291 0.1425250 0.0195772
0.3933545 0.1477666 0.0195947
0.4062201 0.1477232 0.0201562
0.4192315 0.1476762 0.0208105
0.4455847 0.1476132 0.0214856
0.4589202 0.1475663 0.0221822
0.4722972 0.1475502 0.0221820
0.4857562 0.1475034 0.0229009
0.4992479 0.1474564 0.0236426
0.5127531 0.1474096 0.0244078
0.5259513 0.1528016 0.0244296
0.5395343 0.1527532 0.0252198
0.5530707 0.1527047 0.0260349
0.5530707 0.1527047 0.0260349
0.5665399 0.1526563 0.0268759
0.5799223 0.1526078 0.0277434
0.5931700 0.1525910 0.0277431
0.6063243 0.1525408 0.0286909
0.6193367 0.1524896 0.0296978
0.6189741 0.1580533 0.0297244
0.6318318 0.1580004 0.0307667
0.6444841 0.1579832 0.0307663
0.6570444 0.1579302 0.0318440
0.6570444 0.1579302 0.0318440
0.6694312 0.1578773 0.0329585
0.6815954 0.1578243 0.0341109
0.6815954 0.1578243 0.0341109
0.6935250 0.1577713 0.0353024
0.7048596 0.1634760 0.0353334
0.7048868 0.1634395 0.0365668
0.7162943 0.1634213 0.0365663
0.7274641 0.1633666 0.0378408
0.7274641 0.1633666 0.0378408
0.7383609 0.1633119 0.0391582
0.7383609 0.1633119 0.0391582
0.7489785 0.1632568 0.0405358
0.0078315 0.1446440 0.0090345
0.0117682 0.1498056 0.0092386
0.0167578 0.1496613 0.0094389
0.0234851 0.1495140 0.0097282
0.0306174 0.1493833 0.0101147
0.0383003 0.1492857 0.0103133
0.0482515 0.1491664 0.0107230
0.0580496 0.1490819 0.0109337
0.0699066 0.1489778 0.0113681
0.0804714 0.1489084 0.0115915
0.0923811 0.1542652 0.0121672
0.1060435 0.1541887 0.0124704
0.1218042 0.1541115 0.0127811
0.1395931 0.1540100 0.0134261
0.1526479 0.1539506 0.0137605
0.1667104 0.1538914 0.0141032
0.1819574 0.1538320 0.0144544
0.1982963 0.1537727 0.0148142
0.2157481 0.1537123 0.0152019
0.2340551 0.1592497 0.0156532
0.2537338 0.1591851 0.0161031
0.2639761 0.1591384 0.0165658
0.2852270 0.1590742 0.0170416
0.2962562 0.1590276 0.0175309
0.3190465 0.1589635 0.0180340
0.3308129 0.1589170 0.0185515
0.3549923 0.1588532 0.0190834
0.3674059 0.1588068 0.0196305
0.3796266 0.1645139 0.0202113
0.3923234 0.1644622 0.0208673
