Plugins/FilmEmulator/Content/LUTs/FE_Fuji_Provia_100F_64.cube
TITLE "FE_Fuji_Provia_100F_33"
LUT_3D_SIZE 64
0.0004983 0.0007599 0.0009118
0.0013127 0.0008462 0.0009851
0.0039569 0.0009884 0.0010989
0.0079184 0.0011482 0.0012101
0.0125536 0.0013002 0.0013106
0.0180373 0.0014676 0.0014182
0.0240485 0.0016742 0.0015483
0.0309154 0.0019823 0.0017158
0.0387863 0.0023940 0.0019188
0.0478859 0.0029085 0.0021783
0.0571194 0.0034856 0.0024209
0.0667811 0.0041324 0.0026473
0.0766639 0.0048312 0.0028661
0.0868896 0.0056949 0.0031016
0.0977537 0.0064801 0.0033983
0.1100195 0.0075359 0.0037405
0.1204479 0.0086511 0.0042080
0.1326933 0.0097409 0.0047660
0.1441431 0.0109849 0.0053056
0.1548677 0.0123888 0.0057945
0.1673024 0.0137149 0.0064198
0.1788815 0.0151798 0.0069974
0.1910947 0.0168678 0.0076357
0.2041571 0.0187308 0.0081832
0.2150190 0.0204382 0.0089463
0.2272695 0.0227434 0.0096155
0.2412422 0.0247340 0.0102999
0.2534255 0.0268158 0.0110492
0.2638947 0.0290700 0.0118723
0.2756749 0.0307910 0.0127154
0.2886384 0.0330650 0.0133766
0.2988242 0.0349491 0.0143342
0.3097350 0.0374234 0.0151044
0.3226202 0.0394387 0.0161529
0.3333609 0.0415081 0.0169975
0.3442779 0.0436418 0.0178856
0.3554586 0.0458254 0.0187980
0.3670048 0.0481162 0.0197561
0.3787207 0.0504644 0.0204148
0.3876389 0.0528840 0.0214753
0.3986472 0.0546434 0.0225225
0.4110370 0.0572155 0.0232547
0.4192603 0.0590941 0.0244171
0.4312367 0.0618171 0.0252164
0.4394785 0.0638003 0.0264560
0.4490290 0.0666996 0.0273354
0.4603094 0.0688602 0.0286525
0.4679545 0.0709741 0.0295874
0.4757226 0.0731462 0.0305518
0.4849091 0.0764205 0.0315725
0.4956726 0.0787862 0.0325788
0.5034112 0.0811828 0.0336417
0.5110760 0.0837327 0.0352878
0.5188115 0.0862771 0.0364296
0.5266198 0.0888132 0.0370273
0.5345951 0.0915058 0.0382240
0.5401256 0.0942347 0.0394756
0.5477496 0.0970663 0.0407511
0.5539901 0.0986420 0.0420237
0.5618088 0.1015980 0.0433681
0.5697397 0.1046390 0.0447538
0.5752962 0.1076222 0.0455020
0.5816312 0.1093603 0.0469136
0.5891512 0.1125810 0.0484109
0.0003927 0.0015676 0.0011254
0.0015425 0.0020610 0.0012767
0.0051733 0.0028336 0.0014697
0.0104320 0.0036303 0.0016160
0.0166395 0.0044293 0.0017346
0.0236156 0.0053281 0.0018694
0.0312710 0.0061775 0.0020204
0.0398679 0.0072382 0.0022053
0.0491815 0.0082085 0.0024435
0.0591360 0.0094246 0.0026747
0.0696522 0.0106236 0.0028754
0.0803343 0.0117502 0.0030599
0.0915805 0.0132174 0.0032504
0.1038811 0.0146273 0.0034896
0.1163362 0.0162441 0.0037541
0.1279468 0.0177310 0.0041913
0.1409997 0.0197232 0.0046113
0.1528521 0.0215328 0.0051303
0.1651438 0.0234625 0.0056884
0.1781512 0.0254531 0.0061701
0.1899458 0.0276242 0.0068515
0.2022630 0.0297796 0.0074538
0.2142658 0.0314987 0.0079602
0.2277270 0.0338945 0.0086746
0.2384778 0.0357379 0.0092981
0.2520493 0.0377416 0.0101421
0.2636296 0.0397789 0.0108718
0.2755323 0.0418851 0.0116484
0.2878655 0.0440522 0.0124796
0.2977402 0.0462403 0.0131388
0.3105460 0.0486225 0.0140621
0.3211093 0.0509618 0.0147971
0.3332894 0.0527067 0.0155432
0.3442078 0.0552961 0.0166592
0.3554407 0.0579368 0.0175267
0.3658673 0.0598436 0.0184289
0.3765826 0.0618100 0.0193614
0.3886674 0.0647117 0.0203454
0.3998429 0.0667656 0.0210005
0.4081088 0.0688949 0.0220780
0.4207694 0.0720959 0.0231718
0.4326169 0.0743648 0.0239005
0.4412186 0.0767203 0.0251094
0.4526027 0.0791156 0.0259007
0.4612567 0.0816173 0.0271886
0.4731684 0.0841724 0.0280409
0.4818037 0.0867412 0.0289520
0.4898717 0.0894573 0.0303945
0.4980372 0.0921681 0.0313860
0.5091054 0.0950080 0.0323850
0.5175834 0.0978737 0.0334396
0.5242594 0.0994814 0.0345164
0.5322073 0.1024616 0.0356417
0.5402768 0.1055275 0.0367973
0.5484632 0.1086753 0.0379886
0.5552425 0.1104293 0.0391975
0.5633385 0.1136766 0.0404648
0.5688575 0.1169477 0.0417899
0.5753119 0.1188166 0.0431061
0.5833736 0.1221833 0.0437961
0.5899929 0.1241345 0.0451730
0.5982596 0.1277204 0.0466155
0.6022269 0.1296380 0.0480933
0.6099012 0.1331961 0.0488676
0.0000000 0.0040337 0.0014638
0.0015232 0.0051769 0.0016426
0.0063865 0.0067656 0.0018227
0.0129421 0.0084013 0.0019443
0.0202886 0.0099064 0.0020655
0.0286371 0.0116531 0.0022067
0.0376223 0.0131693 0.0023766
0.0475781 0.0150108 0.0025822
0.0583679 0.0167512 0.0027887
0.0698010 0.0188871 0.0029602
0.0816436 0.0207994 0.0031122
0.0937949 0.0228052 0.0033103
0.1057500 0.0245139 0.0034962
0.1179557 0.0266424 0.0038326
0.1313094 0.0288815 0.0041660
0.1436037 0.0308226 0.0047054
0.1566750 0.0327751 0.0052279
0.1692904 0.0352218 0.0056640
0.1818050 0.0373413 0.0062906
0.1950117 0.0394723 0.0068271
0.2067212 0.0416402 0.0074419
0.2211935 0.0439316 0.0079190
0.2311929 0.0456452 0.0086861
0.2445939 0.0480202 0.0092839
0.2582895 0.0505069 0.0099311
0.2695038 0.0523554 0.0106648
0.2816736 0.0549827 0.0114346
0.2933641 0.0569478 0.0122706
0.3063304 0.0596952 0.0128875
0.3158476 0.0617458 0.0138451
0.3283417 0.0638620 0.0145463
0.3394552 0.0668460 0.0153060
0.3522836 0.0691837 0.0163982
0.3627255 0.0714568 0.0172610
0.3734779 0.0738044 0.0181672
0.3843879 0.0761421 0.0187461
0.3956331 0.0786420 0.0197073
0.4072084 0.0812238 0.0207157
0.4189399 0.0838842 0.0217693
0.4307459 0.0865351 0.0224497
0.4396595 0.0892750 0.0236017
0.4520437 0.0920892 0.0243401
0.4610373 0.0949841 0.0255857
0.4729390 0.0979454 0.0263842
0.4806501 0.0996930 0.0277162
0.4930596 0.1028013 0.0285816
0.5020589 0.1058977 0.0295104
0.5090063 0.1076308 0.0304782
0.5174890 0.1109172 0.0320113
0.5289575 0.1142786 0.0330284
0.5362780 0.1161477 0.0341036
0.5446516 0.1195626 0.0352183
0.5513787 0.1214920 0.0363611
0.5596760 0.1250105 0.0375408
0.5680602 0.1285865 0.0387570
0.5750368 0.1306168 0.0400054
0.5818083 0.1326694 0.0412929
0.5899050 0.1363181 0.0419413
0.5940412 0.1383642 0.0433014
0.6023404 0.1422918 0.0446896
0.6090857 0.1444659 0.0461092
0.6174667 0.1484181 0.0475820
0.6214680 0.1504252 0.0483369
0.6276991 0.1526704 0.0498628
0.0000000 0.0078016 0.0017356
0.0012204 0.0096997 0.0019019
0.0072661 0.0125620 0.0020476
0.0150173 0.0152186 0.0021557
0.0237693 0.0177910 0.0022732
0.0329550 0.0202003 0.0024019
0.0431566 0.0224323 0.0026202
0.0543205 0.0249930 0.0028027
0.0653639 0.0271357 0.0029651
0.0783935 0.0294084 0.0030840
0.0911127 0.0316569 0.0032201
0.1027403 0.0338525 0.0034604
0.1155639 0.0361593 0.0037206
0.1297674 0.0386597 0.0041365
0.1437449 0.0411718 0.0045560
0.1569407 0.0437001 0.0050795
0.1686302 0.0456679 0.0056753
0.1834438 0.0483553 0.0061386
0.1961201 0.0504040 0.0066923
0.2080975 0.0530968 0.0073066
0.2219977 0.0553013 0.0079783
0.2344154 0.0574325 0.0085458
0.2479415 0.0603985 0.0091396
0.2590245 0.0626069 0.0098305
0.2726743 0.0649709 0.0105425
0.2844451 0.0673240 0.0113291
0.2963852 0.0697484 0.0121746
0.3095304 0.0731856 0.0130541
0.3222881 0.0757316 0.0137159
0.3350143 0.0783456 0.0144185
0.3454028 0.0810341 0.0155051
0.3578756 0.0827473 0.0163126
0.3684829 0.0854780 0.0171817
0.3793989 0.0882915 0.0180950
0.3906369 0.0911901 0.0190314
0.4020501 0.0940838 0.0196346
0.4137968 0.0971670 0.0206510
0.4246911 0.0990627 0.0217288
0.4368855 0.1021885 0.0224012
0.4491752 0.1054746 0.0235287
0.4571380 0.1072674 0.0243159
0.4699993 0.1107161 0.0255329
0.4824665 0.1141374 0.0263227
0.4902739 0.1160474 0.0271934
0.4996108 0.1196145 0.0285767
0.5110233 0.1216964 0.0294814
0.5202566 0.1252241 0.0304397
0.5274121 0.1272331 0.0314511
0.5390338 0.1309973 0.0324502
0.5464481 0.1330984 0.0335244
0.5554610 0.1369224 0.0346187
0.5625519 0.1390966 0.0357624
0.5694147 0.1412477 0.0369378
0.5778373 0.1451280 0.0381392
0.5848661 0.1473475 0.0393865
0.5919806 0.1496004 0.0406704
0.6004375 0.1536949 0.0419875
0.6071132 0.1558789 0.0426355
0.6113043 0.1581299 0.0440357
0.6196966 0.1624007 0.0454498
0.6265118 0.1647365 0.0469100
0.6333805 0.1669583 0.0476328
0.6374139 0.1692352 0.0491814
0.6452531 0.1734118 0.0499380
0.0000000 0.0124728 0.0019217
0.0006393 0.0151288 0.0020723
0.0076170 0.0190839 0.0021877
0.0165138 0.0226200 0.0022860
0.0259719 0.0257843 0.0024149
0.0359680 0.0284623 0.0025983
0.0472256 0.0314623 0.0027626
0.0593005 0.0344011 0.0028851
0.0713699 0.0372588 0.0029951
0.0841848 0.0397026 0.0031189
0.0977787 0.0426813 0.0033069
0.1112163 0.0451335 0.0035544
0.1246229 0.0476410 0.0039890
0.1382030 0.0507259 0.0044043
0.1525572 0.0533301 0.0049185
0.1660151 0.0558769 0.0054895
0.1807932 0.0591708 0.0059422
0.1939386 0.0617352 0.0064889
0.2072895 0.0643607 0.0070951
0.2214375 0.0670907 0.0077662
0.2338976 0.0697141 0.0083322
0.2469521 0.0725116 0.0091599
0.2604265 0.0753187 0.0098325
0.2745392 0.0782251 0.0105520
0.2863700 0.0809985 0.0110998
0.2978479 0.0829008 0.0119765
0.3103299 0.0859033 0.0128795
0.3231482 0.0889073 0.0135384
0.3364476 0.0920134 0.0142319
0.3497187 0.0952987 0.0152922
0.3594952 0.0972123 0.0161460
0.3734835 0.1005311 0.0169753
0.3845066 0.1038051 0.0178917
0.3947404 0.1058429 0.0188606
0.4095300 0.1093132 0.0194145
0.4202683 0.1114486 0.0204641
0.4325068 0.1150607 0.0215274
0.4404188 0.1169999 0.0222595
0.4529837 0.1206992 0.0233893
0.4643694 0.1228672 0.0241442
0.4773605 0.1267399 0.0253667
0.4857799 0.1288569 0.0262108
0.4986127 0.1328800 0.0275211
0.5066373 0.1350654 0.0284409
0.5195211 0.1390239 0.0293258
0.5278274 0.1412420 0.0303046
0.5358518 0.1434770 0.0313178
0.5445838 0.1474432 0.0323461
0.5550143 0.1498715 0.0333999
0.5625812 0.1522035 0.0345184
0.5702519 0.1545707 0.0356679
0.5789490 0.1587782 0.0368307
0.5858933 0.1610936 0.0380556
0.5929207 0.1634421 0.0393165
0.6000329 0.1658242 0.0406144
0.6087278 0.1701214 0.0419321
0.6157081 0.1724308 0.0425771
0.6224736 0.1749116 0.0439697
0.6293131 0.1774276 0.0454026
0.6335542 0.1798528 0.0469007
0.6419983 0.1842085 0.0476113
0.6489687 0.1867487 0.0491530
0.6553887 0.1891274 0.0499098
0.6593498 0.1915777 0.0515326
0.0000000 0.0169791 0.0020713
0.0000000 0.0202374 0.0022167
0.0078945 0.0254860 0.0023340
0.0172616 0.0296378 0.0024550
0.0275730 0.0337495 0.0026044
0.0390305 0.0373003 0.0027484
0.0505789 0.0405028 0.0028292
0.0627739 0.0441186 0.0029076
0.0764363 0.0473624 0.0030417
0.0901880 0.0504769 0.0031672
0.1044031 0.0536733 0.0034793
0.1187139 0.0568061 0.0037869
0.1314109 0.0598724 0.0043531
0.1470289 0.0630929 0.0047060
0.1604081 0.0661920 0.0052723
0.1765515 0.0694748 0.0057085
0.1895274 0.0726202 0.0064217
0.2033103 0.0757186 0.0068458
0.2172890 0.0789764 0.0075160
0.2314233 0.0812551 0.0080762
0.2444152 0.0845440 0.0089067
0.2580397 0.0878600 0.0095731
0.2712934 0.0901440 0.0103297
0.2859485 0.0936051 0.0110939
0.2982337 0.0969016 0.0116773
0.3129799 0.0993510 0.0125775
0.3259164 0.1028103 0.0132294
0.3393369 0.1064963 0.0142369
0.3492115 0.1086669 0.0150568
0.3628893 0.1123344 0.0158401
0.3760538 0.1147275 0.0167051
0.3874238 0.1184128 0.0176176
0.3976840 0.1207174 0.0185981
0.4125586 0.1247404 0.0195432
0.4234529 0.1270377 0.0201995
0.4345050 0.1294935 0.0213055
0.4470068 0.1334973 0.0224006
0.4586266 0.1358738 0.0231296
0.4667584 0.1382257 0.0244006
0.4797018 0.1423160 0.0251562
0.4916954 0.1448178 0.0259631
0.5003101 0.1473100 0.0273516
0.5134062 0.1516259 0.0281964
0.5215772 0.1540152 0.0291531
0.5333232 0.1565482 0.0301000
0.5417566 0.1589397 0.0311178
0.5512703 0.1631383 0.0321367
0.5617297 0.1657196 0.0331987
0.5692912 0.1681825 0.0343280
0.5769546 0.1706812 0.0354885
0.5847218 0.1732152 0.0366784
0.5934908 0.1777104 0.0378785
0.6005244 0.1801986 0.0391523
0.6076415 0.1827213 0.0404635
0.6148432 0.1852783 0.0418115
0.6221309 0.1878686 0.0431899
0.6291850 0.1903105 0.0438556
0.6360098 0.1929369 0.0453016
0.6429085 0.1955990 0.0467894
0.6471465 0.1979785 0.0475383
0.6541660 0.2007091 0.0490916
0.6612617 0.2034739 0.0506761
0.6692893 0.2081156 0.0514381
0.6732755 0.2107317 0.0531228
0.0000000 0.0218029 0.0022303
0.0000000 0.0259509 0.0023881
0.0080555 0.0321879 0.0024843
0.0180961 0.0373184 0.0026161
0.0293331 0.0419507 0.0027303
0.0411865 0.0461718 0.0028110
0.0535861 0.0501494 0.0028733
0.0664834 0.0539949 0.0029490
0.0810589 0.0580076 0.0030985
0.0956811 0.0619041 0.0033062
0.1093543 0.0656922 0.0037154
0.1243857 0.0695874 0.0041103
0.1389858 0.0725914 0.0046374
0.1536739 0.0763102 0.0050234
0.1695635 0.0802466 0.0056102
0.1839759 0.0830152 0.0061628
0.1996330 0.0868617 0.0067295
0.2140026 0.0905573 0.0071968
0.2280154 0.0933057 0.0079736
0.2410837 0.0969925 0.0085840
0.2563525 0.0997710 0.0092523
0.2704801 0.1035978 0.0099639
0.2843266 0.1062706 0.0107724
0.2968232 0.1099874 0.0113441
0.3114485 0.1127690 0.0122529
0.3247802 0.1166771 0.0128910
0.3371769 0.1193660 0.0139514
0.3509825 0.1234181 0.0146830
0.3640903 0.1260470 0.0155063
0.3741508 0.1284978 0.0164221
0.3887157 0.1327242 0.0172878
0.3992918 0.1352814 0.0182734
0.4130078 0.1380645 0.0192670
0.4250404 0.1421999 0.0198734
0.4361998 0.1449056 0.0209890
0.4474945 0.1476098 0.0221343
0.4590419 0.1501513 0.0228667
0.4720769 0.1545607 0.0240571
0.4838943 0.1571965 0.0248530
0.4922782 0.1596508 0.0257099
0.5044928 0.1625100 0.0270687
0.5132374 0.1650454 0.0279935
0.5265060 0.1696496 0.0288625
0.5348206 0.1722482 0.0298556
0.5467834 0.1749957 0.0308383
0.5553477 0.1777349 0.0325015
0.5636123 0.1803269 0.0336125
0.5742232 0.1830844 0.0347316
0.5818700 0.1856996 0.0359145
0.5896184 0.1881832 0.0364622
0.5974713 0.1908701 0.0376976
0.6062775 0.1955912 0.0389368
0.6134552 0.1983309 0.0402575
0.6206858 0.2010616 0.0416162
0.6279850 0.2038040 0.0430061
0.6353718 0.2064021 0.0436676
0.6425251 0.2091976 0.0451228
0.6494361 0.2120112 0.0466233
0.6564227 0.2146750 0.0473461
0.6634835 0.2175615 0.0489130
0.6678047 0.2203153 0.0505383
0.6749895 0.2230816 0.0513131
0.6816138 0.2260380 0.0529872
0.6856542 0.2286554 0.0538292
0.0000000 0.0273608 0.0023972
0.0000000 0.0320833 0.0025691
0.0078229 0.0396489 0.0026888
0.0188004 0.0458692 0.0027289
0.0305296 0.0513351 0.0027675
0.0431514 0.0557844 0.0028074
0.0563850 0.0605750 0.0028373
0.0701062 0.0652682 0.0029701
0.0841886 0.0690809 0.0031897
0.0994458 0.0738067 0.0035387
0.1148903 0.0775519 0.0039371
0.1306616 0.0821441 0.0043895
0.1446714 0.0864510 0.0049245
0.1613997 0.0899879 0.0053628
0.1760252 0.0942446 0.0058629
0.1909885 0.0974955 0.0064693
0.2072529 0.1018756 0.0068860
0.2214744 0.1050369 0.0076585
0.2359838 0.1081039 0.0082766
0.2519107 0.1125192 0.0088871
0.2651965 0.1154481 0.0096497
0.2789728 0.1184236 0.0104613
0.2940208 0.1228418 0.0112766
0.3060292 0.1255879 0.0119371
0.3210603 0.1287242 0.0129046
0.3347265 0.1330761 0.0135873
0.3474683 0.1359597 0.0143728
0.3606280 0.1388645 0.0151970
0.3749871 0.1432874 0.0160114
0.3852718 0.1459865 0.0169820
0.3991089 0.1489640 0.0179265
0.4098881 0.1517423 0.0189694
0.4238861 0.1547773 0.0200207
0.4360965 0.1591983 0.0206496
0.4474604 0.1621195 0.0218029
0.4589967 0.1649276 0.0225350
0.4707574 0.1678443 0.0237844
0.4828357 0.1706503 0.0245790
0.4948390 0.1736309 0.0259082
0.5033392 0.1762476 0.0268109
0.5157568 0.1791513 0.0276926
0.5297551 0.1839980 0.0285475
0.5380427 0.1867155 0.0295472
0.5500581 0.1898790 0.0311319
0.5586662 0.1926817 0.0322101
0.5673801 0.1954803 0.0333225
0.5789011 0.1984686 0.0344369
0.5865551 0.2012378 0.0356281
0.5943110 0.2040446 0.0368536
0.6021780 0.2067062 0.0374175
0.6101419 0.2095885 0.0386987
0.6176100 0.2124718 0.0400249
0.6248654 0.2153745 0.0413919
0.6322065 0.2183137 0.0427900
0.6396423 0.2210994 0.0434491
0.6471436 0.2240943 0.0449101
0.6543782 0.2270639 0.0464179
0.6613734 0.2298512 0.0471401
0.6669434 0.2306103 0.0487579
0.6740656 0.2336398 0.0503662
0.6784124 0.2363209 0.0511691
0.6856573 0.2394242 0.0528476
0.6923417 0.2423187 0.0536652
0.6989521 0.2454488 0.0554245
0.0000000 0.0331416 0.0026160
0.0000000 0.0388188 0.0027747
0.0077599 0.0476827 0.0028237
0.0193791 0.0542784 0.0028417
0.0319936 0.0606513 0.0028163
0.0448412 0.0656693 0.0028492
0.0588477 0.0712784 0.0028805
0.0731740 0.0758852 0.0030623
0.0881927 0.0813388 0.0033844
0.1039965 0.0858012 0.0037497
0.1189567 0.0909473 0.0041938
0.1349707 0.0951184 0.0047093
0.1509115 0.0990347 0.0051480
0.1668203 0.1039506 0.0056048
0.1835079 0.1078335 0.0061675
0.1991051 0.1115269 0.0068414
0.2135928 0.1161700 0.0073435
0.2306127 0.1198747 0.0079080
0.2432065 0.1230743 0.0086186
0.2588561 0.1265680 0.0093355
0.2731757 0.1311844 0.0100892
0.2873159 0.1344951 0.0109651
0.3019588 0.1377105 0.0115796
0.3170807 0.1411130 0.0125493
0.3304651 0.1457011 0.0132308
0.3435237 0.1488262 0.0140127
0.3565352 0.1519630 0.0148405
0.3699903 0.1551571 0.0157113
0.3836736 0.1583053 0.0166335
0.3973874 0.1614633 0.0175838
0.4082277 0.1644094 0.0186324
0.4234963 0.1693812 0.0196216
0.4345170 0.1722544 0.0203100
0.4458044 0.1753327 0.0214721
0.4573711 0.1782942 0.0222044
0.4690737 0.1814615 0.0234610
0.4811008 0.1845103 0.0242553
0.4933929 0.1877326 0.0255887
0.5056233 0.1907848 0.0264435
0.5180469 0.1938761 0.0273270
0.5268987 0.1967359 0.0282909
0.5398325 0.2001014 0.0298243
0.5482273 0.2029913 0.0308758
0.5604293 0.2061835 0.0319121
0.5691474 0.2091598 0.0330291
0.5780027 0.2121781 0.0341803
0.5897323 0.2154295 0.0353258
0.5975089 0.2184162 0.0365572
0.6053618 0.2214006 0.0378267
0.6133336 0.2242274 0.0384076
0.6213959 0.2272905 0.0397348
0.6304907 0.2283245 0.0411267
0.6378490 0.2313745 0.0425328
0.6452931 0.2344649 0.0439800
0.6528393 0.2373895 0.0446595
0.6573623 0.2403445 0.0462053
0.6647041 0.2435302 0.0477645
0.6718099 0.2465209 0.0485082
0.6789762 0.2497605 0.0501263
0.6861959 0.2527633 0.0509000
0.6919628 0.2536001 0.0526352
0.6963847 0.2564442 0.0534757
0.7031180 0.2597017 0.0552446
0.7098003 0.2627672 0.0561022
0.0000000 0.0391207 0.0028814
0.0000000 0.0455765 0.0029623
0.0074201 0.0555603 0.0029256
0.0194802 0.0629497 0.0028865
0.0328124 0.0702318 0.0028218
0.0463276 0.0760800 0.0029284
0.0609161 0.0816725 0.0030948
0.0761408 0.0879026 0.0032691
0.0916584 0.0931415 0.0037518
0.1067116 0.0979281 0.0042197
0.1235059 0.1027045 0.0045476
0.1405398 0.1083957 0.0048938
0.1552365 0.1124908 0.0054081
0.1732136 0.1169931 0.0059297
0.1882984 0.1209936 0.0066052
0.2048837 0.1262725 0.0070515
0.2215183 0.1304234 0.0078616
0.2365763 0.1341991 0.0085357
0.2520318 0.1379997 0.0092643
0.2655520 0.1414131 0.0098023
0.2822434 0.1452497 0.0106311
0.2967579 0.1486794 0.0112445
0.3096218 0.1535624 0.0122004
0.3251220 0.1571306 0.0128939
0.3379190 0.1604299 0.0136803
0.3543369 0.1640932 0.0144509
0.3676158 0.1676314 0.0157226
0.3814705 0.1709040 0.0162459
0.3921570 0.1740649 0.0172454
0.4061461 0.1775127 0.0182473
0.4171825 0.1807005 0.0193535
0.4317204 0.1840394 0.0199862
0.4428869 0.1872761 0.0211553
0.4543462 0.1905673 0.0223792
0.4660946 0.1937308 0.0231505
0.4780007 0.1969317 0.0239464
0.4901868 0.2003609 0.0252867
0.5027143 0.2036624 0.0261360
0.5151712 0.2069849 0.0270180
0.5278120 0.2103304 0.0279304
0.5367628 0.2135688 0.0295279
0.5499141 0.2169752 0.0305184
0.5584214 0.2200492 0.0316072
0.5708054 0.2234556 0.0326797
0.5796387 0.2266199 0.0338363
0.5911534 0.2279021 0.0350378
0.5991463 0.2310373 0.0362717
0.6070133 0.2341972 0.0375457
0.6150065 0.2371908 0.0381229
0.6230835 0.2404340 0.0394550
0.6345479 0.2439666 0.0407852
0.6419082 0.2471670 0.0421997
0.6479255 0.2480487 0.0437155
0.6554641 0.2510834 0.0443936
0.6630697 0.2543752 0.0459135
0.6707639 0.2577096 0.0474778
0.6750507 0.2605995 0.0482521
0.6822053 0.2639602 0.0498792
0.6879464 0.2646157 0.0507065
0.6952388 0.2680271 0.0524036
0.7026314 0.2712511 0.0532127
0.7070982 0.2745234 0.0550151
0.7139511 0.2777750 0.0558699
0.7191346 0.2786373 0.0577714
0.0000000 0.0453040 0.0030908
0.0000000 0.0526380 0.0031436
0.0073497 0.0638029 0.0029885
0.0199184 0.0719697 0.0029176
0.0333966 0.0791767 0.0029717
0.0475304 0.0857131 0.0031050
0.0619010 0.0927368 0.0033783
0.0774452 0.0986869 0.0037072
0.0934908 0.1043822 0.0041203
0.1105831 0.1098484 0.0044134
0.1279250 0.1152399 0.0049496
0.1434410 0.1199688 0.0054393
0.1609091 0.1258983 0.0057133
0.1773947 0.1305392 0.0063454
0.1929225 0.1347994 0.0068543
0.2093307 0.1392821 0.0076598
0.2263868 0.1436451 0.0082849
0.2417692 0.1477328 0.0090084
0.2576033 0.1516884 0.0094944
0.2740434 0.1558565 0.0103208
0.2884236 0.1597562 0.0112495
0.3032544 0.1635033 0.0119027
0.3186576 0.1672927 0.0125938
0.3313759 0.1709597 0.0137475
0.3475559 0.1748361 0.0145350
0.3611081 0.1784400 0.0154216
0.3746494 0.1820544 0.0163543
0.3887450 0.1855521 0.0168893
0.3995971 0.1889283 0.0179431
0.4138381 0.1926615 0.0189982
0.4285922 0.1964561 0.0200864
0.4398857 0.1997355 0.0207921
0.4512241 0.2031985 0.0220228
0.4628968 0.2065282 0.0227943
0.4784492 0.2104255 0.0240573
0.4906363 0.2138453 0.0248805
0.5031358 0.2173186 0.0257301
0.5120154 0.2205035 0.0266651
0.5234283 0.2220963 0.0282448
0.5362452 0.2256519 0.0292044
0.5453598 0.2289245 0.0302512
0.5587182 0.2325860 0.0312737
0.5711027 0.2361962 0.0323467
0.5799000 0.2394868 0.0335078
0.5888342 0.2428204 0.0346974
0.6005226 0.2442075 0.0359430
0.6086004 0.2475089 0.0372196
0.6165494 0.2508347 0.0385377
0.6246324 0.2539819 0.0391326
0.6362364 0.2576702 0.0404655
0.6443928 0.2611153 0.0418755
0.6504200 0.2620539 0.0434063
0.6579872 0.2652624 0.0440811
0.6656141 0.2687424 0.0456072
0.6733299 0.2722672 0.0471779
0.6796631 0.2730062 0.0479765
0.6868324 0.2764791 0.0496110
0.6911783 0.2795016 0.0504148
0.6984543 0.2830312 0.0521214
0.7058071 0.2866048 0.0538769
0.7117438 0.2873218 0.0547710
0.7162164 0.2907082 0.0566334
0.7231128 0.2940729 0.0575102
0.7283816 0.2947406 0.0584561
0.0000000 0.0515284 0.0032757
0.0000000 0.0594725 0.0032835
0.0070216 0.0710615 0.0031576
0.0202482 0.0809557 0.0030641
0.0345003 0.0890021 0.0031343
0.0485630 0.0960903 0.0034123
0.0634796 0.1027576 0.0037187
0.0796562 0.1092828 0.0040925
0.0963387 0.1154920 0.0045271
0.1140131 0.1214532 0.0048648
0.1303188 0.1268486 0.0053140
0.1480672 0.1323465 0.0058166
0.1637144 0.1371454 0.0062444
0.1805473 0.1421773 0.0069439
0.1986810 0.1471467 0.0074644
0.2156241 0.1518332 0.0080804
0.2305860 0.1561623 0.0088040
0.2488163 0.1609180 0.0095281
0.2624041 0.1648166 0.0101077
0.2791538 0.1692936 0.0109852
0.2938488 0.1733052 0.0116334
0.3089646 0.1773628 0.0123217
0.3246170 0.1816647 0.0134191
0.3376203 0.1854539 0.0142586
0.3540908 0.1896196 0.0150903
0.3678766 0.1934805 0.0160172
0.3816490 0.1973467 0.0169829
0.3959889 0.2010938 0.0175472
0.4103800 0.2050569 0.0186005
0.4214875 0.2086912 0.0197503
0.4365309 0.2125508 0.0203909
0.4469318 0.2142024 0.0217072
0.4584911 0.2177228 0.0224773
0.4739934 0.2218568 0.0237413
0.4861505 0.2254815 0.0245621
0.4985029 0.2290993 0.0254128
0.5111712 0.2327732 0.0262909
0.5240656 0.2367103 0.0277957
0.5317403 0.2378488 0.0288974
0.5447267 0.2416069 0.0298896
0.5580319 0.2454225 0.0309135
0.5674808 0.2489243 0.0320297
0.5800223 0.2527347 0.0331393
0.5876382 0.2538573 0.0344136
0.6006308 0.2577361 0.0355864
0.6098815 0.2613256 0.0368504
0.6180789 0.2648608 0.0381690
0.6261554 0.2681408 0.0387608
0.6363639 0.2694895 0.0401766
0.6446325 0.2730361 0.0415904
0.6528500 0.2766156 0.0430482
0.6604040 0.2799311 0.0437213
0.6665712 0.2809418 0.0453298
0.6742492 0.2845534 0.0469074
0.6820526 0.2879631 0.0476385
0.6899108 0.2916600 0.0492722
0.6956689 0.2926460 0.0510318
0.7000691 0.2958434 0.0518591
0.7074315 0.2995802 0.0536209
0.7133766 0.3003358 0.0545212
0.7208807 0.3041279 0.0563589
0.7282146 0.3076571 0.0572301
0.7323286 0.3111616 0.0591710
0.7376602 0.3118731 0.0601499
0.0000000 0.0577469 0.0034631
0.0000000 0.0663877 0.0034260
0.0065933 0.0788501 0.0033826
0.0199968 0.0886827 0.0034440
0.0348006 0.0984172 0.0034901
0.0494544 0.1061421 0.0037543
0.0649732 0.1134559 0.0041026
0.0818109 0.1205844 0.0044932
0.0991968 0.1272430 0.0048036
0.1158790 0.1333682 0.0052143
0.1343141 0.1396313 0.0056727
0.1508319 0.1450969 0.0060581
0.1684898 0.1494189 0.0067834
0.1858913 0.1547203 0.0073016
0.2021677 0.1597209 0.0079158
0.2194597 0.1647987 0.0085760
0.2373064 0.1698586 0.0092962
0.2533630 0.1744000 0.0098154
0.2699117 0.1791572 0.0106897
0.2842670 0.1833864 0.0113370
0.2991661 0.1878761 0.0123833
0.3145564 0.1922290 0.0131212
0.3305452 0.1966520 0.0138993
0.3469469 0.2011209 0.0147251
0.3597271 0.2032970 0.0157402
0.3737403 0.2074375 0.0166976
0.3877940 0.2113909 0.0172594
0.4022924 0.2155681 0.0183094
0.4168933 0.2197646 0.0194000
0.4317529 0.2237892 0.0200390
