Plugins/FilmEmulator/Content/LUTs/FE_Fuji_CA_Pro_PDII_64.cube
TITLE "FE_Fuji_CA_Pro_PDII_33"
LUT_3D_SIZE 8
0.0000000 0.0489743 0.0644684
0.4863564 0.1482657 0.0733425
0.9282677 0.2981508 0.1000737
1.0000000 0.4725748 0.1700884
1.0000000 0.5619703 0.2345788
1.0000000 0.6060988 0.2792721
1.0000000 0.6379256 0.3192184
1.0000000 0.6621451 0.3565271
0.0409649 0.5926833 0.2211260
0.5083727 0.6262642 0.2016070
0.8692238 0.6840174 0.2004395
1.0000000 0.7539729 0.2706639
1.0000000 0.7830468 0.3220264
1.0000000 0.7932602 0.3580341
1.0000000 0.7972529 0.3882575
1.0000000 0.7977912 0.4160014
0.2248232 0.9367046 0.4992422
0.5970536 0.9377700 0.4801829
0.8558223 0.9453434 0.4748015
0.9775532 0.9587917 0.4873760
1.0000000 0.9639512 0.4851391
1.0000000 0.9642488 0.5046751
1.0000000 0.9639047 0.5292044
1.0000000 0.9621669 0.5495519
0.3669035 0.9898360 0.6745273
0.6694024 0.9864855 0.6574927
0.8809513 0.9886556 0.6544461
0.9681877 0.9933256 0.6596037
0.9861075 0.9961196 0.6574084
0.9900147 0.9973990 0.6461757
0.9913945 0.9985436 0.6325955
0.9927877 0.9982853 0.6400352
0.4502175 0.9934721 0.7862423
0.7126616 0.9898736 0.7712431
0.9007372 0.9909875 0.7659926
0.9728513 0.9945655 0.7658781
0.9878308 0.9966465 0.7627666
0.9908739 0.9979200 0.7512004
0.9919448 0.9989651 0.7382462
0.9923717 0.9998071 0.7253857
0.5119234 0.9930025 0.8653759
0.7452757 0.9896690 0.8505924
0.9198563 0.9904977 0.8459917
0.9781103 0.9933739 0.8445926
0.9900406 0.9950942 0.8390244
0.9928817 0.9960374 0.8304120
0.9939545 0.9967951 0.8206578
0.9943962 0.9974760 0.8105134
0.5730585 0.9921627 0.9215204
0.7755122 0.9890618 0.9124838
0.9342021 0.9899111 0.9071534
0.9821691 0.9923799 0.9035504
0.9918420 0.9936383 0.8989107
0.9944131 0.9944075 0.8908362
0.9955267 0.9949690 0.8829824
0.9960350 0.9954790 0.8745185
0.6244446 0.9917913 0.9539781
0.8026420 0.9891553 0.9474455
0.9439789 0.9900086 0.9436067
0.9854311 0.9921484 0.9415364
0.9927965 0.9930229 0.9382454
0.9952946 0.9935398 0.9330190
0.9964383 0.9938545 0.9288534
0.9970316 0.9941440 0.9232853
0.1286236 0.1525607 0.6811274
0.6688104 0.2728305 0.6483594
1.0000000 0.4303161 0.6312495
1.0000000 0.5574139 0.6242732
1.0000000 0.6210356 0.6158515
1.0000000 0.6517475 0.6026804
1.0000000 0.6720680 0.5857291
1.0000000 0.6876249 0.5681392
0.2486833 0.6938087 0.8005033
0.6813133 0.7286463 0.7806801
0.9479635 0.7783033 0.7682307
1.0000000 0.8163918 0.7603022
1.0000000 0.8307593 0.7520304
1.0000000 0.8331278 0.7359193
1.0000000 0.8313071 0.7205282
1.0000000 0.8293241 0.7033657
0.4289752 0.9478224 0.8998641
0.7524048 0.9494380 0.8892756
0.9339296 0.9576861 0.8809976
0.9909978 0.9648722 0.8751274
1.0000000 0.9670085 0.8681772
1.0000000 0.9671854 0.8569251
1.0000000 0.9667338 0.8477973
1.0000000 0.9659771 0.8370533
0.5202386 0.9815173 0.9473405
0.8008891 0.9794080 0.9396688
0.9466035 0.9825734 0.9352316
0.9873508 0.9859501 0.9329296
0.9950598 0.9871420 0.9279979
0.9978268 0.9875634 0.9235810
0.9991563 0.9878622 0.9177648
1.0000000 0.9879924 0.9102607
0.5743018 0.9875672 0.9668737
0.8297042 0.9848424 0.9619638
0.9566823 0.9872199 0.9595014
0.9879006 0.9895279 0.9589466
0.9942129 0.9903404 0.9569756
0.9965577 0.9907004 0.9540181
0.9977590 0.9909009 0.9513859
0.9984967 0.9910335 0.9473247
0.6157265 0.9899613 0.9763485
0.8518682 0.9873583 0.9722705
0.9651180 0.9895148 0.9709349
0.9886332 0.9912181 0.9705946
0.9939834 0.9918513 0.9697512
0.9960524 0.9921342 0.9686083
0.9971682 0.9922863 0.9671590
0.9978496 0.9923727 0.9655556
0.6510751 0.9910188 0.9811411
0.8708876 0.9887398 0.9775906
0.9703733 0.9907637 0.9767792
0.9893494 0.9921600 0.9766814
0.9939755 0.9927145 0.9765014
0.9958156 0.9929567 0.9759252
0.9968585 0.9930956 0.9751785
0.9974729 0.9931669 0.9742337
0.6834548 0.9914707 0.9839183
0.8842063 0.9895829 0.9809349
0.9745731 0.9915923 0.9802653
0.9898699 0.9927679 0.9803482
0.9940580 0.9932474 0.9802229
0.9957550 0.9934648 0.9798052
0.9966678 0.9935983 0.9794520
0.9972751 0.9936704 0.9788538
0.3602241 0.3862768 0.9878675
0.7907315 0.4855639 0.9677231
1.0000000 0.6195657 0.9511585
1.0000000 0.6943251 0.9435257
1.0000000 0.7254250 0.9372967
1.0000000 0.7438853 0.9323462
1.0000000 0.7571145 0.9272203
1.0000000 0.7672908 0.9200038
0.4761188 0.7951440 0.9776102
0.8107886 0.8274666 0.9675926
0.9810148 0.8661338 0.9614773
1.0000000 0.8834510 0.9589435
1.0000000 0.8874251 0.9568633
1.0000000 0.8883420 0.9539083
1.0000000 0.8869991 0.9513340
1.0000000 0.8846504 0.9485288
0.6160076 0.9616957 0.9787356
0.8572462 0.9653570 0.9740564
0.9717165 0.9732961 0.9725472
0.9924276 0.9764527 0.9720724
0.9982905 0.9774206 0.9714169
1.0000000 0.9776114 0.9707876
1.0000000 0.9774479 0.9696132
1.0000000 0.9768510 0.9682835
0.6779540 0.9825319 0.9827725
0.8839712 0.9828714 0.9793455
0.9738858 0.9866303 0.9785095
0.9907919 0.9884232 0.9785128
0.9951050 0.9890887 0.9783274
0.9969234 0.9893661 0.9778178
0.9980012 0.9894699 0.9773670
0.9986790 0.9895285 0.9766852
0.7134918 0.9870390 0.9849589
0.9014491 0.9868491 0.9821282
0.9749573 0.9894962 0.9815212
0.9910994 0.9910334 0.9816517
0.9947090 0.9915292 0.9815743
0.9963070 0.9917635 0.9813510
0.9972157 0.9918908 0.9810734
0.9977956 0.9919302 0.9807479
0.7440910 0.9889482 0.9863389
0.9157029 0.9887586 0.9838380
0.9782537 0.9910440 0.9834242
0.9913927 0.9922484 0.9835481
0.9945946 0.9926664 0.9835792
0.9960670 0.9928736 0.9834439
0.9968857 0.9929863 0.9832613
0.9974360 0.9930552 0.9830354
0.7689371 0.9899006 0.9872177
0.9300972 0.9899376 0.9850198
0.9811611 0.9919466 0.9847534
0.9917232 0.9929395 0.9849414
0.9946444 0.9933078 0.9849265
0.9959759 0.9934974 0.9849004
0.9967433 0.9936036 0.9847576
0.9972406 0.9936811 0.9845959
0.7920611 0.9904037 0.9878811
0.9390693 0.9906675 0.9858649
0.9835169 0.9925677 0.9857603
0.9921510 0.9933851 0.9859177
0.9946939 0.9937112 0.9859050
0.9959560 0.9938886 0.9858934
0.9966721 0.9940022 0.9858510
0.9971327 0.9940625 0.9857175
0.5710540 0.5331851 1.0000000
0.8920690 0.6238327 0.9955796
1.0000000 0.7090514 0.9857615
1.0000000 0.7588348 0.9817584
1.0000000 0.7807474 0.9798939
1.0000000 0.7952363 0.9785400
1.0000000 0.8067306 0.9773954
1.0000000 0.8167372 0.9765773
0.6544609 0.8538289 0.9895313
0.9011483 0.8823938 0.9827906
0.9897313 0.9059251 0.9798627
1.0000000 0.9146485 0.9789889
1.0000000 0.9165283 0.9785286
1.0000000 0.9166647 0.9781198
1.0000000 0.9152097 0.9778430
1.0000000 0.9138300 0.9774076
0.7498674 0.9698661 0.9861893
0.9258327 0.9744446 0.9831448
0.9822652 0.9798239 0.9826196
0.9939208 0.9816964 0.9825749
0.9973963 0.9822034 0.9825190
0.9991214 0.9822766 0.9823123
1.0000000 0.9821988 0.9821620
1.0000000 0.9819753 0.9818972
0.7927895 0.9835306 0.9871456
0.9413182 0.9858379 0.9849590
0.9844806 0.9887732 0.9848001
0.9927573 0.9898132 0.9849024
0.9954827 0.9902502 0.9848625
0.9968147 0.9904755 0.9848306
0.9976296 0.9905497 0.9846860
0.9981655 0.9906206 0.9845955
0.8201699 0.9870880 0.9877340
0.9519052 0.9888644 0.9859890
0.9859808 0.9910316 0.9859632
0.9928163 0.9918404 0.9860740
0.9952246 0.9921932 0.9861035
0.9963976 0.9923693 0.9860312
0.9971225 0.9924797 0.9859859
0.9975893 0.9925426 0.9859186
0.8415174 0.9887613 0.9881852
0.9608290 0.9904549 0.9867103
0.9872326 0.9921625 0.9867585
0.9930121 0.9928353 0.9868746
0.9951536 0.9931322 0.9869065
0.9962443 0.9932932 0.9868960
0.9969003 0.9933890 0.9868606
0.9973394 0.9934491 0.9868102
0.8609242 0.9896736 0.9885228
0.9671527 0.9913993 0.9872942
0.9882096 0.9928164 0.9873778
0.9932361 0.9933900 0.9874852
0.9951689 0.9936519 0.9875212
0.9961979 0.9938026 0.9875184
0.9968114 0.9939050 0.9874957
0.9972124 0.9939621 0.9874545
0.8772047 0.9902610 0.9887388
0.9725236 0.9920771 0.9877568
0.9890725 0.9932572 0.9878612
0.9934731 0.9937577 0.9879605
0.9952504 0.9939959 0.9879984
0.9961908 0.9941406 0.9879996
0.9967571 0.9942231 0.9879770
0.9971424 0.9942871 0.9879451
0.7431182 0.6373637 1.0000000
0.9740739 0.7217827 0.9946615
1.0000000 0.7707396 0.9895930
1.0000000 0.7928941 0.9877437
1.0000000 0.8096415 0.9865627
1.0000000 0.8220920 0.9857235
1.0000000 0.8320041 0.9850639
1.0000000 0.8410592 0.9844718
0.7962012 0.8950723 0.9895975
0.9615182 0.9205511 0.9850228
0.9983513 0.9316890 0.9839532
1.0000000 0.9347392 0.9835947
1.0000000 0.9351561 0.9834276
1.0000000 0.9346796 0.9832885
1.0000000 0.9336094 0.9831593
1.0000000 0.9321730 0.9830342
0.8550868 0.9768069 0.9876148
0.9675724 0.9821581 0.9859905
0.9891553 0.9846320 0.9859236
0.9948049 0.9855456 0.9859542
0.9970791 0.9856040 0.9858977
0.9984388 0.9854605 0.9858139
0.9993036 0.9851751 0.9857063
0.9999607 0.9848156 0.9855859
0.8764857 0.9850628 0.9882001
0.9731108 0.9883974 0.9870496
0.9895864 0.9900476 0.9871158
0.9940264 0.9906945 0.9871879
0.9958786 0.9909974 0.9872031
0.9969142 0.9911310 0.9872174
0.9975416 0.9912248 0.9871834
0.9979920 0.9912830 0.9871392
0.8932659 0.9878829 0.9885454
0.9743487 0.9904526 0.9876851
0.9902420 0.9918777 0.9878200
0.9940133 0.9923771 0.9878951
0.9956793 0.9926283 0.9879200
0.9965802 0.9927673 0.9879131
0.9971555 0.9928528 0.9878895
0.9975465 0.9929089 0.9878860
0.9083831 0.9894142 0.9887908
0.9761442 0.9915310 0.9881426
0.9907532 0.9927816 0.9882683
0.9941348 0.9932131 0.9883708
0.9956202 0.9934435 0.9884011
0.9964613 0.9935699 0.9884008
0.9969783 0.9936488 0.9884105
0.9973496 0.9937007 0.9883838
0.9223737 0.9903131 0.9889417
0.9791747 0.9922577 0.9884804
0.9912825 0.9933133 0.9886374
0.9942290 0.9936911 0.9887097
0.9956299 0.9938919 0.9887632
0.9964039 0.9940068 0.9887663
0.9968977 0.9940910 0.9887576
0.9972512 0.9941446 0.9887614
0.9334367 0.9909411 0.9890898
0.9815874 0.9927688 0.9887713
0.9916834 0.9936696 0.9889250
0.9943868 0.9940035 0.9889916
0.9956682 0.9941937 0.9890443
0.9963998 0.9943020 0.9890498
0.9968725 0.9943830 0.9890656
0.9971974 0.9944304 0.9890479
0.8625893 0.7199491 1.0000000
1.0000000 0.7827550 0.9930304
1.0000000 0.8112538 0.9902610
1.0000000 0.8191466 0.9894693
1.0000000 0.8319959 0.9886584
1.0000000 0.8422715 0.9880064
1.0000000 0.8515044 0.9874518
1.0000000 0.8595865 0.9870357
0.8874341 0.9275483 0.9885097
0.9793414 0.9428526 0.9862016
0.9998293 0.9487329 0.9857264
1.0000000 0.9502240 0.9855868
1.0000000 0.9496614 0.9855270
1.0000000 0.9485126 0.9854389
1.0000000 0.9470931 0.9853554
1.0000000 0.9462883 0.9852749
0.9209998 0.9807329 0.9880806
0.9794472 0.9848286 0.9874095
0.9921571 0.9866169 0.9874491
0.9954944 0.9872600 0.9875113
0.9971049 0.9874902 0.9875046
0.9980742 0.9875870 0.9875060
0.9986759 0.9876726 0.9874769
0.9991227 0.9876266 0.9874270
0.9358180 0.9870717 0.9885401
0.9829088 0.9898289 0.9882101
0.9920652 0.9908818 0.9882957
0.9949023 0.9913203 0.9883709
0.9962350 0.9915366 0.9883860
0.9970270 0.9916648 0.9884048
0.9975514 0.9917387 0.9883875
0.9979206 0.9917431 0.9883758
0.9460041 0.9893677 0.9888548
0.9850388 0.9915672 0.9886577
0.9923916 0.9923938 0.9887812
0.9948067 0.9927383 0.9888543
0.9960321 0.9929268 0.9888757
0.9967563 0.9930419 0.9888981
0.9972168 0.9931312 0.9888914
0.9975470 0.9931772 0.9888918
0.9550590 0.9906813 0.9890684
0.9863944 0.9925100 0.9890068
0.9926761 0.9931923 0.9891110
0.9948648 0.9934928 0.9891838
0.9959710 0.9936559 0.9892066
0.9966283 0.9937722 0.9892330
0.9970844 0.9938417 0.9892444
0.9973823 0.9938810 0.9892251
0.9633714 0.9915555 0.9892399
0.9875579 0.9930516 0.9892389
0.9929476 0.9936358 0.9893572
0.9949274 0.9939123 0.9894292
0.9959747 0.9940654 0.9894533
0.9966003 0.9941610 0.9894757
0.9970160 0.9942353 0.9894898
0.9973009 0.9942750 0.9894747
0.9689260 0.9921409 0.9893885
0.9884720 0.9934267 0.9894492
0.9932145 0.9939429 0.9895625
0.9950094 0.9941879 0.9896126
0.9960050 0.9943339 0.9896535
0.9965767 0.9944289 0.9896771
0.9969831 0.9944901 0.9896741
0.9972538 0.9945387 0.9896806
0.9494945 0.7918896 0.9954833
1.0000000 0.8307703 0.9911904
1.0000000 0.8432500 0.9900638
1.0000000 0.8468056 0.9896545
1.0000000 0.8506005 0.9893543
1.0000000 0.8599254 0.9888126
1.0000000 0.8676858 0.9884146
1.0000000 0.8749308 0.9880629
0.9517158 0.9502718 0.9877479
0.9908472 0.9585285 0.9869106
0.9996636 0.9608621 0.9867839
1.0000000 0.9607799 0.9867280
1.0000000 0.9605895 0.9866663
1.0000000 0.9596674 0.9866247
1.0000000 0.9590776 0.9865623
1.0000000 0.9577757 0.9865201
0.9643688 0.9845634 0.9883875
0.9880778 0.9870941 0.9882903
0.9938374 0.9879686 0.9883566
0.9960880 0.9883214 0.9883950
0.9972928 0.9885477 0.9883997
0.9980171 0.9885911 0.9883971
0.9985238 0.9886555 0.9883766
0.9988935 0.9886082 0.9883578
0.9705790 0.9892383 0.9889128
0.9889004 0.9908909 0.9889470
0.9936152 0.9915014 0.9890338
0.9954885 0.9917970 0.9890705
0.9965190 0.9919674 0.9891019
0.9971600 0.9920697 0.9891182
0.9975833 0.9921268 0.9891065
0.9978831 0.9921610 0.9891048
0.9739285 0.9909394 0.9892251
0.9896860 0.9922804 0.9893011
0.9937221 0.9927968 0.9893961
0.9953772 0.9930415 0.9894503
0.9963294 0.9931886 0.9894689
0.9969052 0.9932777 0.9894868
0.9972990 0.9933355 0.9894954
0.9975765 0.9933715 0.9894965
0.9748913 0.9917747 0.9894558
0.9902570 0.9930251 0.9895525
0.9938330 0.9934660 0.9896451
0.9954153 0.9937074 0.9897054
0.9962686 0.9938384 0.9897384
0.9968136 0.9939216 0.9897427
0.9971685 0.9939752 0.9897512
0.9974285 0.9940255 0.9897572
0.9772937 0.9923605 0.9896320
0.9908772 0.9934890 0.9897496
0.9940287 0.9938731 0.9898373
0.9954569 0.9940847 0.9898930
0.9962683 0.9942057 0.9899117
0.9967657 0.9942821 0.9899297
0.9971183 0.9943461 0.9899427
0.9973577 0.9943807 0.9899458
0.9801170 0.9928381 0.9897845
0.9913044 0.9937875 0.9898935
0.9942050 0.9941478 0.9899817
0.9955164 0.9943320 0.9900327
0.9962637 0.9944515 0.9900658
0.9967446 0.9945254 0.9900845
0.9970857 0.9945857 0.9900979
0.9973169 0.9946200 0.9901021
0.9885417 0.8424106 0.9922059
1.0000000 0.8629060 0.9902380
1.0000000 0.8684911 0.9897122
1.0000000 0.8700528 0.9895141
1.0000000 0.8699919 0.9894044
1.0000000 0.8751420 0.9891229
1.0000000 0.8821214 0.9887893
1.0000000 0.8888618 0.9884874
0.9739676 0.9651173 0.9878888
0.9941375 0.9692421 0.9876133
0.9991590 0.9700720 0.9875696
1.0000000 0.9700304 0.9875394
1.0000000 0.9691015 0.9874725
1.0000000 0.9684871 0.9874368
1.0000000 0.9677181 0.9873985
1.0000000 0.9664335 0.9873493
0.9779666 0.9869794 0.9888796
0.9913788 0.9886697 0.9889285
0.9948541 0.9891482 0.9889765
0.9964238 0.9894112 0.9890091
0.9973864 0.9894615 0.9889980
0.9979730 0.9895248 0.9890016
0.9984259 0.9894614 0.9889856
0.9987244 0.9894518 0.9889755
0.9809693 0.9903586 0.9893517
0.9917046 0.9915444 0.9894364
0.9945934 0.9919734 0.9895087
0.9959348 0.9921913 0.9895505
0.9967575 0.9923280 0.9895771
0.9972723 0.9924062 0.9895900
0.9976258 0.9924517 0.9895944
0.9978800 0.9924762 0.9895921
0.9835246 0.9918370 0.9896351
0.9920196 0.9927305 0.9897447
0.9945848 0.9930842 0.9898176
0.9958282 0.9932737 0.9898612
0.9965643 0.9933891 0.9898871
0.9970506 0.9934623 0.9898892
0.9973757 0.9935280 0.9899001
0.9976118 0.9935573 0.9899009
0.9856145 0.9926711 0.9898391
0.9923429 0.9933872 0.9899499
0.9946882 0.9937013 0.9900226
0.9958141 0.9938679 0.9900650
0.9965064 0.9939751 0.9900922
0.9969460 0.9940556 0.9901108
0.9972585 0.9941022 0.9901193
0.9974831 0.9941331 0.9901224
0.9868765 0.9931639 0.9899917
0.9926588 0.9937785 0.9901013
0.9947715 0.9940559 0.9901708
0.9958403 0.9942117 0.9902138
0.9964777 0.9943188 0.9902430
0.9969019 0.9943839 0.9902589
0.9972003 0.9944386 0.9902701
0.9974077 0.9944676 0.9902728
0.9879079 0.9935036 0.9901178
0.9929436 0.9940429 0.9902233
0.9948671 0.9942948 0.9902893
0.9958839 0.9944497 0.9903334
0.9964913 0.9945427 0.9903597
0.9968983 0.9946063 0.9903764
0.9971713 0.9946552 0.9903871
0.9973727 0.9946852 0.9903915
