Plugins/FilmEmulator/Content/LUTs/FE_Fuji_FP100C_64.cube
TITLE "FE_Fuji_FP100C_33"
LUT_3D_SIZE 4
0.0119323 0.0053222 0.0073772
0.3722136 0.0229410 0.0104241
0.6253765 0.0936574 0.0302171
0.7550793 0.2048199 0.0703126
0.0202548 0.3145850 0.0376925
0.7372777 0.5923133 0.0423838
0.9469313 0.6666932 0.0713739
0.9792351 0.7147858 0.1329883
0.1039803 0.5381348 0.1606426
0.7809743 0.7707158 0.1967948
0.9545941 0.8204708 0.2337015
0.9765850 0.8410189 0.2758985
0.2163585 0.6685950 0.3097458
0.8013245 0.8413209 0.3503637
0.9416255 0.8776836 0.3879175
0.9556654 0.8881995 0.4207314
0.0324095 0.0110881 0.3408421
0.4435312 0.0408951 0.4849224
0.6272595 0.1043434 0.5633819
0.7234528 0.2368357 0.6510745
0.0053962 0.5283462 0.7112542
0.6593214 0.7495598 0.8068883
0.8385472 0.8085055 0.8311583
0.8713769 0.8386599 0.8444637
0.1216404 0.7245382 0.8050960
0.7168274 0.8988675 0.8671644
0.8650137 0.9340901 0.8809959
0.8853772 0.9439800 0.8887218
0.2614362 0.8092036 0.8529506
0.7530986 0.9363312 0.8949964
0.8747561 0.9606480 0.9054610
0.8874065 0.9641114 0.9100362
0.0888576 0.0551811 0.5308477
0.5260421 0.1260271 0.6654277
0.6847730 0.2027864 0.7263037
0.7325566 0.2704926 0.7638478
0.1187651 0.5928884 0.8393041
0.6886570 0.7660474 0.9098566
0.8386942 0.8204744 0.9241244
0.8631569 0.8486165 0.9301333
0.2431921 0.7822999 0.8954970
0.7419719 0.9142631 0.9394013
0.8651433 0.9429580 0.9470252
0.8797619 0.9510587 0.9489794
0.3717375 0.8525738 0.9179198
0.7755571 0.9484384 0.9476269
0.8734913 0.9673790 0.9531442
0.8841524 0.9699862 0.9543370
0.1686247 0.1387468 0.6503466
0.5936859 0.2303433 0.7500317
0.7286774 0.3038071 0.7925395
0.7638767 0.3693469 0.8205358
0.2396063 0.6326973 0.8751674
0.7216672 0.7717213 0.9277573
0.8456138 0.8217480 0.9403138
0.8625500 0.8488029 0.9454563
0.3601722 0.8208088 0.9237940
0.7688943 0.9215619 0.9555807
0.8683649 0.9455332 0.9614515
0.8802514 0.9530760 0.9627360
0.4681975 0.8808988 0.9392497
0.7966058 0.9542493 0.9609812
0.8740190 0.9691430 0.9648306
0.8858936 0.9718611 0.9653412
