Plugins/FilmEmulator/Content/LUTs/FE_Fuji_C200_64.cube
TITLE "FE_Fuji_C200_33"
LUT_3D_SIZE 8
0.0004931 0.0006089 0.0004697
0.0609460 0.0017131 0.0010826
0.1906804 0.0046739 0.0026979
0.3515888 0.0087271 0.0049288
0.5031567 0.0138935 0.0078545
0.6094764 0.0199537 0.0115290
0.6958835 0.0266593 0.0158374
0.7605993 0.0331208 0.0201385
0.0037266 0.0849073 0.0029347
0.0727248 0.0969718 0.0043230
0.2061474 0.1074243 0.0060648
0.3683136 0.1190303 0.0093038
0.5115132 0.1318379 0.0131484
0.6191380 0.1409747 0.0179834
0.7048358 0.1560112 0.0228280
0.7604425 0.1667366 0.0290121
0.0098929 0.2426293 0.0082705
0.0897487 0.2563404 0.0106984
0.2252317 0.2634154 0.0129560
0.3848598 0.2790219 0.0157436
0.5174068 0.2868698 0.0199181
0.6359961 0.3035453 0.0252873
0.7097424 0.3119761 0.0308449
0.7646672 0.3296461 0.0375947
0.0185568 0.4016105 0.0166408
0.1120134 0.4100219 0.0194518
0.2565990 0.4192668 0.0227634
0.4042979 0.4288592 0.0266977
0.5377288 0.4386619 0.0300854
0.6435968 0.4485690 0.0352380
0.7161675 0.4586093 0.0412216
0.7784755 0.4686927 0.0481795
0.0300375 0.5260177 0.0281049
0.1345833 0.5351086 0.0316419
0.2821495 0.5447965 0.0356152
0.4250099 0.5547151 0.0400657
0.5587918 0.5646784 0.0450532
0.6518698 0.5747475 0.0487209
0.7233933 0.5743878 0.0546245
0.7844123 0.5844526 0.0589798
0.0440618 0.6288888 0.0420462
0.1558647 0.6376218 0.0454471
0.3100612 0.6466560 0.0510556
0.4589126 0.6461166 0.0550720
0.5804274 0.6554068 0.0594564
0.6711558 0.6646305 0.0666339
0.7402376 0.6643309 0.0718092
0.7906439 0.6735453 0.0773648
0.0601736 0.7041865 0.0576640
0.1803171 0.7120882 0.0622105
0.3296763 0.7114784 0.0670439
0.4812730 0.7197083 0.0723128
0.5905419 0.7193658 0.0778161
0.6799640 0.7276274 0.0837128
0.7477034 0.7357735 0.0900212
0.7970841 0.7355704 0.0932812
0.0759706 0.7623259 0.0728053
0.2082604 0.7615507 0.0783050
0.3610967 0.7687538 0.0842160
0.5042791 0.7683655 0.0904521
0.6122578 0.7756239 0.0972159
0.6888735 0.7754108 0.1007083
0.7553729 0.7825326 0.1081650
0.8035585 0.7823560 0.1119390
0.0019738 0.0018733 0.0930720
0.0704388 0.0040320 0.0980603
0.2048844 0.0067589 0.1063747
0.3628118 0.0110876 0.1114301
0.5157055 0.0165223 0.1164304
0.6214050 0.0229061 0.1255833
0.7062446 0.0295349 0.1306843
0.7694229 0.0367732 0.1358515
0.0070252 0.0900760 0.1179870
0.0856003 0.1030599 0.1264981
0.2226322 0.1142618 0.1310988
0.3809482 0.1223165 0.1357451
0.5249036 0.1355427 0.1406834
0.6312864 0.1500884 0.1504370
0.7055547 0.1605433 0.1555322
0.7695157 0.1715947 0.1607709
0.0147033 0.2482280 0.1388729
0.1014628 0.2624470 0.1483881
0.2429744 0.2697580 0.1532107
0.3975287 0.2857540 0.1583488
0.5306454 0.2938610 0.1634923
0.6367875 0.3109503 0.1689421
0.7200824 0.3195802 0.1743804
0.7736577 0.3284112 0.1799692
0.0251935 0.3994971 0.1605009
0.1263218 0.4183204 0.1657347
0.2664323 0.4277922 0.1710333
0.4288857 0.4374989 0.1764918
0.5506477 0.4474286 0.1877561
0.6554624 0.4574791 0.1936666
0.7263064 0.4676575 0.1997332
0.7788986 0.4779103 0.2059506
0.0366170 0.5347905 0.1838728
0.1458454 0.5440318 0.1895617
0.2924640 0.5537996 0.1954647
0.4500506 0.5532132 0.2013489
0.5717210 0.5632902 0.2075819
0.6635147 0.5734022 0.2139825
0.7332965 0.5835052 0.2205367
0.7847920 0.5935722 0.2272438
0.0518345 0.6373556 0.2031616
0.1687925 0.6362750 0.2091396
0.3213203 0.6454212 0.2155183
0.4716870 0.6546389 0.2220697
0.5812457 0.6542860 0.2285865
0.6718588 0.6635847 0.2354568
0.7405989 0.6728294 0.2356240
0.7911272 0.6726007 0.2424440
0.0679923 0.7119058 0.2235891
0.1947761 0.7110300 0.2300348
0.3520230 0.7191693 0.2368793
0.4943064 0.7187544 0.2436851
0.6027547 0.7270424 0.2438418
0.6908366 0.7267693 0.2508138
0.7482194 0.7349875 0.2581573
0.7975254 0.7347856 0.2654190
0.0891756 0.7613873 0.2450640
0.2245450 0.7684095 0.2521782
0.3730865 0.7679811 0.2520803
0.5169651 0.7751849 0.2594076
0.6244491 0.7749146 0.2666708
0.6993055 0.7820690 0.2743118
0.7558428 0.7818904 0.2818657
0.8037679 0.7889357 0.2820597
0.0050929 0.0051511 0.2468099
0.0812958 0.0080464 0.2560158
0.2181570 0.0114729 0.2651790
0.3838075 0.0158956 0.2669442
0.5269979 0.0204920 0.2758651
0.6324075 0.0264241 0.2850043
0.7155995 0.0340884 0.2865057
0.7690308 0.0424799 0.2956886
0.0109905 0.0963349 0.2782451
0.0962465 0.1103104 0.2865178
0.2395894 0.1180044 0.2946658
0.3925452 0.1307771 0.3032541
0.5371419 0.1448136 0.3038876
0.6428444 0.1549212 0.3124379
0.7155445 0.1656540 0.3211401
0.7778605 0.1770070 0.3215904
0.0204683 0.2551335 0.3086775
0.1142799 0.2698040 0.3088710
0.2609637 0.2772748 0.3171582
0.4214207 0.2935718 0.3258725
0.5430975 0.3018699 0.3260497
0.6482528 0.3192267 0.3349432
0.7202479 0.3280172 0.3437173
0.7818812 0.3369649 0.3439255
0.0317615 0.4086941 0.3294506
0.1366448 0.4175595 0.3294424
0.2857531 0.4270227 0.3380433
0.4413820 0.4367627 0.3468029
0.5631384 0.4467473 0.3469883
0.6666325 0.4567951 0.3559026
0.7360355 0.4669709 0.3649740
0.7871481 0.4772516 0.3651986
0.0446797 0.5339310 0.3496761
0.1640062 0.5432668 0.3496945
0.3132649 0.5530727 0.3585716
0.4623650 0.5630285 0.3676236
0.5837904 0.5730903 0.3678153
0.6744221 0.5727514 0.3768003
0.7428378 0.5828871 0.3770209
0.7928688 0.5929585 0.3863970
0.0608561 0.6366101 0.3699861
0.1890575 0.6454198 0.3700330
0.3432960 0.6447709 0.3789665
0.4843519 0.6540326 0.3883090
0.5932257 0.6633226 0.3885132
0.6826133 0.6630132 0.3977005
0.7499714 0.6722656 0.3979253
0.7988467 0.6814007 0.4074961
0.0798167 0.7112637 0.3904056
0.2100397 0.7104700 0.3902038
0.3636014 0.7186495 0.3996191
0.5066951 0.7268411 0.3997988
0.6148096 0.7265318 0.4090728
0.7010019 0.7347148 0.4092903
0.7573348 0.7345097 0.4186646
0.8050568 0.7425840 0.4283937
0.1005177 0.7686042 0.4016029
0.2416863 0.7679433 0.4107767
0.3847042 0.7750911 0.4203777
0.5296251 0.7747555 0.4202739
0.6245474 0.7818825 0.4299926
0.7095309 0.7816701 0.4299250
0.7646399 0.7814913 0.4394345
0.8112863 0.7885456 0.4396732
0.0091708 0.0096538 0.3994093
0.0940406 0.0132740 0.4106366
0.2325499 0.0177251 0.4125419
0.3935561 0.0220211 0.4139889
0.5375237 0.0273789 0.4249501
0.6425895 0.0328197 0.4262168
0.7248369 0.0380008 0.4367880
0.7770226 0.0473310 0.4383916
0.0162815 0.1031388 0.4261407
0.1083830 0.1140393 0.4361448
0.2570719 0.1263270 0.4367984
0.4040653 0.1398900 0.4471265
0.5494175 0.1496325 0.4475934
0.6428882 0.1600395 0.4578214
0.7249500 0.1768799 0.4586184
0.7776989 0.1888481 0.4689113
0.0266293 0.2624580 0.4531946
0.1284445 0.2774765 0.4631945
0.2796846 0.2851495 0.4633035
0.4334138 0.3017927 0.4637609
0.5552318 0.3102020 0.4737457
0.6596468 0.3188064 0.4739582
0.7297779 0.3367685 0.4842930
0.7818979 0.3458730 0.4845343
0.0385969 0.4182437 0.4776109
0.1535338 0.4272323 0.4776150
0.3056951 0.4368221 0.4777434
0.4535134 0.4466560 0.4877406
0.5751496 0.4566909 0.4879469
0.6666540 0.4668193 0.4980061
0.7360380 0.4770593 0.4982414
0.7871624 0.4873801 0.5083300
0.0545666 0.5438668 0.4909063
0.1769663 0.5532803 0.4909500
0.3238442 0.5630871 0.5009345
0.4748594 0.5625721 0.5008181
0.5959277 0.5726070 0.5108696
0.6847860 0.5827000 0.5110962
0.7428551 0.5927698 0.5211824
0.7930568 0.5925484 0.5211314
0.0714872 0.6360778 0.5033554
0.2037356 0.6449307 0.5132656
0.3543766 0.6540757 0.5134197
0.4969095 0.6536105 0.5231520
0.6052611 0.6629060 0.5233684
0.6928221 0.6721212 0.5235947
0.7589722 0.6718552 0.5333616
0.7990171 0.6810563 0.5336150
0.0898966 0.7108198 0.5253563
0.2261141 0.7187825 0.5254452
0.3752420 0.7182704 0.5351356
0.5192674 0.7264689 0.5353235
0.6266036 0.7261839 0.5352440
0.7012422 0.7343806 0.5452802
0.7658203 0.7424486 0.5455146
0.8052235 0.7422791 0.5552449
0.1132535 0.7682171 0.5371929
0.2506496 0.7676306 0.5370112
0.4083634 0.7747569 0.5469695
0.5420219 0.7744493 0.5468721
0.6362265 0.7815828 0.5568607
0.7097504 0.7813974 0.5568008
0.7729362 0.7884265 0.5570328
0.8114491 0.7882789 0.5667189
0.0142961 0.0154239 0.5288128
0.1047573 0.0197948 0.5303183
0.2483051 0.0245776 0.5317659
0.4154053 0.0294391 0.5428380
0.5481668 0.0353218 0.5441260
0.6525537 0.0408858 0.5451649
0.7237425 0.0473032 0.5560398
0.7844615 0.0547837 0.5571088
0.0218401 0.1104916 0.5536397
0.1217548 0.1221507 0.5541455
0.2659854 0.1352264 0.5548232
0.4278360 0.1445754 0.5650451
0.5611753 0.1600059 0.5658111
0.6538030 0.1710027 0.5760471
0.7249243 0.1826490 0.5765595
0.7856571 0.1949191 0.5770727
0.0335942 0.2700320 0.5710803
0.1441087 0.2854443 0.5713550
0.2893148 0.2932976 0.5811835
0.4457106 0.3014579 0.5813476
0.5672116 0.3187909 0.5818339
0.6703294 0.3275007 0.5916839
0.7390440 0.3457448 0.5921950
0.7897477 0.3549693 0.5924302
0.0471126 0.4177458 0.5853081
0.1657734 0.4371494 0.5856233
0.3160802 0.4468013 0.5953743
0.4656319 0.4567151 0.5955480
0.5870041 0.4667926 0.5957484
0.6770903 0.4769565 0.6055121
0.7451642 0.4872672 0.6057397
0.7948580 0.4976367 0.6059761
0.0640309 0.5433884 0.5983067
0.1908724 0.5528421 0.6078916
0.3457339 0.5626776 0.6080322
0.4870567 0.5726600 0.6082140
0.6076114 0.5826412 0.6178603
0.6849812 0.5823734 0.6178020
0.7520254 0.5924372 0.6180268
0.8006090 0.6024356 0.6276199
0.0837357 0.6454620 0.6106216
0.2194116 0.6542785 0.6201272
0.3658285 0.6537340 0.6200005
0.5091222 0.6629174 0.6201803
0.6171218 0.6625686 0.6294469
0.7030550 0.6717894 0.6296603
0.7589151 0.6809551 0.6298904
0.8065853 0.6807294 0.6390903
0.1012622 0.7191950 0.6222552
0.2432286 0.7184443 0.6313905
0.3983696 0.7265437 0.6315426
0.5317463 0.7261924 0.6314507
0.6379606 0.7343224 0.6408824
0.7112987 0.7341099 0.6408264
0.7659682 0.7422126 0.6410533
0.8126025 0.7420137 0.6501352
0.1225287 0.7679425 0.6332000
0.2688045 0.7749061 0.6425174
0.4204170 0.7745131 0.6424016
0.5419488 0.7816095 0.6425916
0.6476997 0.7813445 0.6516301
0.7194121 0.7883740 0.6518446
0.7730812 0.7882202 0.6517976
0.8186474 0.7880467 0.6607569
0.0203884 0.0221743 0.6186070
0.1171040 0.0264735 0.6289203
0.2651468 0.0316788 0.6300374
0.4257409 0.0380320 0.6312297
0.5589755 0.0439932 0.6414139
0.6623480 0.0509215 0.6423908
0.7322558 0.0568221 0.6431263
0.7838459 0.0633751 0.6438695
0.0283673 0.1183670 0.6400540
0.1365351 0.1307895 0.6496860
0.2848461 0.1397911 0.6500562
0.4394934 0.1547016 0.6507422
0.5731050 0.1653363 0.6601950
0.6647587 0.1766466 0.6606589
0.7342631 0.1885982 0.6611319
0.7855936 0.2012015 0.6616127
0.0407950 0.2778448 0.6560454
0.1558548 0.2851379 0.6650033
0.3093067 0.3016278 0.6653810
0.4577517 0.3099570 0.6655400
0.5790831 0.3275627 0.6659873
0.6702462 0.3364352 0.6750084
0.7391873 0.3454999 0.6752151
0.7896837 0.3642677 0.6756890
0.0574906 0.4275554 0.6691474
0.1789402 0.4368050 0.6691930
0.3376580 0.4464524 0.6780954
0.4780394 0.4564047 0.6782619
0.5989985 0.4664811 0.6784446
0.6875674 0.4766455 0.6872959
0.7453057 0.4869937 0.6875092
0.7949790 0.4973630 0.6877229
0.0750807 0.5535066 0.6810089
0.2053920 0.5630261 0.6810754
0.3567618 0.5728238 0.6898273
0.4995193 0.5723515 0.6897349
0.6077687 0.5824032 0.6899231
0.6950635 0.5924252 0.6901194
0.7606965 0.6023830 0.6988062
0.8007145 0.6022007 0.6987705
0.0942970 0.6451058 0.6918902
0.2277100 0.6540201 0.6919753
0.3887010 0.6630298 0.7005637
0.5215933 0.6626340 0.7004808
0.6285319 0.6718138 0.7006649
0.7031927 0.6715725 0.7006137
0.7675081 0.6806814 0.7091354
0.8065106 0.6897470 0.7093473
0.1140457 0.7188780 0.7023206
0.2609749 0.7267636 0.7024097
0.4103097 0.7263154 0.7023042
0.5437798 0.7343784 0.7107660
0.6381134 0.7341298 0.7107076
0.7208958 0.7421715 0.7108966
0.7743734 0.7419943 0.7108541
0.8125300 0.7499496 0.7192187
0.1376832 0.7676621 0.7120569
0.2879794 0.7746782 0.7121575
0.4325367 0.7743122 0.7120613
0.5542041 0.7814136 0.7122319
0.6587347 0.7811488 0.7203017
0.7290706 0.7881830 0.7204930
0.7813067 0.7880293 0.7204515
0.8185773 0.7949351 0.7286472
0.0273482 0.0296467 0.7008890
0.1308098 0.0341551 0.7015551
0.2826702 0.0409660 0.7025906
0.4363645 0.0473643 0.7034364
0.5698087 0.0528475 0.7040750
0.6612785 0.0611461 0.7132295
0.7405887 0.0681514 0.7138798
0.7908833 0.0759624 0.7145473
0.0357935 0.1267570 0.7103964
0.1473269 0.1352682 0.7106295
0.3042588 0.1495996 0.7193593
0.4514790 0.1599177 0.7197410
0.5729752 0.1708832 0.7201447
0.6752746 0.1824754 0.7205561
0.7433864 0.1947177 0.7289670
0.7933074 0.2076531 0.7293934
0.0497906 0.2858365 0.7244315
0.1682052 0.2933780 0.7244588
0.3196771 0.3101814 0.7248054
0.4698318 0.3186193 0.7328632
0.5908521 0.3364904 0.7332582
0.6805570 0.3455151 0.7334353
0.7481849 0.3547002 0.7336202
0.7974712 0.3640100 0.7415661
0.0673938 0.4374946 0.7360254
0.1927508 0.4468663 0.7360784
0.3485229 0.4566298 0.7361936
0.4901654 0.4666249 0.7363424
0.6105968 0.4767066 0.7442096
0.6874478 0.4870117 0.7443920
0.7541621 0.4973397 0.7445748
0.8024275 0.5077193 0.7447649
0.0845773 0.5531548 0.7462121
0.2213122 0.5627074 0.7462763
0.3796139 0.5725353 0.7463958
0.5116720 0.5825052 0.7465490
0.6192597 0.5924832 0.7467158
0.7052039 0.5921516 0.7541311
0.7608019 0.6021781 0.7543156
0.8080068 0.6121293 0.7545004
0.1061755 0.6545302 0.7484448
0.2448522 0.6537535 0.7483002
0.4005287 0.6628017 0.7558589
0.5337281 0.6719053 0.7560080
0.6400492 0.6715892 0.7559491
0.7129295 0.6807227 0.7561261
0.7676115 0.6804947 0.7633692
0.8138155 0.6895302 0.7635494
0.1282224 0.7186111 0.7573950
0.2703237 0.7265608 0.7574862
0.4223223 0.7261121 0.7573937
0.5560076 0.7341791 0.7647937
0.6495050 0.7339304 0.7647426
0.7210127 0.7420062 0.7649151
0.7744746 0.7418293 0.7648780
0.8196601 0.7497591 0.7721546
0.1488213 0.7750235 0.7661335
0.2980791 0.7744994 0.7660131
0.4444549 0.7815115 0.7661433
0.5663832 0.7812388 0.7660792
0.6692204 0.7881933 0.7733091
0.7291852 0.7880387 0.7732727
0.7812126 0.7949386 0.7734461
0.8255168 0.7947894 0.7734101
0.0342598 0.0369114 0.7498361
0.1459792 0.0425684 0.7504595
0.3013258 0.0491874 0.7585638
0.4472549 0.0569133 0.7593241
0.5805761 0.0634387 0.7598857
0.6713500 0.0707022 0.7604669
0.7398553 0.0787672 0.7682374
0.7904324 0.0846002 0.7686142
0.0434662 0.1310719 0.7645743
0.1651913 0.1447570 0.7650005
0.3144398 0.1547034 0.7653114
0.4634906 0.1653116 0.7656523
0.5845007 0.1825320 0.7732974
0.6852655 0.1947455 0.7736565
0.7430537 0.2076816 0.7740351
0.7932043 0.2143258 0.7742066
0.0607209 0.2940036 0.7768035
0.1882545 0.3017305 0.7768381
0.3411019 0.3188396 0.7771460
0.4819162 0.3274687 0.7772777
0.6027536 0.3362954 0.7774222
0.6907001 0.3547171 0.7846105
0.7569778 0.3640172 0.7847708
0.7973687 0.3735287 0.7849438
0.0759766 0.4372072 0.7798612
0.2075344 0.4466112 0.7799140
0.3598121 0.4563805 0.7867978
0.5025911 0.4663748 0.7869272
0.6223039 0.4764863 0.7870691
0.6976917 0.4867922 0.7872304
0.7629436 0.4971200 0.7873918
0.8025190 0.5075077 0.7941724
0.0951235 0.5633647 0.7890234
0.2378961 0.5729058 0.7890853
0.3910495 0.5827185 0.7891968
0.5240790 0.5822888 0.7891315
0.6308891 0.5922392 0.7958469
0.7050707 0.6022255 0.7960032
0.7691029 0.6121367 0.7961596
0.8080838 0.6119557 0.7961320
0.1194913 0.6542332 0.7973223
0.2626627 0.6631060 0.7973983
0.4124511 0.6626019 0.7973173
0.5459720 0.6717086 0.7974488
0.6399028 0.6808002 0.7975976
0.7227046 0.6805028 0.8039297
0.7757490 0.6895364 0.8040872
0.8138903 0.6893730 0.8040604
0.1384395 0.7269793 0.7988520
0.2895336 0.7263515 0.7987388
0.4341637 0.7343482 0.8052029
0.5681565 0.7340042 0.8051417
0.6602236 0.7420429 0.8052860
0.7306047 0.7418357 0.8052483
0.7824427 0.7497873 0.8054047
0.8197333 0.7496210 0.8115686
0.1671199 0.7748130 0.8062999
0.3186776 0.7816876 0.8063872
0.4567018 0.7813581 0.8063201
0.5784709 0.7810856 0.8062647
0.6693301 0.7880703 0.8125733
0.7386019 0.7878894 0.8125365
0.7891991 0.7947935 0.8126876
0.8255882 0.7946689 0.8126618
