Plugins/FilmEmulator/Content/LUTs/FE_Fujiflex_New_64.cube
TITLE "FE_Fujiflex_New_33"
LUT_3D_SIZE 8
0.0090982 0.0755146 0.0189949
0.2549403 0.1112993 0.0221440
0.9148486 0.2697245 0.0510071
1.0000000 0.4081143 0.0974394
1.0000000 0.4813355 0.1307674
1.0000000 0.5186635 0.1516455
1.0000000 0.5379928 0.1747413
1.0000000 0.5511199 0.1990744
0.0319110 0.5528402 0.0807784
0.3301893 0.5736068 0.0798213
0.8779199 0.6536083 0.1199748
1.0000000 0.7209554 0.1648902
1.0000000 0.7583477 0.2021065
1.0000000 0.7771317 0.2353823
1.0000000 0.7864916 0.2616321
1.0000000 0.7907943 0.2857416
0.1865164 0.9586187 0.3651590
0.4918076 0.9583951 0.3517888
0.8678557 0.9677874 0.3674679
0.9652099 0.9772513 0.3838536
0.9885153 0.9825823 0.3918865
0.9965695 0.9841732 0.4164935
0.9991381 0.9845479 0.4400145
1.0000000 0.9845632 0.4593601
0.3041647 1.0000000 0.6202804
0.6220772 1.0000000 0.5958216
0.8987076 1.0000000 0.5886357
0.9619818 1.0000000 0.5852486
0.9768227 1.0000000 0.5763695
0.9808963 1.0000000 0.5658492
0.9815158 1.0000000 0.5514470
0.9825076 1.0000000 0.5599059
0.3567531 1.0000000 0.7789962
0.7022926 1.0000000 0.7616175
0.9243970 1.0000000 0.7529062
0.9716496 1.0000000 0.7450282
0.9831249 1.0000000 0.7322124
0.9859075 1.0000000 0.7145633
0.9858825 1.0000000 0.6947699
0.9851391 1.0000000 0.6727607
0.3998051 1.0000000 0.8728193
0.7552460 0.9979900 0.8598880
0.9409519 0.9970132 0.8542557
0.9794345 0.9985636 0.8488711
0.9888875 0.9999480 0.8397902
0.9912756 1.0000000 0.8270547
0.9915686 1.0000000 0.8140398
0.9911821 1.0000000 0.7973318
0.4447044 1.0000000 0.9203072
0.7988416 0.9952229 0.9115081
0.9525761 0.9946516 0.9087576
0.9838251 0.9958751 0.9058619
0.9920853 0.9967834 0.9017751
0.9943817 0.9974670 0.8951446
0.9949455 0.9979944 0.8880991
0.9949910 0.9985946 0.8790059
0.5001568 1.0000000 0.9468274
0.8328484 0.9937531 0.9408717
0.9612388 0.9936438 0.9386888
0.9867666 0.9946906 0.9371160
0.9938306 0.9953663 0.9353369
0.9958339 0.9957817 0.9317908
0.9964340 0.9961253 0.9267371
0.9966773 0.9964234 0.9218771
0.0169061 0.1088327 0.6400538
0.5859575 0.2020075 0.5981696
1.0000000 0.3589932 0.5664959
1.0000000 0.4544940 0.5447326
1.0000000 0.5085241 0.5226896
1.0000000 0.5391893 0.4956915
1.0000000 0.5528375 0.4624833
1.0000000 0.5621409 0.4276822
0.0942949 0.6509584 0.8005215
0.6354843 0.6928117 0.7749102
0.9702136 0.7546499 0.7584143
1.0000000 0.7890911 0.7439859
1.0000000 0.8082271 0.7265146
1.0000000 0.8173201 0.7089180
1.0000000 0.8189077 0.6835508
1.0000000 0.8205144 0.6593431
0.2957134 0.9518987 0.8957655
0.7341860 0.9528366 0.8832532
0.9457514 0.9610909 0.8785362
0.9909134 0.9671103 0.8734487
1.0000000 0.9703300 0.8681360
1.0000000 0.9719175 0.8594851
1.0000000 0.9726937 0.8500385
1.0000000 0.9733740 0.8361578
0.4210437 0.9935130 0.9402558
0.8054541 0.9870105 0.9331031
0.9562538 0.9883013 0.9303666
0.9866099 0.9901148 0.9285220
0.9951579 0.9912212 0.9258108
0.9975646 0.9917895 0.9217637
0.9983360 0.9921509 0.9168168
0.9986572 0.9925029 0.9105108
0.4935941 0.9981055 0.9597936
0.8458745 0.9911662 0.9537773
0.9640436 0.9916992 0.9526169
0.9881591 0.9928713 0.9518040
0.9949197 0.9935652 0.9504699
0.9969068 0.9939049 0.9483584
0.9975817 0.9941216 0.9452371
0.9979349 0.9942927 0.9423125
0.5569180 0.9982009 0.9707376
0.8783416 0.9920413 0.9657782
0.9699340 0.9926312 0.9647891
0.9895511 0.9935742 0.9644460
0.9952829 0.9941241 0.9634621
0.9968875 0.9943545 0.9622469
0.9975390 0.9944940 0.9604219
0.9978904 0.9945937 0.9587672
0.6165632 0.9972396 0.9773495
0.9036916 0.9922661 0.9732088
0.9743190 0.9929960 0.9723712
0.9907328 0.9938325 0.9722943
0.9955683 0.9942875 0.9717369
0.9969585 0.9944688 0.9708012
0.9975620 0.9945670 0.9696855
0.9979121 0.9946378 0.9684609
0.6743002 0.9961435 0.9819035
0.9218969 0.9924417 0.9782922
0.9780359 0.9932653 0.9777544
0.9916050 0.9940110 0.9776270
0.9957860 0.9944059 0.9773299
0.9970201 0.9945552 0.9765792
0.9975738 0.9946308 0.9759042
0.9979050 0.9946779 0.9751664
0.1514503 0.2099215 0.9803739
0.8005445 0.3439462 0.9529625
1.0000000 0.4769269 0.9363952
1.0000000 0.5512146 0.9277961
1.0000000 0.5912606 0.9217646
1.0000000 0.6098968 0.9163061
1.0000000 0.6210810 0.9106909
1.0000000 0.6308925 0.9048006
0.3098528 0.7576019 0.9667443
0.8147050 0.7989115 0.9530915
0.9894633 0.8387317 0.9471514
1.0000000 0.8591331 0.9447035
1.0000000 0.8695909 0.9422039
1.0000000 0.8722543 0.9398622
1.0000000 0.8735652 0.9366899
1.0000000 0.8740934 0.9332687
0.5099343 0.9628921 0.9732003
0.8720099 0.9660152 0.9668656
0.9715818 0.9721127 0.9651625
0.9943285 0.9755070 0.9645270
1.0000000 0.9772614 0.9640589
1.0000000 0.9775557 0.9627790
1.0000000 0.9777982 0.9613518
1.0000000 0.9779096 0.9597910
0.6257811 0.9904860 0.9808108
0.9077395 0.9878174 0.9764476
0.9757149 0.9895288 0.9754916
0.9916777 0.9907408 0.9753239
0.9966179 0.9913662 0.9750060
0.9980499 0.9915838 0.9741843
0.9986880 0.9916859 0.9734408
0.9990886 0.9917454 0.9724030
0.6951070 0.9937997 0.9846612
0.9271755 0.9911959 0.9811558
0.9791754 0.9923028 0.9805880
0.9921877 0.9931502 0.9806072
0.9961242 0.9935507 0.9803296
0.9973093 0.9937008 0.9798458
0.9978716 0.9937735 0.9792674
0.9982167 0.9938144 0.9784631
0.7441704 0.9942040 0.9870371
0.9403196 0.9922575 0.9842767
0.9822246 0.9932333 0.9838676
0.9927889 0.9939206 0.9838533
0.9960994 0.9942534 0.9836097
0.9971177 0.9943745 0.9833400
0.9976245 0.9944317 0.9828720
0.9979446 0.9944657 0.9823671
0.7839593 0.9939313 0.9882739
0.9507096 0.9927019 0.9860291
0.9844942 0.9936336 0.9858685
0.9934008 0.9942417 0.9858546
0.9961800 0.9945279 0.9858229
0.9970702 0.9946321 0.9856572
0.9975343 0.9946820 0.9853261
0.9978333 0.9947151 0.9850694
0.8190915 0.9936033 0.9889849
0.9586384 0.9930018 0.9871576
0.9862234 0.9938855 0.9870667
0.9939775 0.9944491 0.9871547
0.9962509 0.9946877 0.9871424
0.9970703 0.9947811 0.9869756
0.9975003 0.9948322 0.9868376
0.9977633 0.9948619 0.9866827
0.4720329 0.3297803 1.0000000
0.9501485 0.4703484 0.9980161
1.0000000 0.5607495 0.9873188
1.0000000 0.6148736 0.9818803
1.0000000 0.6457403 0.9790037
1.0000000 0.6615429 0.9768469
1.0000000 0.6758815 0.9748265
1.0000000 0.6898099 0.9728494
0.5999391 0.8359023 0.9896113
0.9201404 0.8695201 0.9809884
0.9981098 0.8915495 0.9780076
1.0000000 0.9029741 0.9769563
1.0000000 0.9084209 0.9761002
1.0000000 0.9092526 0.9752691
1.0000000 0.9100825 0.9744192
1.0000000 0.9105743 0.9737711
0.7260965 0.9714354 0.9870466
0.9376525 0.9758400 0.9834715
0.9836537 0.9794797 0.9828934
0.9958944 0.9815450 0.9827493
0.9998361 0.9825068 0.9826413
1.0000000 0.9828315 0.9823858
1.0000000 0.9829773 0.9819707
1.0000000 0.9830646 0.9816307
0.7915545 0.9894282 0.9886155
0.9522211 0.9896961 0.9863295
0.9852548 0.9911630 0.9861458
0.9940713 0.9919596 0.9862042
0.9968176 0.9923345 0.9861787
0.9977413 0.9924753 0.9860629
0.9982285 0.9925441 0.9858492
0.9985373 0.9925862 0.9856581
0.8305554 0.9921065 0.9893970
0.9609522 0.9921216 0.9876596
0.9869424 0.9931535 0.9875695
0.9943208 0.9937695 0.9876450
0.9964840 0.9940230 0.9876298
0.9972683 0.9941248 0.9875451
0.9976907 0.9941793 0.9874285
0.9979646 0.9942131 0.9872969
0.8630065 0.9927102 0.9897681
0.9670292 0.9929552 0.9884577
0.9885442 0.9938515 0.9884661
0.9947101 0.9943650 0.9885486
0.9964712 0.9945637 0.9885350
0.9971607 0.9946480 0.9884591
0.9975511 0.9946987 0.9884067
0.9977949 0.9947270 0.9882984
0.8899856 0.9927979 0.9899579
0.9715902 0.9933077 0.9890111
0.9897680 0.9941362 0.9890590
0.9950033 0.9945865 0.9891422
0.9965140 0.9947573 0.9891394
0.9971382 0.9948359 0.9891240
0.9975112 0.9948818 0.9890544
0.9977328 0.9949095 0.9890007
0.9122068 0.9928717 0.9900550
0.9759066 0.9935743 0.9894109
0.9907158 0.9943208 0.9894825
0.9952745 0.9947274 0.9895721
0.9965736 0.9948772 0.9895967
0.9971558 0.9949485 0.9895604
0.9974981 0.9949929 0.9895358
0.9977076 0.9950179 0.9894750
0.7281179 0.4410150 1.0000000
1.0000000 0.5602320 1.0000000
1.0000000 0.6240305 0.9975318
1.0000000 0.6607480 0.9941875
1.0000000 0.6875089 0.9921768
1.0000000 0.7041529 0.9908538
1.0000000 0.7177758 0.9897592
1.0000000 0.7314222 0.9887064
0.7866845 0.8852843 0.9909089
0.9632330 0.9099102 0.9860423
1.0000000 0.9227630 0.9847718
1.0000000 0.9294456 0.9843898
1.0000000 0.9321226 0.9841430
1.0000000 0.9323964 0.9839332
1.0000000 0.9330093 0.9837288
1.0000000 0.9333833 0.9835188
0.8583231 0.9776146 0.9889535
0.9664763 0.9816343 0.9873110
0.9899799 0.9839461 0.9871236
0.9971328 0.9852792 0.9871958
0.9991285 0.9857591 0.9871712
0.9999671 0.9859735 0.9870987
1.0000000 0.9860973 0.9870412
1.0000000 0.9861679 0.9869305
0.8967982 0.9897257 0.9897558
0.9728007 0.9910572 0.9888628
0.9902727 0.9921762 0.9888679
0.9955332 0.9927695 0.9889739
0.9970170 0.9929858 0.9889992
0.9976745 0.9930531 0.9889514
0.9980527 0.9931151 0.9889246
0.9982952 0.9931510 0.9888545
0.9182055 0.9919097 0.9900883
0.9770637 0.9928811 0.9894956
0.9912311 0.9937141 0.9895669
0.9955092 0.9941441 0.9896716
0.9967696 0.9943027 0.9896768
0.9973308 0.9943799 0.9896691
0.9976647 0.9944272 0.9896483
0.9978761 0.9944549 0.9895956
0.9335836 0.9926352 0.9902865
0.9804139 0.9935465 0.9898840
0.9920051 0.9942468 0.9899715
0.9956520 0.9946049 0.9900482
0.9967417 0.9947382 0.9900728
0.9972463 0.9948044 0.9900687
0.9975606 0.9948468 0.9900519
0.9977609 0.9948677 0.9900056
0.9449594 0.9929315 0.9904261
0.9829234 0.9938338 0.9901559
0.9927141 0.9944640 0.9902517
0.9958195 0.9947761 0.9903362
0.9967778 0.9948927 0.9903561
0.9972540 0.9949532 0.9903354
0.9975411 0.9949914 0.9903207
0.9977224 0.9950152 0.9902982
0.9537140 0.9931558 0.9905442
0.9850653 0.9940447 0.9903736
0.9933667 0.9946172 0.9904765
0.9959857 0.9948874 0.9905513
0.9968281 0.9949901 0.9905683
0.9972636 0.9950466 0.9905660
0.9975372 0.9950814 0.9905539
0.9977096 0.9951040 0.9905338
0.9044294 0.5605149 1.0000000
1.0000000 0.6410151 1.0000000
1.0000000 0.6838973 0.9976408
1.0000000 0.7062071 0.9956596
1.0000000 0.7206587 0.9945763
1.0000000 0.7368377 0.9935125
1.0000000 0.7521715 0.9925541
1.0000000 0.7671558 0.9916592
0.9049923 0.9224757 0.9893377
0.9832399 0.9357258 0.9873048
1.0000000 0.9431375 0.9867835
1.0000000 0.9468305 0.9866030
1.0000000 0.9481778 0.9865338
1.0000000 0.9488580 0.9864728
1.0000000 0.9486355 0.9864078
1.0000000 0.9488868 0.9863183
0.9320083 0.9825420 0.9893767
0.9808093 0.9854097 0.9887970
0.9935577 0.9870327 0.9888179
0.9975132 0.9877952 0.9888829
0.9987709 0.9879383 0.9888747
0.9993681 0.9880824 0.9888437
0.9997400 0.9881765 0.9888227
0.9999748 0.9882349 0.9887946
0.9469841 0.9907572 0.9902053
0.9836478 0.9920834 0.9899254
0.9932991 0.9928959 0.9900134
0.9962675 0.9932417 0.9900815
0.9972098 0.9933832 0.9900987
0.9977014 0.9934618 0.9900964
0.9979983 0.9935101 0.9900817
0.9981857 0.9935401 0.9900592
0.9563701 0.9924709 0.9905166
0.9858361 0.9934898 0.9903648
0.9937881 0.9941124 0.9904833
0.9961475 0.9943810 0.9905506
0.9969824 0.9944916 0.9905698
0.9974166 0.9945528 0.9905705
0.9976881 0.9945919 0.9905623
0.9978559 0.9946156 0.9905438
0.9635821 0.9931078 0.9906701
0.9874188 0.9939944 0.9905993
0.9942126 0.9945303 0.9907106
0.9962224 0.9947547 0.9907746
0.9969571 0.9948488 0.9907949
0.9973538 0.9949036 0.9908100
0.9976002 0.9949378 0.9908059
0.9977661 0.9949608 0.9907941
0.9689987 0.9933968 0.9907618
0.9887770 0.9942232 0.9907457
0.9946833 0.9947104 0.9908605
0.9963077 0.9948947 0.9909239
0.9969761 0.9949799 0.9909436
0.9973541 0.9950307 0.9909496
0.9975870 0.9950628 0.9909473
0.9977397 0.9950837 0.9909382
0.9732427 0.9936084 0.9908369
0.9899666 0.9943851 0.9908680
0.9949827 0.9948176 0.9909785
0.9964184 0.9949818 0.9910284
0.9970174 0.9950590 0.9910551
0.9973670 0.9951059 0.9910613
0.9975874 0.9951362 0.9910603
0.9977288 0.9951563 0.9910618
0.9806224 0.6572908 1.0000000
1.0000000 0.7100835 0.9984565
1.0000000 0.7372484 0.9959715
1.0000000 0.7500644 0.9949020
1.0000000 0.7551441 0.9944635
1.0000000 0.7700664 0.9935514
1.0000000 0.7864817 0.9926070
1.0000000 0.8035215 0.9916802
0.9534930 0.9445469 0.9888679
0.9924685 0.9529784 0.9879830
1.0000000 0.9573388 0.9878064
1.0000000 0.9591472 0.9877629
1.0000000 0.9593897 0.9877270
1.0000000 0.9598296 0.9877011
1.0000000 0.9601009 0.9876708
1.0000000 0.9602813 0.9876361
0.9633816 0.9862286 0.9898070
0.9882523 0.9881821 0.9896671
0.9955279 0.9890890 0.9897286
0.9976653 0.9895061 0.9897794
0.9984922 0.9896885 0.9897961
0.9989465 0.9897940 0.9897990
0.9992251 0.9898620 0.9898040
0.9994097 0.9899052 0.9897912
0.9699910 0.9917310 0.9905173
0.9893888 0.9928083 0.9904945
0.9950799 0.9933934 0.9906100
0.9966838 0.9936129 0.9906609
0.9973429 0.9937137 0.9906794
0.9977316 0.9937764 0.9906861
0.9979693 0.9938165 0.9906927
0.9981216 0.9938414 0.9906841
0.9749314 0.9930977 0.9907762
0.9905145 0.9939327 0.9908164
0.9952142 0.9943798 0.9909232
0.9965613 0.9945466 0.9909703
0.9971544 0.9946287 0.9909968
0.9975060 0.9946690 0.9910018
0.9977182 0.9947001 0.9909997
0.9978660 0.9947227 0.9910020
0.9785410 0.9936047 0.9909009
0.9913717 0.9943264 0.9909698
0.9954130 0.9947106 0.9910738
0.9965826 0.9948525 0.9911236
0.9971241 0.9949245 0.9911430
0.9974540 0.9949704 0.9911507
0.9976526 0.9949992 0.9911574
0.9977875 0.9950183 0.9911528
0.9812892 0.9938546 0.9909779
0.9922531 0.9945192 0.9910679
0.9956248 0.9948495 0.9911653
0.9966467 0.9949734 0.9912060
0.9971502 0.9950404 0.9912301
0.9974533 0.9950821 0.9912379
0.9976367 0.9951084 0.9912447
0.9977664 0.9951244 0.9912415
0.9836556 0.9940338 0.9910346
0.9929518 0.9946419 0.9911379
0.9958102 0.9949312 0.9912322
0.9967127 0.9950414 0.9912692
0.9971783 0.9951034 0.9912922
0.9974590 0.9951420 0.9913010
0.9976407 0.9951680 0.9913089
0.9977595 0.9951849 0.9913080
1.0000000 0.7426445 0.9981650
1.0000000 0.7757477 0.9949317
1.0000000 0.7926965 0.9935499
1.0000000 0.7977922 0.9931175
1.0000000 0.8008968 0.9928685
1.0000000 0.8065730 0.9925318
1.0000000 0.8207313 0.9917943
1.0000000 0.8348553 0.9911155
0.9758921 0.9588323 0.9887850
0.9966957 0.9639398 0.9884408
1.0000000 0.9664970 0.9884052
1.0000000 0.9674312 0.9884014
1.0000000 0.9678901 0.9884035
1.0000000 0.9681811 0.9883925
1.0000000 0.9679685 0.9883657
1.0000000 0.9680963 0.9883603
0.9788918 0.9887022 0.9901472
0.9922996 0.9900144 0.9901748
0.9964626 0.9906573 0.9902681
0.9977390 0.9908011 0.9902908
0.9983152 0.9909227 0.9903125
0.9986822 0.9910029 0.9903193
0.9988975 0.9910507 0.9903188
0.9990481 0.9910854 0.9903215
0.9821095 0.9925781 0.9907445
0.9926701 0.9933518 0.9908255
0.9959613 0.9937376 0.9909176
0.9969725 0.9938828 0.9909605
0.9974700 0.9939599 0.9909787
0.9977701 0.9940090 0.9909924
0.9979653 0.9940413 0.9909955
0.9980921 0.9940628 0.9909993
0.9845093 0.9936110 0.9909634
0.9932746 0.9942477 0.9910669
0.9959899 0.9945449 0.9911531
0.9968569 0.9946587 0.9911928
0.9973025 0.9947220 0.9912149
0.9975817 0.9947631 0.9912248
0.9977559 0.9947896 0.9912328
0.9978752 0.9948077 0.9912332
0.9864562 0.9940225 0.9910685
0.9938712 0.9945806 0.9911816
0.9960724 0.9948206 0.9912577
0.9968530 0.9949204 0.9912948
0.9972745 0.9949785 0.9913166
0.9975366 0.9950159 0.9913268
0.9976984 0.9950398 0.9913344
0.9978107 0.9950561 0.9913345
0.9879325 0.9942269 0.9911332
0.9943772 0.9947367 0.9912513
0.9962080 0.9949400 0.9913191
0.9968984 0.9950282 0.9913529
0.9972880 0.9950815 0.9913735
0.9975351 0.9951164 0.9913830
0.9976898 0.9951389 0.9913903
0.9977915 0.9951535 0.9913908
0.9892309 0.9943662 0.9911819
0.9947510 0.9948261 0.9912992
0.9963064 0.9950022 0.9913623
0.9969536 0.9950848 0.9913914
0.9973124 0.9951338 0.9914104
0.9975405 0.9951662 0.9914224
0.9976903 0.9951877 0.9914267
0.9977870 0.9952019 0.9914306
