Plugins/FilmEmulator/Content/LUTs/FE_Fujifilm_Eterna_250D_8563_64.cube
# FilmEmulator LUT (resampled to 64)
LUT_3D_SIZE 64
0.000000 0.000671 0.003326
0.004294 0.000625 0.003094
0.008588 0.000626 0.002978
0.012897 0.002082 0.006482
0.017205 0.003521 0.010058
0.021499 0.004683 0.014723
0.026370 0.005929 0.018842
0.036818 0.007975 0.017680
0.047800 0.010241 0.016919
0.062526 0.014038 0.018965
0.078342 0.017789 0.021420
0.100043 0.021293 0.026086
0.121350 0.024842 0.030572
0.140943 0.028594 0.034276
0.160363 0.032871 0.038031
0.179166 0.039025 0.041969
0.196748 0.044578 0.045546
0.210668 0.048329 0.048041
0.225678 0.052411 0.050594
0.243473 0.057341 0.053291
0.260265 0.061897 0.055654
0.274852 0.065633 0.057282
0.289768 0.069502 0.058941
0.305316 0.073625 0.060662
0.320323 0.077464 0.062237
0.334429 0.080828 0.063570
0.347237 0.083801 0.064689
0.358150 0.086204 0.065495
0.368479 0.088342 0.066226
0.378059 0.090140 0.066862
0.387326 0.091858 0.067490
0.396239 0.093485 0.068110
0.405486 0.095198 0.068800
0.415066 0.096996 0.069560
0.423649 0.098473 0.070155
0.431353 0.099667 0.070604
0.439702 0.101026 0.071132
0.448552 0.102514 0.071721
0.457542 0.104095 0.072402
0.466626 0.105738 0.073146
0.475225 0.107226 0.073783
0.483533 0.108621 0.074357
0.490946 0.109680 0.074737
0.497891 0.110564 0.075017
0.504590 0.111373 0.075392
0.511178 0.112148 0.075810
0.517320 0.112845 0.076128
0.523288 0.113511 0.076407
0.529791 0.114236 0.076686
0.536472 0.114980 0.076965
0.542535 0.115579 0.077244
0.548426 0.116136 0.077524
0.554983 0.116921 0.077916
0.561695 0.117758 0.078335
0.567518 0.118268 0.078505
0.573176 0.118718 0.078629
0.578915 0.119249 0.078888
0.584666 0.119792 0.079167
0.590318 0.120236 0.079305
0.595960 0.120670 0.079429
0.602765 0.121526 0.079815
0.609648 0.122409 0.080218
0.615359 0.122857 0.080501
0.621033 0.123291 0.080780
0.000000 0.003524 0.007635
0.004136 0.004509 0.005994
0.008283 0.005490 0.004456
0.012749 0.006356 0.006140
0.017205 0.007232 0.007947
0.021499 0.008245 0.011581
0.026078 0.009327 0.015085
0.033408 0.011074 0.017332
0.041649 0.013058 0.019257
0.056272 0.016706 0.018925
0.071739 0.020332 0.019352
0.091755 0.023835 0.023876
0.111582 0.027278 0.028221
0.130584 0.030463 0.031792
0.149754 0.034225 0.035481
0.169517 0.040048 0.039591
0.188235 0.045516 0.043403
0.203816 0.049921 0.046316
0.219666 0.054362 0.049157
0.236201 0.058898 0.051814
0.252213 0.063231 0.054219
0.267075 0.067116 0.056067
0.282086 0.071054 0.057850
0.297382 0.075090 0.059507
0.312426 0.078968 0.061082
0.327052 0.082584 0.062517
0.340543 0.085810 0.063770
0.352377 0.088464 0.064757
0.363362 0.090792 0.065625
0.373257 0.092701 0.066340
0.382850 0.094544 0.067014
0.392102 0.096313 0.067641
0.401525 0.098109 0.068339
0.411121 0.099931 0.069107
0.420058 0.101519 0.069747
0.428416 0.102901 0.070275
0.436692 0.104259 0.070798
0.444905 0.105598 0.071316
0.453766 0.107159 0.071963
0.463071 0.108873 0.072699
0.471748 0.110368 0.073295
0.480048 0.111732 0.073805
0.487738 0.112884 0.074262
0.495108 0.113925 0.074691
0.502070 0.114821 0.075064
0.508846 0.115651 0.075412
0.515495 0.116505 0.075812
0.522092 0.117368 0.076232
0.528741 0.118148 0.076547
0.535406 0.118900 0.076826
0.541890 0.119648 0.077160
0.548324 0.120395 0.077510
0.555054 0.121247 0.077916
0.561852 0.122123 0.078335
0.567675 0.122646 0.078505
0.573317 0.123104 0.078629
0.579585 0.123787 0.078943
0.585942 0.124503 0.079285
0.591630 0.124971 0.079501
0.597248 0.125413 0.079704
0.604096 0.126261 0.080094
0.611026 0.127137 0.080497
0.617349 0.127844 0.080833
0.623652 0.128546 0.081168
0.000000 0.006700 0.012023
0.003937 0.008586 0.009003
0.007897 0.010424 0.006073
0.012553 0.010765 0.005964
0.017186 0.011138 0.006024
0.021490 0.011986 0.008628
0.025799 0.012889 0.011504
0.030155 0.014342 0.016998
0.035776 0.016049 0.021483
0.050259 0.019543 0.018903
0.065347 0.023038 0.017411
0.083710 0.026536 0.021788
0.102089 0.029878 0.025990
0.120537 0.032537 0.029433
0.139467 0.035815 0.033057
0.160122 0.041306 0.037325
0.179912 0.046678 0.041353
0.197107 0.051695 0.044662
0.213769 0.056461 0.047775
0.229073 0.060585 0.050385
0.244322 0.064672 0.052821
0.259451 0.068678 0.054878
0.274554 0.072664 0.056777
0.289607 0.076612 0.058377
0.304687 0.080527 0.059952
0.319816 0.084386 0.061487
0.333982 0.087861 0.062871
0.346743 0.090773 0.064036
0.358386 0.093295 0.065038
0.368594 0.095314 0.065829
0.378513 0.097281 0.066548
0.388105 0.099190 0.067186
0.397711 0.101069 0.067894
0.407331 0.102917 0.068671
0.416616 0.104616 0.069356
0.425606 0.106183 0.069961
0.433823 0.107543 0.070480
0.441440 0.108743 0.070932
0.450181 0.110287 0.071546
0.459690 0.112066 0.072273
0.468433 0.113564 0.072827
0.476715 0.114894 0.073279
0.484686 0.116142 0.073812
0.492496 0.117346 0.074387
0.499716 0.118328 0.074759
0.506669 0.119210 0.075039
0.513817 0.120218 0.075518
0.521041 0.121276 0.076076
0.527838 0.122113 0.076426
0.534493 0.122875 0.076708
0.541386 0.123767 0.077096
0.548345 0.124695 0.077515
0.555227 0.125607 0.077931
0.562091 0.126516 0.078348
0.567927 0.127056 0.078521
0.573573 0.127528 0.078649
0.580354 0.128359 0.079018
0.587296 0.129240 0.079421
0.593022 0.129731 0.079711
0.598621 0.130182 0.079990
0.605509 0.131025 0.080385
0.612482 0.131895 0.080788
0.619379 0.132844 0.081172
0.626273 0.133797 0.081555
0.000000 0.019922 0.018844
0.002457 0.018667 0.015390
0.005020 0.017508 0.012009
0.010832 0.019354 0.010892
0.016571 0.021095 0.009946
0.021198 0.021273 0.011558
0.025938 0.021557 0.013367
0.031774 0.022867 0.017082
0.038524 0.024414 0.020233
0.051676 0.027608 0.019441
0.065535 0.030827 0.019410
0.083213 0.034176 0.023488
0.101135 0.037540 0.027459
0.120118 0.040971 0.030965
0.139195 0.044767 0.034564
0.158606 0.049864 0.038493
0.177494 0.054771 0.042204
0.194815 0.059111 0.045262
0.211466 0.063120 0.048105
0.226408 0.066283 0.050400
0.241413 0.069461 0.052566
0.256558 0.072672 0.054449
0.271679 0.076092 0.056270
0.286755 0.079915 0.057972
0.301845 0.083745 0.059614
0.316957 0.087589 0.061157
0.331559 0.091230 0.062578
0.345414 0.094575 0.063822
0.357787 0.097396 0.064871
0.368255 0.099541 0.065669
0.378500 0.101608 0.066430
0.388494 0.103588 0.067147
0.398450 0.105557 0.067929
0.408370 0.107515 0.068777
0.417774 0.109291 0.069496
0.426724 0.110905 0.070100
0.435304 0.112402 0.070664
0.443598 0.113806 0.071194
0.452464 0.115368 0.071799
0.461722 0.117037 0.072454
0.470149 0.118425 0.073021
0.478076 0.119644 0.073536
0.486505 0.121076 0.074137
0.495196 0.122619 0.074784
0.502546 0.123669 0.075178
0.509287 0.124496 0.075457
0.516737 0.125585 0.075936
0.524464 0.126777 0.076494
0.531512 0.127712 0.076898
0.538332 0.128561 0.077250
0.545249 0.129422 0.077648
0.552192 0.130287 0.078058
0.558585 0.131034 0.078416
0.564850 0.131754 0.078761
0.571111 0.132450 0.079043
0.577372 0.133143 0.079314
0.584174 0.133953 0.079700
0.591053 0.134779 0.080103
0.596887 0.135301 0.080386
0.602613 0.135791 0.080657
0.609449 0.136674 0.081044
0.616360 0.137582 0.081439
0.622652 0.138266 0.081693
0.628924 0.138943 0.081943
0.000000 0.033115 0.025762
0.001036 0.028878 0.021923
0.002252 0.024871 0.018137
0.009074 0.028016 0.015961
0.015782 0.030944 0.013960
0.020792 0.030605 0.014570
0.026003 0.030415 0.015315
0.033164 0.031662 0.017352
0.040945 0.033105 0.019247
0.053062 0.035918 0.020149
0.065941 0.038795 0.021501
0.082935 0.042013 0.025285
0.100393 0.045405 0.029025
0.119865 0.049546 0.032579
0.139061 0.053812 0.036141
0.157270 0.058520 0.039729
0.175293 0.062976 0.043125
0.192759 0.066674 0.045941
0.209438 0.069977 0.048527
0.224105 0.072270 0.050530
0.238923 0.074619 0.052443
0.254074 0.077095 0.054160
0.269209 0.079985 0.055901
0.284313 0.083664 0.057686
0.299388 0.087371 0.059374
0.314417 0.091124 0.060902
0.329391 0.094863 0.062344
0.344284 0.098583 0.063661
0.357368 0.101656 0.064754
0.368127 0.103897 0.065560
0.378699 0.106037 0.066356
0.389059 0.108062 0.067141
0.399331 0.110103 0.067989
0.409516 0.112160 0.068898
0.419036 0.114007 0.069648
0.427971 0.115668 0.070257
0.436903 0.117294 0.070864
0.445832 0.118893 0.071468
0.454802 0.120468 0.072063
0.463800 0.122025 0.072651
0.471938 0.123313 0.073231
0.479561 0.124437 0.073805
0.488402 0.126034 0.074467
0.497880 0.127878 0.075174
0.505377 0.129001 0.075594
0.511974 0.129796 0.075882
0.519714 0.130964 0.076364
0.527902 0.132278 0.076921
0.535181 0.133304 0.077374
0.542158 0.134233 0.077792
0.549081 0.135063 0.078199
0.555990 0.135867 0.078602
0.561945 0.136464 0.078904
0.567681 0.137015 0.079182
0.574340 0.137856 0.079566
0.581171 0.138752 0.079970
0.587997 0.139547 0.080376
0.594823 0.140327 0.080783
0.600755 0.140877 0.081056
0.606595 0.141404 0.081315
0.613385 0.142320 0.081698
0.620238 0.143262 0.082090
0.625966 0.143702 0.082227
0.631658 0.144125 0.082354
0.000000 0.045873 0.034148
0.000492 0.041045 0.030648
0.001144 0.036411 0.027132
0.006746 0.037792 0.023138
0.012390 0.039177 0.019360
0.018683 0.040618 0.018821
0.024964 0.042144 0.018510
0.031125 0.044494 0.020405
0.038456 0.046699 0.022213
0.053974 0.047898 0.023406
0.069619 0.049438 0.024969
0.085943 0.052813 0.028524
0.102819 0.056294 0.032045
0.122087 0.060231 0.035418
0.140997 0.064268 0.038759
0.158631 0.068661 0.041985
0.176333 0.072855 0.045086
0.194240 0.076451 0.047807
0.211528 0.079814 0.050339
0.227234 0.082578 0.052388
0.242723 0.085310 0.054317
0.257732 0.087966 0.055979
0.272806 0.090834 0.057610
0.288005 0.094104 0.059182
0.302726 0.097100 0.060602
0.316653 0.099641 0.061767
0.331049 0.102456 0.062991
0.346131 0.105671 0.064301
0.359655 0.108306 0.065390
0.371178 0.110193 0.066196
0.382078 0.111989 0.066951
0.392273 0.113684 0.067650
0.402340 0.115520 0.068414
0.412281 0.117498 0.069245
0.421875 0.119329 0.069996
0.431164 0.121029 0.070676
0.440256 0.122695 0.071309
0.449193 0.124334 0.071905
0.457941 0.125849 0.072497
0.466561 0.127281 0.073086
0.474828 0.128609 0.073665
0.482884 0.129876 0.074239
0.491466 0.131351 0.074849
0.500322 0.132935 0.075478
0.508231 0.134199 0.075970
0.515709 0.135317 0.076400
0.523556 0.136536 0.076922
0.531547 0.137795 0.077480
0.538789 0.138795 0.077927
0.545781 0.139708 0.078337
0.552456 0.140499 0.078741
0.559042 0.141255 0.079145
0.565340 0.141946 0.079440
0.571571 0.142622 0.079711
0.578235 0.143437 0.080093
0.584979 0.144278 0.080496
0.591871 0.145141 0.080958
0.598783 0.146008 0.081428
0.604666 0.146552 0.081642
0.610443 0.147063 0.081831
0.617251 0.147934 0.082276
0.624128 0.148829 0.082739
0.629903 0.149343 0.082939
0.635642 0.149845 0.083130
0.000000 0.058623 0.042435
0.000000 0.053352 0.039317
0.000137 0.048232 0.036119
0.004520 0.047789 0.030473
0.009092 0.047569 0.025078
0.016494 0.050693 0.023453
0.023705 0.053834 0.022128
0.029065 0.057141 0.023705
0.036009 0.060029 0.025244
0.054031 0.059986 0.026515
0.071832 0.060475 0.028137
0.088433 0.063835 0.031649
0.105481 0.067272 0.035103
0.124460 0.071045 0.038306
0.143026 0.074888 0.041439
0.160116 0.078980 0.044325
0.177522 0.082919 0.047141
0.195873 0.086400 0.049749
0.213748 0.089811 0.052207
0.230406 0.093043 0.054284
0.246526 0.096151 0.056214
0.261462 0.098990 0.057823
0.276505 0.101834 0.059346
0.291754 0.104689 0.060706
0.306122 0.106998 0.061867
0.319020 0.108398 0.062695
0.332880 0.110356 0.063715
0.348147 0.113129 0.065014
0.362108 0.115378 0.066103
0.374390 0.116954 0.066922
0.385609 0.118423 0.067644
0.395624 0.119771 0.068255
0.405506 0.121391 0.068940
0.415257 0.123283 0.069699
0.424908 0.125061 0.070442
0.434471 0.126738 0.071171
0.443688 0.128400 0.071821
0.452635 0.130050 0.072409
0.461198 0.131492 0.072993
0.469497 0.132792 0.073575
0.477883 0.134134 0.074151
0.486320 0.135503 0.074724
0.494663 0.136839 0.075283
0.502958 0.138159 0.075834
0.511237 0.139519 0.076389
0.519509 0.140897 0.076946
0.527454 0.142146 0.077499
0.535270 0.143344 0.078050
0.542471 0.144323 0.078495
0.549467 0.145230 0.078904
0.555939 0.145985 0.079303
0.562264 0.146697 0.079700
0.568888 0.147479 0.079999
0.575581 0.148276 0.080275
0.582221 0.149056 0.080652
0.588852 0.149833 0.081049
0.595782 0.150753 0.081554
0.602754 0.151693 0.082074
0.608597 0.152231 0.082241
0.614324 0.152727 0.082371
0.621148 0.153559 0.082867
0.628046 0.154414 0.083387
0.633908 0.155008 0.083656
0.639736 0.155593 0.083916
0.000000 0.071302 0.049767
0.000000 0.067016 0.047444
0.000100 0.062774 0.045016
0.003286 0.059921 0.039330
0.006700 0.057489 0.033869
0.013527 0.061362 0.031771
0.020323 0.065139 0.029828
0.026809 0.068005 0.029382
0.033966 0.070801 0.028903
0.045815 0.073113 0.028190
0.059881 0.075324 0.028410
0.085916 0.076991 0.033670
0.110421 0.079097 0.038533
0.128297 0.083107 0.041672
0.145950 0.087096 0.044725
0.162805 0.091015 0.047469
0.180151 0.094765 0.050106
0.198975 0.098010 0.052423
0.217220 0.101366 0.054625
0.233989 0.105007 0.056537
0.250367 0.108456 0.058341
0.265885 0.111484 0.059910
0.281183 0.114290 0.061337
0.296062 0.116672 0.062493
0.310078 0.118520 0.063491
0.322652 0.119480 0.064224
0.336382 0.121237 0.065175
0.351798 0.124160 0.066443
0.366157 0.126538 0.067573
0.379155 0.128215 0.068525
0.390604 0.129506 0.069277
0.400296 0.130359 0.069802
0.410186 0.131652 0.070436
0.420275 0.133386 0.071179
0.429818 0.134756 0.071830
0.438877 0.135803 0.072402
0.447891 0.137043 0.072979
0.456870 0.138433 0.073559
0.465585 0.139657 0.074094
0.474121 0.140768 0.074596
0.482521 0.141863 0.075138
0.490840 0.142948 0.075703
0.499154 0.143985 0.076213
0.507464 0.144998 0.076693
0.515710 0.146024 0.077221
0.523927 0.147056 0.077770
0.531884 0.148122 0.078264
0.539740 0.149202 0.078736
0.546868 0.150211 0.079214
0.553754 0.151196 0.079695
0.560466 0.151962 0.080054
0.567130 0.152666 0.080380
0.573920 0.153511 0.080774
0.580738 0.154387 0.081184
0.587086 0.155053 0.081523
0.593347 0.155680 0.081848
0.600058 0.156533 0.082282
0.606834 0.157418 0.082732
0.612723 0.157951 0.082949
0.618521 0.158447 0.083142
0.625342 0.159301 0.083575
0.632231 0.160180 0.084025
0.638573 0.160896 0.084421
0.644898 0.161607 0.084815
0.000000 0.084131 0.056991
0.000000 0.080670 0.055343
0.000064 0.077163 0.053572
0.002112 0.072224 0.048004
0.004421 0.067861 0.042619
0.010638 0.072124 0.039990
0.016970 0.076241 0.037397
0.024419 0.078936 0.035151
0.031750 0.081855 0.032864
0.038263 0.086350 0.030280
0.049080 0.090174 0.029096
0.083134 0.090374 0.035472
0.114086 0.091294 0.041291
0.131596 0.095337 0.044696
0.148938 0.099334 0.047936
0.165682 0.103164 0.050587
0.183031 0.106805 0.053084
0.202194 0.109881 0.055113
0.220722 0.113181 0.057058
0.237623 0.117052 0.058788
0.254260 0.120718 0.060458
0.270316 0.123935 0.061996
0.285817 0.126711 0.063334
0.300260 0.128644 0.064288
0.313927 0.130093 0.065135
0.326298 0.130734 0.065803
0.339952 0.132340 0.066702
0.355482 0.135354 0.067939
0.370179 0.137817 0.069101
0.383806 0.139569 0.070168
0.395500 0.140713 0.070949
0.405004 0.141167 0.071406
0.414929 0.142161 0.071994
0.425273 0.143695 0.072711
0.434745 0.144687 0.073282
0.443448 0.145201 0.073724
0.452319 0.146080 0.074244
0.461323 0.147244 0.074825
0.470127 0.148242 0.075312
0.478794 0.149128 0.075735
0.487204 0.149997 0.076241
0.495462 0.150856 0.076797
0.503755 0.151619 0.077262
0.512067 0.152331 0.077680
0.520283 0.153055 0.078183
0.528454 0.153783 0.078724
0.536441 0.154701 0.079177
0.544355 0.155692 0.079596
0.551374 0.156668 0.080082
0.558095 0.157640 0.080590
0.565059 0.158418 0.080925
0.572090 0.159142 0.081212
0.579034 0.160025 0.081687
0.585959 0.160945 0.082204
0.592041 0.161473 0.082494
0.597967 0.161927 0.082742
0.604490 0.162696 0.083111
0.611099 0.163509 0.083498
0.617092 0.164073 0.083772
0.623022 0.164612 0.084035
0.629766 0.165452 0.084407
0.636564 0.166313 0.084787
0.643265 0.167085 0.085269
0.649962 0.167854 0.085755
0.000000 0.098005 0.063455
0.000000 0.094260 0.061641
0.000041 0.090484 0.059748
0.001366 0.085718 0.055392
0.002941 0.081386 0.051085
0.008292 0.083547 0.047511
0.013821 0.085919 0.044040
0.021089 0.090330 0.041567
0.028328 0.094876 0.038945
0.035360 0.100363 0.035282
0.046323 0.105040 0.032672
0.078503 0.105342 0.035741
0.108830 0.106086 0.039353
0.131127 0.108752 0.045316
0.152376 0.111783 0.050612
0.169883 0.116117 0.053524
0.187659 0.120211 0.056150
0.206240 0.123586 0.057919
0.224431 0.126812 0.059593
0.241624 0.129660 0.061024
0.258530 0.132682 0.062498
0.274806 0.136088 0.064068
0.290144 0.138890 0.065364
0.303689 0.140540 0.066137
0.317031 0.142015 0.066924
0.330032 0.143200 0.067734
0.344003 0.145000 0.068705
0.359391 0.147700 0.069910
0.374011 0.149933 0.071043
0.387645 0.151567 0.072086
0.399702 0.152781 0.072884
0.409970 0.153519 0.073405
0.420111 0.154407 0.073981
0.430125 0.155445 0.074612
0.439798 0.156280 0.075176
0.449169 0.156935 0.075681
0.458325 0.157881 0.076259
0.467313 0.159053 0.076895
0.475750 0.159769 0.077353
0.483811 0.160175 0.077689
0.492201 0.160971 0.078153
0.500789 0.162003 0.078694
0.509134 0.162660 0.079148
0.517351 0.163121 0.079558
0.525554 0.163766 0.080053
0.533749 0.164494 0.080586
0.541878 0.165497 0.081128
0.549981 0.166606 0.081673
0.556640 0.167116 0.081983
0.562818 0.167426 0.082216
0.570105 0.168226 0.082639
0.577703 0.169162 0.083115
0.584729 0.169919 0.083560
0.591622 0.170634 0.083999
0.597626 0.170851 0.084170
0.603466 0.170975 0.084292
0.610013 0.171536 0.084639
0.616660 0.172161 0.085017
0.623164 0.173014 0.085398
0.629652 0.173891 0.085778
0.635804 0.174465 0.086099
0.641933 0.175019 0.086416
0.648140 0.175377 0.086698
0.654349 0.175729 0.086980
0.000000 0.111818 0.069602
0.000000 0.107847 0.067723
0.000021 0.103852 0.065802
0.000677 0.099129 0.062570
0.001574 0.094724 0.059266
0.006080 0.095089 0.054909
0.010821 0.095955 0.050703
0.017833 0.101661 0.047966
0.024902 0.107443 0.044987
0.032369 0.113755 0.040304
0.043392 0.119176 0.036365
0.073614 0.119789 0.036444
0.103142 0.120587 0.037931
0.129667 0.122187 0.045513
0.154522 0.124471 0.052220
0.173409 0.129194 0.055800
0.192120 0.133660 0.058917
0.210299 0.137354 0.060643
0.228256 0.140563 0.062209
0.245642 0.142535 0.063368
0.262713 0.144983 0.064650
0.279094 0.148475 0.066203
0.294284 0.151262 0.067447
0.307203 0.152702 0.068099
0.320368 0.154233 0.068857
0.333944 0.155916 0.069794
0.348184 0.157895 0.070826
0.363396 0.160306 0.071999
0.377911 0.162318 0.073099
0.391529 0.163817 0.074105
0.403948 0.165083 0.074922
0.415006 0.166084 0.075525
0.425444 0.166935 0.076114
0.435262 0.167636 0.076689
0.445092 0.168322 0.077243
0.454931 0.168995 0.077778
0.464271 0.169936 0.078388
0.473224 0.171085 0.079056
0.481397 0.171586 0.079496
0.489037 0.171643 0.079779
0.497421 0.172364 0.080213
0.506252 0.173483 0.080738
0.514639 0.174039 0.081181
0.522793 0.174301 0.081581
0.530922 0.174833 0.082047
0.539041 0.175488 0.082542
0.547316 0.176561 0.083161
0.555653 0.177796 0.083828
0.562078 0.177918 0.084010
0.567866 0.177667 0.084029
0.575379 0.178420 0.084506
0.583375 0.179454 0.085111
0.590456 0.180084 0.085525
0.597325 0.180622 0.085896
0.603250 0.180595 0.085973
0.609001 0.180463 0.085996
0.615583 0.180860 0.086332
0.622283 0.181332 0.086713
0.629143 0.182356 0.087157
0.636019 0.183438 0.087608
0.641746 0.183816 0.087899
0.647395 0.184148 0.088180
0.653280 0.184241 0.088330
0.659172 0.184328 0.088476
0.000000 0.125304 0.074035
0.000000 0.121411 0.072637
0.000009 0.117472 0.071201
0.000304 0.112087 0.068606
0.000816 0.107054 0.065906
0.004598 0.107277 0.061635
0.008620 0.107923 0.057465
0.014971 0.112644 0.054281
0.021458 0.117555 0.050820
0.028902 0.123788 0.045428
0.039527 0.129368 0.040692
0.067331 0.131422 0.039496
0.095123 0.133507 0.039297
0.122861 0.135730 0.043423
0.149693 0.138450 0.048059
0.173289 0.142945 0.054513
0.195674 0.147346 0.060067
0.214428 0.151464 0.062918
0.232702 0.154957 0.065258
0.249750 0.156850 0.066291
0.266426 0.159098 0.067400
0.282287 0.162126 0.068678
0.297423 0.164673 0.069811
0.311177 0.166303 0.070668
0.324967 0.168046 0.071569
0.338818 0.169981 0.072545
0.353075 0.172051 0.073588
0.367924 0.174321 0.074730
0.382173 0.176153 0.075764
0.395650 0.177424 0.076659
0.408429 0.178642 0.077506
0.420416 0.179801 0.078298
0.431587 0.180991 0.079037
0.441940 0.182211 0.079722
0.451690 0.182794 0.080248
0.460907 0.182813 0.080634
0.469896 0.183362 0.081129
0.478707 0.184321 0.081711
0.487168 0.184965 0.082190
0.495391 0.185393 0.082599
0.503851 0.186017 0.083071
0.512454 0.186758 0.083580
0.520829 0.187241 0.084007
0.529085 0.187589 0.084392
0.536819 0.187823 0.084712
0.544316 0.188006 0.085002
0.552761 0.189070 0.085637
0.561579 0.190480 0.086407
0.568449 0.190632 0.086708
0.574669 0.190366 0.086854
0.581877 0.190703 0.087204
0.589362 0.191209 0.087612
0.596359 0.191715 0.087983
0.603244 0.192221 0.088346
0.609085 0.192316 0.088462
0.614734 0.192334 0.088533
0.621413 0.192790 0.088923
0.628239 0.193310 0.089358
0.634626 0.193868 0.089636
0.640966 0.194430 0.089898
0.647169 0.194997 0.090281
0.653362 0.195565 0.090672
0.659851 0.196200 0.091054
0.666349 0.196837 0.091436
0.000000 0.138519 0.078224
0.000000 0.134958 0.077334
0.000000 0.131323 0.076409
0.000000 0.125434 0.074372
0.000191 0.119898 0.072205
0.003239 0.119646 0.068086
0.006536 0.119796 0.064016
0.012236 0.123822 0.060413
0.018141 0.128117 0.056500
0.025492 0.134289 0.050411
0.035716 0.139995 0.044931
0.061449 0.143179 0.042734
0.087756 0.146305 0.041171
0.116544 0.149173 0.042357
0.145078 0.152317 0.045072
0.172700 0.156443 0.053247
0.198307 0.160676 0.060403
0.217873 0.165232 0.064500
0.236744 0.169105 0.067805
0.253842 0.171234 0.069083
0.270393 0.173487 0.070284
0.285741 0.176012 0.071317
0.300819 0.178310 0.072352
0.315385 0.180177 0.073395
0.329715 0.182083 0.074402
0.343653 0.184052 0.075352
0.357831 0.186109 0.076376
0.372360 0.188295 0.077511
0.386397 0.190037 0.078515
0.399803 0.191209 0.079352
0.412930 0.192404 0.080231
0.425740 0.193624 0.081157
0.437505 0.195021 0.082000
0.448224 0.196595 0.082760
0.457964 0.197138 0.083286
0.466839 0.196773 0.083604
0.475598 0.197017 0.084016
0.484266 0.197734 0.084501
0.492947 0.198478 0.085013
0.501637 0.199241 0.085544
0.510185 0.199783 0.086045
0.518648 0.200194 0.086528
0.527022 0.200630 0.086950
0.535350 0.201079 0.087341
0.542834 0.201107 0.087570
0.549934 0.200942 0.087725
0.558452 0.201891 0.088339
0.567525 0.203276 0.089133
0.574793 0.203499 0.089539
0.581459 0.203336 0.089817
0.588480 0.203390 0.090094
0.595602 0.203506 0.090371
0.602460 0.203876 0.090694
0.609258 0.204305 0.091027
0.615117 0.204465 0.091179
0.620803 0.204575 0.091298
0.627457 0.204994 0.091685
0.634248 0.205457 0.092109
0.640336 0.205725 0.092304
0.646351 0.205972 0.092476
0.652937 0.206643 0.092914
0.659561 0.207343 0.093369
0.666441 0.208350 0.093915
0.673328 0.209367 0.094464
0.000000 0.150563 0.081355
0.000000 0.148427 0.081095
0.000000 0.146179 0.080787
0.000000 0.140463 0.078962
0.000142 0.134969 0.077022
0.002419 0.132796 0.073345
0.004960 0.131257 0.069647
0.010053 0.135843 0.065761
0.015379 0.140628 0.061519
0.022337 0.146817 0.054785
0.032139 0.152502 0.048789
0.057306 0.155474 0.046781
0.083217 0.158566 0.045240
0.112352 0.162183 0.045726
0.141390 0.165697 0.047177
0.170083 0.168847 0.052076
0.196953 0.172470 0.057216
0.218352 0.177515 0.063077
0.239031 0.182188 0.068172
0.257870 0.185915 0.071309
0.275465 0.189058 0.073751
0.290324 0.190913 0.074665
0.305329 0.192927 0.075658
0.320611 0.195243 0.076803
0.335114 0.197089 0.077759
0.348320 0.198153 0.078402
0.362005 0.199740 0.079283
0.376392 0.202091 0.080511
0.390453 0.204129 0.081641
0.404096 0.205766 0.082643
0.417518 0.207041 0.083562
0.430690 0.207907 0.084385
0.442450 0.208942 0.085138
0.452800 0.210146 0.085820
0.462830 0.210930 0.086463
0.472579 0.211344 0.087073
0.481636 0.211663 0.087533
0.490155 0.211908 0.087876
0.498757 0.212568 0.088391
0.507415 0.213511 0.089024
0.516104 0.214043 0.089519
0.524811 0.214327 0.089931
0.533228 0.214829 0.090396
0.541493 0.215444 0.090890
0.549357 0.215658 0.091265
0.557040 0.215690 0.091585
0.565207 0.216060 0.092019
0.573564 0.216564 0.092497
0.581024 0.217027 0.092943
0.588186 0.217477 0.093378
0.595538 0.217826 0.093813
0.602942 0.218147 0.094248
0.609419 0.218331 0.094498
0.615681 0.218485 0.094705
