Plugins/FilmEmulator/Content/LUTs/FE_Fujifilm_Eterna_Vivid_160T_8543_64.cube
# FilmEmulator LUT (resampled to 64)
LUT_3D_SIZE 4
0.000793 0.000000 0.000000
0.192587 0.011882 0.012176
0.407125 0.017415 0.026215
0.604675 0.023834 0.038177
0.042857 0.152862 0.050354
0.283308 0.254174 0.055261
0.566505 0.293613 0.063734
0.771688 0.301941 0.073873
0.081136 0.307292 0.092051
0.339461 0.460846 0.109182
0.654710 0.558895 0.097188
0.866638 0.592855 0.095317
0.111420 0.448303 0.130341
0.393636 0.625641 0.164174
0.710714 0.761047 0.119395
0.887848 0.799408 0.125305
0.012502 0.017873 0.131978
0.173106 0.049364 0.235674
0.427633 0.050517 0.267646
0.630697 0.046590 0.269786
0.066169 0.196170 0.244290
0.306082 0.313101 0.337671
0.616972 0.356783 0.362647
0.818976 0.370670 0.374844
0.095961 0.357649 0.282874
0.352984 0.531899 0.377490
0.692664 0.644630 0.390985
0.905294 0.678524 0.398729
0.119049 0.498728 0.344574
0.382717 0.695139 0.452257
0.729621 0.850735 0.464010
0.920156 0.893555 0.466827
0.027384 0.035146 0.262370
0.147417 0.057939 0.354936
0.412744 0.090040 0.458737
0.629740 0.083710 0.511027
0.082411 0.230808 0.398231
0.243373 0.318346 0.508317
0.605210 0.403810 0.639484
0.830461 0.415076 0.673293
0.115957 0.396403 0.474667
0.304567 0.536829 0.578809
0.694980 0.691219 0.699805
0.933753 0.732005 0.716702
0.156962 0.540608 0.528361
0.345615 0.699710 0.627404
0.731839 0.883864 0.747284
0.946187 0.942485 0.773946
0.040497 0.049713 0.384766
0.137919 0.059143 0.460134
0.408284 0.115468 0.576874
0.620728 0.118774 0.660431
0.097066 0.263306 0.543019
0.210449 0.339145 0.632419
0.581618 0.443186 0.776727
0.820058 0.487915 0.866476
0.127299 0.426209 0.604970
0.250590 0.545824 0.710405
0.677083 0.708028 0.876051
0.915578 0.770375 0.940735
0.151581 0.556854 0.653595
0.320129 0.707520 0.764506
0.725291 0.882253 0.914022
0.952484 0.958496 0.972992
