Plugins/FilmEmulator/Content/LUTs/FE_Fuji_Pro_160C_64.cube
TITLE "FE_Fuji_Pro_160C_33"
LUT_3D_SIZE 64
0.0008978 0.0012006 0.0011351
0.0015784 0.0011711 0.0011286
0.0038554 0.0011949 0.0011464
0.0075221 0.0012461 0.0011978
0.0121022 0.0012930 0.0012807
0.0183323 0.0013462 0.0013632
0.0257357 0.0014041 0.0014576
0.0331848 0.0014895 0.0015698
0.0427567 0.0015932 0.0016902
0.0528210 0.0017199 0.0018356
0.0651792 0.0018420 0.0020030
0.0770438 0.0020168 0.0021843
0.0909730 0.0022084 0.0023324
0.1028499 0.0024427 0.0025590
0.1211140 0.0026450 0.0027602
0.1366446 0.0028638 0.0029773
0.1478735 0.0031074 0.0032150
0.1663589 0.0032874 0.0034998
0.1797351 0.0035773 0.0037082
0.2015639 0.0037849 0.0039260
0.2171768 0.0040036 0.0042735
0.2335644 0.0043940 0.0045578
0.2511262 0.0046750 0.0048569
0.2696884 0.0049738 0.0051756
0.2892270 0.0051300 0.0055105
0.3095043 0.0054585 0.0056930
0.3198400 0.0058293 0.0060711
0.3414021 0.0060262 0.0064773
0.3638113 0.0064417 0.0066994
0.3751559 0.0068842 0.0071539
0.3986301 0.0071173 0.0073925
0.4105197 0.0073567 0.0078867
0.4345988 0.0078668 0.0081568
0.4467798 0.0081433 0.0084310
0.4589095 0.0087252 0.0090162
0.4712573 0.0090316 0.0093236
0.4962343 0.0093490 0.0096414
0.5086893 0.0096772 0.0099700
0.5211554 0.0100151 0.0106512
0.5335935 0.0103664 0.0110139
0.5458621 0.0111074 0.0113995
0.5582191 0.0115040 0.0117876
0.5705141 0.0119144 0.0122030
0.5827320 0.0123394 0.0126329
0.5948443 0.0127794 0.0130777
0.6068249 0.0132348 0.0135381
0.6186863 0.0137063 0.0140145
0.6304157 0.0141944 0.0145074
0.6420009 0.0146997 0.0150175
0.6535587 0.0146971 0.0155307
0.6648081 0.0152223 0.0155449
0.6758907 0.0157636 0.0160909
0.6867833 0.0163359 0.0166563
0.6866673 0.0169356 0.0172597
0.6973652 0.0175563 0.0178933
0.7079811 0.0175526 0.0185319
0.7182813 0.0181985 0.0185492
0.7283723 0.0188647 0.0192294
0.7282656 0.0195559 0.0199349
0.7382486 0.0195516 0.0206451
0.7478766 0.0202699 0.0206643
0.7572802 0.0210107 0.0214208
0.7571809 0.0217794 0.0222053
0.7664561 0.0217745 0.0229949
0.0009408 0.0034226 0.0011691
0.0019485 0.0036159 0.0012013
0.0045338 0.0039283 0.0012712
0.0083063 0.0041627 0.0013575
0.0134602 0.0044251 0.0014549
0.0195866 0.0047050 0.0015673
0.0263570 0.0050036 0.0016755
0.0354679 0.0053210 0.0018030
0.0438121 0.0054856 0.0019556
0.0541536 0.0058574 0.0021101
0.0668066 0.0062591 0.0022996
0.0790560 0.0064684 0.0025039
0.0933492 0.0069127 0.0026967
0.1056036 0.0071438 0.0029773
0.1194016 0.0076355 0.0031325
0.1348254 0.0078951 0.0033893
0.1519334 0.0081706 0.0036874
0.1708842 0.0087560 0.0039053
0.1846673 0.0090628 0.0041322
0.1993251 0.0093790 0.0045097
0.2229991 0.0097071 0.0048021
0.2398207 0.0104016 0.0051182
0.2578967 0.0107653 0.0054500
0.2768638 0.0111433 0.0056264
0.2866319 0.0115403 0.0059910
0.3068999 0.0119509 0.0063901
0.3279702 0.0123780 0.0066037
0.3387452 0.0128183 0.0070459
0.3611853 0.0132759 0.0072812
0.3843002 0.0137476 0.0077684
0.3960134 0.0142381 0.0080278
0.4078676 0.0147437 0.0085668
0.4320249 0.0152690 0.0088591
0.4443247 0.0152663 0.0091527
0.4565753 0.0158077 0.0097787
0.4814360 0.0163823 0.0101122
0.4938650 0.0169841 0.0104573
0.5063117 0.0176076 0.0108140
0.5187606 0.0182537 0.0111827
0.5313414 0.0182503 0.0115527
0.5437474 0.0189196 0.0119464
0.5685441 0.0196121 0.0123675
0.5807710 0.0203303 0.0128034
0.5930362 0.0203262 0.0132417
0.6050287 0.0210700 0.0137082
0.6169050 0.0218405 0.0141909
0.6169161 0.0218371 0.0146766
0.6286619 0.0226352 0.0151930
0.6402643 0.0234686 0.0157275
0.6518468 0.0234637 0.0162647
0.6631256 0.0243409 0.0168367
0.6742286 0.0252501 0.0174464
0.6852656 0.0252486 0.0174458
0.6959865 0.0261908 0.0180866
0.6958693 0.0271692 0.0187512
0.7065150 0.0271630 0.0194199
0.7168524 0.0281751 0.0201320
0.7270818 0.0281732 0.0201313
0.7369750 0.0292219 0.0208691
0.7368676 0.0303109 0.0216342
0.7466399 0.0303087 0.0216334
0.7560714 0.0314349 0.0224253
0.7560806 0.0314298 0.0232235
0.7652757 0.0325965 0.0240724
0.0010360 0.0088889 0.0012887
0.0023702 0.0091850 0.0013426
0.0051668 0.0094908 0.0014378
0.0092405 0.0101587 0.0015381
0.0144451 0.0105045 0.0016550
0.0210687 0.0108646 0.0017517
0.0283524 0.0112369 0.0019309
0.0365898 0.0116322 0.0020611
0.0471752 0.0120403 0.0022441
0.0583083 0.0124637 0.0024435
0.0689736 0.0129027 0.0026761
0.0816191 0.0133581 0.0028830
0.0924648 0.0138305 0.0031060
0.1090358 0.0143184 0.0033498
0.1232810 0.0148258 0.0035445
0.1391335 0.0153490 0.0038562
0.1566929 0.0158927 0.0040803
0.1695917 0.0158866 0.0043133
0.1905050 0.0164587 0.0047225
0.2055093 0.0170606 0.0050289
0.2213982 0.0176842 0.0053551
0.2382192 0.0183329 0.0055287
0.2562069 0.0190023 0.0058872
0.2752101 0.0189947 0.0062670
0.2949805 0.0196878 0.0066869
0.3155798 0.0204086 0.0069105
0.3262565 0.0204016 0.0073662
0.3481494 0.0211481 0.0076124
0.3593779 0.0219193 0.0081219
0.3824287 0.0227203 0.0083932
0.3942533 0.0227158 0.0086673
0.4181552 0.0235483 0.0092605
0.4302015 0.0244297 0.0095770
0.4424881 0.0244247 0.0098943
0.4671639 0.0253369 0.0102320
0.4795497 0.0262837 0.0105814
0.4921313 0.0262743 0.0112936
0.5045727 0.0272553 0.0116789
0.5171677 0.0272496 0.0120651
0.5421476 0.0282643 0.0124906
0.5545130 0.0293175 0.0129312
0.5669677 0.0293111 0.0133739
0.5792016 0.0304023 0.0138453
0.5914791 0.0303956 0.0143189
0.6034827 0.0315261 0.0148233
0.6155134 0.0315191 0.0153299
0.6272720 0.0326901 0.0158694
0.6390175 0.0326879 0.0158690
0.6504807 0.0339011 0.0164272
0.6503531 0.0351784 0.0170056
0.6617892 0.0351703 0.0176039
0.6729118 0.0364911 0.0182506
0.6839825 0.0364825 0.0189018
0.6947145 0.0378572 0.0189202
0.7053828 0.0378482 0.0195948
0.7052661 0.0392691 0.0203143
0.7157518 0.0392598 0.0210378
0.7260053 0.0392567 0.0210371
0.7359209 0.0407256 0.0218078
0.7359307 0.0407190 0.0225844
0.7456090 0.0422474 0.0226062
0.7551776 0.0422372 0.0234099
0.7643941 0.0438133 0.0242658
0.7643941 0.0438133 0.0242658
0.0011596 0.0167265 0.0014620
0.0028388 0.0166897 0.0015223
0.0059654 0.0172746 0.0016071
0.0099248 0.0178883 0.0017164
0.0155691 0.0185244 0.0018656
0.0218033 0.0191879 0.0020235
0.0293603 0.0191690 0.0021793
0.0378817 0.0198587 0.0023729
0.0488541 0.0205728 0.0025837
0.0603606 0.0213154 0.0027802
0.0714539 0.0213008 0.0029923
0.0845173 0.0220712 0.0032237
0.0957124 0.0228705 0.0034882
0.1129155 0.0228542 0.0037913
0.1276008 0.0236907 0.0040117
0.1382714 0.0245733 0.0042451
0.1558117 0.0245614 0.0044874
0.1753208 0.0254695 0.0049289
0.1893826 0.0264163 0.0052488
0.2044044 0.0264086 0.0054137
0.2285156 0.0273877 0.0057648
0.2459908 0.0273760 0.0061326
0.2643740 0.0283918 0.0065414
0.2738430 0.0294507 0.0067604
0.2936712 0.0294379 0.0072062
0.3142145 0.0305328 0.0074472
0.3356917 0.0305196 0.0079379
0.3467079 0.0316557 0.0082034
0.3695359 0.0316421 0.0087458
0.3810569 0.0328187 0.0090448
0.4046570 0.0340354 0.0093537
0.4167252 0.0340280 0.0096637
0.4287685 0.0353033 0.0103251
0.4533927 0.0352932 0.0106668
0.4657026 0.0366198 0.0110311
0.4782316 0.0366118 0.0113961
0.4906477 0.0379865 0.0117850
0.5158207 0.0379754 0.0121745
0.5282558 0.0393992 0.0126042
0.5408160 0.0393902 0.0130358
0.5531846 0.0408652 0.0134957
0.5656461 0.0408559 0.0139575
0.5778868 0.0423836 0.0144494
0.5901746 0.0423739 0.0149435
0.6023332 0.0423642 0.0154542
0.6142315 0.0439461 0.0159983
0.6261454 0.0439359 0.0165446
0.6377754 0.0455742 0.0171265
0.6493817 0.0455707 0.0171260
0.6606957 0.0472671 0.0177463
0.6607067 0.0472595 0.0183803
0.6718466 0.0490160 0.0190552
0.6829358 0.0490042 0.0197346
0.6938168 0.0490002 0.0197340
0.7043737 0.0508439 0.0204580
0.7148777 0.0508316 0.0211866
0.7147605 0.0527586 0.0219640
0.7250355 0.0527542 0.0219632
0.7350925 0.0527413 0.0227444
0.7447974 0.0547326 0.0235770
0.7447974 0.0547326 0.0235770
0.7542701 0.0567954 0.0244395
0.7636208 0.0567813 0.0253161
0.7636208 0.0567813 0.0253161
0.0013897 0.0258682 0.0016448
0.0034386 0.0267824 0.0017182
0.0066540 0.0267375 0.0017966
0.0111140 0.0277013 0.0019484
0.0168113 0.0287055 0.0021133
0.0236003 0.0286730 0.0022985
0.0317712 0.0297187 0.0025026
0.0409893 0.0296934 0.0026716
0.0506855 0.0307792 0.0029497
0.0626324 0.0307549 0.0031746
0.0741196 0.0318850 0.0034238
0.0876279 0.0330585 0.0036229
0.0992471 0.0330372 0.0039377
0.1122949 0.0342550 0.0041667
0.1269726 0.0342374 0.0044045
0.1432218 0.0355160 0.0046755
0.1613390 0.0354970 0.0049739
0.1744936 0.0368238 0.0052968
0.1959640 0.0368044 0.0056347
0.2112916 0.0381785 0.0060003
0.2276097 0.0381615 0.0063874
0.2449190 0.0395900 0.0066013
0.2633615 0.0395721 0.0070365
0.2825866 0.0410455 0.0075080
0.3027908 0.0410332 0.0077513
0.3130840 0.0425686 0.0080107
0.3345195 0.0425495 0.0085383
0.3568138 0.0441360 0.0088259
0.3683063 0.0441194 0.0094209
0.3917341 0.0441061 0.0097329
0.4035224 0.0457516 0.0100655
0.4155795 0.0457412 0.0103989
0.4398580 0.0474415 0.0107538
0.4522211 0.0474238 0.0114776
0.4645252 0.0491876 0.0118693
0.4896027 0.0491726 0.0122616
0.5021909 0.0491613 0.0126816
0.5146337 0.0510120 0.0131293
0.5272211 0.0510002 0.0135786
0.5396305 0.0529303 0.0140578
0.5521536 0.0529179 0.0145386
0.5646205 0.0529056 0.0150356
0.5768644 0.0549041 0.0155655
0.5891486 0.0548998 0.0155651
0.6011679 0.0569697 0.0161134
0.6132220 0.0569565 0.0166635
0.6251474 0.0569430 0.0172323
0.6367873 0.0590856 0.0178568
0.6484182 0.0590714 0.0184941
0.6597325 0.0612992 0.0185126
0.6710230 0.0612843 0.0191729
0.6821263 0.0612694 0.0198565
0.6820018 0.0635706 0.0205858
0.6929103 0.0635552 0.0213189
0.7036033 0.0635498 0.0213181
0.7139959 0.0659258 0.0220994
0.7242973 0.0659096 0.0228854
0.7242973 0.0659096 0.0228854
0.7342489 0.0683684 0.0237231
0.7440929 0.0683516 0.0245657
0.7440929 0.0683516 0.0245657
0.7535830 0.0708955 0.0254728
0.7629511 0.0708777 0.0264047
0.7720661 0.0708714 0.0264037
0.0016994 0.0373758 0.0018750
0.0040804 0.0372952 0.0019662
0.0077214 0.0386392 0.0020979
0.0125035 0.0385880 0.0022228
0.0181866 0.0399966 0.0024200
0.0255684 0.0399514 0.0026321
0.0329931 0.0414213 0.0028323
0.0425536 0.0413844 0.0030480
0.0526329 0.0429088 0.0032837
0.0650127 0.0428739 0.0035494
0.0769487 0.0444589 0.0037558
0.0872691 0.0444299 0.0040821
0.1029421 0.0460703 0.0043193
0.1165391 0.0460463 0.0045658
0.1316996 0.0460211 0.0048572
0.1484621 0.0477209 0.0051725
0.1607213 0.0476992 0.0055026
0.1807474 0.0494584 0.0058595
0.1952417 0.0494360 0.0062332
0.2105257 0.0512862 0.0066489
0.2267930 0.0512701 0.0068646
0.2441755 0.0512466 0.0073171
0.2624547 0.0531824 0.0075621
0.2817574 0.0531581 0.0080604
0.3017978 0.0551625 0.0083301
0.3227935 0.0551455 0.0085998
0.3336023 0.0551248 0.0091752
0.3558641 0.0571993 0.0094889
0.3673320 0.0571861 0.0098033
0.3907452 0.0571598 0.0104635
0.4025193 0.0593117 0.0108211
0.4267161 0.0592933 0.0111791
0.4388255 0.0615209 0.0115609
0.4511708 0.0615068 0.0119433
0.4761295 0.0614877 0.0123380
0.4885376 0.0637926 0.0127738
0.5011244 0.0637776 0.0132112
0.5137203 0.0637627 0.0136633
0.5261549 0.0661476 0.0141454
0.5387205 0.0661321 0.0146292
0.5512470 0.0661166 0.0151293
0.5635663 0.0685840 0.0156625
0.5759681 0.0685679 0.0161975
0.5882707 0.0685518 0.0167505
0.6002975 0.0711041 0.0173400
0.6123493 0.0710981 0.0173395
0.6242847 0.0710810 0.0179494
0.6359345 0.0737357 0.0186093
0.6475773 0.0737178 0.0192731
0.6590551 0.0737000 0.0199601
0.6702051 0.0764891 0.0199803
0.6813224 0.0764705 0.0206922
0.6922433 0.0764519 0.0214290
0.6921186 0.0793319 0.0222155
0.7028270 0.0793250 0.0222147
0.7133631 0.0793056 0.0230047
0.7235511 0.0822777 0.0238471
0.7235511 0.0822777 0.0238471
0.7336413 0.0822575 0.0246941
0.7433785 0.0853312 0.0256063
0.7529928 0.0853236 0.0256053
0.7530025 0.0853099 0.0265430
0.7623855 0.0852886 0.0275132
0.7714030 0.0884799 0.0275407
0.0021123 0.0501696 0.0021501
0.0046910 0.0500677 0.0022886
0.0086663 0.0518854 0.0023883
0.0135319 0.0518202 0.0025431
0.0197310 0.0517622 0.0027144
0.0265598 0.0536816 0.0029241
0.0357850 0.0536289 0.0031467
0.0442136 0.0556243 0.0033900
0.0547089 0.0555782 0.0036763
0.0647713 0.0555439 0.0038860
0.0766679 0.0576095 0.0042279
0.0906487 0.0575740 0.0044690
0.1069210 0.0597180 0.0047439
0.1209820 0.0596851 0.0050466
0.1366409 0.0596524 0.0053686
0.1479512 0.0618798 0.0057170
0.1666440 0.0618462 0.0060816
0.1802338 0.0618178 0.0064739
0.2021489 0.0641245 0.0066907
0.2179408 0.0640950 0.0071318
0.2346749 0.0640747 0.0073630
0.2524718 0.0664566 0.0078563
0.2712838 0.0664356 0.0081108
0.2908711 0.0688999 0.0086540
0.3010485 0.0688841 0.0089365
0.3220150 0.0688623 0.0092326
0.3437635 0.0714102 0.0098649
0.3550456 0.0713937 0.0101916
0.3781104 0.0713712 0.0105289
0.3897357 0.0740378 0.0108888
0.4136732 0.0740145 0.0112490
0.4258369 0.0739867 0.0120059
0.4379371 0.0767758 0.0124159
0.4627100 0.0767513 0.0128409
0.4752281 0.0767332 0.0132805
0.4877879 0.0767152 0.0137351
0.5002167 0.0795990 0.0142199
0.5128125 0.0795803 0.0147062
0.5379579 0.0795548 0.0152086
0.5503200 0.0825493 0.0152241
0.5627962 0.0825299 0.0157443
0.5752027 0.0825106 0.0162821
0.5873580 0.0855945 0.0168556
0.5995418 0.0855744 0.0174308
0.6116127 0.0855538 0.0180439
0.6235563 0.0855333 0.0186879
0.6352020 0.0887337 0.0187068
0.6352137 0.0887199 0.0193747
0.6468662 0.0886984 0.0200653
0.6582119 0.0919927 0.0208019
0.6695155 0.0919847 0.0208012
0.6806445 0.0919623 0.0215418
0.6914425 0.0953667 0.0223316
0.7021743 0.0953436 0.0231257
0.7021743 0.0953436 0.0231257
0.7127237 0.0953205 0.0239475
0.7229248 0.0988372 0.0248238
0.7330198 0.0988284 0.0248229
0.7330295 0.0988130 0.0257140
0.7429025 0.0987885 0.0266545
0.7524100 0.1024362 0.0266812
0.7618082 0.1024108 0.0276564
0.7618175 0.1023947 0.0286674
0.7709626 0.1023854 0.0286663
0.0026048 0.0626634 0.0024548
0.0054144 0.0649056 0.0026159
0.0093557 0.0648160 0.0027333
0.0146514 0.0671684 0.0029440
0.0214034 0.0670988 0.0030911
0.0288249 0.0670337 0.0033263
0.0371943 0.0694889 0.0035990
0.0459948 0.0694398 0.0038042
0.0568921 0.0693821 0.0041343
0.0673080 0.0719380 0.0043747
0.0797085 0.0718938 0.0046241
0.0941956 0.0718478 0.0049190
0.1065920 0.0745084 0.0052383
0.1206148 0.0744676 0.0055724
0.1362327 0.0744270 0.0059278
0.1534778 0.0772084 0.0063124
0.1661548 0.0771837 0.0065149
0.1868111 0.0771412 0.0069443
0.2015840 0.0800229 0.0074099
0.2173356 0.0799975 0.0076500
0.2340438 0.0799609 0.0081540
0.2519132 0.0799355 0.0084181
0.2705761 0.0829250 0.0086999
0.2902566 0.0828869 0.0092817
0.3107861 0.0828605 0.0095891
0.3212282 0.0859578 0.0099173
0.3430760 0.0859306 0.0102456
0.3657926 0.0858910 0.0109353
0.3772564 0.0890919 0.0113091
0.4009086 0.0890637 0.0116830
0.4129392 0.0890433 0.0120694
0.4250854 0.0890228 0.0124685
0.4495036 0.0923216 0.0129088
0.4619442 0.0923000 0.0133508
0.4744591 0.0922784 0.0138077
0.4868603 0.0956948 0.0142951
0.5120284 0.0956643 0.0147836
0.5246189 0.0956419 0.0152890
0.5371882 0.0956196 0.0158114
0.5495647 0.0991478 0.0163686
0.5620446 0.0991246 0.0169274
0.5744558 0.0991015 0.0175050
0.5867581 0.0990929 0.0175045
0.5987958 0.1027360 0.0181392
0.6108741 0.1027114 0.0187864
0.6228262 0.1026867 0.0194565
0.6344922 0.1064479 0.0201711
0.6461432 0.1064386 0.0201704
0.6576420 0.1064130 0.0208890
0.6576530 0.1063968 0.0216334
0.6688357 0.1102950 0.0224266
0.6799655 0.1102852 0.0224259
0.6909111 0.1102588 0.0232233
0.7016528 0.1102323 0.0240485
0.7120720 0.1142723 0.0240728
0.7120821 0.1142550 0.0249285
0.7224246 0.1142275 0.0258223
0.7325308 0.1142173 0.0258214
0.7422932 0.1183676 0.0267937
0.7423028 0.1183492 0.0277740
0.7519436 0.1183387 0.0277729
0.7613537 0.1183097 0.0287870
0.7612377 0.1226204 0.0288170
0.7704070 0.1225904 0.0298684
0.0031670 0.0781361 0.0028190
0.0062970 0.0809538 0.0029620
0.0105104 0.0808392 0.0031867
0.0158800 0.0807506 0.0033457
0.0222601 0.0837167 0.0035204
0.0299823 0.0836431 0.0037208
0.0386977 0.0835770 0.0039327
0.0478701 0.0835083 0.0042739
0.0591533 0.0865881 0.0045222
0.0700374 0.0865343 0.0047953
0.0829031 0.0864791 0.0051011
0.0978640 0.0896650 0.0054320
0.1108070 0.0896163 0.0057784
0.1253155 0.0895677 0.0061468
0.1414550 0.0895190 0.0065431
0.1592992 0.0928274 0.0067623
0.1724026 0.0927849 0.0072081
0.1863604 0.0927554 0.0074417
0.2088521 0.0961591 0.0079402
0.2250240 0.0961288 0.0081974
0.2423103 0.0960850 0.0087372
0.2606113 0.0960546 0.0090223
0.2796937 0.0995899 0.0093310
0.2896397 0.0995528 0.0099598
0.3101432 0.0995213 0.0102895
0.3313223 0.1031716 0.0106412
0.3423978 0.1031480 0.0109935
0.3650829 0.1031154 0.0113571
0.3766830 0.1030918 0.0117329
0.4001825 0.1068439 0.0125349
0.4122060 0.1068190 0.0129642
0.4365772 0.1067851 0.0134077
0.4489083 0.1067602 0.0138666
0.4611896 0.1106718 0.0143561
0.4737013 0.1106462 0.0148471
0.4988169 0.1106269 0.0148463
0.5114123 0.1106013 0.0153538
0.5238463 0.1146376 0.0158951
0.5364172 0.1146110 0.0164380
0.5489521 0.1145845 0.0169992
0.5614350 0.1145580 0.0175792
0.5736955 0.1187208 0.0182166
0.5860153 0.1186927 0.0188667
0.5981992 0.1186824 0.0188661
0.6102837 0.1186541 0.0195389
0.6220930 0.1229472 0.0202566
0.6339146 0.1229181 0.0209782
0.6455734 0.1229074 0.0209775
0.6570803 0.1228782 0.0217243
0.6682720 0.1273044 0.0225208
0.6682828 0.1272854 0.0233223
0.6794220 0.1272743 0.0233215
0.6903775 0.1272441 0.0241502
0.7011294 0.1272139 0.0250077
0.7115588 0.1317948 0.0250329
0.7115692 0.1317750 0.0259314
0.7219229 0.1317431 0.0268798
0.7320402 0.1317315 0.0268787
0.7418138 0.1364315 0.0278900
0.7418239 0.1364106 0.0289094
0.7514762 0.1363986 0.0289083
0.7608982 0.1363656 0.0299629
0.7700675 0.1363535 0.0299617
0.7699633 0.1412068 0.0310873
0.0037447 0.0938798 0.0032035
0.0070497 0.0972245 0.0033662
0.0118272 0.0970978 0.0035375
0.0172094 0.0969977 0.0037385
0.0241688 0.1005011 0.0039553
0.0325603 0.1004139 0.0041803
0.0402606 0.1003447 0.0044184
0.0519799 0.1002662 0.0046699
0.0615336 0.1039095 0.0049730
0.0728702 0.1038442 0.0052900
0.0862148 0.1037790 0.0056271
0.0976616 0.1037233 0.0059859
0.1151698 0.1074787 0.0063740
0.1301708 0.1074352 0.0065782
0.1410966 0.1073865 0.0070120
0.1589903 0.1073282 0.0074740
0.1788330 0.1112402 0.0077241
0.1932006 0.1112053 0.0079743
0.2084614 0.1111552 0.0084995
0.2246110 0.1111204 0.0087747
0.2417619 0.1151488 0.0093714
0.2600349 0.1151124 0.0096818
0.2792141 0.1150761 0.0100023
0.2992717 0.1150399 0.0103333
0.3200423 0.1191932 0.0110406
0.3307919 0.1191663 0.0114060
0.3530995 0.1191288 0.0117831
0.3645262 0.1191018 0.0121728
0.3877061 0.1234007 0.0125883
0.3995934 0.1233722 0.0130194
0.4237341 0.1233331 0.0134648
0.4359720 0.1233048 0.0139256
0.4481439 0.1277460 0.0144172
0.4605771 0.1277167 0.0149102
0.4856285 0.1276764 0.0154195
0.4982108 0.1276471 0.0159463
0.5108060 0.1276177 0.0164909
0.5232404 0.1321932 0.0170719
0.5358010 0.1321818 0.0170714
0.5483381 0.1321516 0.0176539
0.5608243 0.1321207 0.0182747
0.5730886 0.1368342 0.0189467
0.5854130 0.1368020 0.0196224
0.5976139 0.1367699 0.0203218
0.6096921 0.1367581 0.0203211
0.6216572 0.1367261 0.0210450
0.6333364 0.1415795 0.0218170
0.6450143 0.1415464 0.0225932
0.6565186 0.1415341 0.0225925
0.6678599 0.1415010 0.0233957
0.6788779 0.1464980 0.0242523
0.6788779 0.1464980 0.0242523
0.6898431 0.1464638 0.0251134
0.7006055 0.1464294 0.0260137
0.7111765 0.1464167 0.0260128
0.7214104 0.1515590 0.0269922
0.7214205 0.1515362 0.0279796
0.7315491 0.1515228 0.0279785
0.7414567 0.1514868 0.0289999
0.7511182 0.1514735 0.0289988
0.7510086 0.1567555 0.0300890
0.7604424 0.1567184 0.0311856
0.7696236 0.1567047 0.0311843
0.7696326 0.1566812 0.0323210
0.0044699 0.1124704 0.0036563
0.0079079 0.1123110 0.0038632
0.0128282 0.1121851 0.0039703
0.0186770 0.1161831 0.0042002
0.0262529 0.1160737 0.0044389
0.0339006 0.1159983 0.0045630
0.0437313 0.1159076 0.0048381
0.0540854 0.1200586 0.0051518
0.0640401 0.1199845 0.0054801
0.0758513 0.1199100 0.0058293
0.0896963 0.1198358 0.0062007
0.1015015 0.1241482 0.0064018
0.1149307 0.1240816 0.0068214
0.1299096 0.1240150 0.0072709
0.1465470 0.1239654 0.0075062
0.1650095 0.1283892 0.0080091
0.1784859 0.1283492 0.0082684
0.1928383 0.1282921 0.0088129
0.2160177 0.1282411 0.0091001
0.2325347 0.1328259 0.0094115
0.2503241 0.1327843 0.0097231
0.2690388 0.1327246 0.0103780
0.2787338 0.1326948 0.0107216
0.2987704 0.1326534 0.0110763
0.3195116 0.1373737 0.0114547
0.3412983 0.1373311 0.0118334
0.3525407 0.1373004 0.0122247
0.3755329 0.1372578 0.0126286
0.3871353 0.1421090 0.0135229
0.4110163 0.1420646 0.0139853
0.4231453 0.1420323 0.0144637
0.4353670 0.1420201 0.0144633
0.4476900 0.1419878 0.0149579
0.4724596 0.1469886 0.0154851
0.4850116 0.1469552 0.0160141
0.4975929 0.1469221 0.0165611
0.5101879 0.1468888 0.0171264
0.5227801 0.1468556 0.0177108
0.5351969 0.1520126 0.0183529
0.5602136 0.1519644 0.0190071
0.5726243 0.1519514 0.0190066
0.5849521 0.1519161 0.0196843
0.5971567 0.1518810 0.0203859
0.6091010 0.1571627 0.0211341
0.6210607 0.1571492 0.0211334
0.6210723 0.1571263 0.0218864
0.6329061 0.1570901 0.0226650
0.6445897 0.1570539 0.0234708
0.6559576 0.1624963 0.0234944
0.6673076 0.1624589 0.0243291
0.6784738 0.1624215 0.0251929
0.6894356 0.1624076 0.0251920
0.6894464 0.1623839 0.0260961
0.7000836 0.1679528 0.0270784
0.7106650 0.1679384 0.0270774
0.7210380 0.1678991 0.0280667
0.7311749 0.1678845 0.0280657
0.7311851 0.1678597 0.0290914
0.7409793 0.1735809 0.0301837
0.7506523 0.1735659 0.0301825
0.7506620 0.1735404 0.0312837
0.7600953 0.1735255 0.0312824
0.7692946 0.1734849 0.0324213
0.7691908 0.1793754 0.0336365
0.0051541 0.1296828 0.0041033
0.0088947 0.1295086 0.0043356
0.0139048 0.1340376 0.0044606
0.0202951 0.1339034 0.0047138
0.0273290 0.1338048 0.0048608
0.0352960 0.1337000 0.0051702
0.0455420 0.1336127 0.0053316
0.0563037 0.1383096 0.0056772
0.0666556 0.1382255 0.0060389
0.0789423 0.1381590 0.0062278
0.0933024 0.1380744 0.0066290
0.1055927 0.1429283 0.0070734
0.1194953 0.1428718 0.0073023
0.1349885 0.1427964 0.0077833
0.1521743 0.1427402 0.0080351
0.1647685 0.1426773 0.0085643
0.1851880 0.1476874 0.0088507
0.1999596 0.1476222 0.0094425
0.2156161 0.1475768 0.0097551
0.2322207 0.1475314 0.0100781
0.2499932 0.1474857 0.0104116
0.2685613 0.1526503 0.0107674
0.2881497 0.1525828 0.0114920
0.3085909 0.1525361 0.0118719
0.3191258 0.1525025 0.0122645
0.3407594 0.1577912 0.0126831
0.3519935 0.1577557 0.0131174
0.3749700 0.1577067 0.0135661
0.3867023 0.1576715 0.0140303
0.4105737 0.1576226 0.0145099
0.4225469 0.1630596 0.0150218
0.4347753 0.1630233 0.0155353
0.4595101 0.1629731 0.0160656
0.4720148 0.1629367 0.0166143
0.4845655 0.1629003 0.0171814
0.4971342 0.1628865 0.0171809
0.5221535 0.1684577 0.0177852
0.5347287 0.1684196 0.0184106
0.5472698 0.1683811 0.0190675
0.5597610 0.1683426 0.0197474
0.5721744 0.1683284 0.0197468
0.5843526 0.1740640 0.0204719
0.5965624 0.1740245 0.0212010
0.6086624 0.1739851 0.0219557
0.6206270 0.1739703 0.0219549
0.6324663 0.1739308 0.0227360
0.6440111 0.1798196 0.0235687
0.6440224 0.1797941 0.0244069
0.6555409 0.1797788 0.0244060
0.6668972 0.1797382 0.0252725
0.6780705 0.1796973 0.0261784
0.6890398 0.1796820 0.0261775
0.6996846 0.1857248 0.0271628
0.6996953 0.1856979 0.0281563
0.7102845 0.1856820 0.0281552
0.7206657 0.1856393 0.0291830
0.7308110 0.1856235 0.0291819
0.7306962 0.1918394 0.0302787
0.7406235 0.1917957 0.0313820
0.7503053 0.1917793 0.0313808
0.7597567 0.1917354 0.0325232
0.7597567 0.1917354 0.0325232
0.7689650 0.1916913 0.0337060
0.7778088 0.1980769 0.0337394
0.0060013 0.1491315 0.0046048
0.0100035 0.1489624 0.0047322
0.0150886 0.1488020 0.0050326
0.0220504 0.1539171 0.0051946
0.0297018 0.1537862 0.0055249
0.0383371 0.1536878 0.0056973
0.0474244 0.1536023 0.0058753
0.0586415 0.1534971 0.0062493
0.0693961 0.1587891 0.0064516
0.0821531 0.1586929 0.0068742
0.0931084 0.1586105 0.0073270
0.1098866 0.1585350 0.0075639
0.1242898 0.1584525 0.0080619
0.1402380 0.1638872 0.0083315
0.1518711 0.1638378 0.0086012
0.1710539 0.1637529 0.0091694
0.1849247 0.1637029 0.0094730
0.1996731 0.1636532 0.0097867
0.2233663 0.1692108 0.0104565
0.2405543 0.1691595 0.0108024
0.2587648 0.1691082 0.0111597
0.2682165 0.1690714 0.0115290
0.2877797 0.1690202 0.0119101
0.3082054 0.1689691 0.0123036
0.3293121 0.1747105 0.0127235
0.3403530 0.1746719 0.0131592
0.3629740 0.1746184 0.0136093
0.3745449 0.1745798 0.0140750
0.3981312 0.1745265 0.0145561
0.4099830 0.1804332 0.0150696
