Plugins/FilmEmulator/Content/LUTs/FE_Fuji_CA_Super_C_64.cube
TITLE "FE_Fuji_CA_Super_C_33"
LUT_3D_SIZE 8
0.0000000 0.0470690 0.0707880
0.5101860 0.1327757 0.0795407
0.9087595 0.2499933 0.1047058
1.0000000 0.3909248 0.1670206
1.0000000 0.4944310 0.2377310
1.0000000 0.5475864 0.2901552
1.0000000 0.5841039 0.3370741
1.0000000 0.6121371 0.3763100
0.0449896 0.6218756 0.2618318
0.5406037 0.6573068 0.2355731
0.8541538 0.7031995 0.2252011
1.0000000 0.7563209 0.2877091
1.0000000 0.7871269 0.3479822
1.0000000 0.8011168 0.3918830
1.0000000 0.8089214 0.4267104
1.0000000 0.8140657 0.4567683
0.2403471 0.9372347 0.5380140
0.6323220 0.9408376 0.5227222
0.8569581 0.9495391 0.5150778
0.9678726 0.9607598 0.5187289
0.9951388 0.9674573 0.5162926
1.0000000 0.9691457 0.5385567
1.0000000 0.9693107 0.5648174
1.0000000 0.9700606 0.5878305
0.3916281 0.9913524 0.7022625
0.7098237 0.9879224 0.6905248
0.8860619 0.9893563 0.6852229
0.9671444 0.9930825 0.6865447
0.9848781 0.9955754 0.6819884
0.9893980 0.9971960 0.6716627
0.9909367 0.9985275 0.6588068
0.9924315 0.9983728 0.6667830
0.4798646 0.9967002 0.7968059
0.7589394 0.9926003 0.7857125
0.9102273 0.9930071 0.7811263
0.9736008 0.9954109 0.7808241
0.9868206 0.9969980 0.7768845
0.9904656 0.9981227 0.7686683
0.9917607 0.9989836 0.7587494
0.9922264 0.9999291 0.7471318
0.5481544 0.9960473 0.8678505
0.7937781 0.9921107 0.8591422
0.9285744 0.9923634 0.8531175
0.9794394 0.9942883 0.8519744
0.9894463 0.9955739 0.8459971
0.9924504 0.9965638 0.8367159
0.9936488 0.9973028 0.8284507
0.9941039 0.9980471 0.8186554
0.6048974 0.9947742 0.9203466
0.8240449 0.9912608 0.9120484
0.9433966 0.9916120 0.9062649
0.9833135 0.9932337 0.9036618
0.9915699 0.9942194 0.8986051
0.9942522 0.9948958 0.8922782
0.9954221 0.9954556 0.8854843
0.9959455 0.9959624 0.8783594
0.6547759 0.9940034 0.9517550
0.8494927 0.9909278 0.9460655
0.9543808 0.9913036 0.9427087
0.9861240 0.9926140 0.9413429
0.9930540 0.9933393 0.9377930
0.9954981 0.9937919 0.9331415
0.9965668 0.9941800 0.9275712
0.9971515 0.9945421 0.9216864
0.1735429 0.1307135 0.6900387
0.6947631 0.2357261 0.6617370
0.9954097 0.3625116 0.6440903
1.0000000 0.4871373 0.6359775
1.0000000 0.5531939 0.6279197
1.0000000 0.5907941 0.6169194
1.0000000 0.6171110 0.6022707
1.0000000 0.6370212 0.5867224
0.3029045 0.7018383 0.8027356
0.7085078 0.7331943 0.7826836
0.9365330 0.7723650 0.7718003
1.0000000 0.8093344 0.7646627
1.0000000 0.8239749 0.7529309
1.0000000 0.8315442 0.7419590
1.0000000 0.8353543 0.7279986
1.0000000 0.8364788 0.7123036
0.4775164 0.9443344 0.8932267
0.7715625 0.9475999 0.8825964
0.9306254 0.9541833 0.8757257
0.9896233 0.9616210 0.8715301
1.0000000 0.9649061 0.8653445
1.0000000 0.9665373 0.8578184
1.0000000 0.9675547 0.8479496
1.0000000 0.9676071 0.8385692
0.5815511 0.9812521 0.9430571
0.8205467 0.9796164 0.9359196
0.9445643 0.9818340 0.9326249
0.9864075 0.9846859 0.9298293
0.9951013 0.9859527 0.9254531
0.9982959 0.9866807 0.9197870
0.9997016 0.9872022 0.9122016
1.0000000 0.9874733 0.9056170
0.6429976 0.9881943 0.9635627
0.8494853 0.9859753 0.9589451
0.9568784 0.9873096 0.9566992
0.9874593 0.9890627 0.9555423
0.9943951 0.9898484 0.9536907
0.9970372 0.9902703 0.9513100
0.9982945 0.9905462 0.9476717
0.9990590 0.9907556 0.9445139
0.6886613 0.9906006 0.9742392
0.8735636 0.9884896 0.9710212
0.9643813 0.9895617 0.9694648
0.9887124 0.9908893 0.9687822
0.9943888 0.9914638 0.9680895
0.9966526 0.9917282 0.9666492
0.9978122 0.9919095 0.9649041
0.9985071 0.9920366 0.9629149
0.7276307 0.9916474 0.9798903
0.8932766 0.9898500 0.9772384
0.9711405 0.9908981 0.9761989
0.9897723 0.9919236 0.9760382
0.9945391 0.9923843 0.9756445
0.9964844 0.9926153 0.9747953
0.9975117 0.9927535 0.9740206
0.9981726 0.9928453 0.9727983
0.7602214 0.9921051 0.9830147
0.9099510 0.9906722 0.9807963
0.9759535 0.9917435 0.9802201
0.9905416 0.9926014 0.9801675
0.9946477 0.9929899 0.9799587
0.9963738 0.9931884 0.9796006
0.9973485 0.9932955 0.9791136
0.9979731 0.9933724 0.9783692
0.4168874 0.3327687 0.9797546
0.8037370 0.4159855 0.9613152
1.0000000 0.5242490 0.9458938
1.0000000 0.6093057 0.9363509
1.0000000 0.6506493 0.9300736
1.0000000 0.6755858 0.9243013
1.0000000 0.6945362 0.9184883
1.0000000 0.7104204 0.9124089
0.5199472 0.7856032 0.9721931
0.8145545 0.8136224 0.9629224
0.9728920 0.8443378 0.9568790
1.0000000 0.8658743 0.9544278
1.0000000 0.8741553 0.9519262
1.0000000 0.8767811 0.9491031
1.0000000 0.8787016 0.9460022
1.0000000 0.8797684 0.9426675
0.6505117 0.9584129 0.9766990
0.8594673 0.9612771 0.9722939
0.9654509 0.9678685 0.9704977
0.9929922 0.9719786 0.9700394
0.9998562 0.9735544 0.9691178
1.0000000 0.9743502 0.9682559
1.0000000 0.9743252 0.9667292
1.0000000 0.9745763 0.9655884
0.7184429 0.9823998 0.9816669
0.8911470 0.9824581 0.9787919
0.9716353 0.9850966 0.9778437
0.9906937 0.9868168 0.9777300
0.9958434 0.9875489 0.9774598
0.9979736 0.9879075 0.9769965
0.9991677 0.9879968 0.9761823
0.9999089 0.9881266 0.9755566
0.7600720 0.9877061 0.9840533
0.9114279 0.9872183 0.9818617
0.9766682 0.9890502 0.9812900
0.9911506 0.9901913 0.9812613
0.9952464 0.9906833 0.9811087
0.9970472 0.9909405 0.9808621
0.9980601 0.9911041 0.9806934
0.9987159 0.9912029 0.9802835
0.7934655 0.9897333 0.9855421
0.9269271 0.9893473 0.9836916
0.9805686 0.9908611 0.9833057
0.9916660 0.9917079 0.9834178
0.9952173 0.9921028 0.9833331
0.9967605 0.9923102 0.9832562
0.9976525 0.9924350 0.9830324
0.9982627 0.9924942 0.9827729
0.8198619 0.9907612 0.9866719
0.9400089 0.9905458 0.9850003
0.9834375 0.9918827 0.9848347
0.9921960 0.9925516 0.9849256
0.9952531 0.9928777 0.9848598
0.9966710 0.9930593 0.9848131
0.9974947 0.9931688 0.9846354
0.9980044 0.9932420 0.9845161
0.8424261 0.9913256 0.9873791
0.9510919 0.9913468 0.9860115
0.9854280 0.9925291 0.9859516
0.9927176 0.9930902 0.9859700
0.9953574 0.9933712 0.9859867
0.9966248 0.9935285 0.9859515
0.9974047 0.9936207 0.9858860
0.9978901 0.9936841 0.9857216
0.6096644 0.4753832 1.0000000
0.8979149 0.5520002 0.9968994
1.0000000 0.6315732 0.9872589
1.0000000 0.6862425 0.9824265
1.0000000 0.7160094 0.9801862
1.0000000 0.7369436 0.9783780
1.0000000 0.7524509 0.9767979
1.0000000 0.7657937 0.9756653
0.6834804 0.8377593 0.9877183
0.8970324 0.8627707 0.9817511
0.9931486 0.8875195 0.9787754
1.0000000 0.8978322 0.9777854
1.0000000 0.9030957 0.9773580
1.0000000 0.9056314 0.9768561
1.0000000 0.9072710 0.9763700
1.0000000 0.9073843 0.9760340
0.7706247 0.9665267 0.9852322
0.9221339 0.9707497 0.9826530
0.9820090 0.9758330 0.9819887
0.9948601 0.9777324 0.9818431
0.9990031 0.9787533 0.9818091
1.0000000 0.9792857 0.9816087
1.0000000 0.9796255 0.9814773
1.0000000 0.9798368 0.9812160
0.8151844 0.9836161 0.9866852
0.9404063 0.9850025 0.9848036
0.9836764 0.9872396 0.9845278
0.9931585 0.9883217 0.9845979
0.9963118 0.9888163 0.9846043
0.9978538 0.9890977 0.9845631
0.9987272 0.9892592 0.9843996
0.9993198 0.9893782 0.9842902
0.8432326 0.9876971 0.9874656
0.9517314 0.9885951 0.9860246
0.9859303 0.9902625 0.9859180
0.9932700 0.9909956 0.9859947
0.9958786 0.9913439 0.9860078
0.9972008 0.9915473 0.9859797
0.9980144 0.9916830 0.9859281
0.9985195 0.9917694 0.9858493
0.8660218 0.9895847 0.9880361
0.9608217 0.9903900 0.9868687
0.9875173 0.9916908 0.9868509
0.9935585 0.9922601 0.9869252
0.9957859 0.9925340 0.9869381
0.9969987 0.9927049 0.9869192
0.9977123 0.9928132 0.9868754
0.9981828 0.9928871 0.9868145
0.8852020 0.9905965 0.9884304
0.9680989 0.9914289 0.9874887
0.9888095 0.9924960 0.9875688
0.9938181 0.9929588 0.9876357
0.9958223 0.9931951 0.9876511
0.9969025 0.9933398 0.9876357
0.9975764 0.9934369 0.9876009
0.9980001 0.9934998 0.9875497
0.9030608 0.9912021 0.9887341
0.9733379 0.9921268 0.9880131
0.9897507 0.9930187 0.9880726
0.9941429 0.9934263 0.9881791
0.9959011 0.9936294 0.9881939
0.9968755 0.9937432 0.9881777
0.9974887 0.9938316 0.9881877
0.9979138 0.9938932 0.9881470
0.7577528 0.5803743 1.0000000
0.9700151 0.6502023 0.9971801
1.0000000 0.7061558 0.9911963
1.0000000 0.7331238 0.9888888
1.0000000 0.7547762 0.9873394
1.0000000 0.7710905 0.9862373
1.0000000 0.7843651 0.9853466
1.0000000 0.7953677 0.9845969
0.7973681 0.8758540 0.9891531
0.9526330 0.8983482 0.9848834
1.0000000 0.9137632 0.9833761
1.0000000 0.9191955 0.9829572
1.0000000 0.9223547 0.9827283
1.0000000 0.9240980 0.9825507
1.0000000 0.9252698 0.9823862
1.0000000 0.9251906 0.9822174
0.8535706 0.9724228 0.9873103
0.9593111 0.9769085 0.9857100
0.9889785 0.9799549 0.9854714
0.9960955 0.9813278 0.9854862
0.9988226 0.9819979 0.9854764
1.0000000 0.9823864 0.9854393
1.0000000 0.9826338 0.9853832
1.0000000 0.9828103 0.9853088
0.8829767 0.9848821 0.9881502
0.9683174 0.9870484 0.9870682
0.9892522 0.9886910 0.9870916
0.9946827 0.9894036 0.9871480
0.9968110 0.9896905 0.9871463
0.9979169 0.9899018 0.9871701
0.9986223 0.9900415 0.9871345
0.9991115 0.9901413 0.9870841
0.9024844 0.9882486 0.9886137
0.9739970 0.9898770 0.9878619
0.9902148 0.9910371 0.9878993
0.9945611 0.9915379 0.9879553
0.9963802 0.9918007 0.9880064
0.9973937 0.9919618 0.9879953
0.9980372 0.9920708 0.9879673
0.9984788 0.9921523 0.9879640
0.9199765 0.9899622 0.9889355
0.9783852 0.9913527 0.9884178
0.9909111 0.9922297 0.9884796
0.9947280 0.9926416 0.9885387
0.9962893 0.9928502 0.9885851
0.9972190 0.9929862 0.9885790
0.9977837 0.9930770 0.9885868
0.9981887 0.9931179 0.9885430
0.9351076 0.9909523 0.9891455
0.9818435 0.9922163 0.9888195
0.9915823 0.9929122 0.9888935
0.9948623 0.9932584 0.9889795
0.9963077 0.9934434 0.9890262
0.9971355 0.9935586 0.9890200
0.9976713 0.9936374 0.9889971
0.9980494 0.9936818 0.9889923
0.9456022 0.9916031 0.9893479
0.9843671 0.9927835 0.9891486
0.9922928 0.9933724 0.9892563
0.9950303 0.9936447 0.9893050
0.9963281 0.9938067 0.9893459
0.9971153 0.9939131 0.9893423
0.9976220 0.9939882 0.9893529
0.9979618 0.9940382 0.9893264
0.8634465 0.6613311 1.0000000
1.0000000 0.7238026 0.9948488
1.0000000 0.7571642 0.9915842
1.0000000 0.7708890 0.9904339
1.0000000 0.7840293 0.9894848
1.0000000 0.7971902 0.9887086
1.0000000 0.8080349 0.9880232
1.0000000 0.8180481 0.9874106
0.8821506 0.9078910 0.9886361
0.9801136 0.9252030 0.9860128
1.0000000 0.9336340 0.9853654
1.0000000 0.9363136 0.9852043
1.0000000 0.9382354 0.9850763
1.0000000 0.9394650 0.9850171
1.0000000 0.9402843 0.9849132
1.0000000 0.9399023 0.9848074
0.9158065 0.9770564 0.9880611
0.9787920 0.9810618 0.9872407
0.9926264 0.9830056 0.9872540
0.9968807 0.9838697 0.9872801
0.9987707 0.9841444 0.9872884
0.9998735 0.9844410 0.9872668
1.0000000 0.9846399 0.9872679
1.0000000 0.9847788 0.9872243
0.9342954 0.9864118 0.9887595
0.9822524 0.9885910 0.9883541
0.9922467 0.9896137 0.9884070
0.9955926 0.9901007 0.9884779
0.9971591 0.9903082 0.9884779
0.9980490 0.9904808 0.9884992
0.9986280 0.9905964 0.9884784
0.9990128 0.9906793 0.9884773
0.9472940 0.9892493 0.9891371
0.9845255 0.9908398 0.9888915
0.9926204 0.9915902 0.9889856
0.9954315 0.9919510 0.9890565
0.9967762 0.9921519 0.9890733
0.9975930 0.9922888 0.9890984
0.9981322 0.9923496 0.9890794
0.9984838 0.9924154 0.9890822
0.9570217 0.9907554 0.9893962
0.9863335 0.9920335 0.9892943
0.9930538 0.9926289 0.9893718
0.9954540 0.9929171 0.9894387
0.9966838 0.9930897 0.9894804
0.9974102 0.9931998 0.9894833
0.9978887 0.9932579 0.9894893
0.9982209 0.9933147 0.9894920
0.9648759 0.9916505 0.9896002
0.9878705 0.9927248 0.9895792
0.9934754 0.9932195 0.9896582
0.9955500 0.9934611 0.9897203
0.9966552 0.9936097 0.9897578
0.9973367 0.9937102 0.9897804
0.9977854 0.9937783 0.9897717
0.9981030 0.9938300 0.9897763
0.9705668 0.9922506 0.9897841
0.9890877 0.9931800 0.9897931
0.9937871 0.9935995 0.9898851
0.9956784 0.9938162 0.9899437
0.9966988 0.9939504 0.9899803
0.9973154 0.9940389 0.9900016
0.9977416 0.9941018 0.9899957
0.9980289 0.9941471 0.9900000
0.9451480 0.7309731 0.9980235
1.0000000 0.7755711 0.9930055
1.0000000 0.7946085 0.9913066
1.0000000 0.8031776 0.9906092
1.0000000 0.8084940 0.9902011
1.0000000 0.8183674 0.9895905
1.0000000 0.8280015 0.9890782
1.0000000 0.8370323 0.9886223
0.9412116 0.9330046 0.9879609
0.9920079 0.9440012 0.9867366
1.0000000 0.9475338 0.9865150
1.0000000 0.9497385 0.9864456
1.0000000 0.9509746 0.9863803
1.0000000 0.9518211 0.9863521
1.0000000 0.9515683 0.9863145
1.0000000 0.9519942 0.9862546
0.9554421 0.9809938 0.9884756
0.9872662 0.9838406 0.9882106
0.9945733 0.9850186 0.9882655
0.9973255 0.9855980 0.9883137
0.9987948 0.9858043 0.9883268
0.9996405 0.9860265 0.9883198
1.0000000 0.9861841 0.9883268
1.0000000 0.9862998 0.9883271
0.9651156 0.9880078 0.9891449
0.9883628 0.9896123 0.9890849
0.9940501 0.9903018 0.9891660
0.9962561 0.9905940 0.9892120
0.9974340 0.9908056 0.9892471
0.9981669 0.9909464 0.9892489
0.9986463 0.9910460 0.9892601
0.9989710 0.9911160 0.9892634
0.9712799 0.9903200 0.9895282
0.9895105 0.9915025 0.9895421
0.9942020 0.9919852 0.9896206
0.9960690 0.9922442 0.9896740
0.9971294 0.9924096 0.9896922
0.9977695 0.9925196 0.9897127
0.9981911 0.9925959 0.9897224
0.9985094 0.9926558 0.9897271
0.9767404 0.9916112 0.9897916
0.9903347 0.9925007 0.9898465
0.9943599 0.9929184 0.9899294
0.9960521 0.9931166 0.9899763
0.9969995 0.9932554 0.9900091
0.9975985 0.9933506 0.9900294
0.9979929 0.9934166 0.9900399
0.9982775 0.9934639 0.9900275
0.9800168 0.9923394 0.9899956
0.9912168 0.9930922 0.9900714
0.9946325 0.9934424 0.9901505
0.9961128 0.9936278 0.9901984
0.9969593 0.9937466 0.9902288
0.9975027 0.9938289 0.9902476
0.9978829 0.9938895 0.9902589
0.9981697 0.9939369 0.9902654
0.9829658 0.9928607 0.9901698
0.9918532 0.9934844 0.9902546
0.9948232 0.9937872 0.9903290
0.9961601 0.9939511 0.9903738
0.9969615 0.9940606 0.9904029
0.9974787 0.9941366 0.9904209
0.9978401 0.9941925 0.9904314
0.9981030 0.9942346 0.9904365
0.9904139 0.7845896 0.9944950
1.0000000 0.8131500 0.9917080
1.0000000 0.8248265 0.9907368
1.0000000 0.8301834 0.9903129
1.0000000 0.8338022 0.9900448
1.0000000 0.8372349 0.9898123
1.0000000 0.8460738 0.9893707
1.0000000 0.8546340 0.9889695
0.9731821 0.9512035 0.9877933
0.9963218 0.9562269 0.9873687
1.0000000 0.9588268 0.9872894
1.0000000 0.9601318 0.9872659
1.0000000 0.9609800 0.9872529
1.0000000 0.9615386 0.9872410
1.0000000 0.9612131 0.9871875
1.0000000 0.9615248 0.9871733
0.9768693 0.9840778 0.9888937
0.9914314 0.9857887 0.9888836
0.9958141 0.9864169 0.9889241
0.9977301 0.9868302 0.9889650
0.9988145 0.9870932 0.9889917
0.9994731 0.9872653 0.9890064
0.9999543 0.9873980 0.9890156
1.0000000 0.9874905 0.9890171
0.9805146 0.9892767 0.9895547
0.9916254 0.9903105 0.9896072
0.9952081 0.9907979 0.9896778
0.9967808 0.9910565 0.9897214
0.9976783 0.9912212 0.9897489
0.9982578 0.9913355 0.9897656
0.9986634 0.9914195 0.9897753
0.9989553 0.9914820 0.9897793
0.9834436 0.9911935 0.9899224
0.9921185 0.9919443 0.9899947
0.9951581 0.9923158 0.9900640
0.9965342 0.9925168 0.9901062
0.9973634 0.9926513 0.9901345
0.9978988 0.9927444 0.9901520
0.9982731 0.9928129 0.9901624
0.9985405 0.9928342 0.9901600
0.9854624 0.9922225 0.9901685
0.9926446 0.9928286 0.9902503
0.9952444 0.9931300 0.9903163
0.9964983 0.9933032 0.9903718
0.9972391 0.9934152 0.9903980
0.9977415 0.9934965 0.9904150
0.9980755 0.9935529 0.9904236
0.9983348 0.9935983 0.9904285
0.9870976 0.9928614 0.9903700
0.9931104 0.9933547 0.9904506
0.9953660 0.9936098 0.9905117
0.9965011 0.9937594 0.9905503
0.9971983 0.9938605 0.9905758
0.9976546 0.9939311 0.9905915
0.9979925 0.9939858 0.9906019
0.9982249 0.9940245 0.9906061
0.9884550 0.9932740 0.9905166
0.9935539 0.9937131 0.9906011
0.9955106 0.9939324 0.9906579
0.9965627 0.9940684 0.9906956
0.9971927 0.9941575 0.9907187
0.9976269 0.9942228 0.9907337
0.9979354 0.9942711 0.9907424
0.9981607 0.9943075 0.9907465
