Plugins/FilmEmulator/Content/LUTs/FE_Fuji_Superia_XTra_400_64.cube
TITLE "FE_Fuji_Superia_XTra_400_33"
LUT_3D_SIZE 64
0.0005767 0.0007424 0.0007809
0.0019323 0.0007397 0.0007802
0.0044823 0.0008025 0.0007935
0.0084901 0.0008891 0.0008321
0.0143020 0.0010122 0.0008728
0.0212684 0.0011536 0.0009160
0.0290107 0.0013302 0.0009630
0.0377965 0.0015251 0.0010201
0.0491403 0.0017811 0.0010870
0.0586455 0.0020678 0.0011802
0.0732902 0.0023489 0.0012609
0.0874062 0.0026852 0.0013712
0.0996842 0.0030117 0.0014705
0.1134991 0.0033779 0.0015771
0.1289888 0.0037882 0.0017086
0.1459402 0.0042772 0.0018753
0.1647373 0.0048332 0.0020582
0.1783440 0.0052432 0.0021900
0.1926766 0.0059268 0.0024373
0.2153774 0.0064471 0.0026301
0.2313823 0.0070131 0.0028380
0.2482278 0.0076283 0.0030622
0.2659052 0.0082972 0.0033041
0.2748360 0.0090245 0.0035837
0.2938771 0.0094159 0.0037345
0.3134317 0.0102505 0.0040549
0.3235015 0.0106936 0.0043973
0.3440996 0.0116419 0.0045877
0.3546723 0.0121447 0.0049749
0.3762069 0.0132202 0.0051940
0.3871922 0.0137919 0.0054240
0.3984613 0.0150173 0.0059151
0.4221549 0.0156690 0.0061770
0.4340238 0.0163496 0.0064505
0.4459789 0.0170594 0.0067360
0.4577309 0.0185727 0.0073452
0.4822270 0.0193760 0.0076701
0.4943902 0.0202150 0.0080092
0.5065706 0.0210897 0.0083734
0.5186933 0.0220026 0.0087540
0.5307731 0.0229563 0.0091519
0.5428267 0.0239507 0.0095676
0.5548391 0.0249872 0.0100022
0.5667967 0.0260677 0.0104563
0.5786858 0.0271938 0.0109309
0.5904925 0.0283674 0.0114269
0.5902204 0.0295936 0.0119452
0.6022039 0.0295905 0.0119451
0.6138074 0.0308650 0.0124866
0.6252908 0.0321929 0.0130566
0.6366439 0.0335764 0.0136544
0.6478574 0.0350167 0.0142793
0.6476004 0.0365212 0.0149327
0.6589174 0.0365171 0.0149325
0.6698132 0.0380796 0.0156152
0.6805364 0.0397069 0.0163288
0.6802910 0.0414060 0.0170748
0.6910782 0.0414012 0.0170745
0.7014301 0.0431652 0.0178538
0.7115860 0.0450014 0.0186682
0.7115860 0.0450014 0.0186682
0.7215387 0.0469126 0.0195192
0.7312827 0.0489016 0.0204115
0.7312827 0.0489016 0.0204115
0.0005789 0.0023063 0.0008125
0.0021931 0.0025280 0.0008378
0.0048378 0.0029219 0.0008697
0.0089537 0.0032726 0.0009108
0.0144593 0.0036668 0.0009591
0.0215226 0.0041272 0.0010087
0.0293714 0.0046620 0.0010738
0.0382848 0.0052667 0.0011385
0.0498641 0.0057107 0.0012338
0.0597004 0.0062054 0.0013164
0.0713957 0.0067488 0.0014390
0.0852775 0.0073399 0.0015419
0.1017810 0.0079826 0.0016521
0.1159420 0.0086816 0.0018022
0.1317190 0.0094461 0.0019759
0.1492471 0.0098530 0.0021637
0.1617841 0.0107272 0.0023025
0.1823731 0.0116768 0.0024847
0.1970874 0.0121805 0.0026779
0.2122628 0.0127058 0.0028861
0.2280934 0.0138300 0.0031143
0.2449818 0.0144282 0.0033563
0.2627271 0.0150532 0.0036362
0.2810553 0.0163908 0.0039483
0.2904789 0.0171030 0.0041143
0.3101525 0.0178420 0.0044619
0.3305540 0.0186147 0.0046494
0.3409137 0.0194196 0.0050419
0.3623312 0.0202594 0.0052576
0.3728809 0.0220541 0.0057336
0.3838232 0.0230108 0.0059876
0.4072089 0.0240058 0.0062528
0.4189484 0.0250453 0.0065296
0.4308136 0.0261256 0.0071116
0.4430441 0.0261198 0.0074172
0.4674063 0.0272460 0.0077453
0.4795289 0.0284225 0.0080878
0.4916861 0.0296484 0.0084556
0.5038632 0.0309258 0.0088399
0.5159860 0.0322568 0.0092417
0.5280700 0.0336435 0.0096616
0.5404329 0.0336356 0.0100880
0.5524549 0.0350790 0.0105461
0.5644247 0.0365826 0.0110247
0.5763283 0.0381484 0.0115249
0.5881527 0.0397791 0.0120475
0.6001773 0.0397695 0.0125784
0.5999077 0.0414716 0.0131526
0.6115107 0.0432445 0.0131685
0.6233063 0.0432340 0.0137547
0.6346833 0.0450736 0.0143841
0.6459222 0.0469882 0.0150421
0.6572855 0.0469766 0.0157106
0.6570095 0.0489808 0.0157297
0.6679347 0.0510541 0.0164485
0.6789557 0.0510414 0.0171788
0.6895027 0.0532140 0.0171994
0.6892594 0.0554791 0.0179849
0.6999028 0.0554652 0.0187823
0.7100867 0.0578143 0.0196386
0.7100867 0.0578143 0.0196386
0.7200685 0.0602575 0.0205365
0.7298231 0.0628061 0.0205611
0.7298427 0.0627981 0.0214817
0.0007364 0.0068509 0.0009103
0.0024452 0.0074272 0.0009372
0.0052686 0.0080630 0.0009621
0.0095321 0.0083950 0.0009951
0.0154342 0.0091210 0.0010420
0.0220059 0.0099230 0.0011081
0.0300889 0.0103448 0.0011789
0.0392601 0.0112560 0.0012776
0.0489087 0.0122488 0.0013692
0.0613553 0.0127709 0.0014982
0.0734270 0.0133178 0.0016034
0.0877280 0.0144947 0.0017224
0.1002266 0.0151196 0.0018862
0.1143106 0.0157712 0.0020655
0.1298840 0.0171710 0.0021981
0.1472061 0.0179097 0.0024239
0.1664339 0.0186809 0.0026125
0.1803139 0.0194871 0.0028157
0.1948969 0.0203276 0.0030346
0.2099430 0.0212038 0.0032705
0.2258513 0.0221180 0.0035321
0.2426073 0.0230755 0.0036808
0.2602356 0.0240708 0.0039918
0.2786895 0.0251082 0.0043291
0.2978605 0.0261924 0.0045111
0.3076387 0.0273219 0.0048921
0.3279480 0.0284994 0.0050976
0.3382658 0.0297257 0.0055443
0.3596029 0.0310039 0.0057900
0.3703744 0.0323389 0.0060464
0.3933257 0.0323240 0.0065776
0.4049266 0.0337141 0.0068687
0.4166451 0.0351614 0.0071727
0.4284682 0.0366690 0.0074900
0.4526554 0.0382348 0.0078214
0.4650185 0.0382258 0.0081572
0.4771337 0.0398601 0.0085282
0.4892853 0.0415618 0.0089159
0.5017631 0.0415517 0.0093097
0.5138864 0.0433230 0.0097326
0.5259732 0.0451668 0.0101746
0.5380390 0.0470859 0.0106366
0.5503711 0.0470744 0.0111057
0.5623506 0.0490710 0.0116096
0.5742669 0.0511486 0.0121361
0.5864018 0.0511360 0.0126708
0.5981470 0.0533062 0.0132491
0.6100805 0.0532930 0.0138389
0.6097879 0.0555688 0.0138558
0.6213129 0.0579225 0.0144900
0.6329976 0.0579081 0.0151344
0.6442565 0.0603556 0.0158263
0.6556214 0.0603482 0.0158261
0.6553656 0.0629006 0.0165496
0.6665877 0.0628850 0.0172843
0.6773615 0.0655303 0.0180733
0.6879354 0.0682887 0.0180950
0.6879566 0.0682801 0.0188977
0.6983643 0.0711379 0.0197591
0.7088126 0.0711289 0.0197587
0.7085777 0.0741071 0.0206625
0.7188402 0.0740884 0.0215871
0.7286208 0.0771816 0.0216129
0.7286404 0.0771719 0.0225798
0.0009304 0.0135166 0.0010168
0.0027884 0.0140553 0.0010455
0.0058760 0.0152751 0.0010790
0.0102287 0.0159148 0.0011124
0.0158868 0.0165869 0.0011470
0.0226884 0.0172902 0.0012152
0.0309821 0.0188115 0.0013169
0.0404684 0.0196123 0.0014189
0.0505134 0.0204498 0.0015185
0.0633807 0.0213208 0.0016615
0.0758245 0.0222332 0.0017964
0.0867279 0.0231884 0.0019672
0.1035873 0.0241827 0.0020909
0.1180886 0.0252201 0.0022897
0.1341452 0.0263030 0.0024507
0.1457558 0.0274343 0.0026413
0.1648267 0.0286096 0.0028468
0.1785982 0.0298378 0.0030682
0.2007058 0.0298207 0.0033027
0.2160898 0.0310996 0.0035669
0.2323381 0.0324317 0.0038684
0.2494483 0.0338191 0.0041953
0.2582097 0.0352716 0.0043717
0.2765702 0.0367760 0.0047409
0.2959006 0.0367633 0.0049341
0.3157873 0.0383292 0.0053547
0.3258785 0.0399686 0.0055920
0.3468221 0.0416709 0.0058398
0.3577113 0.0416559 0.0063528
0.3684572 0.0434322 0.0066341
0.3910512 0.0452759 0.0069278
0.4029177 0.0452650 0.0072255
0.4146165 0.0471887 0.0075452
0.4386207 0.0491788 0.0082173
0.4509051 0.0491667 0.0085804
0.4629591 0.0512485 0.0089705
0.4750649 0.0534238 0.0093782
0.4875145 0.0534107 0.0097923
0.4996846 0.0556780 0.0102372
0.5121109 0.0556643 0.0106889
0.5241978 0.0580225 0.0111741
0.5362417 0.0604827 0.0111877
0.5485799 0.0604678 0.0116810
0.5605659 0.0630179 0.0122108
0.5727909 0.0630024 0.0127488
0.5846387 0.0656529 0.0133307
0.5966932 0.0656366 0.0139241
0.6083478 0.0683911 0.0145614
0.6201545 0.0683826 0.0145612
0.6198878 0.0712536 0.0152275
0.6315894 0.0712358 0.0159042
0.6428663 0.0742093 0.0166310
0.6542510 0.0742001 0.0166307
0.6652157 0.0772884 0.0173902
0.6652375 0.0772787 0.0181621
0.6760111 0.0805008 0.0181840
0.6868948 0.0804806 0.0189902
0.6866490 0.0838367 0.0198564
0.6973413 0.0838157 0.0207388
0.7075527 0.0872993 0.0207638
0.7178365 0.0872773 0.0216928
0.7175847 0.0909039 0.0217194
0.7276567 0.0908810 0.0226904
0.7274299 0.0946321 0.0237335
0.0011688 0.0225540 0.0011362
0.0031150 0.0234644 0.0011709
0.0063121 0.0244306 0.0012280
0.0110248 0.0254489 0.0012681
0.0171545 0.0265171 0.0013302
0.0245485 0.0264852 0.0013722
0.0320841 0.0276095 0.0014652
0.0418952 0.0287804 0.0015680
0.0523675 0.0300036 0.0016780
0.0627714 0.0312806 0.0018142
0.0751054 0.0326094 0.0019867
0.0898635 0.0339929 0.0021755
0.1027382 0.0339729 0.0023094
0.1171375 0.0354154 0.0025645
0.1330840 0.0369208 0.0027640
0.1507598 0.0384883 0.0029789
0.1635643 0.0401253 0.0032106
0.1846871 0.0401011 0.0034560
0.1992301 0.0418041 0.0037442
0.2145158 0.0435818 0.0039017
0.2308891 0.0435610 0.0042262
0.2479247 0.0454051 0.0045833
0.2657960 0.0473297 0.0047759
0.2846993 0.0473074 0.0051729
0.2941976 0.0493149 0.0053941
0.3139999 0.0513976 0.0056332
0.3243420 0.0513789 0.0061282
0.3452338 0.0535539 0.0063997
0.3558002 0.0558280 0.0066830
0.3779264 0.0558080 0.0069704
0.3893714 0.0581654 0.0075916
0.4012190 0.0581512 0.0079177
0.4249628 0.0606021 0.0082679
0.4368514 0.0631581 0.0086439
0.4491242 0.0631424 0.0090258
0.4611671 0.0657991 0.0094361
0.4735694 0.0657827 0.0098527
0.4857098 0.0685436 0.0103003
0.4981825 0.0685265 0.0107548
0.5103031 0.0713950 0.0112430
0.5226964 0.0713774 0.0117387
0.5347676 0.0743570 0.0122712
0.5470868 0.0743478 0.0122710
0.5590795 0.0774425 0.0128274
0.5713133 0.0774233 0.0133964
0.5831706 0.0806414 0.0140099
0.5952374 0.0806213 0.0146331
0.6069038 0.0839727 0.0153026
0.6187258 0.0839623 0.0153024
0.6301528 0.0874411 0.0160021
0.6301759 0.0874302 0.0167131
0.6414691 0.0910404 0.0174765
0.6528736 0.0910289 0.0174761
0.6641338 0.0910063 0.0182514
0.6638791 0.0947624 0.0190844
0.6749454 0.0947506 0.0190840
0.6855804 0.0986344 0.0199539
0.6962925 0.0986098 0.0208407
0.6960299 0.1026616 0.0208662
0.7065444 0.1026361 0.0217998
0.7168489 0.1026104 0.0227743
0.7165965 0.1068096 0.0228022
0.7266898 0.1067830 0.0238207
0.7363000 0.1111203 0.0238492
0.0014286 0.0330546 0.0012994
0.0035054 0.0343840 0.0013625
0.0070948 0.0343050 0.0014113
0.0119233 0.0357248 0.0014767
0.0177773 0.0372153 0.0015454
0.0254239 0.0387710 0.0016173
0.0332621 0.0387362 0.0016535
0.0434183 0.0403646 0.0017306
0.0543479 0.0420594 0.0018854
0.0651951 0.0420246 0.0020621
0.0779846 0.0437957 0.0021916
0.0892125 0.0456405 0.0023999
0.1065085 0.0475556 0.0025866
0.1214914 0.0475257 0.0027844
0.1378463 0.0495240 0.0030009
0.1497277 0.0516095 0.0032343
0.1693915 0.0515778 0.0034815
0.1834691 0.0537544 0.0037718
0.1981260 0.0537283 0.0040856
0.2133465 0.0560031 0.0042574
0.2294431 0.0583623 0.0046171
0.2466084 0.0583411 0.0048053
0.2644314 0.0607936 0.0052111
0.2832555 0.0607716 0.0054274
0.2927422 0.0633275 0.0059117
0.3127445 0.0633044 0.0061660
0.3332372 0.0659604 0.0064392
0.3436188 0.0687292 0.0067243
0.3654173 0.0686960 0.0073148
0.3762640 0.0715720 0.0076385
0.3879541 0.0715545 0.0079666
0.4114293 0.0745323 0.0083190
0.4235027 0.0745137 0.0086866
0.4353800 0.0776153 0.0090816
0.4476431 0.0775960 0.0094827
0.4596777 0.0808213 0.0099136
0.4720736 0.0808013 0.0103512
0.4966545 0.0841496 0.0108212
0.5090798 0.0841289 0.0112985
0.5211675 0.0876146 0.0118112
0.5335460 0.0875930 0.0123317
0.5458932 0.0875714 0.0128750
0.5578899 0.0911874 0.0134627
0.5578899 0.0911874 0.0134627
0.5698285 0.0949388 0.0140793
0.5819949 0.0949154 0.0147056
0.5937734 0.0988059 0.0153784
0.6057481 0.0987815 0.0160617
0.6175824 0.0987691 0.0160615
0.6290224 0.1028017 0.0167955
0.6290452 0.1027892 0.0175413
0.6403301 0.1069819 0.0175625
0.6517724 0.1069555 0.0183416
0.6627723 0.1112861 0.0191782
0.6738782 0.1112586 0.0200279
0.6738782 0.1112586 0.0200279
0.6845312 0.1157435 0.0209435
0.6952413 0.1157290 0.0209430
0.6952626 0.1157149 0.0218805
0.7055340 0.1203576 0.0228865
0.7158388 0.1203426 0.0228860
0.7156059 0.1251738 0.0239381
0.7257202 0.1251431 0.0250063
0.7355937 0.1251274 0.0250057
0.0016916 0.0443648 0.0015213
0.0038843 0.0461401 0.0015914
0.0076561 0.0460377 0.0016629
0.0129316 0.0479255 0.0017019
0.0192848 0.0499029 0.0017855
0.0264189 0.0498459 0.0018952
0.0345240 0.0519223 0.0019548
0.0450522 0.0540861 0.0020775
0.0540035 0.0540511 0.0021404
0.0677019 0.0563108 0.0022749
0.0774957 0.0562774 0.0024148
0.0927270 0.0586246 0.0027003
0.1058615 0.0610796 0.0029103
0.1207643 0.0610412 0.0031328
0.1370340 0.0635923 0.0033764
0.1553055 0.0635528 0.0036420
0.1684155 0.0662180 0.0037952
0.1826058 0.0661852 0.0041109
0.2045809 0.0689380 0.0044583
0.2203773 0.0689127 0.0046400
0.2368566 0.0717808 0.0050319
0.2544066 0.0717546 0.0052369
0.2633021 0.0747415 0.0056959
0.2820750 0.0747140 0.0059410
0.3013871 0.0778147 0.0062042
0.3114914 0.0777865 0.0067492
0.3319392 0.0810102 0.0070480
0.3425719 0.0809907 0.0073509
0.3640360 0.0843475 0.0076763
0.3751484 0.0843272 0.0080060
0.3865359 0.0878212 0.0083602
0.4102741 0.0877884 0.0087296
0.4220392 0.0914130 0.0091266
0.4342037 0.0913904 0.0095297
0.4461569 0.0951500 0.0099628
0.4708531 0.0951146 0.0104024
0.4832902 0.0950912 0.0108614
0.4954522 0.0989886 0.0113545
0.5078766 0.0989643 0.0118551
0.5199652 0.1030047 0.0123929
0.5323460 0.1029795 0.0129388
0.5443920 0.1071667 0.0135295
0.5566990 0.1071403 0.0141316
0.5689221 0.1071270 0.0141314
0.5807943 0.1114641 0.0147782
0.5808182 0.1114506 0.0154355
0.5926058 0.1159429 0.0161412
0.6045678 0.1159285 0.0161410
0.6164374 0.1159001 0.0168578
0.6278902 0.1205500 0.0176277
0.6394972 0.1205205 0.0184097
0.6394972 0.1205205 0.0184097
0.6506693 0.1253429 0.0192494
0.6619626 0.1253124 0.0201022
0.6727862 0.1303167 0.0201265
0.6728081 0.1303012 0.0210212
0.6837472 0.1302694 0.0219616
0.6942080 0.1354440 0.0219881
0.6942291 0.1354279 0.0229714
0.7047786 0.1353949 0.0239974
0.7148449 0.1407440 0.0240262
0.7249756 0.1407098 0.0250983
0.7249756 0.1407098 0.0250983
0.7346423 0.1462196 0.0262493
0.0020206 0.0569637 0.0017509
0.0044703 0.0592375 0.0018505
0.0083002 0.0591207 0.0019059
0.0134336 0.0615334 0.0020251
0.0200426 0.0640602 0.0020886
0.0274510 0.0639878 0.0022168
0.0358703 0.0666359 0.0022866
0.0448126 0.0665848 0.0023557
0.0561691 0.0693346 0.0025212
0.0673509 0.0692885 0.0026157
0.0805822 0.0721585 0.0027172
0.0964608 0.0721028 0.0029248
0.1100681 0.0750839 0.0031523
0.1253957 0.0750371 0.0033931
0.1363551 0.0781415 0.0036646
0.1545518 0.0780922 0.0039695
0.1745618 0.0813070 0.0043050
0.1889469 0.0812765 0.0044804
0.2036395 0.0846350 0.0048590
0.2193816 0.0846041 0.0050569
0.2358066 0.0880886 0.0054880
0.2533038 0.0880561 0.0057242
0.2714155 0.0916804 0.0059779
0.2808941 0.0916474 0.0065031
0.3004096 0.0916139 0.0067827
0.3204483 0.0953713 0.0070831
0.3308855 0.0953484 0.0073875
0.3519890 0.0992445 0.0077144
0.3629546 0.0992091 0.0083913
0.3737684 0.1032593 0.0087730
0.3972072 0.1032209 0.0091606
0.4091410 0.1031955 0.0095652
0.4208960 0.1073909 0.0099999
0.4330512 0.1073645 0.0104413
0.4572953 0.1116968 0.0109154
0.4696811 0.1116695 0.0113968
0.4820904 0.1116555 0.0113967
0.4942499 0.1161555 0.0119139
0.5066735 0.1161272 0.0124390
0.5187625 0.1207858 0.0130029
0.5311458 0.1207564 0.0135798
0.5435007 0.1207269 0.0141841
0.5555066 0.1255571 0.0148334
0.5677363 0.1255415 0.0148332
0.5799167 0.1255111 0.0154926
0.5917106 0.1305072 0.0162010
0.5917344 0.1304917 0.0169208
0.6034083 0.1356745 0.0169414
0.6152895 0.1356418 0.0176933
0.6270444 0.1356090 0.0184781
0.6383531 0.1409657 0.0185005
0.6498227 0.1409318 0.0193206
0.6498449 0.1409153 0.0201768
0.6608726 0.1464325 0.0210993
0.6719870 0.1464145 0.0210988
0.6829404 0.1463791 0.0220426
0.6826713 0.1521127 0.0220697
0.6934365 0.1520762 0.0230560
0.7040012 0.1520396 0.0240857
0.7037417 0.1579580 0.0241152
0.7141031 0.1579202 0.0251913
0.7242299 0.1579008 0.0251906
0.7242498 0.1578823 0.0263143
0.7339322 0.1639492 0.0275198
0.0023025 0.0729947 0.0020995
0.0049730 0.0728193 0.0021619
0.0089984 0.0757339 0.0022294
0.0146066 0.0756106 0.0023658
0.0208533 0.0786844 0.0024401
0.0285531 0.0786016 0.0025313
0.0373080 0.0818126 0.0026293
0.0465986 0.0817405 0.0028300
0.0584801 0.0850902 0.0029397
0.0700930 0.0850342 0.0030498
0.0838772 0.0885197 0.0031681
0.0959686 0.0884736 0.0032869
0.1096288 0.0884186 0.0035380
0.1247744 0.0920328 0.0038331
0.1416417 0.0919854 0.0039893
0.1537981 0.0957451 0.0043265
0.1738870 0.0956962 0.0045028
0.1880587 0.0995938 0.0048832
0.2028777 0.0995575 0.0050821
0.2185910 0.0995100 0.0055085
0.2349582 0.1035590 0.0057527
0.2524289 0.1035090 0.0062582
0.2704995 0.1077035 0.0065355
0.2895657 0.1076644 0.0068165
0.2991606 0.1120227 0.0071183
0.3194349 0.1119692 0.0077432
0.3298543 0.1119426 0.0080758
0.3509246 0.1164401 0.0084331
0.3618537 0.1164121 0.0088057
0.3845628 0.1163695 0.0091947
0.3960639 0.1210368 0.0096127
0.4079858 0.1210073 0.0100372
0.4197295 0.1258477 0.0104932
0.4440905 0.1258015 0.0109561
0.4564081 0.1257710 0.0114393
0.4684841 0.1307766 0.0119584
0.4809135 0.1307450 0.0124854
0.4933531 0.1307288 0.0124853
0.5054685 0.1359042 0.0130514
0.5178651 0.1358716 0.0136304
0.5302497 0.1358388 0.0142370
0.5423010 0.1411871 0.0148886
0.5546167 0.1411533 0.0155506
0.5668510 0.1411360 0.0155503
0.5787360 0.1466610 0.0162613
0.5908379 0.1466259 0.0169835
0.6028392 0.1465909 0.0177372
0.6025430 0.1523316 0.0177591
0.6144330 0.1522954 0.0185468
0.6261976 0.1522591 0.0193689
0.6375166 0.1581655 0.0193924
0.6489977 0.1581279 0.0202514
0.6490202 0.1581098 0.0211516
0.6600374 0.1642033 0.0211772
0.6711870 0.1641644 0.0221244
0.6821541 0.1641254 0.0231132
0.6818844 0.1704290 0.0231416
0.6926641 0.1703887 0.0241750
0.7032225 0.1703681 0.0241744
0.7029839 0.1768451 0.0252846
0.7133605 0.1768036 0.0264116
0.7235029 0.1767823 0.0264110
0.7235227 0.1767620 0.0275879
0.7332011 0.1834387 0.0276209
0.0026585 0.0859334 0.0023775
0.0053791 0.0893076 0.0025435
0.0097775 0.0891399 0.0026379
0.0151889 0.0927088 0.0027396
0.0217203 0.0926007 0.0028418
0.0296989 0.0963310 0.0029516
0.0388452 0.0962440 0.0030620
0.0485004 0.1001334 0.0031805
0.0609425 0.1000544 0.0032996
0.0730123 0.0999894 0.0034231
0.0835332 0.1040411 0.0035559
0.0999318 0.1039727 0.0036968
0.1139667 0.1081679 0.0038523
0.1296718 0.1081005 0.0041727
0.1410853 0.1080597 0.0043427
0.1596481 0.1123904 0.0047096
0.1732269 0.1123484 0.0049015
0.1946281 0.1168323 0.0053155
0.2098423 0.1167901 0.0055360
0.2259551 0.1167340 0.0060226
0.2427156 0.1214003 0.0062895
0.2515390 0.1213713 0.0065599
0.2698046 0.1213275 0.0068419
0.2886105 0.1261505 0.0074520
0.3084461 0.1261053 0.0077721
0.3184022 0.1311239 0.0081161
0.3393629 0.1310771 0.0084645
0.3501162 0.1310460 0.0088386
0.3607528 0.1362331 0.0092406
0.3834323 0.1361840 0.0096486
0.3952116 0.1361511 0.0100746
0.4068292 0.1415104 0.0105324
0.4309746 0.1414590 0.0109970
0.4432074 0.1414251 0.0114820
0.4552157 0.1469602 0.0120031
0.4675916 0.1469251 0.0125320
0.4800179 0.1468901 0.0130841
0.4921728 0.1526048 0.0136814
0.5045705 0.1525861 0.0136812
0.5169674 0.1525499 0.0142900
0.5290464 0.1584479 0.0149441
0.5414072 0.1584105 0.0156085
0.5537264 0.1583731 0.0163020
0.5656621 0.1644755 0.0163219
0.5778561 0.1644367 0.0170467
0.5899646 0.1643981 0.0178032
0.6016536 0.1706899 0.0178249
0.6135526 0.1706499 0.0186155
0.6135759 0.1706305 0.0194409
0.6253501 0.1705905 0.0203021
0.6366794 0.1770737 0.0203266
0.6481720 0.1770325 0.0212297
0.6594801 0.1770113 0.0212292
0.6592232 0.1836969 0.0222065
0.6703858 0.1836541 0.0231989
0.6813447 0.1836321 0.0231984
0.6813663 0.1836112 0.0242349
0.6918898 0.1904745 0.0253472
0.7024631 0.1904518 0.0253466
0.7128506 0.1904076 0.0264764
0.7125950 0.1975140 0.0265088
0.7227736 0.1974685 0.0276893
0.7227736 0.1974685 0.0276893
0.7327319 0.1974231 0.0289211
0.0029940 0.1051333 0.0028563
0.0060742 0.1049052 0.0029620
0.0106108 0.1090021 0.0030759
0.0165316 0.1088498 0.0031904
0.0236624 0.1087243 0.0033094
0.0309307 0.1130481 0.0034373
0.0404436 0.1129475 0.0035658
0.0505655 0.1174334 0.0037115
0.0606924 0.1173570 0.0038626
0.0727163 0.1172808 0.0040198
0.0870336 0.1219317 0.0041887
0.0995377 0.1218689 0.0043593
0.1136340 0.1218196 0.0043591
0.1291557 0.1266560 0.0045424
0.1465267 0.1265925 0.0047274
0.1591917 0.1265319 0.0051203
0.1796730 0.1315312 0.0053354
0.1940933 0.1314688 0.0057959
0.2090777 0.1366540 0.0060527
0.2251312 0.1366050 0.0063130
0.2420856 0.1365405 0.0068676
0.2596690 0.1418968 0.0071717
0.2688900 0.1418636 0.0074799
0.2878847 0.1418133 0.0078013
0.3074326 0.1473451 0.0081464
0.3176330 0.1473108 0.0084963
0.3385674 0.1472587 0.0088717
0.3490317 0.1529865 0.0092751
0.3709679 0.1529326 0.0096847
0.3825906 0.1528962 0.0101123
0.3940680 0.1588059 0.0105717
0.4179671 0.1587489 0.0110381
0.4300981 0.1587114 0.0115249
0.4423245 0.1586740 0.0120329
0.4543276 0.1647674 0.0125788
0.4666995 0.1647287 0.0131329
0.4791229 0.1646899 0.0137154
0.4912758 0.1709716 0.0143435
0.5036725 0.1709511 0.0143433
0.5160696 0.1709111 0.0149813
0.5281502 0.1773846 0.0156667
0.5405132 0.1773434 0.0163627
0.5528118 0.1773221 0.0163625
0.5650796 0.1772810 0.0170891
0.5769753 0.1839534 0.0178695
0.5890904 0.1839110 0.0186621
0.6010838 0.1838891 0.0186617
0.6126941 0.1907610 0.0195129
0.6244781 0.1907172 0.0203772
0.6244781 0.1907172 0.0203772
0.6361278 0.1906733 0.0212825
0.6473444 0.1977422 0.0222617
0.6586645 0.1977190 0.0222612
0.6586869 0.1976969 0.0232565
0.6695608 0.2049885 0.0232846
0.6805552 0.2049417 0.0243243
0.6913586 0.2048951 0.0254094
0.6913586 0.2048951 0.0254094
0.7017022 0.2123641 0.0265745
0.7120841 0.2123393 0.0265739
0.7121044 0.2123159 0.0277578
0.7222933 0.2122680 0.0289926
0.7319979 0.2199610 0.0290273
0.7320175 0.2199371 0.0303180
0.0033881 0.1231780 0.0032059
0.0068583 0.1229162 0.0033246
0.0115401 0.1227198 0.0034481
0.0172080 0.1274928 0.0035810
0.0246420 0.1273474 0.0037223
0.0322466 0.1272345 0.0038735
0.0421028 0.1322072 0.0040360
0.0527697 0.1321060 0.0042000
0.0633134 0.1320213 0.0043709
0.0757553 0.1371876 0.0045544
0.0867723 0.1371177 0.0047398
0.1037443 0.1370297 0.0049327
0.1182434 0.1423970 0.0049387
0.1343486 0.1423264 0.0051397
0.1461120 0.1422743 0.0053489
0.1652096 0.1478007 0.0055777
0.1791706 0.1477464 0.0058177
0.1935455 0.1476934 0.0060679
0.2085128 0.1534002 0.0066093
0.2245342 0.1533458 0.0068934
0.2414398 0.1532916 0.0071897
0.2589914 0.1591961 0.0075080
0.2775652 0.1591404 0.0078305
0.2871601 0.1591038 0.0081668
0.3066989 0.1651741 0.0089050
0.3272394 0.1651164 0.0092983
0.3377941 0.1650783 0.0097090
0.3482468 0.1713733 0.0101503
0.3701601 0.1713140 0.0105982
0.3817720 0.1712739 0.0110658
0.3932400 0.1777588 0.0115682
0.4170988 0.1777159 0.0115679
0.4292223 0.1776748 0.0120779
0.4414422 0.1776335 0.0126101
0.4534397 0.1843169 0.0131819
0.4658074 0.1842744 0.0137666
0.4782278 0.1842316 0.0143793
0.5027740 0.1910913 0.0150372
0.5151467 0.1910687 0.0150370
0.5275355 0.1910251 0.0157055
0.5399001 0.1909812 0.0164032
0.5519197 0.1980597 0.0171528
0.5519197 0.1980597 0.0171528
0.5641919 0.1980145 0.0179140
0.5763951 0.1979695 0.0187085
0.5881910 0.2052691 0.0187313
0.6002155 0.2052227 0.0195614
0.6121288 0.2051762 0.0204278
0.6236049 0.2126768 0.0204526
0.6236280 0.2126537 0.0213616
0.6352883 0.2126056 0.0223170
0.6467770 0.2125809 0.0223165
0.6578478 0.2202590 0.0233424
0.6690321 0.2202095 0.0243846
0.6690321 0.2202095 0.0243846
0.6800353 0.2201602 0.0254725
0.6905606 0.2280634 0.0255031
0.6905819 0.2280388 0.0266404
0.7012009 0.2279880 0.0278266
0.7115929 0.2279619 0.0278259
0.7113574 0.2360684 0.0290999
0.7215421 0.2360415 0.0290991
0.7315277 0.2359893 0.0303921
0.7315277 0.2359893 0.0303921
0.0037715 0.1384441 0.0037365
0.0074344 0.1381636 0.0038870
0.0125590 0.1433981 0.0040491
0.0187527 0.1432203 0.0042131
0.0256930 0.1430770 0.0043840
0.0335789 0.1485902 0.0043888
0.0438767 0.1484611 0.0045671
0.0526062 0.1483682 0.0047528
0.0659680 0.1540522 0.0049521
0.0755253 0.1539757 0.0051536
0.0904865 0.1538782 0.0053631
0.1033198 0.1597954 0.0053696
0.1178991 0.1597157 0.0055922
0.1339644 0.1596368 0.0058326
0.1517281 0.1657193 0.0060910
0.1647408 0.1656775 0.0060909
0.1786698 0.1656175 0.0063528
0.2002631 0.1718884 0.0066342
0.2158100 0.1718285 0.0069193
0.2322403 0.1717687 0.0072167
0.2495703 0.1716902 0.0078502
0.2583325 0.1781892 0.0081975
0.2768758 0.1781279 0.0085495
0.2962206 0.1780663 0.0089272
0.3059463 0.1847638 0.0093332
0.3264588 0.1847004 0.0097454
0.3370003 0.1846585 0.0101756
0.3585757 0.1845953 0.0106246
0.3693302 0.1914895 0.0111072
0.3809310 0.1914456 0.0115971
