Plugins/FilmEmulator/Content/LUTs/FE_Fujifilm_Eterna_500T_8573_64.cube
# FilmEmulator LUT (resampled to 64)
LUT_3D_SIZE 8
0.000244 0.000000 0.001984
0.075522 0.007904 0.000000
0.180743 0.011270 0.000000
0.284276 0.000000 0.000000
0.375842 0.000000 0.000000
0.468310 0.000000 0.000000
0.569475 0.000000 0.000000
0.681519 0.000000 0.013489
0.000000 0.068713 0.052181
0.082936 0.091444 0.038016
0.226972 0.099927 0.007050
0.348560 0.101734 0.000000
0.467158 0.089960 0.000000
0.575265 0.074610 0.000000
0.682302 0.051821 0.000000
0.799286 0.069611 0.000000
0.000000 0.154188 0.098607
0.110652 0.187008 0.089304
0.223409 0.203830 0.066272
0.350290 0.224762 0.022503
0.482849 0.229645 0.000000
0.600707 0.229259 0.000000
0.717095 0.227537 0.000000
0.844897 0.253026 0.000000
0.013319 0.244812 0.124917
0.144352 0.288435 0.118960
0.274112 0.315996 0.104194
0.376647 0.326015 0.077906
0.496895 0.352917 0.023456
0.625293 0.366380 0.000000
0.745724 0.364996 0.000000
0.875815 0.389766 0.000000
0.082359 0.337529 0.167010
0.205058 0.388633 0.178925
0.323823 0.426497 0.159616
0.433031 0.444706 0.118980
0.527921 0.454583 0.059037
0.640900 0.481517 0.007427
0.771744 0.504267 0.000000
0.903643 0.527561 0.000000
0.168026 0.421910 0.211238
0.244523 0.490258 0.224853
0.366404 0.530594 0.219222
0.504142 0.562408 0.204273
0.580356 0.568927 0.106316
0.673994 0.582441 0.022398
0.794706 0.615606 0.016093
0.926924 0.649636 0.000000
0.217760 0.511470 0.263127
0.285656 0.584728 0.295461
0.446593 0.625752 0.276907
0.564086 0.663411 0.259901
0.643279 0.690796 0.180736
0.724973 0.698401 0.044023
0.841685 0.724023 0.037877
0.950584 0.752441 0.034672
0.255615 0.599030 0.329834
0.385031 0.680664 0.335266
0.522783 0.718750 0.335894
0.627864 0.748775 0.341578
0.703282 0.778743 0.281982
0.774702 0.790449 0.183729
0.871621 0.796339 0.052416
0.968231 0.822876 0.057709
0.014422 0.004774 0.064170
0.078463 0.014326 0.066336
0.163665 0.016740 0.061371
0.274393 0.004973 0.046813
0.390689 0.000000 0.040144
0.485202 0.000000 0.052654
0.587631 0.000000 0.062144
0.696507 0.000000 0.082293
0.000000 0.086108 0.111123
0.079906 0.108571 0.123190
0.223910 0.118079 0.103087
0.360372 0.117558 0.082981
0.515467 0.062574 0.052676
0.634943 0.007422 0.040590
0.736295 0.000000 0.044448
0.862569 0.000336 0.052301
0.000000 0.175162 0.169071
0.036971 0.218995 0.179576
0.217237 0.235935 0.167838
0.375182 0.244430 0.127923
0.510363 0.245474 0.098968
0.645306 0.233087 0.065392
0.785056 0.208590 0.033015
0.924017 0.219454 0.026760
0.000000 0.270837 0.220371
0.065161 0.325768 0.221506
0.247550 0.353178 0.210536
0.390152 0.363958 0.196947
0.520224 0.386252 0.152668
0.648110 0.389961 0.114739
0.788369 0.378266 0.074846
0.934365 0.393133 0.052892
0.009545 0.373203 0.253832
0.098699 0.431919 0.269823
0.289533 0.465371 0.260915
0.449774 0.488999 0.246411
0.551188 0.495914 0.211732
0.665207 0.524250 0.167111
0.803861 0.533198 0.118681
0.942426 0.549433 0.096350
0.050920 0.468441 0.298489
0.187123 0.527239 0.332992
0.336162 0.569974 0.308386
0.507248 0.598482 0.313487
0.604376 0.614037 0.263293
0.698208 0.627617 0.207169
0.824588 0.655568 0.168861
0.951475 0.682750 0.153188
0.156738 0.549229 0.353733
0.225218 0.623173 0.384486
0.410669 0.659761 0.401012
0.558384 0.695303 0.380768
0.663668 0.725887 0.349346
0.748947 0.737235 0.265142
0.862303 0.757708 0.197850
0.964824 0.781784 0.199472
0.079219 0.648521 0.456416
0.229153 0.727907 0.497761
0.430490 0.759872 0.520568
0.577106 0.785868 0.511370
0.689370 0.812249 0.495611
0.793008 0.835801 0.463249
0.884944 0.845165 0.378713
0.978585 0.864859 0.369489
0.061711 0.000000 0.125157
0.102424 0.008383 0.136009
0.153976 0.026946 0.137740
0.235613 0.045721 0.136171
0.349588 0.038220 0.132756
0.473648 0.008812 0.129552
0.591895 0.000000 0.130495
0.709006 0.000000 0.151690
0.016949 0.104878 0.212620
0.101492 0.123595 0.214299
0.207495 0.131522 0.209187
0.327034 0.137903 0.203936
0.449316 0.145499 0.194170
0.592420 0.116962 0.176051
0.740949 0.009123 0.151972
0.873331 0.000000 0.166242
0.000000 0.201908 0.253222
0.004721 0.239533 0.291358
0.210995 0.260452 0.290360
0.358900 0.267792 0.265648
0.510589 0.268268 0.238645
0.667945 0.245336 0.208816
0.825371 0.200721 0.184912
0.954886 0.206435 0.186220
0.000000 0.293429 0.309551
0.000000 0.345719 0.334919
0.154219 0.384915 0.345904
0.358880 0.400380 0.348223
0.527650 0.396816 0.292212
0.664686 0.394274 0.256931
0.829382 0.376804 0.220776
0.970966 0.383073 0.209432
0.000000 0.395086 0.361373
0.000128 0.456475 0.395170
0.177729 0.498567 0.398336
0.409999 0.514728 0.418844
0.546677 0.528405 0.378853
0.671353 0.547024 0.328208
0.818068 0.542812 0.279169
0.961288 0.553399 0.261164
0.001954 0.491527 0.412586
0.009164 0.560211 0.436820
0.215988 0.601965 0.445466
0.448339 0.623424 0.462763
0.597204 0.644593 0.430392
0.704683 0.654129 0.394395
0.833643 0.678210 0.340531
0.965364 0.697590 0.319910
0.009822 0.582799 0.451417
0.014439 0.655354 0.487324
0.288799 0.692906 0.511102
0.494591 0.724904 0.508912
0.644245 0.747606 0.497048
0.753735 0.767589 0.451006
0.868127 0.783719 0.399578
0.969832 0.807694 0.386287
0.003483 0.670467 0.555132
0.010330 0.754578 0.591124
0.268786 0.789923 0.611116
0.490167 0.817576 0.624783
0.642815 0.835597 0.620943
0.777974 0.856511 0.602601
0.885223 0.868664 0.554557
0.977984 0.884970 0.534968
0.087494 0.000000 0.188302
0.120832 0.000000 0.203133
0.178569 0.010704 0.204337
0.249999 0.039966 0.212694
0.328051 0.071994 0.217404
0.423411 0.086375 0.215095
0.562200 0.058539 0.220087
0.710153 0.012991 0.236778
0.117183 0.091720 0.274163
0.160336 0.121593 0.301068
0.238656 0.125796 0.304598
0.322282 0.153511 0.302916
0.413951 0.182323 0.293599
0.536460 0.187763 0.289672
0.666336 0.171763 0.290097
0.812663 0.153619 0.297071
0.005839 0.232441 0.380241
0.043791 0.263526 0.398887
0.232863 0.281099 0.383844
0.346640 0.291017 0.372311
0.489050 0.293060 0.366096
0.609265 0.303576 0.354268
0.748867 0.291071 0.342790
0.917496 0.278570 0.333316
0.000056 0.321660 0.400309
0.000000 0.366334 0.431439
0.119785 0.406030 0.467785
0.360752 0.420797 0.454824
0.510502 0.425381 0.439156
0.653564 0.424502 0.409224
0.836454 0.403398 0.369475
0.977816 0.401761 0.362931
0.000000 0.415376 0.448590
0.000000 0.474565 0.481536
0.002051 0.524087 0.509695
0.305978 0.547061 0.512827
0.513816 0.558584 0.513352
0.672912 0.553330 0.459161
0.839130 0.546172 0.421799
0.976865 0.554942 0.408182
0.000000 0.510355 0.494888
0.000000 0.578584 0.535126
0.004391 0.627650 0.554179
0.319907 0.654231 0.559855
0.560527 0.663687 0.571253
0.697342 0.677363 0.539887
0.838145 0.692763 0.486277
0.972885 0.703892 0.464071
0.000000 0.599337 0.545285
0.000178 0.672437 0.583276
0.026430 0.725192 0.588031
0.372593 0.753619 0.605036
0.572552 0.775263 0.596503
0.734863 0.793852 0.582319
0.868415 0.803729 0.554688
0.972327 0.827019 0.531522
0.000000 0.682456 0.630345
0.000110 0.765500 0.671131
0.018015 0.818257 0.679751
0.354736 0.843349 0.690626
0.569964 0.859243 0.700564
0.711094 0.881004 0.672236
0.880790 0.887240 0.673609
0.977487 0.898812 0.649153
0.105007 0.001674 0.278373
0.133218 0.007768 0.296043
0.183843 0.018217 0.299133
0.252354 0.047509 0.294761
0.325505 0.089565 0.281074
0.419268 0.112852 0.287312
0.538208 0.126431 0.304256
0.671321 0.133161 0.329154
0.141009 0.083982 0.355761
0.181327 0.137264 0.386771
0.253384 0.132453 0.395704
0.347662 0.154596 0.391930
0.426366 0.190067 0.379609
0.516512 0.221126 0.377396
0.625199 0.233961 0.385317
0.758841 0.247285 0.408151
0.163503 0.234308 0.431327
0.159577 0.276494 0.471176
0.287610 0.288492 0.479210
0.392312 0.282472 0.472389
0.478717 0.310342 0.465633
0.577238 0.341773 0.455569
0.697037 0.349491 0.450284
0.839627 0.364932 0.464434
0.007664 0.351216 0.526758
0.004946 0.394323 0.546361
0.207052 0.422238 0.558339
0.382645 0.439245 0.540529
0.500825 0.451399 0.530912
0.642589 0.453350 0.525627
0.765950 0.461223 0.511502
0.919195 0.477952 0.519446
0.000212 0.438488 0.537118
0.000000 0.494327 0.570108
0.000618 0.536871 0.611410
0.273538 0.564342 0.621862
0.515331 0.576390 0.604056
0.658393 0.581141 0.589286
0.822348 0.577882 0.561565
0.978179 0.581470 0.545544
0.000000 0.528500 0.576345
0.000000 0.595003 0.617816
0.000000 0.637776 0.643117
0.114814 0.682266 0.662172
0.468113 0.695211 0.657152
0.663835 0.705119 0.652008
0.843724 0.699056 0.606995
0.978914 0.709558 0.594528
0.000000 0.615029 0.620865
0.000000 0.688880 0.660980
0.000000 0.735182 0.681213
0.100402 0.782825 0.701364
0.472616 0.800799 0.704778
0.697729 0.812524 0.697765
0.860738 0.822563 0.676732
0.975401 0.839845 0.655810
0.000000 0.697854 0.692440
0.000000 0.776704 0.737034
0.000000 0.825483 0.759447
0.066042 0.868529 0.776382
0.449952 0.882997 0.782146
0.673045 0.894979 0.780564
0.865343 0.903690 0.769984
0.976218 0.910946 0.745636
0.106118 0.040444 0.368665
0.134138 0.052536 0.392040
0.188010 0.054021 0.394417
0.265996 0.064602 0.385044
0.349631 0.096294 0.378336
0.428047 0.132468 0.376227
0.521082 0.174032 0.366319
0.650757 0.194075 0.399000
0.125268 0.104105 0.440997
0.185560 0.161329 0.484840
0.253153 0.163737 0.492252
0.344413 0.160682 0.496028
0.430646 0.197453 0.480554
0.515505 0.235681 0.466457
0.605827 0.268516 0.451558
0.725185 0.301727 0.479234
0.206165 0.244137 0.518034
0.227112 0.290415 0.553096
0.310035 0.305869 0.555787
0.404000 0.291938 0.560339
0.513147 0.312209 0.552685
0.589346 0.350117 0.539918
0.676962 0.379846 0.534151
0.794782 0.415833 0.553956
0.208611 0.354829 0.560445
0.155273 0.408423 0.620590
0.279989 0.438701 0.641581
0.426410 0.450894 0.637402
0.539941 0.447502 0.617833
0.631455 0.471335 0.613752
0.732715 0.494322 0.597045
0.867687 0.519408 0.606492
0.005718 0.463129 0.649276
0.002609 0.516109 0.671243
0.058621 0.551946 0.701443
0.352453 0.577120 0.698211
0.535105 0.589091 0.681827
0.655758 0.598854 0.671501
0.802490 0.599511 0.659439
0.932416 0.623748 0.663845
0.000022 0.546202 0.660605
0.000000 0.611194 0.696772
0.000000 0.647897 0.723723
0.075447 0.695306 0.770931
0.441572 0.709600 0.760107
0.662068 0.717157 0.741670
0.821369 0.720424 0.724068
0.972261 0.730759 0.707835
0.000000 0.629473 0.693115
0.000000 0.704054 0.740882
0.000000 0.743008 0.760253
0.000000 0.795409 0.794728
0.332969 0.826744 0.799164
0.629496 0.838812 0.792008
0.833476 0.844802 0.774341
0.979331 0.850033 0.762141
0.000000 0.708714 0.757778
0.000000 0.787029 0.801745
0.000000 0.832385 0.825037
0.000000 0.877176 0.852272
0.267646 0.905146 0.859894
0.602852 0.914140 0.859952
0.809745 0.923439 0.843066
0.972351 0.922507 0.826791
0.126421 0.076046 0.457232
0.156653 0.080497 0.468364
0.209559 0.085626 0.470869
0.278447 0.082559 0.470980
0.371721 0.111669 0.456048
0.451934 0.150827 0.433660
0.541959 0.191273 0.438670
0.645603 0.233054 0.464338
0.162522 0.104186 0.512413
0.166915 0.195632 0.582067
0.243088 0.209126 0.590033
0.312475 0.196779 0.585747
0.436203 0.204337 0.570805
0.530529 0.241573 0.538106
0.614508 0.279626 0.522528
0.712045 0.334378 0.544271
0.200668 0.256568 0.610208
0.252049 0.305196 0.632857
0.325999 0.320420 0.645353
0.400889 0.305983 0.660463
0.516263 0.318023 0.658232
0.592150 0.358258 0.638017
0.673098 0.395955 0.615258
0.776964 0.447711 0.615702
0.261727 0.365423 0.645145
0.283562 0.415952 0.673738
0.362747 0.444996 0.688149
0.459565 0.459276 0.703327
0.556681 0.447140 0.702278
0.659306 0.471053 0.690576
0.742689 0.501131 0.676700
0.846276 0.545186 0.681938
0.237804 0.467438 0.679510
0.124412 0.529981 0.755798
0.168016 0.562998 0.784519
0.398636 0.590836 0.796512
0.563127 0.602537 0.782128
0.692775 0.591292 0.761867
0.788250 0.614600 0.745768
0.895308 0.649586 0.737321
0.005848 0.569539 0.766019
0.002987 0.629185 0.790613
0.001905 0.661328 0.807899
0.232129 0.702041 0.846183
0.503673 0.719127 0.832797
0.682622 0.731129 0.814488
0.826099 0.729919 0.803688
0.956072 0.746765 0.798036
0.000394 0.646005 0.775270
0.000000 0.718878 0.815748
0.000000 0.754851 0.834692
0.000000 0.805362 0.884269
0.291612 0.838348 0.905020
0.609412 0.851248 0.890980
0.827840 0.856306 0.869018
0.969159 0.865914 0.859201
0.000000 0.719870 0.816637
0.000000 0.797901 0.862840
0.000000 0.839118 0.887574
0.000000 0.882070 0.923408
0.132074 0.914217 0.946872
0.562726 0.924168 0.933078
0.793268 0.931690 0.917914
0.972055 0.935996 0.903508
0.202942 0.087952 0.542969
0.217843 0.098240 0.564841
0.263071 0.088933 0.573434
0.357060 0.097979 0.575671
0.442727 0.132752 0.556758
0.518245 0.175820 0.543199
0.588789 0.231764 0.542476
0.664429 0.294525 0.536652
0.220040 0.166365 0.617942
0.218616 0.277410 0.699151
0.283481 0.307883 0.721089
0.350467 0.312027 0.729613
0.445117 0.286786 0.718024
0.574130 0.314999 0.689065
0.666142 0.356569 0.643779
0.762473 0.413431 0.650892
0.213056 0.324886 0.719186
0.253657 0.380061 0.762913
0.342709 0.405092 0.768904
0.423377 0.415823 0.779400
0.498994 0.403403 0.772181
0.621098 0.414362 0.767449
0.709691 0.452982 0.740981
0.807678 0.506640 0.734519
0.307129 0.406651 0.727509
0.331085 0.465832 0.765055
0.380852 0.493689 0.782290
0.485964 0.515370 0.806376
0.566822 0.510506 0.809910
0.681185 0.507053 0.813749
0.763615 0.541843 0.789133
0.855495 0.597120 0.767500
0.326045 0.490252 0.750959
0.338819 0.551378 0.780855
0.347705 0.585014 0.804241
0.500249 0.610504 0.824417
0.613603 0.623165 0.841271
0.704302 0.612426 0.851671
0.816208 0.633719 0.835101
0.916334 0.670014 0.831831
0.230015 0.582018 0.806401
0.025999 0.654856 0.894086
0.017946 0.689163 0.908197
0.304759 0.719803 0.934374
0.524448 0.738768 0.938132
0.684418 0.753684 0.923164
0.841054 0.737947 0.894866
0.941550 0.768729 0.884168
0.008114 0.665985 0.871198
0.004804 0.737945 0.899954
0.002627 0.769313 0.910324
0.011980 0.812150 0.964403
0.376839 0.838698 0.969661
0.636239 0.855526 0.958973
0.834260 0.866559 0.940296
0.968410 0.872275 0.936253
0.003235 0.737366 0.884003
0.000000 0.810905 0.919856
0.000000 0.844504 0.939091
0.000000 0.883893 0.976942
0.282889 0.908452 0.986394
0.560286 0.924517 0.986733
0.786582 0.935778 0.978690
0.970490 0.946259 0.968170
