Plugins/FilmEmulator/Content/LUTs/FE_Fuji_CA_Pro_PDII_64.cube
TITLE "FE_Fuji_CA_Pro_PDII_33"
LUT_3D_SIZE 4
0.0000000 0.0489743 0.0644684
1.0000000 0.3503995 0.1177598
1.0000000 0.5936998 0.2653094
1.0000000 0.6621451 0.3565271
0.2847168 0.9694789 0.5716270
0.9162593 0.9759000 0.5530438
0.9941241 0.9865450 0.5502065
1.0000000 0.9848761 0.5914012
0.4940540 0.9932451 0.8404634
0.9483954 0.9919432 0.8216240
0.9915733 0.9963070 0.8097330
0.9937536 0.9982233 0.7850324
0.6244446 0.9917913 0.9539781
0.9687598 0.9909755 0.9427934
0.9946902 0.9933890 0.9348689
0.9970316 0.9941440 0.9232853
0.4344719 0.4462768 1.0000000
1.0000000 0.6813369 0.9698502
1.0000000 0.7620522 0.9613134
1.0000000 0.7896620 0.9548711
0.6884834 0.9754578 0.9836292
0.9840076 0.9837193 0.9793721
0.9975015 0.9858280 0.9789803
0.9999017 0.9858094 0.9778276
0.7687876 0.9883056 0.9869874
0.9873351 0.9916376 0.9846042
0.9957806 0.9926925 0.9846272
0.9974564 0.9929273 0.9842656
0.8242857 0.9902351 0.9883033
0.9893011 0.9931600 0.9867139
0.9956952 0.9939406 0.9868196
0.9971380 0.9941505 0.9867052
0.8288419 0.6936197 1.0000000
1.0000000 0.8041043 0.9897313
1.0000000 0.8326396 0.9877017
1.0000000 0.8537859 0.9864461
0.9058413 0.9827168 0.9881968
0.9929026 0.9885634 0.9874701
0.9973125 0.9891294 0.9874830
0.9986407 0.9891841 0.9874048
0.9391921 0.9898453 0.9889026
0.9931055 0.9929826 0.9887909
0.9963972 0.9934672 0.9888899
0.9974115 0.9936197 0.9888710
0.9592677 0.9917039 0.9892829
0.9936258 0.9939688 0.9893941
0.9963392 0.9943617 0.9894888
0.9972357 0.9945007 0.9895015
0.9885417 0.8424106 0.9922059
1.0000000 0.8691225 0.9896143
1.0000000 0.8726811 0.9892369
1.0000000 0.8888618 0.9884874
0.9786767 0.9885412 0.9890712
0.9952957 0.9906607 0.9892339
0.9974211 0.9909971 0.9892733
0.9982761 0.9910309 0.9892540
0.9850750 0.9924538 0.9897790
0.9950969 0.9935970 0.9899809
0.9968380 0.9938824 0.9900435
0.9975118 0.9939818 0.9900504
0.9879079 0.9935036 0.9901178
0.9952858 0.9943560 0.9903002
0.9967676 0.9945897 0.9903688
0.9973727 0.9946852 0.9903915
