Plugins/FilmEmulator/Content/LUTs/FE_Fuji_Superia_Reala_64.cube
TITLE "FE_Fuji_Superia_Reala_33"
LUT_3D_SIZE 4
0.0002942 0.0002583 0.0006078
0.2409466 0.0029588 0.0038778
0.5799047 0.0091341 0.0107092
0.7672377 0.0181647 0.0199023
0.0101253 0.3258834 0.0086672
0.2976927 0.3201650 0.0150839
0.6098332 0.3086141 0.0242912
0.7741389 0.3067610 0.0367342
0.0404969 0.6385592 0.0267530
0.3669137 0.6344821 0.0361150
0.6493941 0.6215311 0.0468080
0.7961740 0.6199150 0.0603091
0.0862496 0.7896309 0.0528846
0.4304835 0.7873451 0.0655604
0.6781248 0.7791544 0.0780460
0.8182133 0.7781869 0.0896272
0.0038479 0.0093559 0.3163300
0.2748508 0.0122069 0.3343149
0.6019059 0.0224172 0.3545376
0.7752709 0.0346539 0.3747302
0.0233882 0.3606919 0.3670423
0.3404344 0.3567519 0.3854382
0.6340871 0.3461603 0.3946773
0.7922750 0.3450722 0.4139288
0.0639585 0.6508600 0.4095019
0.4012772 0.6479868 0.4189369
0.6715918 0.6465769 0.4286123
0.8050253 0.6455352 0.4502776
0.1181293 0.7911011 0.4425938
0.4661918 0.7893778 0.4532564
0.6994259 0.7883787 0.4751302
0.8262551 0.7876869 0.4860886
0.0135557 0.0324540 0.6367527
0.3117847 0.0283073 0.6459451
0.6234063 0.0419208 0.6573838
0.7827504 0.0572682 0.6684114
0.0415393 0.4039931 0.6679122
0.3734921 0.3909734 0.6771666
0.6555713 0.3894625 0.6866243
0.8006064 0.3791089 0.6863941
0.0917321 0.6772097 0.6910295
0.4351103 0.6747433 0.7001547
0.6821878 0.6643415 0.6998936
0.8209457 0.6633701 0.7090299
0.1522990 0.8020610 0.7117095
0.4896404 0.8006596 0.7115098
0.7192515 0.7997789 0.7204138
0.8335929 0.7991523 0.7291863
0.0304311 0.0653320 0.7963105
0.3511644 0.0596493 0.7958062
0.6446599 0.0641133 0.8028957
0.7989273 0.0804759 0.8102676
0.0651520 0.4405740 0.8094693
0.4064505 0.4276408 0.8157897
0.6763719 0.4262562 0.8156964
0.8084192 0.4252821 0.8218856
0.1247311 0.6931977 0.8185698
0.4696052 0.6910468 0.8245878
0.7022942 0.6899726 0.8245091
0.8283356 0.6800711 0.8302714
0.1941012 0.8133336 0.8320792
0.5274236 0.8121156 0.8319574
0.7292131 0.8050237 0.8375158
0.8406657 0.8044834 0.8374646
