Plugins/FilmEmulator/Content/LUTs/FE_Fuji_Superia_Reala_64.cube
TITLE "FE_Fuji_Superia_Reala_33"
LUT_3D_SIZE 8
0.0002942 0.0002583 0.0006078
0.0505352 0.0010226 0.0014307
0.1845655 0.0023839 0.0031612
0.3495181 0.0043282 0.0054297
0.4954383 0.0069432 0.0083822
0.6158872 0.0102958 0.0118993
0.7013794 0.0142534 0.0159222
0.7672377 0.0181647 0.0199023
0.0022600 0.0929243 0.0027816
0.0667903 0.0876514 0.0043414
0.2036790 0.0868178 0.0062494
0.3686328 0.0829588 0.0090248
0.5056704 0.0824970 0.0123082
0.6175955 0.0790466 0.0157919
0.7038379 0.0757492 0.0203696
0.7709865 0.0754892 0.0245696
0.0073901 0.2661967 0.0070477
0.0895202 0.2629123 0.0092203
0.2327244 0.2612479 0.0117340
0.3959418 0.2600321 0.0144836
0.5244079 0.2506061 0.0186260
0.6345413 0.2497044 0.0232935
0.7079012 0.2489944 0.0280834
0.7752889 0.2402113 0.0326403
0.0168238 0.4285687 0.0127297
0.1153987 0.4252796 0.0157502
0.2668884 0.4234513 0.0188526
0.4149962 0.4220855 0.0227072
0.5458499 0.4210066 0.0263736
0.6530516 0.4102894 0.0306276
0.7243759 0.4093491 0.0369824
0.7816123 0.4085480 0.0429563
0.0298359 0.5624509 0.0204816
0.1416056 0.5596654 0.0246885
0.2939834 0.5580248 0.0286621
0.4466685 0.5568483 0.0320944
0.5685452 0.5451982 0.0372894
0.6614889 0.5443691 0.0417300
0.7320460 0.5436211 0.0465849
0.7886108 0.5429049 0.0519498
0.0461192 0.6695825 0.0299957
0.1728579 0.6674243 0.0348647
0.3229184 0.6661553 0.0390189
0.4676732 0.6651501 0.0436418
0.5911756 0.6538530 0.0486467
0.6806291 0.6531065 0.0542368
0.7404488 0.6525703 0.0582967
0.7957399 0.6520112 0.0626429
0.0660758 0.7385409 0.0407468
0.2016071 0.7369503 0.0455102
0.3538864 0.7359013 0.0507472
0.4893876 0.7351658 0.0545529
0.6016985 0.7344527 0.0607840
0.6895453 0.7256365 0.0652256
0.7587418 0.7250236 0.0724700
0.8030763 0.7245863 0.0777088
0.0862496 0.7896309 0.0528846
0.2339703 0.7884315 0.0568236
0.3857707 0.7875785 0.0632916
0.5135100 0.7800608 0.0678624
0.6241988 0.7795127 0.0727848
0.7084861 0.7790285 0.0780410
0.7671571 0.7786117 0.0836497
0.8182133 0.7781869 0.0896272
0.0011544 0.0024923 0.0971785
0.0598286 0.0030412 0.1045592
0.2063932 0.0052377 0.1131373
0.3704745 0.0078892 0.1178878
0.5061026 0.0113480 0.1269248
0.6272734 0.0151311 0.1362974
0.7108419 0.0200763 0.1414758
0.7669709 0.0245047 0.1515826
0.0046721 0.1071218 0.1185027
0.0767333 0.1018422 0.1225166
0.2205841 0.1011996 0.1311289
0.3805989 0.0971756 0.1354843
0.5188385 0.0968684 0.1447964
0.6299157 0.0931387 0.1495582
0.7137403 0.0929522 0.1545413
0.7711388 0.0893862 0.1648664
0.0117202 0.2837801 0.1335948
0.1027230 0.2811485 0.1426693
0.2515654 0.2716650 0.1473266
0.4081494 0.2708597 0.1522236
0.5377771 0.2701751 0.1624940
0.6461086 0.2696501 0.1678264
0.7183090 0.2611843 0.1732161
0.7756377 0.2608119 0.1788431
0.0231979 0.4405325 0.1539559
0.1262482 0.4380268 0.1589464
0.2869392 0.4365954 0.1641372
0.4272102 0.4357075 0.1695003
0.5594357 0.4249892 0.1806176
0.6538056 0.4243963 0.1862849
0.7249622 0.4238832 0.1920972
0.7907858 0.4233374 0.1980478
0.0374193 0.5668303 0.1708545
0.1544535 0.5646657 0.1763124
0.3151439 0.5633594 0.1819676
0.4591397 0.5624747 0.1876501
0.5815932 0.5617481 0.1934825
0.6726255 0.5611531 0.1994639
0.7427170 0.5494999 0.2054777
0.7976598 0.5488981 0.2181887
0.0555888 0.6742650 0.1832019
0.1878287 0.6724476 0.1947471
0.3450886 0.6713953 0.2007191
0.4801170 0.6706583 0.2068561
0.6041344 0.6599954 0.2130249
0.6812865 0.6595125 0.2194641
0.7508349 0.6590227 0.2260459
0.8045047 0.6585692 0.2327735
0.0758883 0.7425281 0.2017133
0.2183221 0.7411810 0.2078076
0.3767982 0.7403182 0.2140873
0.5027493 0.7397235 0.2205337
0.6146726 0.7310306 0.2270156
0.7002417 0.7305622 0.2337574
0.7592245 0.7301756 0.2406496
0.8115591 0.7297770 0.2476826
0.1034381 0.7863446 0.2213940
0.2526796 0.7853014 0.2279425
0.3976625 0.7846376 0.2346747
0.5268043 0.7841086 0.2415637
0.6358992 0.7836445 0.2486018
0.7090344 0.7832822 0.2558477
0.7767284 0.7829734 0.2558108
0.8185661 0.7826733 0.2632345
0.0029212 0.0070735 0.2672012
0.0708299 0.0064724 0.2665786
0.2212333 0.0091937 0.2752622
0.3799831 0.0127364 0.2841057
0.5161952 0.0169691 0.2930177
0.6260178 0.0215766 0.3019480
0.7100977 0.0263270 0.3108997
0.7754723 0.0320819 0.3200728
0.0079349 0.1222213 0.2925469
0.0917261 0.1207993 0.2922305
0.2376915 0.1158868 0.3000644
0.4025555 0.1154592 0.3082109
0.5311910 0.1110574 0.3163728
0.6407371 0.1108448 0.3163188
0.7135284 0.1066868 0.3246922
0.7798297 0.1064872 0.3334716
0.0179449 0.2980449 0.3043485
0.1172609 0.2957450 0.3124000
0.2704476 0.2945480 0.3207024
0.4193643 0.2937559 0.3292436
0.5504497 0.2846948 0.3290332
0.6570253 0.2841539 0.3378627
0.7278060 0.2837296 0.3468270
0.7844977 0.2833311 0.3559110
0.0302492 0.4579938 0.3234127
0.1433646 0.4556416 0.3318534
0.2971506 0.4438088 0.3405071
0.4504063 0.4429686 0.3404236
0.5719979 0.4422470 0.3494021
0.6646080 0.4416479 0.3585078
0.7347272 0.4412316 0.3584651
0.7909946 0.4308600 0.3675427
0.0466705 0.5865644 0.3427834
0.1747953 0.5732708 0.3514912
0.3258620 0.5722076 0.3513832
0.4710078 0.5713255 0.3604846
0.5941664 0.5705934 0.3697093
0.6832654 0.5701094 0.3696593
0.7427653 0.5696381 0.3790131
0.7976855 0.5691420 0.3884624
0.0667341 0.6808894 0.3624695
0.2033286 0.6793951 0.3622957
0.3563247 0.6784091 0.3715023
0.4920519 0.6776794 0.3808401
0.6043951 0.6679720 0.3806269
0.6917665 0.6674373 0.3900827
0.7606103 0.6669447 0.3996330
0.8046620 0.6666504 0.3995983
0.0909705 0.7484604 0.3729514
0.2356668 0.7472352 0.3822226
0.3881689 0.7385055 0.3819717
0.5158374 0.7379015 0.3914224
0.6263744 0.7373652 0.4009708
0.7103680 0.7369879 0.4009201
0.7687705 0.7366002 0.4105708
0.8195434 0.7362041 0.4202968
0.1130601 0.7915213 0.3927786
0.2622446 0.7906140 0.3926357
0.4202971 0.7899226 0.4021582
0.5396399 0.7894374 0.4117951
0.6470498 0.7890565 0.4117348
0.7189738 0.7886987 0.4214668
0.7769014 0.7884361 0.4214249
0.8261800 0.7880962 0.4312271
0.0059630 0.0146286 0.4318154
0.0837205 0.0132829 0.4310628
0.2369788 0.0149635 0.4422682
0.3897516 0.0190633 0.4431905
0.5272684 0.0242213 0.4550702
0.6365979 0.0295329 0.4558567
0.7189116 0.0345644 0.4674810
0.7748412 0.0404567 0.4791637
0.0125270 0.1405449 0.4523940
0.1046319 0.1391421 0.4520588
0.2553797 0.1384335 0.4628797
0.4132831 0.1329786 0.4626024
0.5430707 0.1326339 0.4735499
0.6511761 0.1275310 0.4733115
0.7226357 0.1273018 0.4843192
0.7794998 0.1224544 0.4841006
0.0234772 0.3227718 0.4676059
0.1332109 0.3205072 0.4783628
0.2898007 0.3104442 0.4780531
0.4306691 0.3096715 0.4890308
0.5627002 0.3091017 0.4889560
0.6568184 0.3085775 0.4999844
0.7373849 0.2993969 0.4997635
0.7931212 0.2989729 0.5108117
0.0377958 0.4664667 0.4810022
0.1624222 0.4642124 0.4918333
0.3175196 0.4630725 0.4917058
0.4619041 0.4621698 0.5027052
0.5842969 0.4615462 0.5026360
0.6752700 0.4503850 0.5135040
0.7448282 0.4499616 0.5134565
0.7994320 0.4494540 0.5244998
0.0560752 0.5958247 0.4940917
0.1892797 0.5939298 0.5049754
0.3472526 0.5928849 0.5048560
0.4827583 0.5808521 0.5156856
0.6064485 0.5802269 0.5156152
0.6833961 0.5796906 0.5266526
0.7526389 0.5792649 0.5266046
0.8060244 0.5787609 0.5376269
0.0764428 0.6882280 0.5178234
0.2196987 0.6868114 0.5176411
0.3787240 0.6858327 0.5286120
0.5047936 0.6852592 0.5285393
0.6164293 0.6846499 0.5395371
0.7019566 0.6751323 0.5393202
0.7607217 0.6746926 0.5499583
0.8127984 0.6743435 0.5499148
0.1040819 0.7469738 0.5300016
0.2540078 0.7458827 0.5298429
0.3993727 0.7451251 0.5408056
0.5285760 0.7446119 0.5407321
0.6375555 0.7440824 0.5513445
0.7104946 0.7437581 0.5512982
0.7779750 0.7433224 0.5617092
0.8196195 0.7430687 0.5616729
0.1286720 0.7969721 0.5421402
0.2813669 0.7961289 0.5419976
0.4317848 0.7954904 0.5525745
0.5522984 0.7950844 0.5525067
0.6579691 0.7946377 0.5629004
0.7288868 0.7943586 0.5628539
0.7860160 0.7872627 0.5730608
0.8263735 0.7870408 0.5730249
0.0098608 0.0246354 0.5643104
0.0949341 0.0224549 0.5740165
0.2447511 0.0214608 0.5736829
0.4109482 0.0261636 0.5744203
0.5386488 0.0318692 0.5855288
0.6468657 0.0372972 0.5861372
0.7276614 0.0436426 0.5970184
0.7830729 0.0510567 0.5976456
0.0182453 0.1616421 0.5828662
0.1191122 0.1601747 0.5928594
0.2741900 0.1537830 0.5925415
0.4240054 0.1533548 0.5924488
0.5550150 0.1529644 0.6025943
0.6613756 0.1471985 0.6023638
0.7316392 0.1469411 0.6124562
0.7879063 0.1414500 0.6122465
0.0305848 0.3396323 0.5969422
0.1448312 0.3375237 0.6068795
0.2996657 0.3272275 0.6065885
0.4534197 0.3264869 0.6064979
0.5749983 0.3258473 0.6165335
0.6673288 0.3254150 0.6164811
0.7371120 0.3250486 0.6164364
0.7930262 0.3155676 0.6262458
0.0471032 0.4860011 0.6094040
0.1761063 0.4840382 0.6091930
0.3279121 0.4828446 0.6191559
0.4735425 0.4714333 0.6189125
0.5966362 0.4706888 0.6288308
0.6854904 0.4701997 0.6287799
0.7544456 0.4697676 0.6287346
0.7993352 0.4693269 0.6385834
0.0672495 0.6053205 0.6212521
0.2047094 0.6036839 0.6210719
0.3583097 0.6026002 0.6309292
0.4942113 0.6019073 0.6308548
0.6183418 0.6011760 0.6406487
0.6936467 0.5896205 0.6404356
0.7622017 0.5891925 0.6403905
0.8060524 0.5887596 0.6502277
0.0915540 0.6958102 0.6326491
0.2369549 0.6945298 0.6324928
0.3897225 0.6936283 0.6422384
0.5174611 0.6930584 0.6421705
0.6280739 0.6835921 0.6419595
0.7118877 0.6830695 0.6517626
0.7700685 0.6827332 0.6517236
0.8206097 0.6823885 0.6516834
0.1187191 0.7537143 0.6435127
0.2729164 0.7526961 0.6433733
0.4218448 0.7519609 0.6531211
0.5412059 0.7514984 0.6530592
0.6484970 0.7510701 0.6530021
0.7202590 0.7506613 0.6629075
0.7780057 0.7503661 0.6628686
0.8270808 0.7500682 0.6628290
0.1460246 0.8025630 0.6543332
0.3011942 0.8017832 0.6542100
0.4434444 0.7946900 0.6539844
0.5650365 0.7942007 0.6638569
0.6581955 0.7938715 0.6638073
0.7290859 0.7935915 0.6637651
0.7860502 0.7932516 0.6735259
0.8336180 0.7929916 0.6734872
0.0155910 0.0364988 0.6672688
0.1076296 0.0347294 0.6668371
0.2618717 0.0319005 0.6761472
0.4210009 0.0344427 0.6763604
0.5501294 0.0403019 0.6769050
0.6567013 0.0471259 0.6870548
0.7269821 0.0529744 0.6874647
0.7913443 0.0594804 0.6878701
0.0249164 0.1855754 0.6834682
0.1351830 0.1776550 0.6830717
0.2932014 0.1769316 0.6829469
0.4461916 0.1763856 0.6923741
0.5670457 0.1698674 0.6921637
0.6607897 0.1695955 0.6921160
0.7408344 0.1632911 0.7012793
0.7960306 0.1630848 0.7012425
0.0398988 0.3566187 0.6960012
0.1638613 0.3547263 0.6958014
0.3198485 0.3536876 0.6956926
0.4647990 0.3438086 0.7047818
0.5871438 0.3432489 0.7047237
0.6776415 0.3428080 0.7046779
0.7468885 0.3424263 0.7046383
0.8013054 0.3327988 0.7136062
0.0565695 0.4953408 0.6979103
0.1907533 0.4933892 0.7069977
0.3494621 0.4923129 0.7068981
0.4849616 0.4915918 0.7068318
0.6085925 0.4908346 0.7158753
0.6955001 0.4903474 0.7158313
0.7544597 0.4793288 0.7156577
0.8075557 0.4788175 0.7245603
0.0805500 0.6150682 0.7087443
0.2210502 0.6135741 0.7085988
0.3806055 0.6125001 0.7175768
0.5068088 0.6118698 0.7175176
0.6183215 0.6113158 0.7174656
0.7034866 0.6107396 0.7263266
0.7622037 0.5993118 0.7261456
0.8140391 0.5989307 0.7261105
0.1046176 0.7035253 0.7190566
0.2551228 0.7023227 0.7189273
0.4007775 0.7015893 0.7188492
0.5300732 0.7009229 0.7276676
0.6391175 0.6915911 0.7274854
0.7118889 0.6912280 0.7274482
0.7791492 0.6907367 0.7361180
0.8206253 0.6904532 0.7360896
0.1293073 0.7603178 0.7288188
0.2825365 0.7593684 0.7287048
0.4331969 0.7587355 0.7286294
0.5537320 0.7582779 0.7285751
0.6592816 0.7577720 0.7372131
0.7300424 0.7574579 0.7371766
0.7868494 0.7571654 0.7371426
0.8270995 0.7568325 0.7456266
0.1587454 0.8018655 0.7295563
0.3115788 0.8010499 0.7381234
0.4549642 0.8005426 0.7380559
0.5774378 0.8001381 0.7380021
0.6688167 0.7998186 0.7379595
0.7392206 0.7994639 0.7464182
0.7946616 0.7992089 0.7463850
0.8336216 0.7989967 0.7463573
0.0224466 0.0498936 0.7416767
0.1220770 0.0475432 0.7413303
0.2799052 0.0454649 0.7493153
0.4312844 0.0435719 0.7491117
0.5617503 0.0489611 0.7494506
0.6665599 0.0571687 0.7579786
0.7356694 0.0641563 0.7583281
0.7907637 0.0719490 0.7586794
0.0324298 0.2054462 0.7548200
0.1466736 0.2040478 0.7546349
0.3028458 0.1962691 0.7543997
0.4572369 0.1956784 0.7622843
0.5789776 0.1885041 0.7621030
0.6709570 0.1882101 0.7620630
0.7402861 0.1879607 0.7620288
0.7957289 0.1810754 0.7696536
0.0475540 0.3741602 0.7573143
0.1776159 0.3722301 0.7650436
0.3409343 0.3711725 0.7649520
0.4761634 0.3612319 0.7647772
0.5991585 0.3606541 0.7647270
0.6877806 0.3601000 0.7724123
0.7564181 0.3597039 0.7723783
0.8010294 0.3594049 0.7723526
0.0677688 0.5154703 0.7668418
0.2060898 0.5137694 0.7667047
0.3602865 0.5126424 0.7743044
0.4965898 0.5012550 0.7741286
0.6205781 0.5006113 0.7740790
0.6954724 0.5001880 0.7740463
0.7637810 0.4996317 0.7815214
0.8153588 0.4992375 0.7814913
0.0921670 0.6249028 0.7757437
0.2383166 0.6234893 0.7756269
0.3915130 0.6226032 0.7755545
0.5193561 0.6219744 0.7755037
0.6296891 0.6213180 0.7829344
0.7132901 0.6208614 0.7828983
0.7712818 0.6204962 0.7828692
0.8217552 0.6091509 0.7827129
0.1192847 0.7113308 0.7768038
0.2740312 0.7101085 0.7841443
0.4232072 0.7093934 0.7840798
0.5426036 0.7088819 0.7840343
0.6499740 0.6996915 0.7838787
0.7215682 0.6992349 0.7911208
0.7791299 0.6989035 0.7910921
0.8280131 0.6985688 0.7910631
0.1466884 0.7669352 0.7850056
0.3023352 0.7660552 0.7849139
0.4446021 0.7654819 0.7848550
0.5661970 0.7649448 0.7920586
0.6592624 0.7645825 0.7920224
0.7301835 0.7568486 0.7918848
0.7869694 0.7565556 0.7918559
0.8343911 0.7561763 0.7989038
0.1793469 0.8076384 0.7856372
0.3325223 0.8068873 0.7927881
0.4664869 0.8064325 0.7927358
0.5897233 0.8060343 0.7926900
0.6792492 0.8057246 0.7926544
0.7490703 0.8053759 0.7996796
0.8029980 0.8051264 0.7996516
0.8405852 0.8049195 0.7996283
0.0304311 0.0653320 0.7963105
0.1380811 0.0623570 0.7960352
0.2985824 0.0597120 0.7958285
0.4528702 0.0572389 0.8026333
0.5732864 0.0593929 0.8027010
0.6764260 0.0666061 0.8029937
0.7445643 0.0746692 0.8032957
0.7989273 0.0804759 0.8102676
0.0404079 0.2271109 0.8001432
0.1657365 0.2256048 0.8068609
0.3230590 0.2172556 0.8066679
0.4682796 0.2167364 0.8066139
0.5905559 0.2163235 0.8065710
0.6809447 0.2085785 0.8131253
0.7497540 0.2083043 0.8130966
0.8035746 0.2080525 0.8130699
0.0597165 0.3920037 0.8089746
0.1921876 0.3903327 0.8088514
0.3516040 0.3893169 0.8087777
0.4875596 0.3790636 0.8152714
0.6110612 0.3784683 0.8152292
0.6977031 0.3780141 0.8151971
0.7562333 0.3776655 0.8151722
0.8091703 0.3678482 0.8213112
0.0811563 0.5250567 0.8168955
0.2224888 0.5234919 0.8167903
0.3825775 0.5224867 0.8167239
0.5089161 0.5218273 0.8166808
0.6203227 0.5212481 0.8166429
0.7054381 0.5099860 0.8227332
0.7637368 0.5096064 0.8227087
0.8153214 0.5092118 0.8226832
0.1052744 0.6348687 0.8179606
0.2564807 0.6335360 0.8178658
0.4025370 0.6326182 0.8239999
0.5318871 0.6319914 0.8239576
0.6406174 0.6314549 0.8239213
0.7132272 0.6310592 0.8238944
0.7802562 0.6306368 0.8238657
0.8215880 0.6302241 0.8297749
0.1355027 0.7190282 0.8250219
0.2836081 0.7180297 0.8249435
0.4345101 0.7173284 0.8248892
0.5552652 0.7082487 0.8247536
0.6606810 0.7076854 0.8306252
0.7312740 0.7073313 0.8305990
0.7878993 0.7070022 0.8305746
0.8279809 0.7067278 0.8305542
0.1593264 0.7735620 0.8256719
0.3125057 0.7727478 0.8255987
0.4560715 0.7721091 0.8314340
0.5787295 0.7643955 0.8313044
0.6699942 0.7640353 0.8312741
0.7402287 0.7637228 0.8312478
0.7955165 0.7634356 0.8312234
0.8343623 0.7631159 0.8369367
0.1941012 0.8133336 0.8320792
0.3432351 0.8127128 0.8320167
0.4896484 0.8122339 0.8319692
0.6018801 0.8118785 0.8319340
0.6896801 0.8051772 0.8375302
0.7491831 0.8049406 0.8375079
0.8030926 0.8046906 0.8374842
0.8406657 0.8044834 0.8374646
