Plugins/FilmEmulator/Content/LUTs/FE_Fujifilm_Eterna_250D_8563_64.cube
# FilmEmulator LUT (resampled to 64)
LUT_3D_SIZE 8
0.000000 0.000671 0.003326
0.062526 0.014038 0.018965
0.225678 0.052411 0.050594
0.358150 0.086204 0.065495
0.439702 0.101026 0.071132
0.511178 0.112148 0.075810
0.567518 0.118268 0.078505
0.621033 0.123291 0.080780
0.000000 0.098005 0.063455
0.035360 0.100363 0.035282
0.224431 0.126812 0.059593
0.359391 0.147700 0.069910
0.458325 0.157881 0.076259
0.533749 0.164494 0.080586
0.597626 0.170851 0.084170
0.654349 0.175729 0.086980
0.000000 0.209202 0.093737
0.010024 0.202963 0.076885
0.223003 0.240458 0.063174
0.396437 0.273405 0.099290
0.508889 0.285260 0.108555
0.586844 0.288175 0.112754
0.654863 0.289805 0.115846
0.710606 0.289939 0.117502
0.000000 0.296452 0.107400
0.000593 0.292957 0.104391
0.222864 0.343038 0.105268
0.397456 0.365407 0.102719
0.545003 0.406084 0.144867
0.626615 0.410277 0.149348
0.699314 0.411672 0.151829
0.758619 0.411595 0.153054
0.000445 0.357875 0.145909
0.038241 0.382387 0.140766
0.236480 0.431677 0.149753
0.403840 0.469362 0.146622
0.537372 0.481258 0.138038
0.647571 0.513931 0.168416
0.735783 0.526115 0.184407
0.797202 0.526659 0.186114
0.029606 0.419503 0.204938
0.085425 0.454439 0.201121
0.251173 0.503994 0.197713
0.419700 0.552598 0.189933
0.544734 0.579201 0.179652
0.639617 0.582803 0.166381
0.729327 0.602803 0.179659
0.814584 0.620200 0.200949
0.065892 0.478041 0.266022
0.115771 0.517984 0.271440
0.259323 0.561924 0.267779
0.430331 0.613004 0.246097
0.556073 0.648621 0.221008
0.648951 0.666698 0.203596
0.727199 0.674210 0.192036
0.796173 0.674704 0.183350
0.095917 0.528717 0.318420
0.137320 0.565312 0.327920
0.268738 0.608216 0.331377
0.433432 0.654654 0.319101
0.557478 0.697296 0.292947
0.652331 0.727343 0.264543
0.729492 0.744372 0.239755
0.803986 0.752014 0.220398
0.000000 0.009330 0.033107
0.026197 0.011692 0.073361
0.200256 0.043290 0.089788
0.337034 0.079064 0.104366
0.433061 0.098786 0.109873
0.510396 0.111973 0.114394
0.571548 0.119637 0.117741
0.625139 0.124739 0.120130
0.000000 0.055079 0.046163
0.022878 0.078169 0.090965
0.191882 0.111404 0.105313
0.332145 0.135180 0.113166
0.445631 0.150637 0.116730
0.526014 0.160326 0.119494
0.596739 0.169130 0.122858
0.654708 0.173953 0.125978
0.000000 0.177413 0.109821
0.010024 0.202935 0.137578
0.188426 0.239402 0.125887
0.376689 0.267306 0.149505
0.497033 0.280415 0.150237
0.580899 0.284142 0.152805
0.653797 0.287502 0.155346
0.713054 0.289171 0.156687
0.000000 0.279807 0.163096
0.000593 0.312820 0.190616
0.180376 0.356038 0.170656
0.374189 0.375195 0.158584
0.533080 0.408425 0.188423
0.625790 0.415533 0.193134
0.700878 0.417135 0.194855
0.761830 0.415090 0.195514
0.000000 0.362486 0.213508
0.000000 0.404872 0.237285
0.180751 0.451301 0.226831
0.384315 0.485725 0.211173
0.521772 0.493225 0.193435
0.637695 0.517412 0.212800
0.734051 0.533538 0.230160
0.799909 0.533746 0.230123
0.000000 0.427124 0.260932
0.036968 0.474189 0.284167
0.193042 0.524881 0.286677
0.395925 0.571464 0.270160
0.531387 0.594271 0.248026
0.633461 0.599601 0.229268
0.719085 0.603604 0.226923
0.807610 0.624727 0.250196
0.032230 0.485770 0.305939
0.088812 0.529779 0.328294
0.204932 0.576496 0.337151
0.405678 0.626867 0.323993
0.537286 0.661513 0.305187
0.640058 0.680057 0.283595
0.720799 0.686228 0.266644
0.794679 0.681326 0.251373
0.080392 0.535841 0.348271
0.116223 0.571615 0.367371
0.227724 0.617704 0.379344
0.414477 0.664303 0.372268
0.542195 0.706587 0.354673
0.642612 0.735664 0.333306
0.721959 0.752543 0.315055
0.797747 0.762381 0.299417
0.000000 0.017787 0.085855
0.001330 0.021216 0.124128
0.172305 0.045833 0.195086
0.328851 0.083835 0.194457
0.432782 0.105298 0.204651
0.512000 0.119089 0.208156
0.576261 0.127421 0.209363
0.631522 0.132429 0.208265
0.000000 0.143422 0.185962
0.001330 0.080214 0.176140
0.129231 0.100590 0.239871
0.323162 0.135586 0.213597
0.437597 0.153729 0.222274
0.520837 0.165106 0.224447
0.594019 0.174819 0.225110
0.655226 0.181475 0.227031
0.000000 0.151951 0.139351
0.001330 0.174053 0.189536
0.114682 0.219781 0.243581
0.357163 0.273288 0.269629
0.481874 0.285736 0.272133
0.569965 0.289434 0.268982
0.645940 0.291666 0.266350
0.708894 0.294237 0.266147
0.000000 0.248789 0.195974
0.000508 0.266991 0.223706
0.066141 0.361337 0.281024
0.345782 0.386009 0.284875
0.519060 0.420444 0.317214
0.613853 0.425210 0.313694
0.691525 0.425698 0.309227
0.756352 0.423695 0.305080
0.000000 0.344489 0.250546
0.000000 0.383680 0.286288
0.076585 0.463030 0.327826
0.349528 0.497169 0.324916
0.497935 0.505664 0.314439
0.632068 0.532500 0.336627
0.723883 0.545817 0.346537
0.793306 0.545706 0.343327
0.000000 0.423684 0.297620
0.000000 0.468881 0.330855
0.108424 0.535088 0.368820
0.362178 0.582753 0.366307
0.506016 0.605085 0.355038
0.618554 0.610484 0.340563
0.713566 0.614600 0.341599
0.804896 0.638525 0.361965
0.000000 0.485928 0.340051
0.039179 0.528126 0.369669
0.131476 0.586171 0.405143
0.373855 0.638587 0.404819
0.513948 0.671740 0.392675
0.624131 0.690797 0.378243
0.707952 0.696474 0.364521
0.786433 0.691841 0.352155
0.050494 0.538805 0.380328
0.089308 0.575971 0.407034
0.184976 0.626234 0.437685
0.387141 0.677234 0.444053
0.521664 0.718336 0.430984
0.628219 0.746522 0.416151
0.708981 0.762043 0.399960
0.786665 0.769567 0.387469
0.000000 0.027928 0.172032
0.000000 0.034103 0.211968
0.122676 0.061309 0.283682
0.300764 0.085905 0.288571
0.431069 0.110587 0.288380
0.509340 0.123535 0.298271
0.577205 0.133389 0.301482
0.630567 0.138027 0.299988
0.000000 0.178228 0.289505
0.000000 0.080960 0.225755
0.074880 0.097843 0.319538
0.270521 0.115501 0.326705
0.429008 0.146577 0.315537
0.518053 0.165441 0.313280
0.590316 0.178255 0.318560
0.652057 0.185816 0.320255
0.000000 0.225815 0.270765
0.000000 0.228537 0.285628
0.043798 0.224608 0.365007
0.303412 0.246615 0.376734
0.472593 0.281869 0.365242
0.561714 0.290330 0.367187
0.637824 0.293668 0.367166
0.702463 0.295714 0.365924
0.000000 0.219551 0.218381
0.000000 0.234454 0.243829
0.023235 0.319998 0.332759
0.321936 0.374978 0.376365
0.501134 0.424445 0.417858
0.601836 0.429441 0.416803
0.679506 0.430261 0.413779
0.747507 0.429807 0.411104
0.000000 0.308467 0.261673
0.000000 0.325917 0.280296
0.014979 0.398147 0.339535
0.313538 0.498193 0.414621
0.477718 0.509292 0.416612
0.631636 0.549204 0.454505
0.709911 0.550966 0.451841
0.781588 0.550417 0.446564
0.000000 0.398625 0.318007
0.000000 0.430377 0.345287
0.007352 0.494003 0.391697
0.326563 0.588512 0.450584
0.482097 0.611471 0.450067
0.600810 0.615012 0.441014
0.712903 0.631010 0.456323
0.804128 0.654567 0.476262
0.000000 0.476504 0.365529
0.000000 0.510072 0.392032
0.047486 0.566326 0.436585
0.338011 0.644182 0.478484
0.490131 0.679510 0.478847
0.605948 0.698334 0.472072
0.692111 0.704080 0.462234
0.775575 0.700545 0.453323
0.011732 0.536813 0.405888
0.053982 0.570591 0.433892
0.148908 0.619773 0.470257
0.353975 0.684091 0.504478
0.499069 0.726957 0.506710
0.611427 0.755263 0.499409
0.692514 0.769207 0.489382
0.773324 0.776184 0.479453
0.000000 0.038173 0.219116
0.000000 0.053768 0.267806
0.112870 0.075836 0.329661
0.264245 0.092625 0.352406
0.397884 0.113003 0.360754
0.499884 0.128177 0.370966
0.581005 0.131810 0.378363
0.632900 0.141636 0.375048
0.000000 0.177764 0.347284
0.000000 0.080814 0.264568
0.063925 0.096210 0.364958
0.246511 0.113717 0.383435
0.380447 0.132736 0.396076
0.493294 0.155938 0.399614
0.590778 0.175046 0.404377
0.658239 0.182665 0.404530
0.000000 0.264643 0.341843
0.000000 0.259745 0.348648
0.006115 0.216824 0.399557
0.274998 0.241460 0.445856
0.412618 0.251918 0.450207
0.538905 0.273440 0.452491
0.636688 0.286334 0.453728
0.703337 0.290564 0.447123
0.000000 0.283656 0.323423
0.000000 0.296729 0.342740
0.000663 0.352160 0.402408
0.274924 0.362107 0.466179
0.461115 0.396837 0.487930
0.591484 0.428153 0.491729
0.668512 0.430341 0.496356
0.740419 0.430267 0.496715
0.000000 0.286036 0.287210
0.000000 0.296599 0.300940
0.000663 0.359745 0.362739
0.270126 0.453274 0.428590
0.474607 0.512662 0.497498
0.618221 0.552974 0.539892
0.697912 0.553824 0.538940
0.771185 0.553565 0.537021
0.000000 0.366014 0.318112
0.000000 0.380566 0.332072
0.000663 0.415523 0.363311
0.260538 0.541583 0.465311
0.459738 0.606490 0.520689
0.585200 0.611361 0.522434
0.714290 0.648206 0.558846
0.797944 0.662035 0.569043
0.000000 0.454065 0.377272
0.000000 0.474554 0.395549
0.000289 0.516136 0.428380
0.282714 0.612990 0.495794
0.468184 0.681009 0.544967
0.592327 0.702982 0.549632
0.678967 0.707029 0.544066
0.776488 0.712359 0.547628
0.000000 0.516989 0.419337
0.000000 0.542832 0.438761
0.059943 0.587831 0.470127
0.314411 0.664693 0.525897
0.474717 0.727268 0.564338
0.596698 0.758428 0.568719
0.678160 0.772436 0.564489
0.761427 0.780670 0.559095
0.000000 0.056183 0.259940
0.000000 0.068119 0.331253
0.129062 0.087318 0.371457
0.257668 0.105194 0.388780
0.362092 0.115507 0.410853
0.460374 0.128451 0.425373
0.549955 0.137971 0.436489
0.624363 0.142522 0.442753
0.000000 0.132533 0.339095
0.000000 0.082851 0.311519
0.088568 0.099895 0.407517
0.240013 0.116592 0.421786
0.358407 0.133180 0.441769
0.450947 0.147255 0.455719
0.549076 0.165688 0.465142
0.635349 0.180302 0.475249
0.000000 0.291858 0.402242
0.000000 0.275265 0.407871
0.000004 0.213377 0.438587
0.266751 0.239576 0.493388
0.391683 0.246084 0.503178
0.486764 0.249828 0.510694
0.588818 0.264746 0.517558
0.677357 0.276945 0.523628
0.000000 0.338952 0.404389
0.000000 0.351760 0.420458
0.000004 0.380649 0.458827
0.214935 0.360079 0.519439
0.419125 0.378007 0.546537
0.535461 0.391782 0.553617
0.641815 0.410602 0.562618
0.734432 0.423752 0.569523
0.000000 0.338316 0.370173
0.000000 0.354070 0.387994
0.000004 0.401077 0.434695
0.225026 0.461302 0.499567
0.403166 0.469767 0.539656
0.598062 0.535615 0.590589
0.683297 0.552566 0.600091
0.757477 0.553401 0.606996
0.000000 0.352065 0.350205
0.000000 0.362318 0.361108
0.000004 0.394195 0.387710
0.224500 0.484560 0.447143
0.428686 0.577008 0.542676
0.592164 0.618667 0.598974
0.708941 0.658858 0.642369
0.783865 0.661938 0.643054
0.000000 0.420220 0.368300
0.000000 0.433726 0.379931
0.000004 0.460580 0.402427
0.212451 0.556404 0.481768
0.427801 0.648248 0.567196
0.572071 0.693181 0.610331
0.657056 0.698134 0.611242
0.783508 0.728357 0.642709
0.000000 0.494681 0.421583
0.000000 0.513610 0.436124
0.000229 0.545940 0.458955
0.247947 0.617884 0.514447
0.434430 0.702215 0.585489
0.581418 0.756817 0.629316
0.664348 0.773103 0.633194
0.749389 0.779519 0.632045
0.000000 0.069541 0.323321
0.001353 0.077163 0.383759
0.152977 0.096579 0.400431
0.261465 0.115863 0.410685
0.352016 0.125596 0.437022
0.424926 0.129343 0.458753
0.509518 0.137394 0.476011
0.582698 0.140189 0.489175
0.000000 0.092198 0.323978
0.000000 0.086773 0.357304
0.115645 0.104797 0.437635
0.244694 0.122169 0.448018
0.352120 0.138972 0.472290
0.427635 0.149049 0.492251
0.508460 0.159152 0.512792
0.593424 0.172682 0.529963
0.000000 0.303927 0.438962
0.000000 0.279994 0.477875
0.000004 0.211348 0.468957
0.264653 0.236663 0.520889
0.384427 0.243268 0.538396
0.468107 0.245705 0.552943
0.544712 0.246473 0.566158
0.628356 0.256273 0.577104
0.000000 0.378805 0.464224
0.000000 0.390580 0.480266
0.000004 0.397804 0.499823
0.175270 0.357837 0.553287
0.410227 0.377490 0.589827
0.503694 0.377919 0.597980
0.584280 0.381617 0.609401
0.677169 0.394599 0.622481
0.000000 0.407256 0.461257
0.000000 0.416978 0.472203
0.000004 0.441843 0.496606
0.216672 0.482159 0.540955
0.367447 0.470692 0.582993
0.529580 0.489126 0.624059
0.629006 0.510652 0.645169
0.728769 0.530481 0.661338
0.000000 0.394945 0.416535
0.000000 0.406607 0.429280
0.000004 0.429378 0.451329
0.191980 0.498134 0.515218
0.374332 0.542327 0.554175
0.553067 0.595067 0.616229
0.696641 0.652798 0.685220
0.766169 0.661836 0.699720
0.000000 0.411327 0.397240
0.000000 0.420998 0.404826
0.000004 0.435046 0.417339
0.187209 0.503751 0.458682
0.387617 0.603893 0.558822
0.554307 0.675402 0.636859
0.644720 0.691120 0.663341
0.782351 0.742531 0.722295
0.000000 0.469356 0.411508
0.000000 0.485705 0.425209
0.000004 0.509396 0.444704
0.178297 0.560655 0.489348
0.389630 0.654766 0.577910
0.554362 0.729563 0.651456
0.642954 0.758270 0.680008
0.726074 0.767133 0.686410
0.000000 0.077637 0.392639
0.062439 0.088719 0.410479
0.179522 0.105028 0.423113
0.272556 0.121914 0.429918
0.347508 0.133493 0.447606
0.409314 0.136291 0.473598
0.478459 0.140054 0.495134
0.548615 0.143402 0.519623
0.000000 0.086984 0.349383
0.000000 0.092791 0.415636
0.148386 0.112307 0.462715
0.260436 0.127589 0.470753
0.351562 0.144004 0.486449
0.417922 0.153607 0.509961
0.487891 0.161970 0.535369
0.557151 0.167960 0.557804
0.000000 0.311171 0.514055
0.000000 0.254652 0.489220
0.004537 0.211866 0.507474
0.268835 0.235629 0.543331
0.385099 0.241705 0.556178
0.458000 0.240899 0.571209
0.526900 0.244895 0.590912
0.594879 0.245810 0.608347
0.000000 0.412362 0.511649
0.000000 0.417914 0.521227
0.000004 0.403230 0.528174
0.161454 0.356548 0.582246
0.397805 0.373624 0.609781
0.495356 0.376470 0.623706
0.562303 0.373130 0.635091
0.636570 0.377542 0.651193
0.000000 0.446995 0.511636
0.000000 0.458446 0.522473
0.000004 0.478986 0.545638
0.226495 0.498009 0.570800
0.330718 0.462988 0.600873
0.515435 0.483635 0.653282
0.588388 0.485804 0.664398
0.677743 0.502032 0.686951
0.000000 0.458989 0.497632
0.000000 0.472443 0.510285
0.000004 0.489127 0.525791
0.199852 0.531756 0.561216
0.362161 0.556089 0.585675
0.492089 0.562700 0.628215
0.633029 0.600769 0.695795
0.734702 0.631012 0.723859
0.000000 0.445657 0.457628
0.000000 0.455193 0.466978
0.000004 0.471216 0.482482
0.187520 0.519972 0.522530
0.351962 0.568701 0.560620
0.513354 0.657404 0.637137
0.610236 0.678429 0.675622
0.775408 0.746290 0.765494
0.000000 0.466797 0.436615
0.000000 0.475547 0.446093
0.001692 0.488521 0.453853
0.173811 0.519596 0.470799
0.350529 0.613630 0.561624
0.532698 0.699236 0.650979
0.632163 0.742497 0.699101
0.705780 0.751251 0.718079
