Plugins/FilmEmulator/Content/LUTs/FE_Fuji_CA_Super_C_64.cube
TITLE "FE_Fuji_CA_Super_C_33"
LUT_3D_SIZE 4
0.0000000 0.0470690 0.0707880
0.9985785 0.2950414 0.1199739
1.0000000 0.5320619 0.2734400
1.0000000 0.6121371 0.3763100
0.3050267 0.9711239 0.6079441
0.9129191 0.9770836 0.5876975
0.9922314 0.9868773 0.5790915
0.9989151 0.9869365 0.6227009
0.5269994 0.9963885 0.8468289
0.9505038 0.9933989 0.8307102
0.9910603 0.9968091 0.8186157
0.9934804 0.9987039 0.7969077
0.6547759 0.9940034 0.9517550
0.9714081 0.9918056 0.9426863
0.9949281 0.9936355 0.9352125
0.9971515 0.9945421 0.9216864
0.4844115 0.3882605 0.9999798
1.0000000 0.5988251 0.9680957
1.0000000 0.6934886 0.9574121
1.0000000 0.7333421 0.9497640
0.7180777 0.9729427 0.9824191
0.9832814 0.9802203 0.9784694
0.9990876 0.9826481 0.9778793
1.0000000 0.9832439 0.9768052
0.8116561 0.9890912 0.9864580
0.9873784 0.9910790 0.9844509
0.9964953 0.9920571 0.9844621
0.9983184 0.9923267 0.9841048
0.8653341 0.9912120 0.9879502
0.9899938 0.9929243 0.9868771
0.9964162 0.9935760 0.9869190
0.9978916 0.9937633 0.9867659
0.8304551 0.6354789 1.0000000
1.0000000 0.7491698 0.9910049
1.0000000 0.7847525 0.9884185
1.0000000 0.8112385 0.9867834
0.9063284 0.9807244 0.9881538
0.9933631 0.9860639 0.9873033
0.9985950 0.9871053 0.9873813
1.0000000 0.9873508 0.9872997
0.9432076 0.9900344 0.9891771
0.9935271 0.9923554 0.9890375
0.9971608 0.9928430 0.9891032
0.9982845 0.9930033 0.9890944
0.9642355 0.9920436 0.9896403
0.9942673 0.9936238 0.9897278
0.9970466 0.9939708 0.9898062
0.9980163 0.9941166 0.9898168
0.9904139 0.7845896 0.9944950
1.0000000 0.8264859 0.9905980
1.0000000 0.8347145 0.9899379
1.0000000 0.8546340 0.9889695
0.9781868 0.9866148 0.9891738
0.9961992 0.9886770 0.9892670
0.9987024 0.9892002 0.9893220
0.9996318 0.9894286 0.9893444
0.9848572 0.9919453 0.9901059
0.9957174 0.9929792 0.9902581
0.9976250 0.9932680 0.9903275
0.9983848 0.9934006 0.9903514
0.9884550 0.9932740 0.9905166
0.9959217 0.9939842 0.9906762
0.9975082 0.9942056 0.9907389
0.9981607 0.9943075 0.9907465
