Plugins/FilmEmulator/Content/LUTs/FE_Fuji_Eterna_500_64.cube
TITLE "FE_Fuji_Eterna_500_33"
LUT_3D_SIZE 8
0.0037835 0.0027674 0.0036999
0.0680064 0.0042168 0.0046519
0.1799258 0.0089016 0.0071511
0.3026519 0.0159314 0.0104147
0.4083461 0.0231218 0.0145424
0.4996768 0.0310829 0.0194515
0.5638095 0.0397260 0.0245492
0.6125394 0.0492976 0.0300886
0.0061169 0.0902965 0.0069094
0.0811385 0.1037440 0.0087337
0.1878311 0.1151909 0.0122729
0.3075916 0.1278407 0.0167372
0.4157078 0.1369388 0.0216067
0.4966641 0.1519735 0.0272411
0.5620725 0.1627268 0.0321723
0.6103802 0.1801423 0.0382392
0.0136083 0.2285400 0.0137644
0.0954325 0.2419447 0.0165580
0.2044525 0.2488550 0.0194077
0.3208759 0.2637388 0.0235166
0.4200042 0.2788152 0.0287133
0.5004299 0.2863967 0.0350771
0.5658330 0.3023771 0.0416226
0.6055444 0.3104872 0.0477128
0.0237013 0.3571873 0.0230604
0.1134349 0.3652040 0.0262919
0.2239959 0.3738297 0.0290396
0.3367233 0.3826435 0.0331407
0.4374886 0.3916571 0.0367229
0.5063560 0.4007436 0.0435214
0.5706871 0.4099567 0.0499490
0.6102750 0.4192863 0.0574768
0.0351647 0.4613872 0.0334501
0.1301295 0.4704078 0.0370432
0.2456723 0.4798462 0.0410251
0.3539422 0.4794576 0.0438776
0.4454187 0.4891523 0.0486216
0.5225301 0.4989482 0.0521881
0.5760634 0.5087056 0.0600348
0.6154763 0.5185407 0.0666556
0.0488184 0.5512236 0.0442379
0.1442950 0.5503780 0.0489476
0.2607871 0.5589459 0.0525202
0.3714874 0.5676165 0.0563477
0.4539356 0.5673319 0.0603906
0.5299066 0.5760885 0.0647654
0.5822971 0.5758766 0.0694123
0.6215519 0.5846151 0.0773197
0.0631415 0.6133516 0.0586681
0.1658107 0.6126449 0.0628414
0.2763992 0.6209689 0.0650865
0.3801402 0.6206215 0.0697460
0.4718544 0.6289894 0.0749645
0.5379195 0.6287556 0.0804786
0.5886328 0.6371897 0.0834437
0.6279082 0.6370102 0.0895336
0.0788151 0.6543227 0.0700537
0.1835961 0.6611505 0.0752610
0.2930850 0.6607406 0.0807805
0.3991147 0.6678274 0.0837368
0.4801924 0.6675718 0.0898392
0.5460001 0.6746951 0.0931077
0.5955681 0.6745059 0.0998344
0.6343692 0.6816041 0.1033775
0.0048124 0.0039551 0.0987618
0.0816359 0.0064642 0.1032899
0.1933384 0.0101142 0.1080011
0.3127289 0.0168534 0.1169880
0.4197813 0.0236313 0.1219681
0.5009068 0.0307819 0.1269180
0.5649045 0.0393812 0.1319644
0.6135002 0.0489124 0.1370782
0.0110355 0.0922174 0.1223013
0.0912406 0.1023924 0.1266664
0.2024398 0.1138738 0.1312615
0.3180412 0.1265649 0.1359946
0.4270110 0.1406226 0.1408721
0.5072205 0.1507729 0.1457732
0.5627944 0.1672330 0.1509673
0.6112838 0.1789790 0.1561714
0.0201788 0.2261477 0.1384217
0.1072865 0.2397148 0.1431266
0.2198047 0.2542688 0.1480423
0.3314562 0.2616947 0.1529850
0.4315385 0.2768697 0.1582110
0.5109074 0.2845999 0.1634507
0.5667666 0.3006895 0.1689861
0.6142287 0.3088751 0.1745257
0.0307774 0.3545852 0.1546930
0.1225936 0.3627954 0.1597353
0.2404854 0.3714740 0.1649734
0.3474461 0.3804112 0.1703785
0.4490658 0.3894902 0.1759356
0.5167712 0.3987357 0.1816511
0.5715773 0.4080882 0.1875184
0.6188581 0.4175754 0.1876600
0.0441597 0.4589078 0.1717744
0.1405757 0.4681015 0.1772902
0.2546818 0.4776489 0.1829994
0.3644269 0.4873528 0.1888755
0.4569137 0.4871377 0.1888412
0.5234339 0.4970031 0.1948822
0.5768839 0.5069056 0.2010656
0.6239969 0.5168202 0.2074007
0.0569004 0.5490084 0.1900600
0.1613408 0.5482739 0.1958749
0.2698629 0.5569951 0.1959638
0.3822880 0.5657218 0.2021293
0.4649834 0.5654852 0.2083014
0.5307415 0.5743202 0.2147854
0.5828173 0.5831898 0.2149271
0.6299763 0.5830349 0.2214045
0.0736437 0.6114916 0.2031091
0.1784660 0.6108752 0.2092331
0.2946482 0.6192128 0.2156978
0.3909573 0.6189821 0.2156546
0.4820257 0.6274158 0.2222970
0.5386584 0.6272507 0.2289339
0.5893537 0.6357000 0.2358894
0.6283346 0.6435304 0.2360335
0.0883686 0.6601067 0.2231548
0.1975626 0.6596099 0.2230540
0.3117139 0.6666344 0.2298177
0.4100820 0.6663736 0.2365940
0.4900793 0.6735243 0.2367150
0.5560622 0.6733504 0.2436532
0.5962149 0.6732260 0.2507440
0.6349716 0.6803824 0.2508878
0.0090628 0.0081792 0.2377592
0.0899140 0.0121456 0.2395158
0.2050486 0.0167884 0.2481389
0.3305179 0.0213247 0.2565618
0.4300091 0.0259617 0.2575831
0.5103606 0.0328915 0.2662557
0.5744567 0.0406170 0.2674135
0.6215154 0.0505332 0.2762295
0.0167979 0.0951560 0.2653049
0.1022133 0.1057086 0.2657127
0.2171497 0.1175285 0.2738035
0.3372945 0.1305962 0.2743902
0.4379987 0.1400798 0.2824920
0.5074471 0.1555505 0.2909945
0.5725998 0.1666336 0.2914262
0.6195645 0.1783471 0.2998664
0.0270093 0.2323266 0.2785222
0.1199589 0.2462334 0.2865287
0.2356247 0.2533858 0.2945589
0.3413133 0.2684638 0.2949374
0.4425332 0.2759955 0.3031560
0.5205498 0.2917854 0.3035621
0.5752919 0.2998148 0.3119480
0.6224432 0.3080279 0.3121494
0.0399489 0.3534524 0.2974648
0.1371106 0.3617314 0.3055974
0.2487655 0.3797402 0.3059476
0.3575167 0.3887598 0.3143314
0.4492396 0.3979860 0.3145090
0.5263854 0.4072849 0.3230530
0.5797602 0.4167554 0.3232556
0.6190247 0.4262746 0.3319482
0.0533707 0.4577612 0.3162397
0.1514309 0.4670688 0.3163111
0.2719241 0.4766141 0.3248247
0.3747228 0.4863909 0.3249957
0.4672919 0.4961902 0.3336866
0.5332963 0.4960431 0.3336515
0.5853154 0.5059478 0.3424860
0.6243845 0.5159306 0.3427050
0.0662906 0.5479788 0.3266975
0.1734948 0.5472907 0.3350715
0.2875164 0.5560157 0.3351979
0.3927908 0.5647710 0.3439953
0.4747810 0.5645862 0.3439497
0.5405670 0.5734249 0.3529170
0.5911952 0.5823020 0.3531113
0.6303617 0.5821642 0.3619940
0.0825049 0.6105228 0.3453740
0.1918170 0.6099745 0.3452345
0.3040360 0.6183436 0.3541678
0.4015286 0.6181133 0.3541079
0.4824350 0.6265764 0.3632046
0.5481843 0.6350478 0.3633936
0.5976719 0.6348969 0.3723879
0.6363683 0.6427345 0.3725768
0.0990751 0.6592773 0.3554179
0.2121066 0.6587560 0.3642189
0.3213924 0.6658568 0.3643395
0.4208065 0.6655962 0.3733115
0.4999054 0.6727576 0.3734704
0.5564463 0.6726019 0.3825677
0.6042468 0.6797493 0.3827458
0.6429885 0.6796256 0.3919432
0.0154150 0.0146457 0.3697733
0.1031880 0.0192356 0.3713069
0.2182422 0.0234943 0.3725210
0.3384748 0.0285798 0.3828890
0.4390596 0.0328201 0.3837752
0.5187716 0.0391282 0.3849380
0.5832259 0.0451418 0.3951423
0.6215475 0.0522922 0.3961519
0.0240321 0.0983615 0.3919613
0.1142803 0.1092879 0.3925028
0.2324804 0.1214900 0.3931730
0.3473474 0.1302594 0.4029427
0.4380184 0.1447833 0.4037037
0.5172113 0.1551863 0.4136099
0.5806479 0.1720577 0.4143980
0.6195619 0.1841152 0.4149250
0.0350360 0.2316945 0.4079398
0.1291931 0.2456929 0.4082474
0.2438745 0.2528521 0.4178319
0.3613491 0.2678911 0.4182723
0.4533896 0.2754704 0.4184743
0.5208692 0.2912206 0.4284654
0.5835978 0.2992665 0.4286885
0.6224795 0.3158702 0.4387691
0.0482266 0.3617660 0.4214964
0.1475249 0.3702431 0.4215618
0.2658518 0.3790444 0.4312389
0.3676700 0.3881289 0.4314281
0.4601524 0.3973024 0.4412291
0.5361062 0.4066460 0.4414460
0.5880436 0.4161140 0.4416772
0.6270503 0.4256285 0.4515785
0.0620802 0.4570277 0.4335993
0.1688266 0.4663041 0.4432949
0.2807677 0.4759466 0.4434595
0.3850129 0.4857229 0.4436535
0.4769832 0.4955238 0.4535350
0.5427203 0.5054482 0.4537628
0.5935468 0.5053333 0.4537317
0.6323671 0.5152661 0.4636900
0.0771284 0.5472408 0.4455649
0.1861929 0.5557006 0.4553281
0.2966737 0.5553515 0.4552329
0.4032499 0.5641586 0.4554043
0.4842332 0.5729626 0.4653198
0.5502312 0.5728182 0.4652798
0.5993924 0.5817008 0.4654939
0.6382720 0.5815630 0.4752243
0.0924487 0.6098809 0.4569182
0.2059656 0.6093067 0.4664960
0.3134825 0.6177530 0.4666524
0.4118203 0.6262118 0.4668314
0.4921376 0.6259940 0.4765411
0.5578244 0.6344705 0.4767463
0.5979371 0.6343390 0.4865054
0.6366239 0.6421814 0.4867087
0.1109075 0.6586236 0.4777724
0.2197210 0.6581914 0.4776428
0.3311358 0.6652985 0.4777738
0.4315036 0.6650382 0.4874941
0.5001794 0.6722267 0.4876712
0.5647877 0.6720990 0.4876317
0.6045105 0.6792238 0.4976285
0.6432211 0.6791438 0.4976036
0.0225343 0.0213402 0.4766147
0.1145438 0.0259097 0.4777540
0.2323756 0.0305637 0.4788232
0.3467841 0.0364328 0.4898095
0.4479852 0.0419089 0.4907733
0.5270679 0.0467707 0.4915349
0.5820534 0.0541627 0.4925878
0.6284355 0.0604098 0.5031812
0.0310603 0.0981372 0.4878146
0.1276827 0.1090553 0.4982121
0.2406038 0.1212542 0.4989331
0.3571725 0.1347357 0.4996920
0.4488049 0.1445097 0.5100148
0.5265783 0.1604043 0.5108232
0.5808717 0.1717821 0.5113604
0.6275403 0.1837847 0.5217096
0.0437759 0.2384666 0.5048687
0.1443590 0.2452413 0.5147428
0.2604463 0.2601156 0.5151764
0.3714884 0.2674895 0.5153633
0.4639752 0.2829004 0.5256444
0.5305309 0.2907994 0.5258709
0.5835466 0.3071443 0.5263723
0.6303916 0.3154730 0.5266097
0.0581944 0.3612021 0.5186644
0.1587225 0.3696914 0.5285522
0.2745140 0.3785571 0.5287091
0.3778146 0.3876377 0.5289026
0.4705760 0.3968548 0.5291111
0.5363342 0.4061688 0.5391222
0.5882666 0.4156331 0.5393564
0.6272441 0.4251929 0.5395979
0.0721858 0.4664246 0.5313708
0.1813037 0.4658096 0.5312023
0.2897367 0.4754263 0.5411558
0.3953508 0.4852022 0.5413523
0.4866070 0.4950550 0.5415651
0.5429476 0.5049508 0.5514997
0.5937684 0.5048357 0.5514683
0.6325594 0.5148184 0.5517122
0.0896492 0.5466491 0.5432662
0.1999644 0.5552063 0.5433622
0.3151954 0.5548097 0.5529619
0.4137622 0.5636438 0.5531406
0.4938700 0.5725019 0.5533356
0.5504355 0.5723780 0.5533013
0.5996131 0.5812143 0.5631736
0.6382226 0.5900725 0.5633923
0.1035458 0.6093330 0.5546446
0.2132002 0.6176116 0.5547532
0.3230348 0.6173036 0.5546654
0.4224043 0.6257200 0.5644970
0.5017835 0.6255519 0.5644487
0.5661157 0.6340349 0.5646530
0.6060265 0.6339036 0.5742378
0.6444572 0.6417499 0.5744377
0.1239449 0.6581499 0.5656542
0.2353119 0.6577387 0.5655320
0.3409734 0.6648739 0.5656688
0.4422059 0.6646143 0.5752087
0.5098298 0.6718097 0.5753837
0.5730518 0.6716843 0.5753456
0.6125346 0.6788574 0.5755372
0.6510141 0.6787338 0.5850644
0.0299223 0.0277075 0.5565545
0.1271739 0.0327936 0.5671808
0.2472147 0.0390643 0.5683224
0.3653297 0.0450569 0.5692747
0.4573473 0.0502960 0.5700202
0.5352501 0.0561198 0.5707764
0.5891217 0.0625950 0.5811223
0.6275113 0.0699387 0.5819140
0.0402316 0.1015590 0.5756592
0.1372962 0.1128788 0.5762739
0.2569846 0.1254516 0.5769810
0.3673800 0.1345237 0.5869970
0.4592827 0.1494744 0.5877743
0.5361845 0.1601862 0.5882843
0.5890377 0.1715528 0.5888082
0.6277118 0.1835531 0.5988047
0.0528628 0.2380644 0.5920095
0.1551738 0.2524303 0.5923564
0.2691749 0.2597972 0.5925168
0.3813715 0.2748988 0.5929584
0.4743883 0.2825662 0.6025999
0.5401294 0.2904608 0.6028188
0.5916985 0.3067967 0.6033034
0.6305628 0.3151354 0.6035370
0.0677283 0.3607514 0.5958816
0.1705789 0.3692793 0.6053956
0.2921542 0.3781418 0.6055470
0.3981830 0.3872195 0.6057338
0.4801617 0.3964584 0.6059416
0.5459188 0.4057691 0.6154994
0.5963917 0.4152333 0.6157244
0.6350951 0.4247901 0.6159555
0.0838822 0.4659345 0.6080954
0.1945095 0.4753823 0.6082052
0.3079648 0.4749831 0.6174365
0.4057464 0.4847831 0.6176310
0.4867887 0.4946592 0.6178405
0.5524908 0.5045831 0.6180596
0.6015656 0.5145448 0.6182878
0.6403651 0.5144040 0.6274990
0.1004274 0.5461814 0.6194450
0.2071899 0.5547884 0.6195495
0.3245128 0.5635160 0.6196927
0.4242946 0.5632780 0.6196302
0.5034937 0.5720916 0.6290384
0.5597208 0.5809643 0.6292377
0.6076473 0.5808575 0.6292096
0.6459987 0.5897172 0.6294177
0.1158085 0.6088822 0.6302651
0.2284377 0.6171865 0.6303743
0.3424037 0.6168801 0.6302915
0.4330007 0.6253703 0.6304674
0.5113878 0.6252048 0.6304223
0.5662953 0.6336643 0.6397387
0.6140180 0.6335620 0.6397109
0.6446044 0.6414283 0.6399050
0.1335315 0.6577896 0.6315609
0.2516446 0.6573777 0.6314447
0.3509371 0.6644953 0.6406886
0.4529248 0.6642808 0.6406279
0.5194325 0.6714824 0.6407943
0.5732083 0.6713754 0.6407636
0.6126868 0.6785522 0.6409447
0.6511596 0.6784286 0.6498666
0.0385427 0.0352492 0.6244618
0.1410052 0.0419079 0.6345311
0.2630460 0.0467303 0.6351742
0.3742712 0.0540919 0.6361151
0.4667171 0.0603254 0.6368220
0.5339695 0.0673718 0.6375573
0.5960671 0.0725076 0.6380395
0.6342463 0.0809149 0.6477289
0.0484919 0.1051406 0.6411299
0.1531047 0.1168313 0.6417220
0.2743182 0.1252845 0.6421357
0.3772283 0.1392420 0.6428560
0.4700789 0.1492929 0.6522172
0.5360441 0.1656352 0.6529638
0.5968459 0.1773045 0.6534511
0.6352391 0.1895781 0.6539470
0.0614122 0.2377863 0.6473315
0.1668004 0.2521379 0.6565104
0.2865802 0.2594999 0.6566612
0.3916050 0.2746098 0.6570815
0.4839371 0.2823138 0.6572724
0.5493791 0.2983488 0.6577225
0.5997812 0.3064928 0.6666555
0.6383635 0.3148266 0.6668732
0.0787494 0.3603475 0.6597996
0.1831199 0.3689604 0.6599012
0.3012673 0.3778433 0.6600503
0.4085822 0.3868725 0.6689169
0.4897444 0.3961109 0.6691113
0.5554292 0.4054663 0.6693146
0.5965232 0.4149484 0.6695309
0.6428353 0.4244854 0.6697431
0.0939424 0.4655190 0.6711007
0.2015686 0.4750137 0.6712148
0.3171203 0.4847060 0.6713709
0.4161906 0.4844647 0.6713122
0.4963591 0.4943434 0.6715093
0.5620003 0.5042181 0.6802588
0.6017182 0.5142010 0.6804750
0.6404908 0.5141097 0.6804531
0.1123445 0.5458140 0.6729987
0.2220785 0.5544456 0.6731023
0.3342051 0.5631520 0.6817671
0.4349030 0.5629145 0.6817096
0.5036293 0.5718019 0.6818887
0.5679357 0.5806583 0.6820701
0.6077772 0.5805691 0.6820483
0.6461445 0.5893826 0.6906436
0.1293797 0.6085284 0.6830135
0.2444179 0.6168580 0.6831210
0.3523461 0.6165761 0.6830503
0.4436437 0.6250698 0.6832146
0.5209885 0.6248605 0.6915614
0.5744839 0.6333721 0.6917456
0.6139179 0.6412232 0.6919215
0.6523200 0.6411384 0.6919000
0.1437739 0.6574763 0.6842263
0.2599828 0.6644508 0.6926882
0.3707066 0.6641874 0.6926194
0.4528307 0.6713521 0.6927640
0.5290031 0.6712014 0.6927240
0.5813663 0.6710970 0.6926965
0.6206294 0.6782336 0.7011122
0.6588107 0.6781531 0.7010911
0.0479204 0.0435262 0.6788324
0.1510097 0.0503242 0.6796098
0.2706861 0.0560970 0.6886542
0.3834038 0.0625503 0.6892939
0.4763567 0.0698649 0.6899654
0.5423512 0.0779887 0.6906518
0.5950664 0.0838767 0.6911038
0.6411600 0.0901743 0.6915583
0.0584954 0.1049913 0.6929812
0.1645915 0.1166949 0.6935466
0.2828471 0.1296590 0.6941779
0.3873949 0.1390949 0.6946041
0.4801427 0.1544727 0.6952887
0.5455830 0.1654666 0.7039478
0.5969768 0.1771376 0.7044023
0.6353651 0.1894022 0.7048595
0.0713939 0.2448630 0.6989633
0.1791051 0.2519202 0.6990547
0.2953569 0.2668416 0.7075777
0.4019203 0.2743612 0.7077408
0.4837920 0.2900839 0.7081460
0.5495133 0.2981065 0.7083365
0.5998901 0.3062876 0.7085340
0.6382071 0.3231541 0.7089605
0.0880877 0.3600131 0.7102294
0.1964029 0.3778733 0.7105508
0.3103102 0.3868697 0.7106940
0.4187563 0.3960305 0.7108563
0.4990146 0.4053523 0.7110379
0.5552855 0.4147550 0.7191935
0.6042841 0.4242883 0.7193874
0.6427009 0.4339050 0.7195857
0.1051608 0.4652022 0.7126531
0.2161397 0.4747193 0.7127646
0.3266731 0.4843883 0.7208500
0.4264420 0.4942071 0.7210172
0.5059378 0.4940286 0.7209776
0.5621119 0.5039730 0.7211702
0.6096942 0.5139377 0.7213666
0.6479419 0.5239155 0.7215666
0.1208846 0.5545779 0.7225323
0.2377406 0.5541039 0.7224267
0.3440073 0.5628858 0.7225613
0.4452807 0.5716895 0.7227085
0.5131875 0.5715401 0.7226750
0.5680690 0.5803708 0.7305950
0.6157337 0.5802637 0.7305714
0.6538246 0.5891265 0.7307480
0.1393390 0.6082454 0.7237092
0.2527291 0.6166005 0.7238143
0.3620475 0.6249724 0.7316772
0.4543466 0.6247696 0.7316308
0.5208430 0.6332553 0.7317947
0.5745947 0.6331429 0.7317687
0.6218086 0.6409792 0.7319269
0.6524230 0.6409113 0.7319111
0.1603467 0.6571409 0.7325392
0.2769681 0.6641862 0.7326267
0.3807790 0.6639453 0.7325689
0.4631332 0.6711136 0.7327024
0.5291157 0.6709831 0.7326708
0.5812730 0.6780980 0.7403533
0.6284690 0.6780018 0.7403302
0.6587036 0.6851197 0.7404861
