Plugins/FilmEmulator/Content/LUTs/FE_Fuji_CA_DPII_64.cube
TITLE "FE_Fuji_CA_DPII_33"
LUT_3D_SIZE 64
0.1067315 0.0929517 0.0143656
0.1067315 0.0929517 0.0143656
0.1068507 0.0929686 0.0143672
0.1172174 0.0944433 0.0145164
0.1366256 0.0972366 0.0148054
0.1666102 0.1016372 0.0152768
0.2112746 0.1083934 0.0160392
0.2648192 0.1168336 0.0170557
0.3284533 0.1273953 0.0184283
0.3957223 0.1392609 0.0201014
0.4636288 0.1520713 0.0220622
0.5297350 0.1654681 0.0242818
0.5966148 0.1801092 0.0269064
0.6598873 0.1951501 0.0298168
0.7166076 0.2098068 0.0328629
0.7729899 0.2256998 0.0364020
0.8245050 0.2416224 0.0401952
0.8664511 0.2557905 0.0437828
0.9100333 0.2719164 0.0481134
0.9451995 0.2862071 0.0521753
0.9777110 0.3006741 0.0565065
1.0000000 0.3136923 0.0605966
1.0000000 0.3263042 0.0647383
1.0000000 0.3382989 0.0688442
1.0000000 0.3485767 0.0724949
1.0000000 0.3574822 0.0757598
1.0000000 0.3675022 0.0806624
1.0000000 0.3763536 0.0855389
1.0000000 0.3839723 0.0897728
1.0000000 0.3925307 0.0945370
1.0000000 0.3998573 0.0986450
1.0000000 0.4069955 0.1026821
1.0000000 0.4139576 0.1066183
1.0000000 0.4198650 0.1098807
1.0000000 0.4256405 0.1130746
1.0000000 0.4323801 0.1167244
1.0000000 0.4380821 0.1198561
1.0000000 0.4427311 0.1224418
1.0000000 0.4482263 0.1255853
1.0000000 0.4534833 0.1286850
1.0000000 0.4577685 0.1313680
1.0000000 0.4618093 0.1339806
1.0000000 0.4657872 0.1367478
1.0000000 0.4696009 0.1395090
1.0000000 0.4733907 0.1424558
1.0000000 0.4770544 0.1454414
1.0000000 0.4807194 0.1485845
1.0000000 0.4835550 0.1511328
1.0000000 0.4870874 0.1543876
1.0000000 0.4898700 0.1570820
1.0000000 0.4925469 0.1597236
1.0000000 0.4953325 0.1625310
1.0000000 0.4985876 0.1659461
1.0000000 0.5013486 0.1687604
1.0000000 0.5041982 0.1716192
1.0000000 0.5062786 0.1737335
1.0000000 0.5092810 0.1766743
1.0000000 0.5123027 0.1796247
1.0000000 0.5152981 0.1825826
1.0000000 0.5177131 0.1850586
1.0000000 0.5208348 0.1883053
1.0000000 0.5231555 0.1907290
1.0000000 0.5263793 0.1943772
1.0000000 0.5287349 0.1970757
0.1067315 0.0929517 0.0143656
0.1067315 0.0929517 0.0143656
0.1072453 0.0930248 0.0143728
0.1186046 0.0946418 0.0145366
0.1383234 0.0974829 0.0148312
0.1705495 0.1022228 0.0153409
0.2141234 0.1088327 0.0160905
0.2709762 0.1178293 0.0171803
0.3310156 0.1278334 0.0184878
0.3986475 0.1397942 0.0201797
0.4668320 0.1526983 0.0221619
0.5330839 0.1661739 0.0244038
0.5966148 0.1801092 0.0269064
0.6598873 0.1951501 0.0298168
0.7203817 0.2108268 0.0330825
0.7729899 0.2256998 0.0364020
0.8245050 0.2416224 0.0401952
0.8698528 0.2569942 0.0440971
0.9100333 0.2719164 0.0481134
0.9451995 0.2862071 0.0521753
0.9777110 0.3006741 0.0565065
1.0000000 0.3136923 0.0605966
1.0000000 0.3263042 0.0647383
1.0000000 0.3371230 0.0684342
1.0000000 0.3485767 0.0724949
1.0000000 0.3574822 0.0757598
1.0000000 0.3664139 0.0802457
1.0000000 0.3752891 0.0851205
1.0000000 0.3839723 0.0897728
1.0000000 0.3925307 0.0945370
1.0000000 0.3998573 0.0986450
1.0000000 0.4069955 0.1026821
1.0000000 0.4139576 0.1066183
1.0000000 0.4198650 0.1098807
1.0000000 0.4256405 0.1130746
1.0000000 0.4323801 0.1167244
1.0000000 0.4380821 0.1198561
1.0000000 0.4427311 0.1224418
1.0000000 0.4482263 0.1255853
1.0000000 0.4527164 0.1283086
1.0000000 0.4577685 0.1313680
1.0000000 0.4618093 0.1339806
1.0000000 0.4657872 0.1367478
1.0000000 0.4696009 0.1395090
1.0000000 0.4733907 0.1424558
1.0000000 0.4770544 0.1454414
1.0000000 0.4800912 0.1482531
1.0000000 0.4835550 0.1511328
1.0000000 0.4870874 0.1543876
1.0000000 0.4898700 0.1570820
1.0000000 0.4925469 0.1597236
1.0000000 0.4953325 0.1625310
1.0000000 0.4981087 0.1656832
1.0000000 0.5013486 0.1687604
1.0000000 0.5037615 0.1713768
1.0000000 0.5062786 0.1737335
1.0000000 0.5092810 0.1766743
1.0000000 0.5123027 0.1796247
1.0000000 0.5152981 0.1825826
1.0000000 0.5177131 0.1850586
1.0000000 0.5208348 0.1883053
1.0000000 0.5231555 0.1907290
1.0000000 0.5263793 0.1943772
1.0000000 0.5287349 0.1970757
0.1065925 0.1035723 0.0151775
0.1065925 0.1035723 0.0151775
0.1081437 0.1037898 0.0152001
0.1207351 0.1055665 0.0153844
0.1408763 0.1082886 0.0156782
0.1743576 0.1133328 0.0162306
0.2194488 0.1201317 0.0170219
0.2766331 0.1292892 0.0181563
0.3380803 0.1394885 0.0195267
0.4066361 0.1517377 0.0213009
0.4755009 0.1647625 0.0233601
0.5387325 0.1777529 0.0255687
0.6028811 0.1919391 0.0281695
0.6663167 0.2070196 0.0311632
0.7264096 0.2227436 0.0345075
0.7789080 0.2376178 0.0379114
0.8264280 0.2524341 0.0415046
0.8714338 0.2676440 0.0454432
0.9113668 0.2825641 0.0495200
0.9462535 0.2967104 0.0536208
0.9783975 0.3111138 0.0579961
1.0000000 0.3239481 0.0621072
1.0000000 0.3364645 0.0662727
1.0000000 0.3470811 0.0699681
1.0000000 0.3573348 0.0738329
1.0000000 0.3673364 0.0790716
1.0000000 0.3759918 0.0836805
1.0000000 0.3845937 0.0882913
1.0000000 0.3928841 0.0928430
1.0000000 0.4000435 0.0969172
1.0000000 0.4069248 0.1007661
1.0000000 0.4137053 0.1045401
1.0000000 0.4201865 0.1081848
1.0000000 0.4257175 0.1113577
1.0000000 0.4318679 0.1148199
1.0000000 0.4371426 0.1178805
1.0000000 0.4422330 0.1208205
1.0000000 0.4472610 0.1237391
1.0000000 0.4513058 0.1264362
1.0000000 0.4560229 0.1293603
1.0000000 0.4598075 0.1319948
1.0000000 0.4634534 0.1345747
1.0000000 0.4669684 0.1371322
1.0000000 0.4704262 0.1398364
1.0000000 0.4737574 0.1425155
1.0000000 0.4770544 0.1454414
1.0000000 0.4800912 0.1482531
1.0000000 0.4835550 0.1511328
1.0000000 0.4864987 0.1540722
1.0000000 0.4898700 0.1570820
1.0000000 0.4925469 0.1597236
1.0000000 0.4953325 0.1625310
1.0000000 0.4981087 0.1656832
1.0000000 0.5013486 0.1687604
1.0000000 0.5037615 0.1713768
1.0000000 0.5062786 0.1737335
1.0000000 0.5092810 0.1766743
1.0000000 0.5123027 0.1796247
1.0000000 0.5152981 0.1825826
1.0000000 0.5177131 0.1850586
1.0000000 0.5208348 0.1883053
1.0000000 0.5231555 0.1907290
1.0000000 0.5263793 0.1943772
1.0000000 0.5287349 0.1970757
0.1062928 0.1334076 0.0175528
0.1062928 0.1334076 0.0175528
0.1091177 0.1337926 0.0175949
0.1229349 0.1356884 0.0178051
0.1440322 0.1386231 0.0181382
0.1791146 0.1428332 0.0186610
0.2243975 0.1495013 0.0194885
0.2816408 0.1590825 0.0207235
0.3440807 0.1692189 0.0221724
0.4105603 0.1807000 0.0239456
0.4798062 0.1942670 0.0261602
0.5425990 0.2067643 0.0284188
0.6071284 0.2206271 0.0311145
0.6703834 0.2361220 0.0342854
0.7262418 0.2503310 0.0374802
0.7822726 0.2659179 0.0412304
0.8289410 0.2808310 0.0449620
0.8731880 0.2955779 0.0489820
0.9093497 0.3094289 0.0528659
0.9467927 0.3243646 0.0574108
0.9754989 0.3369148 0.0614296
1.0000000 0.3510938 0.0660676
1.0000000 0.3618063 0.0698259
1.0000000 0.3731104 0.0751069
1.0000000 0.3823086 0.0797596
1.0000000 0.3918305 0.0849144
1.0000000 0.4001539 0.0894485
1.0000000 0.4088602 0.0938769
1.0000000 0.4168209 0.0983601
1.0000000 0.4241146 0.1022430
1.0000000 0.4307037 0.1059920
1.0000000 0.4371108 0.1096014
1.0000000 0.4438264 0.1132133
1.0000000 0.4490205 0.1162872
1.0000000 0.4540824 0.1192337
1.0000000 0.4595673 0.1223679
1.0000000 0.4644573 0.1253707
1.0000000 0.4691946 0.1283414
1.0000000 0.4743310 0.1314908
1.0000000 0.4780172 0.1341303
1.0000000 0.4823336 0.1372767
1.0000000 0.4862244 0.1399139
1.0000000 0.4895675 0.1427782
1.0000000 0.4927878 0.1454905
1.0000000 0.4964438 0.1485742
1.0000000 0.4988937 0.1511047
1.0000000 0.5019275 0.1539605
1.0000000 0.5047172 0.1566435
1.0000000 0.5075646 0.1596094
1.0000000 0.5102101 0.1623036
1.0000000 0.5128074 0.1653207
1.0000000 0.5148402 0.1680205
1.0000000 0.5171611 0.1707692
1.0000000 0.5190104 0.1734946
1.0000000 0.5207670 0.1757499
1.0000000 0.5229154 0.1785510
1.0000000 0.5241792 0.1806184
1.0000000 0.5257782 0.1833220
1.0000000 0.5277898 0.1858348
1.0000000 0.5289590 0.1880924
1.0000000 0.5304354 0.1910493
1.0000000 0.5319791 0.1935378
1.0000000 0.5334281 0.1962477
1.0000000 0.5344681 0.1987126
0.1061180 0.1912785 0.0225799
0.1061180 0.1912785 0.0225799
0.1104515 0.1918350 0.0226486
0.1250516 0.1937237 0.0228854
0.1473992 0.1966580 0.0232625
0.1846726 0.2016752 0.0239320
0.2308992 0.2081233 0.0248379
0.2881777 0.2153436 0.0259776
0.3487776 0.2247031 0.0274748
0.4163947 0.2358279 0.0293908
0.4821936 0.2485492 0.0316644
0.5483103 0.2611157 0.0341811
0.6086083 0.2735059 0.0368438
0.6713340 0.2886800 0.0402083
0.7264239 0.3020893 0.0435213
0.7781937 0.3158474 0.0471435
0.8241742 0.3292053 0.0508787
0.8674501 0.3440834 0.0551116
0.9063720 0.3576624 0.0593759
0.9400206 0.3705389 0.0636377
0.9707459 0.3834323 0.0681239
0.9955490 0.3958974 0.0730331
1.0000000 0.4058813 0.0783580
1.0000000 0.4163952 0.0837742
1.0000000 0.4253346 0.0884047
1.0000000 0.4342090 0.0933147
1.0000000 0.4419611 0.0977862
1.0000000 0.4495564 0.1020589
1.0000000 0.4578425 0.1064397
1.0000000 0.4641229 0.1101032
1.0000000 0.4702427 0.1137195
1.0000000 0.4762062 0.1172529
1.0000000 0.4819835 0.1203706
1.0000000 0.4876173 0.1238540
1.0000000 0.4923251 0.1268371
1.0000000 0.4977576 0.1299922
1.0000000 0.5023019 0.1330605
1.0000000 0.5066889 0.1361633
1.0000000 0.5102805 0.1389356
1.0000000 0.5151790 0.1423037
1.0000000 0.5185139 0.1449481
1.0000000 0.5216801 0.1479666
1.0000000 0.5247915 0.1507192
1.0000000 0.5285496 0.1540191
1.0000000 0.5315006 0.1569179
1.0000000 0.5343438 0.1598464
1.0000000 0.5366001 0.1625521
1.0000000 0.5400261 0.1656553
1.0000000 0.5421416 0.1684371
1.0000000 0.5446489 0.1714859
1.0000000 0.5473791 0.1743741
1.0000000 0.5492628 0.1767659
1.0000000 0.5509887 0.1794772
1.0000000 0.5527027 0.1817879
1.0000000 0.5551554 0.1847257
1.0000000 0.5567223 0.1870221
1.0000000 0.5582829 0.1898662
1.0000000 0.5597368 0.1923401
1.0000000 0.5616341 0.1952605
1.0000000 0.5630598 0.1978108
1.0000000 0.5640796 0.2003023
1.0000000 0.5654309 0.2029964
1.0000000 0.5672337 0.2056229
1.0000000 0.5685110 0.2085251
0.1068256 0.2656200 0.0338442
0.1068041 0.2656112 0.0322440
0.1125747 0.2662863 0.0306746
0.1280975 0.2681316 0.0303191
0.1512254 0.2709293 0.0307409
0.1897500 0.2757146 0.0314901
0.2359516 0.2816722 0.0324690
0.2944556 0.2895883 0.0338494
0.3564543 0.2984800 0.0355068
0.4213459 0.3084111 0.0374894
0.4868018 0.3191711 0.0397931
0.5491553 0.3302238 0.0423263
0.6089334 0.3416819 0.0451311
0.6706228 0.3545561 0.0484989
0.7251909 0.3670093 0.0519766
0.7754725 0.3812045 0.0559402
0.8202171 0.3934018 0.0597885
0.8593928 0.4050664 0.0636716
0.8976814 0.4175531 0.0680524
0.9304718 0.4292935 0.0725823
0.9600136 0.4424599 0.0787064
0.9842904 0.4528725 0.0844146
1.0000000 0.4619027 0.0894684
1.0000000 0.4714203 0.0948206
1.0000000 0.4800304 0.0992994
1.0000000 0.4880831 0.1041392
1.0000000 0.4951114 0.1083716
1.0000000 0.5019903 0.1125317
1.0000000 0.5078759 0.1162061
1.0000000 0.5156446 0.1204356
1.0000000 0.5211711 0.1238751
1.0000000 0.5265546 0.1274112
1.0000000 0.5310277 0.1303977
1.0000000 0.5373318 0.1340705
1.0000000 0.5415860 0.1372400
1.0000000 0.5457609 0.1403900
1.0000000 0.5498586 0.1433785
1.0000000 0.5531697 0.1462837
1.0000000 0.5582391 0.1498032
1.0000000 0.5613375 0.1526340
1.0000000 0.5649318 0.1560698
1.0000000 0.5677901 0.1589292
1.0000000 0.5705807 0.1618641
1.0000000 0.5744314 0.1649930
1.0000000 0.5770752 0.1683829
1.0000000 0.5791274 0.1710715
1.0000000 0.5816624 0.1741818
1.0000000 0.5851825 0.1771391
1.0000000 0.5870851 0.1799234
1.0000000 0.5888704 0.1827281
1.0000000 0.5906092 0.1855338
1.0000000 0.5926994 0.1881641
1.0000000 0.5953403 0.1911951
1.0000000 0.5968801 0.1935565
1.0000000 0.5983168 0.1963130
1.0000000 0.5993750 0.1985933
1.0000000 0.6007790 0.2011065
1.0000000 0.6031536 0.2042969
1.0000000 0.6044520 0.2070303
1.0000000 0.6054100 0.2095242
1.0000000 0.6066279 0.2121923
1.0000000 0.6085885 0.2150326
1.0000000 0.6097744 0.2179632
1.0000000 0.6106329 0.2206592
0.1088417 0.3426664 0.0491928
0.1088279 0.3426658 0.0483643
0.1160835 0.3434432 0.0473604
0.1325213 0.3452193 0.0466430
0.1566652 0.3478758 0.0458729
0.1960067 0.3523274 0.0453813
0.2445968 0.3580533 0.0451454
0.3019363 0.3651629 0.0450240
0.3619434 0.3730562 0.0451156
0.4267509 0.3800653 0.0467477
0.4885819 0.3894338 0.0490695
0.5503175 0.3995253 0.0517338
0.6096534 0.4100384 0.0546890
0.6664431 0.4209862 0.0579615
0.7201954 0.4323030 0.0615553
0.7693185 0.4455711 0.0656908
0.8130004 0.4565735 0.0696226
0.8547436 0.4681154 0.0739763
0.8888167 0.4784437 0.0792344
0.9207028 0.4890181 0.0849482
0.9493009 0.5012608 0.0911134
0.9728026 0.5105920 0.0965685
0.9915608 0.5186656 0.1015460
1.0000000 0.5271812 0.1068274
1.0000000 0.5337029 0.1109932
1.0000000 0.5425091 0.1158926
1.0000000 0.5488091 0.1199800
1.0000000 0.5549680 0.1240354
1.0000000 0.5602331 0.1276282
1.0000000 0.5653464 0.1310940
1.0000000 0.5710196 0.1349519
1.0000000 0.5766095 0.1384393
1.0000000 0.5812830 0.1418949
1.0000000 0.5851862 0.1450340
1.0000000 0.5896394 0.1485856
1.0000000 0.5933784 0.1516898
1.0000000 0.5978131 0.1549359
1.0000000 0.6013633 0.1583573
1.0000000 0.6048058 0.1616362
1.0000000 0.6075761 0.1647798
1.0000000 0.6102452 0.1677833
1.0000000 0.6128063 0.1707247
1.0000000 0.6171029 0.1744089
1.0000000 0.6190317 0.1771288
1.0000000 0.6213966 0.1801785
1.0000000 0.6236882 0.1833466
1.0000000 0.6259298 0.1864849
1.0000000 0.6289152 0.1896099
1.0000000 0.6306143 0.1920830
1.0000000 0.6325972 0.1951759
1.0000000 0.6341447 0.1980330
1.0000000 0.6356235 0.2004436
1.0000000 0.6370075 0.2032189
1.0000000 0.6396155 0.2060398
1.0000000 0.6408948 0.2085490
1.0000000 0.6421476 0.2115479
1.0000000 0.6433752 0.2142086
1.0000000 0.6442453 0.2166912
1.0000000 0.6454027 0.2193878
1.0000000 0.6478921 0.2224495
1.0000000 0.6486993 0.2251616
1.0000000 0.6497738 0.2280719
1.0000000 0.6505578 0.2307514
1.0000000 0.6513177 0.2336239
0.1127621 0.4271318 0.0647324
0.1127483 0.4271349 0.0640481
0.1214303 0.4279601 0.0634552
0.1387929 0.4296233 0.0630788
0.1641846 0.4321011 0.0630139
0.2040088 0.4331480 0.0627441
0.2526616 0.4382805 0.0631328
0.3084588 0.4444866 0.0636466
0.3682680 0.4515582 0.0645210
0.4330413 0.4597732 0.0655964
0.4938983 0.4680972 0.0668117
0.5546658 0.4770887 0.0683467
0.6135368 0.4865626 0.0701734
0.6654658 0.4956607 0.0718359
0.7181258 0.5057304 0.0742133
0.7660193 0.5157690 0.0781667
0.8085107 0.5255358 0.0828010
0.8460097 0.5349697 0.0884423
0.8820356 0.5449264 0.0942677
0.9121706 0.5565809 0.1004341
0.9374793 0.5649562 0.1058229
0.9601288 0.5731237 0.1110468
0.9800283 0.5809318 0.1163419
0.9957696 0.5876137 0.1209543
1.0000000 0.5933302 0.1249851
1.0000000 0.6017938 0.1299333
1.0000000 0.6073024 0.1339421
1.0000000 0.6126820 0.1378493
1.0000000 0.6172730 0.1414392
1.0000000 0.6217387 0.1449329
1.0000000 0.6260720 0.1484342
1.0000000 0.6302900 0.1519680
1.0000000 0.6363189 0.1560309
1.0000000 0.6397083 0.1592458
1.0000000 0.6430330 0.1625899
1.0000000 0.6462952 0.1657493
1.0000000 0.6494824 0.1693275
1.0000000 0.6525812 0.1726248
1.0000000 0.6569058 0.1761191
1.0000000 0.6597916 0.1798096
1.0000000 0.6620790 0.1828405
1.0000000 0.6642969 0.1859410
1.0000000 0.6664472 0.1889974
1.0000000 0.6685444 0.1921677
1.0000000 0.6723335 0.1957984
1.0000000 0.6739192 0.1982251
1.0000000 0.6758577 0.2014496
1.0000000 0.6777125 0.2046091
1.0000000 0.6791843 0.2070700
1.0000000 0.6805331 0.2099362
1.0000000 0.6818764 0.2123655
1.0000000 0.6851366 0.2159973
1.0000000 0.6863266 0.2185460
1.0000000 0.6875019 0.2210807
1.0000000 0.6885841 0.2241359
1.0000000 0.6893898 0.2266361
1.0000000 0.6904473 0.2293496
1.0000000 0.6932830 0.2325186
1.0000000 0.6940188 0.2352028
1.0000000 0.6949791 0.2381088
1.0000000 0.6959034 0.2409764
1.0000000 0.6965882 0.2437503
1.0000000 0.6972550 0.2466543
1.0000000 0.6981230 0.2497262
0.1194516 0.5166463 0.0848203
0.1197929 0.5166885 0.0837280
0.1297758 0.5175080 0.0828502
0.1473030 0.5189547 0.0821603
0.1747643 0.5212614 0.0819196
0.2144812 0.5247063 0.0820488
0.2631362 0.5291225 0.0824944
0.3187400 0.5344588 0.0834507
0.3792509 0.5406605 0.0848511
0.4404946 0.5474154 0.0864457
0.5001429 0.5545253 0.0883138
0.5567955 0.5618430 0.0903813
0.6142038 0.5669264 0.0922248
0.6650257 0.5747743 0.0946755
0.7159842 0.5833907 0.0974410
0.7622682 0.5920006 0.1003330
0.8002238 0.5997385 0.1029724
0.8365161 0.6078226 0.1062976
0.8712884 0.6163069 0.1120911
0.9002447 0.6268106 0.1183582
0.9245495 0.6339134 0.1236702
0.9462457 0.6408261 0.1288046
0.9652686 0.6474229 0.1338091
0.9803209 0.6530682 0.1382562
0.9923903 0.6579163 0.1422011
1.0000000 0.6632950 0.1464871
1.0000000 0.6702790 0.1511257
1.0000000 0.6742603 0.1546042
1.0000000 0.6786947 0.1585581
1.0000000 0.6824653 0.1620703
1.0000000 0.6861137 0.1656821
1.0000000 0.6896639 0.1692665
1.0000000 0.6926214 0.1726112
1.0000000 0.6959748 0.1763348
1.0000000 0.7008801 0.1802647
1.0000000 0.7036179 0.1838238
1.0000000 0.7062885 0.1872166
1.0000000 0.7084561 0.1902918
1.0000000 0.7109671 0.1936924
1.0000000 0.7129955 0.1968525
1.0000000 0.7153069 0.2003012
1.0000000 0.7191413 0.2040303
1.0000000 0.7209249 0.2071999
1.0000000 0.7226773 0.2103481
1.0000000 0.7240308 0.2132164
1.0000000 0.7257005 0.2160219
1.0000000 0.7273121 0.2191781
1.0000000 0.7285516 0.2220899
1.0000000 0.7316669 0.2251863
1.0000000 0.7330735 0.2283087
1.0000000 0.7341877 0.2309318
1.0000000 0.7352242 0.2334765
1.0000000 0.7362114 0.2364711
1.0000000 0.7371894 0.2392411
1.0000000 0.7380936 0.2419330
1.0000000 0.7389925 0.2446155
1.0000000 0.7416624 0.2480066
1.0000000 0.7422713 0.2506727
1.0000000 0.7430893 0.2535464
1.0000000 0.7436733 0.2562035
1.0000000 0.7444352 0.2592802
1.0000000 0.7449961 0.2621410
1.0000000 0.7457303 0.2651711
1.0000000 0.7480167 0.2687213
0.1282575 0.5957133 0.1087477
0.1293688 0.5958174 0.1072576
0.1402593 0.5965868 0.1059805
0.1582173 0.5978582 0.1047258
0.1873966 0.5999492 0.1041193
0.2271467 0.6028949 0.1039495
0.2755272 0.6066597 0.1039657
0.3313359 0.6112685 0.1044679
0.3891383 0.6163800 0.1054617
0.4495103 0.6221370 0.1070571
0.5050186 0.6278707 0.1087808
0.5608305 0.6341314 0.1107511
0.6163039 0.6409242 0.1134164
0.6694193 0.6454304 0.1157607
0.7153854 0.6522644 0.1187476
0.7571256 0.6590639 0.1219011
0.7967819 0.6661549 0.1255298
0.8317690 0.6730385 0.1290867
0.8623991 0.6796555 0.1325106
0.8907372 0.6863714 0.1363236
0.9140862 0.6923972 0.1413786
0.9348766 0.6982490 0.1463489
0.9525201 0.7060240 0.1519050
0.9668982 0.7107623 0.1561434
0.9784744 0.7148439 0.1600638
0.9904488 0.7193689 0.1643356
1.0000000 0.7233073 0.1683735
1.0000000 0.7266716 0.1718911
1.0000000 0.7304140 0.1759189
1.0000000 0.7335962 0.1795349
1.0000000 0.7386457 0.1837510
1.0000000 0.7416115 0.1874975
1.0000000 0.7440858 0.1909387
1.0000000 0.7464887 0.1942464
1.0000000 0.7492412 0.1979359
1.0000000 0.7515410 0.2016973
1.0000000 0.7534077 0.2047520
1.0000000 0.7555996 0.2082890
1.0000000 0.7595142 0.2124712
1.0000000 0.7612045 0.2156087
1.0000000 0.7627914 0.2188043
1.0000000 0.7643480 0.2219759
1.0000000 0.7658443 0.2251525
1.0000000 0.7673208 0.2279799
1.0000000 0.7687397 0.2311477
1.0000000 0.7701384 0.2339565
1.0000000 0.7729225 0.2375033
1.0000000 0.7742220 0.2402606
1.0000000 0.7752159 0.2432764
1.0000000 0.7761527 0.2458585
1.0000000 0.7770827 0.2484322
1.0000000 0.7779331 0.2515972
1.0000000 0.7789704 0.2545781
1.0000000 0.7795694 0.2570403
1.0000000 0.7819833 0.2603739
1.0000000 0.7827178 0.2632750
1.0000000 0.7834240 0.2661357
1.0000000 0.7841021 0.2689567
1.0000000 0.7845947 0.2717597
1.0000000 0.7852360 0.2747934
1.0000000 0.7856945 0.2775983
1.0000000 0.7863164 0.2806730
1.0000000 0.7867643 0.2828678
1.0000000 0.7889830 0.2866699
0.1380911 0.6598992 0.1338880
0.1402994 0.6600687 0.1321118
0.1519687 0.6607802 0.1305730
0.1704041 0.6618974 0.1292357
0.2005087 0.6637424 0.1283163
0.2394823 0.6662178 0.1276884
0.2888465 0.6695113 0.1275933
0.3428411 0.6733512 0.1278789
0.4001498 0.6777334 0.1285283
0.4598333 0.6826857 0.1294488
0.5141921 0.6875876 0.1307845
0.5695384 0.6930321 0.1324597
0.6206758 0.6985335 0.1346338
0.6719673 0.7046018 0.1372139
0.7166428 0.7104245 0.1399577
0.7569934 0.7162021 0.1429529
0.7950927 0.7222039 0.1464074
0.8288288 0.7280607 0.1500101
0.8582125 0.7336693 0.1536999
0.8829123 0.7388332 0.1571315
0.9074104 0.7444404 0.1612577
0.9251893 0.7488861 0.1644613
0.9425687 0.7535622 0.1691542
0.9563280 0.7575640 0.1733615
0.9674509 0.7610232 0.1772913
0.9789435 0.7648546 0.1816002
0.9871668 0.7677732 0.1851459
0.9958029 0.7710286 0.1891796
1.0000000 0.7741867 0.1932561
1.0000000 0.7768701 0.1968495
1.0000000 0.7813430 0.2013541
1.0000000 0.7834826 0.2046777
1.0000000 0.7859154 0.2086035
1.0000000 0.7879345 0.2120113
1.0000000 0.7899166 0.2154557
1.0000000 0.7918528 0.2192351
1.0000000 0.7937362 0.2228027
1.0000000 0.7955772 0.2263429
1.0000000 0.7970277 0.2295681
1.0000000 0.8001880 0.2331827
1.0000000 0.8017886 0.2366640
1.0000000 0.8030878 0.2398995
1.0000000 0.8043284 0.2430667
1.0000000 0.8055643 0.2458638
1.0000000 0.8064968 0.2487652
1.0000000 0.8076686 0.2515630
1.0000000 0.8087794 0.2548105
1.0000000 0.8096440 0.2574482
1.0000000 0.8121994 0.2608085
1.0000000 0.8131668 0.2641813
1.0000000 0.8139318 0.2669746
1.0000000 0.8146227 0.2696642
1.0000000 0.8153028 0.2723358
1.0000000 0.8159550 0.2752144
1.0000000 0.8165672 0.2780637
1.0000000 0.8171757 0.2809018
1.0000000 0.8175946 0.2835903
1.0000000 0.8198361 0.2873600
1.0000000 0.8203828 0.2903645
1.0000000 0.8207564 0.2931169
1.0000000 0.8212800 0.2954970
1.0000000 0.8216419 0.2984616
1.0000000 0.8221203 0.3015793
1.0000000 0.8224591 0.3045402
0.1502506 0.7204889 0.1613038
0.1536591 0.7207112 0.1591480
0.1661386 0.7213421 0.1577632
0.1850024 0.7223039 0.1560417
0.2160505 0.7211478 0.1545882
0.2553562 0.7232513 0.1537893
0.3040065 0.7259842 0.1538630
0.3577259 0.7292290 0.1539344
0.4129028 0.7328315 0.1542943
0.4689190 0.7368062 0.1550457
0.5249951 0.7411557 0.1562188
0.5761652 0.7455087 0.1575201
0.6292952 0.7504742 0.1595605
0.6758226 0.7552788 0.1616622
0.7194160 0.7602414 0.1641147
0.7582092 0.7651188 0.1665035
0.7920913 0.7697958 0.1691986
0.8247146 0.7747504 0.1722729
0.8530514 0.7794863 0.1755840
0.8790417 0.7842699 0.1790809
0.9003030 0.7885652 0.1823557
0.9190978 0.7927061 0.1857762
0.9338921 0.7962422 0.1887767
0.9470183 0.7996194 0.1918046
0.9576840 0.8025281 0.1954061
0.9675260 0.8053786 0.1993903
0.9765760 0.8081738 0.2033851
0.9848462 0.8108904 0.2075545
0.9914669 0.8132007 0.2111222
0.9983987 0.8157564 0.2154140
1.0000000 0.8176123 0.2187219
1.0000000 0.8215207 0.2235719
1.0000000 0.8235431 0.2273979
1.0000000 0.8252212 0.2307966
1.0000000 0.8268632 0.2343451
1.0000000 0.8284747 0.2378926
1.0000000 0.8300309 0.2414435
1.0000000 0.8312945 0.2447112
1.0000000 0.8327435 0.2482603
1.0000000 0.8339176 0.2515175
1.0000000 0.8350261 0.2543270
1.0000000 0.8377668 0.2583330
1.0000000 0.8387878 0.2615442
1.0000000 0.8398090 0.2643548
1.0000000 0.8407884 0.2671096
1.0000000 0.8417354 0.2704980
1.0000000 0.8424575 0.2730982
1.0000000 0.8433548 0.2759750
1.0000000 0.8440084 0.2792382
1.0000000 0.8446440 0.2819820
1.0000000 0.8452746 0.2847158
1.0000000 0.8473977 0.2882996
1.0000000 0.8479432 0.2911751
1.0000000 0.8484703 0.2940158
1.0000000 0.8489642 0.2968261
1.0000000 0.8494482 0.2998524
1.0000000 0.8499039 0.3028240
1.0000000 0.8502221 0.3055618
1.0000000 0.8506606 0.3086503
1.0000000 0.8510925 0.3109871
1.0000000 0.8513794 0.3138905
1.0000000 0.8533520 0.3177854
1.0000000 0.8536354 0.3199897
1.0000000 0.8538930 0.3230446
0.1630132 0.7696513 0.1901651
0.1676155 0.7698965 0.1880345
0.1807251 0.7704639 0.1861060
0.2000952 0.7712803 0.1844810
0.2323817 0.7726590 0.1827518
0.2725430 0.7744215 0.1819608
0.3203905 0.7766467 0.1816294
0.3723757 0.7792631 0.1812847
0.4269271 0.7822282 0.1818153
0.4819231 0.7855172 0.1822675
0.5341552 0.7889286 0.1835814
0.5871375 0.7927615 0.1848852
0.6357412 0.7966392 0.1868635
0.6810582 0.8006552 0.1887296
0.7231864 0.8047928 0.1908592
0.7604315 0.8088416 0.1931649
0.7929368 0.8127407 0.1955137
0.8244165 0.8169053 0.1983326
0.8518692 0.8187521 0.2002614
0.8744564 0.8224137 0.2029824
0.8948045 0.8260288 0.2056271
0.9127792 0.8295055 0.2086365
0.9269108 0.8324755 0.2112120
0.9394371 0.8353165 0.2136552
0.9496366 0.8377997 0.2157696
0.9590389 0.8402271 0.2183132
0.9676955 0.8425692 0.2219222
0.9756145 0.8448364 0.2259365
0.9819542 0.8467439 0.2298696
0.9872078 0.8504111 0.2345403
