Plugins/FilmEmulator/Content/LUTs/FE_Fujiflex_New_64.cube
TITLE "FE_Fujiflex_New_33"
LUT_3D_SIZE 4
0.0090982 0.0755146 0.0189949
1.0000000 0.3283283 0.0679927
1.0000000 0.5080755 0.1445069
1.0000000 0.5511199 0.1990744
0.2329375 0.9895808 0.4572761
0.9214269 0.9930884 0.4456596
0.9856144 1.0000000 0.4611321
0.9908403 1.0000000 0.4993720
0.3858587 1.0000000 0.8490478
0.9568023 0.9989297 0.8230187
0.9894236 1.0000000 0.8004780
0.9893963 1.0000000 0.7609078
0.5001568 1.0000000 0.9468274
0.9738402 0.9940101 0.9384060
0.9954396 0.9956755 0.9328792
0.9966773 0.9964234 0.9218771
0.2540733 0.2489948 1.0000000
1.0000000 0.5350614 0.9596184
1.0000000 0.6249008 0.9489619
1.0000000 0.6517078 0.9408786
0.6333925 0.9795302 0.9823563
0.9850671 0.9842427 0.9766024
0.9995444 0.9864951 0.9757571
1.0000000 0.9867637 0.9739274
0.7769733 0.9934520 0.9882105
0.9884687 0.9935388 0.9856959
0.9969065 0.9943143 0.9855153
0.9979256 0.9944305 0.9848477
0.8548395 0.9931935 0.9895489
0.9910226 0.9942584 0.9881812
0.9969043 0.9948230 0.9881641
0.9977394 0.9949238 0.9879572
0.8562180 0.5232723 1.0000000
1.0000000 0.6763207 0.9970062
1.0000000 0.7210788 0.9934723
1.0000000 0.7557971 0.9911550
0.9233038 0.9866763 0.9896320
0.9942901 0.9903678 0.9890804
0.9982197 0.9909677 0.9891044
0.9989779 0.9911199 0.9890435
0.9534097 0.9927776 0.9905229
0.9947390 0.9944760 0.9904783
0.9972073 0.9947744 0.9905272
0.9977827 0.9948543 0.9905055
0.9681385 0.9934576 0.9907554
0.9953992 0.9948520 0.9908800
0.9972264 0.9950756 0.9909417
0.9977187 0.9951419 0.9909245
1.0000000 0.7426445 0.9981650
1.0000000 0.7954671 0.9933284
1.0000000 0.8022715 0.9927565
1.0000000 0.8348553 0.9911155
0.9800895 0.9906839 0.9904222
0.9966718 0.9923343 0.9905879
0.9980994 0.9925459 0.9906299
0.9985408 0.9926323 0.9906385
0.9858533 0.9939266 0.9910440
0.9963771 0.9948044 0.9912475
0.9974674 0.9949527 0.9912995
0.9978226 0.9950052 0.9913121
0.9892309 0.9943662 0.9911819
0.9965670 0.9950346 0.9913728
0.9974795 0.9951574 0.9914183
0.9977870 0.9952019 0.9914306
