Plugins/FilmEmulator/Content/LUTs/FE_Fuji_Velvia_50_64.cube
TITLE "FE_Fuji_Velvia_50_33"
LUT_3D_SIZE 8
0.0007301 0.0003419 0.0004653
0.0624177 0.0000000 0.0002847
0.1875793 0.0056308 0.0022519
0.3212365 0.0178498 0.0082788
0.4424711 0.0378536 0.0174742
0.5434443 0.0593372 0.0288997
0.6265431 0.0822230 0.0417699
0.7001632 0.1049409 0.0556161
0.0000000 0.0589561 0.0000000
0.1341577 0.1122703 0.0000000
0.3008368 0.1468891 0.0000000
0.4530848 0.1771612 0.0000000
0.5693398 0.2050600 0.0063851
0.6702513 0.2311052 0.0186651
0.7485657 0.2576280 0.0323232
0.8177565 0.2827372 0.0468839
0.0000000 0.1523700 0.0000000
0.1525250 0.2372122 0.0000000
0.3434850 0.2890891 0.0000000
0.5093096 0.3259332 0.0000000
0.6355087 0.3561310 0.0023317
0.7403914 0.3805506 0.0122153
0.8189994 0.4030472 0.0228763
0.8877370 0.4284429 0.0370644
0.0000000 0.2514038 0.0000000
0.1526653 0.3449342 0.0000000
0.3636202 0.4038906 0.0000000
0.5377521 0.4461537 0.0000000
0.6728911 0.4769449 0.0069250
0.7780761 0.5028228 0.0170072
0.8581016 0.5217474 0.0273222
0.9286663 0.5429916 0.0379749
0.0000000 0.3449260 0.0016827
0.1461300 0.4317722 0.0000000
0.3706377 0.4992822 0.0000000
0.5515743 0.5402518 0.0043456
0.6908510 0.5700885 0.0143105
0.7990817 0.5935258 0.0237682
0.8813565 0.6134633 0.0343724
0.9521031 0.6313650 0.0455565
0.0000000 0.4259552 0.0084311
0.1390708 0.5012601 0.0049612
0.3701595 0.5677466 0.0070942
0.5561477 0.6116685 0.0146817
0.7011331 0.6430190 0.0226630
0.8113217 0.6647640 0.0325299
0.8953785 0.6851442 0.0433130
0.9672810 0.6999631 0.0533461
0.0000000 0.4924780 0.0179283
0.1293776 0.5550758 0.0152739
0.3665087 0.6256883 0.0187520
0.5625399 0.6679146 0.0244054
0.7050297 0.6956938 0.0329925
0.8176515 0.7193360 0.0428702
0.9028499 0.7358900 0.0524988
0.9750031 0.7501640 0.0638560
0.0068707 0.5429676 0.0290519
0.1197086 0.5924584 0.0275391
0.3618031 0.6630732 0.0301515
0.5606930 0.7056553 0.0359740
0.7057928 0.7328601 0.0433533
0.8190791 0.7531925 0.0533651
0.9039032 0.7670492 0.0644439
0.9760039 0.7806724 0.0773550
0.0051768 0.0000000 0.0974240
0.0868278 0.0000000 0.1266464
0.2077935 0.0001036 0.1514231
0.3342800 0.0148395 0.1736941
0.4468879 0.0359511 0.1943022
0.5424613 0.0587942 0.2137138
0.6227707 0.0816158 0.2305908
0.6921170 0.1051687 0.2477222
0.0000000 0.0945813 0.1469436
0.1149078 0.1367905 0.1682494
0.2794759 0.1671799 0.1835229
0.4252284 0.1945043 0.1972809
0.5437583 0.2201736 0.2120684
0.6402130 0.2445200 0.2278557
0.7205756 0.2701522 0.2422619
0.7869584 0.2915679 0.2575509
0.0000000 0.2145738 0.1602416
0.1182719 0.2792573 0.1736782
0.3076999 0.3211771 0.1866160
0.4674430 0.3517391 0.1989541
0.5935217 0.3786869 0.2129299
0.6939967 0.4032685 0.2282590
0.7748327 0.4240426 0.2423017
0.8419992 0.4443453 0.2574403
0.0000000 0.3195035 0.1631444
0.1166361 0.3954659 0.1735733
0.3225386 0.4414341 0.1851816
0.4925190 0.4771004 0.1967940
0.6196725 0.5028657 0.2106022
0.7272547 0.5260819 0.2257735
0.8101048 0.5465161 0.2397850
0.8773280 0.5624827 0.2550607
0.0000000 0.4124109 0.1646675
0.1115051 0.4847736 0.1721362
0.3316244 0.5362046 0.1827607
0.5043091 0.5725046 0.1940641
0.6393485 0.5972829 0.2076955
0.7490416 0.6181622 0.2229240
0.8328710 0.6360372 0.2370328
0.8973214 0.6517363 0.2524709
0.0000000 0.4844112 0.1629610
0.1087907 0.5504137 0.1704947
0.3373353 0.6073892 0.1804140
0.5147121 0.6432480 0.1915011
0.6525202 0.6670614 0.2051065
0.7644650 0.6894305 0.2202843
0.8454353 0.7074687 0.2345072
0.9142215 0.7205867 0.2500220
0.0000000 0.5450442 0.1628789
0.1063560 0.6024227 0.1689343
0.3371190 0.6627427 0.1784446
0.5220884 0.6976805 0.1893053
0.6621624 0.7217674 0.2028615
0.7703105 0.7401794 0.2183138
0.8564647 0.7576116 0.2324881
0.9257353 0.7700683 0.2480832
0.0000000 0.5881562 0.1608425
0.1020078 0.6365631 0.1678829
0.3391985 0.6959754 0.1771106
0.5264308 0.7315278 0.1878542
0.6678560 0.7555963 0.2013902
0.7767666 0.7734028 0.2168838
0.8627664 0.7872994 0.2312283
0.9322501 0.7990226 0.2468867
0.0186625 0.0000000 0.2480330
0.1198776 0.0000000 0.2848587
0.2449566 0.0003823 0.3099302
0.3564756 0.0082726 0.3320481
0.4656531 0.0307266 0.3576834
0.5561529 0.0539482 0.3791240
0.6316359 0.0781177 0.3957559
0.6995303 0.1028649 0.4135422
0.0000000 0.1053114 0.3236778
0.1366261 0.1425617 0.3492672
0.3011163 0.1700497 0.3662012
0.4353572 0.1968037 0.3822340
0.5508730 0.2224879 0.3970082
0.6432826 0.2469144 0.4115597
0.7180043 0.2699819 0.4229292
0.7845774 0.2944106 0.4369573
0.0000000 0.2368157 0.3476795
0.1354741 0.2946621 0.3670510
0.3201417 0.3329985 0.3808662
0.4703776 0.3613989 0.3944372
0.5934800 0.3873031 0.4074065
0.6892471 0.4079747 0.4205382
0.7656860 0.4280927 0.4307568
0.8287637 0.4478742 0.4438776
0.0000000 0.3524330 0.3588544
0.1280700 0.4154798 0.3736631
0.3306007 0.4592882 0.3856742
0.4897830 0.4883689 0.3982264
0.6138136 0.5124350 0.4105349
0.7176211 0.5342777 0.4231988
0.7961748 0.5536509 0.4330341
0.8604459 0.5724791 0.4459125
0.0000000 0.4471367 0.3639585
0.1226785 0.5108414 0.3764299
0.3363976 0.5582227 0.3872814
0.5021042 0.5876316 0.3992504
0.6298723 0.6097486 0.4112045
0.7359362 0.6288411 0.4236365
0.8156223 0.6453143 0.4332950
0.8801305 0.6601632 0.4460899
0.0000000 0.5206890 0.3661453
0.1180007 0.5833710 0.3775436
0.3395943 0.6291781 0.3876075
0.5099847 0.6608542 0.3992198
0.6409169 0.6848404 0.4109670
0.7487614 0.7019674 0.4232939
0.8298582 0.7187715 0.4328580
0.8946748 0.7304935 0.4456564
0.0000000 0.5825830 0.3669814
0.1141956 0.6382146 0.3779380
0.3417307 0.6876041 0.3874616
0.5154623 0.7171509 0.3988290
0.6481231 0.7378855 0.4104748
0.7531255 0.7566186 0.4228083
0.8391919 0.7700818 0.4322679
0.9045318 0.7810162 0.4450782
0.0000000 0.6256611 0.3706273
0.1086715 0.6734548 0.3780850
0.3428647 0.7240770 0.3872063
0.5188094 0.7540468 0.3984220
0.6528513 0.7745842 0.4099968
0.7580080 0.7881027 0.4223685
0.8445030 0.8004513 0.4318207
0.9100896 0.8105717 0.4446474
0.0389106 0.0000000 0.3870036
0.1529799 0.0019025 0.4207511
0.2826199 0.0104926 0.4423217
0.3939659 0.0218301 0.4630726
0.4866091 0.0331125 0.4804209
0.5712351 0.0502881 0.4956258
0.6431755 0.0754044 0.5148767
0.7062788 0.0995987 0.5288703
0.0064214 0.1107566 0.4617651
0.1634732 0.1431943 0.4860707
0.3244025 0.1720774 0.5028953
0.4531892 0.1967926 0.5170668
0.5621240 0.2226410 0.5303625
0.6534146 0.2474591 0.5397888
0.7242612 0.2707548 0.5522558
0.7868885 0.2955058 0.5613643
0.0000000 0.2540654 0.4942689
0.1620784 0.3025689 0.5124578
0.3444132 0.3360122 0.5247982
0.4850212 0.3629947 0.5361028
0.6008031 0.3881812 0.5469205
0.6963097 0.4119691 0.5542991
0.7687001 0.4318998 0.5652109
0.8315479 0.4517949 0.5727370
0.0000000 0.3687806 0.5087438
0.1568435 0.4288444 0.5235533
0.3537663 0.4658596 0.5338935
0.5025417 0.4927253 0.5438693
0.6238495 0.5195751 0.5537784
0.7224417 0.5405212 0.5602272
0.7960693 0.5558649 0.5705106
0.8601904 0.5744745 0.5775203
0.0000000 0.4645888 0.5170691
0.1513107 0.5277802 0.5291225
0.3586989 0.5674521 0.5382374
0.5134515 0.5940400 0.5474697
0.6382917 0.6182729 0.5567565
0.7391185 0.6363650 0.5627409
0.8145303 0.6521487 0.5728430
0.8791143 0.6667013 0.5795377
0.0000000 0.5399233 0.5250351
0.1435285 0.5992438 0.5320139
0.3613721 0.6433074 0.5403624
0.5203180 0.6687291 0.5491270
0.6477658 0.6913428 0.5580794
0.7464900 0.7101815 0.5639203
0.8269200 0.7232435 0.5738055
0.8924465 0.7376190 0.5803798
0.0000000 0.6026960 0.5278091
0.1395317 0.6560102 0.5337214
0.3629099 0.7001805 0.5414546
0.5250301 0.7261304 0.5499358
0.6548579 0.7477527 0.5550510
0.7540714 0.7626286 0.5643467
0.8354079 0.7752281 0.5741683
0.9009471 0.7855992 0.5806549
0.0000000 0.6460449 0.5291504
0.1368000 0.6931964 0.5346099
0.3592009 0.7369038 0.5420457
0.5278820 0.7637394 0.5502751
0.6587800 0.7825029 0.5552444
0.7587293 0.7964169 0.5644801
0.8402247 0.8059918 0.5742624
0.9060520 0.8155071 0.5807183
0.0615712 0.0044097 0.4976750
0.1859405 0.0143580 0.5313332
0.3160884 0.0247408 0.5527537
0.4256857 0.0363536 0.5703688
0.5161463 0.0481217 0.5847936
0.5942494 0.0607120 0.5948552
0.6581661 0.0736071 0.6070474
0.7179296 0.0985824 0.6224971
0.0368324 0.1125688 0.5671660
0.1940770 0.1433626 0.5903381
0.3494673 0.1718667 0.6065009
0.4739570 0.1966556 0.6195059
0.5793252 0.2227621 0.6314140
0.6625873 0.2477355 0.6418405
0.7363182 0.2714444 0.6516919
0.7951633 0.2964188 0.6615002
0.0041231 0.2648230 0.6061416
0.1944591 0.3056351 0.6224731
0.3693675 0.3401057 0.6339335
0.5048918 0.3664953 0.6435625
0.6166691 0.3913018 0.6524687
0.7027498 0.4114365 0.6602911
0.7782876 0.4314993 0.6681279
0.8371147 0.4512585 0.6760751
0.0000000 0.3831204 0.6233466
0.1902925 0.4354287 0.6368328
0.3785099 0.4728896 0.6460352
0.5216819 0.4985667 0.6541092
0.6381779 0.5212018 0.6617485
0.7274904 0.5413970 0.6687901
0.8013501 0.5603317 0.6759492
0.8644751 0.5751269 0.6830695
0.0000000 0.4775313 0.6330219
0.1854646 0.5370250 0.6444314
0.3831027 0.5728789 0.6521014
0.5319833 0.6010692 0.6594844
0.6519359 0.6211405 0.6664305
0.7431797 0.6382420 0.6729305
0.8181305 0.6537811 0.6796424
0.8824760 0.6682103 0.6865237
0.0000000 0.5524151 0.6390229
0.1777832 0.6103850 0.6485868
0.3856493 0.6500956 0.6555190
0.5384368 0.6768273 0.6623188
0.6609122 0.6951035 0.6688818
0.7540601 0.7131661 0.6751745
0.8298299 0.7255415 0.6816329
0.8951190 0.7397681 0.6883700
0.0000000 0.6155515 0.6429752
0.1741191 0.6686258 0.6512128
0.3870841 0.7079729 0.6575000
0.5427849 0.7343122 0.6639464
0.6672596 0.7522829 0.6702930
0.7611925 0.7661668 0.6763430
0.8378221 0.7780038 0.6826990
0.9031615 0.7881734 0.6892830
0.0000000 0.6591204 0.6451250
0.1715953 0.7067688 0.6526655
0.3834222 0.7454070 0.6586230
0.5452667 0.7699301 0.6647575
0.6662571 0.7869874 0.6710458
0.7655644 0.8003072 0.6769336
0.8426218 0.8109491 0.6832191
0.9079852 0.8183429 0.6897290
0.0857269 0.0181633 0.5879247
0.2190501 0.0291841 0.6105928
0.3477229 0.0405740 0.6277555
0.4551981 0.0528152 0.6413091
0.5440909 0.0659567 0.6512188
0.6152091 0.0780057 0.6611728
0.6790600 0.0916745 0.6689469
0.7316122 0.1049287 0.6778187
0.0668879 0.1139290 0.6431152
0.2262952 0.1439125 0.6642469
0.3757636 0.1723049 0.6764865
0.4955445 0.1972425 0.6869208
0.5943120 0.2235829 0.6964211
0.6760242 0.2460642 0.7044513
0.7465897 0.2729038 0.7106148
0.8034957 0.2950433 0.7177645
0.0409939 0.2705351 0.6860681
0.2294671 0.3108164 0.7003889
0.3964953 0.3408684 0.7070218
0.5262893 0.3666300 0.7137155
0.6306143 0.3910042 0.7198785
0.7165583 0.4145661 0.7236353
0.7878333 0.4345370 0.7290987
0.8456827 0.4544699 0.7345618
0.0172333 0.3958259 0.7056587
0.2235186 0.4433607 0.7167671
0.4024479 0.4751835 0.7211077
0.5432515 0.5001321 0.7260682
0.6518353 0.5219885 0.7308022
0.7402910 0.5420355 0.7332847
0.8135307 0.5608810 0.7379405
0.8724927 0.5792865 0.7426841
0.0000000 0.4940974 0.7165704
0.2198474 0.5436141 0.7253840
0.4074635 0.5799479 0.7286119
0.5492104 0.6033185 0.7326312
0.6653674 0.6227274 0.7365436
0.7557554 0.6395653 0.7383527
0.8300868 0.6549360 0.7424688
0.8893725 0.6689571 0.7467180
0.0000000 0.5660516 0.7228612
0.2164145 0.6189980 0.7303763
0.4100605 0.6546183 0.7326452
0.5555988 0.6797881 0.7362299
0.6741747 0.6972677 0.7396955
0.7664611 0.7150062 0.7412410
0.8379516 0.7299911 0.7451875
0.9017556 0.7408917 0.7491134
0.0000000 0.6252941 0.7271954
0.2133771 0.6784040 0.7335975
0.4116845 0.7156570 0.7352918
0.5598932 0.7378041 0.7383926
0.6803909 0.7548855 0.7416081
0.7734709 0.7683661 0.7428337
0.8452815 0.7796069 0.7465579
0.9096250 0.7895477 0.7503749
0.0038555 0.6689215 0.7298523
0.2112491 0.7173052 0.7354145
0.4124572 0.7517101 0.7366166
0.5623411 0.7737471 0.7395180
0.6839849 0.7903238 0.7425855
0.7777634 0.8027354 0.7436851
0.8499670 0.8127372 0.7473190
0.9146384 0.8218086 0.7510684
0.1102177 0.0339828 0.6400440
0.2519909 0.0468629 0.6614958
0.3761360 0.0588547 0.6742700
0.4805129 0.0711599 0.6841584
0.5663469 0.0836004 0.6938822
0.6381264 0.0977329 0.7016441
0.6989671 0.1115858 0.7084474
0.7506545 0.1246092 0.7159153
0.0970153 0.1175466 0.6857697
0.2554500 0.1453584 0.7028396
0.3995608 0.1736100 0.7146903
0.5144051 0.1986607 0.7246978
0.6127498 0.2253323 0.7320611
0.6903098 0.2479647 0.7393786
0.7564492 0.2720077 0.7448496
0.8102216 0.2973395 0.7500918
0.0748084 0.2774911 0.7299550
0.2618012 0.3157766 0.7407996
0.4219315 0.3447373 0.7469151
0.5459457 0.3701888 0.7530606
0.6456732 0.3942954 0.7568333
0.7302340 0.4144886 0.7615806
0.7976540 0.4343464 0.7645850
0.8512048 0.4541765 0.7675398
0.0567030 0.4035576 0.7500705
0.2614633 0.4476674 0.7577299
0.4286602 0.4772716 0.7615821
0.5633690 0.5049685 0.7662629
0.6670727 0.5265106 0.7685311
0.7547069 0.5463041 0.7723073
0.8233025 0.5612100 0.7741792
0.8778106 0.5793915 0.7763383
0.0416198 0.5043592 0.7615151
0.2593154 0.5527772 0.7671661
0.4344404 0.5830058 0.7697096
0.5737177 0.6056018 0.7731125
0.6801953 0.6239718 0.7745481
0.7660607 0.6438689 0.7778791
0.8403813 0.6590719 0.7793402
0.8951651 0.6728465 0.7809404
0.0278893 0.5781733 0.7681208
0.2569926 0.6291634 0.7724566
0.4375439 0.6583542 0.7741292
0.5804724 0.6826425 0.7770976
0.6894814 0.7022959 0.7782016
0.7762027 0.7161037 0.7809765
0.8479139 0.7310117 0.7822444
0.9068156 0.7414888 0.7834945
0.0190644 0.6346562 0.7723941
0.2506214 0.6885066 0.7758921
0.4395607 0.7199416 0.7770629
0.5850309 0.7410864 0.7795290
0.6953828 0.7568070 0.7802334
0.7831783 0.7696871 0.7828194
0.8556103 0.7835395 0.7839049
0.9149293 0.7923480 0.7850057
0.0255089 0.6764201 0.7751243
0.2490862 0.7250149 0.7777122
0.4405582 0.7563164 0.7785467
0.5876371 0.7772921 0.7808119
0.6990165 0.7924239 0.7813618
0.7874488 0.8041992 0.7838247
0.8598921 0.8140765 0.7847238
0.9195714 0.8226440 0.7857676
0.1377608 0.0515785 0.6803333
0.2810952 0.0638009 0.6961272
0.4043862 0.0768412 0.7074713
0.5050859 0.0898969 0.7163804
0.5884836 0.1026947 0.7237877
0.6600385 0.1168123 0.7307341
0.7169697 0.1302054 0.7379723
0.7659912 0.1446366 0.7437019
0.1256119 0.1196971 0.7130971
0.2862619 0.1471965 0.7291442
0.4203729 0.1752536 0.7404099
0.5331094 0.2004463 0.7500508
0.6273985 0.2246706 0.7568865
0.7014945 0.2501905 0.7631567
0.7670053 0.2744385 0.7685534
0.8204681 0.2999569 0.7736862
0.1102548 0.2841934 0.7584387
0.2961315 0.3178311 0.7676572
0.4443305 0.3485834 0.7736630
0.5657409 0.3739464 0.7793657
0.6649491 0.3946148 0.7826720
0.7416090 0.4179633 0.7861027
0.8082914 0.4378408 0.7889614
0.8614981 0.4578293 0.7917507
0.0931793 0.4127945 0.7788180
0.2942401 0.4509973 0.7851236
0.4559713 0.4827582 0.7888372
0.5833899 0.5061426 0.7927555
0.6827171 0.5272681 0.7949600
0.7655357 0.5467293 0.7970027
0.8339766 0.5653912 0.7989615
0.8873298 0.5797072 0.8006927
0.0808043 0.5124568 0.7901244
0.2935529 0.5573029 0.7949136
0.4624265 0.5858383 0.7970209
0.5945572 0.6106751 0.8001751
0.6965528 0.6286053 0.8015256
0.7810808 0.6448993 0.8028695
0.8465781 0.6594715 0.8042395
0.9047340 0.6734331 0.8055972
0.0710501 0.5882587 0.7969237
0.2922200 0.6345482 0.8004176
0.4662851 0.6649783 0.8018464
0.6013376 0.6847998 0.8042033
0.7056060 0.7038253 0.8052418
0.7918419 0.7207841 0.8063168
0.8579532 0.7318724 0.8073207
0.9164168 0.7422699 0.8083528
0.0634756 0.6458937 0.8012773
0.2907722 0.6952172 0.8039891
0.4686427 0.7238292 0.8047757
0.6061492 0.7435602 0.8068056
0.7119235 0.7612084 0.8075325
0.7988172 0.7738850 0.8082612
0.8656814 0.7845558 0.8091282
0.9245521 0.7932716 0.8100038
0.0552303 0.6863977 0.8039920
0.2896826 0.7340518 0.8059770
0.4699790 0.7624430 0.8064331
0.6090555 0.7819790 0.8082603
0.7153625 0.7943383 0.8086662
0.8028150 0.8058397 0.8092667
0.8699802 0.8151824 0.8100289
0.9292063 0.8236519 0.8108454
