Plugins/FilmEmulator/Content/LUTs/FE_Fuji_Eterna_500_Vivid_64.cube
TITLE "FE_Fuji_Eterna_500_Vivid_33"
LUT_3D_SIZE 4
0.0036428 0.0019930 0.0033160
0.2267105 0.0078988 0.0068092
0.4983624 0.0221269 0.0142911
0.6408489 0.0427058 0.0249039
0.0158873 0.2897245 0.0134687
0.2603155 0.3131653 0.0190851
0.5066848 0.3386448 0.0293403
0.6389078 0.3748287 0.0448919
0.0429415 0.5554711 0.0349963
0.2977103 0.5729768 0.0440833
0.5306821 0.5816073 0.0536135
0.6553607 0.5996721 0.0703167
0.0766160 0.7032301 0.0660208
0.3411254 0.7096981 0.0794437
0.5573816 0.7166419 0.0886244
0.6660633 0.7236398 0.1023632
0.0107750 0.0072370 0.3057898
0.2558429 0.0154834 0.3182700
0.5195399 0.0263437 0.3299353
0.6571083 0.0456116 0.3419620
0.0320191 0.2854511 0.3557212
0.2872421 0.3179575 0.3737893
0.5287067 0.3441446 0.3832685
0.6553968 0.3716209 0.3929171
0.0650443 0.5514482 0.3980381
0.3267761 0.5694357 0.4073144
0.5523226 0.5877353 0.4168221
0.6633857 0.6060675 0.4264686
0.1031909 0.7004622 0.4295711
0.3722070 0.7072443 0.4388452
0.5755419 0.7143412 0.4482998
0.6740514 0.7215205 0.4578596
0.0261852 0.0201589 0.5662742
0.2856392 0.0319174 0.5782570
0.5363717 0.0454403 0.5806403
0.6628569 0.0624700 0.5919021
0.0536355 0.2923823 0.6046015
0.3241496 0.3168510 0.6050619
0.5493691 0.3521756 0.6148428
0.6626625 0.3799635 0.6243455
0.0906081 0.5597165 0.6293693
0.3563357 0.5682341 0.6293565
0.5717620 0.5865775 0.6383787
0.6708059 0.6049515 0.6472486
0.1329544 0.6993473 0.6501378
0.4037362 0.7062641 0.6501464
0.5840992 0.7134226 0.6583498
0.6810899 0.7279645 0.6587325
0.0474017 0.0388333 0.7109832
0.3188313 0.0532669 0.7126432
0.5536630 0.0702811 0.7142434
0.6678774 0.0889124 0.7225640
0.0776298 0.2999607 0.7311342
0.3531280 0.3249313 0.7315521
0.5699559 0.3514869 0.7387522
0.6698977 0.3793208 0.7393437
0.1170007 0.5588858 0.7434523
0.3868924 0.5769224 0.7501314
0.5798817 0.5952678 0.7504345
0.6779339 0.6043377 0.7505828
0.1587883 0.6987158 0.7529377
0.4249913 0.7132043 0.7594536
0.6001313 0.7203102 0.7595544
0.6881188 0.7274195 0.7658876
