Plugins/FilmEmulator/Content/LUTs/FE_Fujifilm_Eterna_Vivid_160T_8543_64.cube
# FilmEmulator LUT (resampled to 64)
LUT_3D_SIZE 8
0.000793 0.000000 0.000000
0.078051 0.010250 0.009042
0.163304 0.012268 0.011776
0.251848 0.012307 0.015424
0.344444 0.015324 0.022269
0.438354 0.018555 0.028411
0.528695 0.021231 0.033692
0.604675 0.023834 0.038177
0.017107 0.062121 0.022431
0.096414 0.089301 0.026839
0.200778 0.110108 0.027153
0.307384 0.115178 0.032920
0.412714 0.109660 0.040083
0.514571 0.104944 0.045866
0.606510 0.102675 0.050015
0.679208 0.103668 0.052756
0.036852 0.130306 0.043866
0.115380 0.168208 0.050439
0.232301 0.210941 0.048212
0.354718 0.235166 0.050474
0.474058 0.246128 0.055746
0.585183 0.249402 0.062618
0.680330 0.248783 0.067370
0.752197 0.250331 0.069737
0.054574 0.196869 0.062518
0.132011 0.240628 0.074218
0.256594 0.300689 0.070484
0.387983 0.340699 0.067514
0.515174 0.363738 0.069219
0.632029 0.377766 0.071867
0.731090 0.386591 0.075958
0.804788 0.394104 0.079294
0.071119 0.262839 0.080344
0.146609 0.311781 0.096688
0.278440 0.383917 0.096334
0.416442 0.439217 0.084810
0.548951 0.471491 0.085017
0.670288 0.492183 0.086031
0.772436 0.506560 0.086165
0.846357 0.517024 0.087280
0.085815 0.329441 0.097661
0.161527 0.383068 0.117411
0.298033 0.461401 0.123215
0.441368 0.530855 0.106342
0.580208 0.575013 0.099820
0.705128 0.601482 0.103024
0.806750 0.618495 0.102046
0.873439 0.628749 0.099854
0.098933 0.392787 0.114550
0.177736 0.451859 0.137004
0.318679 0.533324 0.148195
0.463537 0.610984 0.130915
0.604967 0.665455 0.114259
0.732046 0.697382 0.112931
0.828822 0.715739 0.115675
0.883205 0.725163 0.115579
0.111420 0.448303 0.130341
0.197514 0.514687 0.154924
0.345259 0.597966 0.168235
0.486149 0.675690 0.150286
0.623958 0.734201 0.127894
0.750174 0.770944 0.118500
0.841016 0.790353 0.122210
0.887848 0.799408 0.125305
0.004665 0.007351 0.059801
0.061534 0.020482 0.094376
0.159007 0.028152 0.112994
0.259820 0.025905 0.112931
0.359080 0.023886 0.110051
0.455118 0.021868 0.109511
0.544347 0.021691 0.111332
0.618827 0.022622 0.115548
0.025244 0.074646 0.093546
0.094480 0.102218 0.119337
0.213147 0.127823 0.137568
0.329558 0.131511 0.138755
0.436759 0.125222 0.136513
0.537359 0.117955 0.135602
0.626637 0.115236 0.136720
0.697185 0.115976 0.140208
0.044149 0.145565 0.117248
0.121097 0.187255 0.139116
0.250729 0.236455 0.151766
0.380655 0.260726 0.151142
0.501434 0.270712 0.151096
0.610548 0.273708 0.152737
0.702947 0.274458 0.154525
0.772930 0.277117 0.158101
0.058620 0.212244 0.132241
0.136625 0.263056 0.155074
0.273190 0.331073 0.165249
0.411724 0.372483 0.159345
0.540564 0.394613 0.156732
0.656454 0.408298 0.156108
0.753194 0.417902 0.157941
0.825419 0.426323 0.163819
0.071721 0.278785 0.147247
0.149348 0.336378 0.170960
0.291465 0.416858 0.182247
0.437271 0.474622 0.169288
0.571431 0.506736 0.163864
0.692021 0.526791 0.161364
0.791605 0.541013 0.160462
0.863011 0.551215 0.163899
0.085481 0.346647 0.163349
0.161346 0.409420 0.187239
0.306961 0.495792 0.202494
0.459047 0.568066 0.184890
0.598607 0.612177 0.171290
0.722493 0.637825 0.171213
0.820960 0.654263 0.171265
0.883542 0.664173 0.171359
0.099178 0.411725 0.182574
0.175003 0.480084 0.208426
0.322938 0.568663 0.228394
0.477402 0.648310 0.211877
0.618772 0.702685 0.189050
0.745304 0.734889 0.182579
0.839314 0.753057 0.184970
0.890794 0.762555 0.187761
0.111407 0.469321 0.210410
0.193225 0.545548 0.239735
0.343874 0.633435 0.261356
0.495221 0.712780 0.249027
0.632784 0.771778 0.225413
0.759158 0.810005 0.207847
0.849697 0.829466 0.203340
0.896083 0.838544 0.209647
0.010686 0.015490 0.113700
0.039965 0.022553 0.153639
0.139584 0.041374 0.200748
0.252158 0.047222 0.227781
0.359886 0.045148 0.230860
0.461877 0.042402 0.226407
0.553962 0.038949 0.226900
0.629325 0.036770 0.232574
0.034056 0.089563 0.163923
0.073176 0.108713 0.202894
0.197786 0.140255 0.254099
0.330598 0.146474 0.278817
0.445360 0.139269 0.277814
0.549693 0.136382 0.273995
0.640712 0.136063 0.275531
0.711879 0.136833 0.281353
0.056456 0.165992 0.206975
0.106796 0.199470 0.237367
0.246966 0.256585 0.281198
0.391584 0.288543 0.303143
0.519207 0.297373 0.306272
0.630936 0.300596 0.307159
0.723329 0.302760 0.310009
0.793285 0.306509 0.316489
0.073277 0.236837 0.227806
0.131866 0.280406 0.256146
0.275340 0.354469 0.297729
0.424504 0.404519 0.314759
0.559046 0.427860 0.316784
0.679162 0.441173 0.317658
0.776258 0.451143 0.321125
0.848185 0.460058 0.329950
0.084611 0.304812 0.240952
0.145915 0.356336 0.270736
0.290596 0.442117 0.314218
0.447907 0.508509 0.327590
0.586670 0.543470 0.326542
0.711369 0.564349 0.324485
0.812477 0.578544 0.325032
0.884388 0.588853 0.332505
0.094443 0.371335 0.258430
0.155561 0.429587 0.288661
0.301844 0.522226 0.333279
0.467439 0.603681 0.343841
0.610650 0.650634 0.335458
0.736985 0.677259 0.333680
0.837818 0.693876 0.334592
0.902232 0.704228 0.339413
0.105015 0.434458 0.281351
0.167402 0.500259 0.314199
0.312741 0.595056 0.360186
0.483039 0.684001 0.372798
0.628013 0.741611 0.359095
0.756685 0.775895 0.352197
0.854354 0.794823 0.354392
0.908213 0.804797 0.361006
0.115692 0.491215 0.313699
0.184037 0.565389 0.352621
0.330152 0.659472 0.401136
0.499306 0.748373 0.420886
0.640737 0.811103 0.411718
0.768489 0.851742 0.398060
0.864486 0.872929 0.392390
0.914041 0.881801 0.400334
0.016440 0.022034 0.168897
0.031989 0.024952 0.202284
0.121627 0.045442 0.254767
0.241878 0.064516 0.303101
0.351011 0.063234 0.330871
0.458008 0.061568 0.340721
0.554757 0.063248 0.340418
0.632045 0.065634 0.341788
0.042023 0.102559 0.227134
0.062673 0.115269 0.265784
0.172790 0.144928 0.325123
0.318074 0.161759 0.378347
0.439636 0.148739 0.401201
0.549482 0.138847 0.405000
0.643395 0.142685 0.404163
0.715620 0.151467 0.405803
0.064694 0.182013 0.277625
0.089142 0.207569 0.312423
0.217015 0.261210 0.372724
0.383200 0.306858 0.427727
0.518421 0.317380 0.449372
0.635517 0.317167 0.451008
0.730332 0.321392 0.451339
0.801375 0.329450 0.456113
0.082605 0.254711 0.314540
0.115710 0.290979 0.345298
0.253480 0.360786 0.400055
0.423743 0.425252 0.446968
0.561849 0.454138 0.464497
0.688394 0.466258 0.468043
0.789230 0.476353 0.473109
0.862102 0.486002 0.481724
0.098102 0.325827 0.334675
0.142105 0.371518 0.364183
0.278034 0.450867 0.417474
0.450136 0.527610 0.463632
0.591573 0.569520 0.480745
0.722394 0.592109 0.484342
0.828861 0.606478 0.488976
0.902496 0.617118 0.497760
0.108701 0.393925 0.347524
0.156951 0.446881 0.379027
0.286080 0.531459 0.433253
0.465784 0.622618 0.481960
0.615660 0.676979 0.498004
0.745855 0.706674 0.503014
0.852239 0.724502 0.506535
0.921406 0.735380 0.512916
0.116929 0.456800 0.368512
0.165924 0.516272 0.403057
0.290452 0.602204 0.456772
0.476720 0.701438 0.507718
0.632108 0.768082 0.522972
0.763955 0.805635 0.526449
0.867118 0.826431 0.531751
0.925845 0.836895 0.538843
0.125724 0.512198 0.399545
0.178586 0.577822 0.437650
0.303079 0.663186 0.491195
0.489262 0.762005 0.544046
0.642859 0.834725 0.562685
0.773306 0.878750 0.565022
0.875762 0.902682 0.568099
0.930058 0.911996 0.575544
0.023193 0.030043 0.225246
0.031909 0.029798 0.253510
0.109804 0.046330 0.303691
0.235401 0.075334 0.357617
0.344801 0.081182 0.397762
0.450288 0.076968 0.424791
0.551081 0.075720 0.442420
0.632067 0.077833 0.452205
0.049377 0.113351 0.291493
0.062496 0.122354 0.326016
0.155521 0.146660 0.378052
0.304879 0.173655 0.437805
0.430105 0.170861 0.481604
0.542750 0.153720 0.504968
0.641759 0.142365 0.517093
0.717751 0.142977 0.523519
0.071875 0.196223 0.341807
0.085904 0.218041 0.376419
0.188646 0.261804 0.433902
0.364970 0.313811 0.502646
0.508434 0.336157 0.551240
0.631421 0.335603 0.572389
0.732530 0.333106 0.578757
0.806872 0.338455 0.582722
0.088586 0.269872 0.379832
0.104451 0.301431 0.412895
0.213698 0.359053 0.469132
0.405669 0.430938 0.538222
0.555761 0.472422 0.581990
0.684648 0.487999 0.598136
0.790407 0.497808 0.603001
0.865746 0.508068 0.608612
0.103673 0.340840 0.413178
0.127946 0.381635 0.443719
0.244476 0.449914 0.495940
0.439171 0.533494 0.562056
0.590798 0.587943 0.601883
0.721580 0.614580 0.615104
0.834307 0.628472 0.618996
0.911710 0.638972 0.626331
0.119991 0.410616 0.434336
0.156475 0.460892 0.464580
0.268643 0.535236 0.513874
0.457961 0.626658 0.579181
0.616298 0.690995 0.619332
0.747239 0.726250 0.634304
0.860487 0.746043 0.637638
0.936344 0.757292 0.643660
0.134556 0.475350 0.451944
0.174843 0.532276 0.484441
0.278641 0.607548 0.532530
0.465782 0.703667 0.597983
0.631142 0.780082 0.639276
0.765795 0.823431 0.655422
0.874303 0.847533 0.663183
0.939443 0.859091 0.669462
0.142984 0.530300 0.476266
0.183500 0.591431 0.511894
0.288388 0.666435 0.560425
0.476192 0.762416 0.625562
0.641098 0.844938 0.668889
0.774792 0.894359 0.685274
0.881582 0.921490 0.693396
0.941210 0.932561 0.700919
0.029611 0.038212 0.280588
0.035959 0.036670 0.306168
0.103119 0.047657 0.352101
0.230357 0.079579 0.406213
0.342667 0.094883 0.453397
0.446197 0.094191 0.488977
0.544722 0.089931 0.515577
0.627572 0.087730 0.535549
0.056295 0.121891 0.355379
0.065451 0.129111 0.386528
0.145968 0.149651 0.430281
0.294475 0.179807 0.486601
0.421914 0.189282 0.539987
0.535246 0.180375 0.577575
0.634614 0.166449 0.600664
0.714681 0.160371 0.616896
0.079155 0.209218 0.407733
0.089240 0.229831 0.441650
0.174226 0.267253 0.491185
0.349179 0.318105 0.557082
0.495737 0.349875 0.617068
0.621749 0.360761 0.658176
0.726994 0.359926 0.680168
0.806996 0.361147 0.693325
0.094685 0.284782 0.442203
0.104926 0.314692 0.476177
0.185566 0.362123 0.526672
0.381277 0.430561 0.599980
0.543807 0.480625 0.662319
0.675737 0.506510 0.700526
0.784949 0.519320 0.718813
0.864956 0.528444 0.728490
0.108291 0.355261 0.475285
0.120640 0.393108 0.508123
0.206676 0.450057 0.557243
0.411358 0.531112 0.632308
0.581842 0.595786 0.694109
0.714882 0.631160 0.726846
0.826988 0.648541 0.738879
0.908176 0.659747 0.745796
0.121851 0.423425 0.504442
0.143566 0.470560 0.537318
0.242602 0.537764 0.586195
0.442029 0.625017 0.657678
0.611815 0.697257 0.715760
0.743851 0.740267 0.746740
0.857845 0.763462 0.755985
0.940206 0.775653 0.760874
0.138489 0.487906 0.528993
0.174193 0.544082 0.563000
0.273791 0.615308 0.609054
0.458441 0.702583 0.674953
0.627934 0.781957 0.732220
0.764042 0.832341 0.763916
0.875423 0.861183 0.776923
0.948455 0.874985 0.781614
0.157828 0.543945 0.552106
0.197611 0.605073 0.586836
0.291748 0.675117 0.630870
0.469944 0.760336 0.694856
0.637741 0.843701 0.753078
0.773835 0.899607 0.785074
0.882971 0.931708 0.800026
0.947833 0.946149 0.808306
0.035601 0.044909 0.334259
0.040203 0.042168 0.359022
0.099676 0.049267 0.399870
0.225366 0.079882 0.451092
0.339351 0.102240 0.501174
0.445074 0.109248 0.546361
0.541479 0.107188 0.579232
0.621220 0.102648 0.601471
0.062821 0.129831 0.416982
0.070034 0.137077 0.444637
0.140143 0.155775 0.482922
0.286119 0.185461 0.534035
0.413994 0.202378 0.588898
0.529877 0.205060 0.638349
0.630280 0.198278 0.671591
0.709562 0.192743 0.692838
0.085514 0.222467 0.472628
0.093877 0.243020 0.505573
0.163710 0.276824 0.548365
0.336553 0.325819 0.608962
0.484794 0.361989 0.670425
0.611751 0.382943 0.723114
0.719646 0.392063 0.758376
0.801239 0.397022 0.779313
0.101008 0.299803 0.506764
0.109274 0.329327 0.541183
0.172785 0.371929 0.586093
0.364197 0.436299 0.655367
0.532688 0.489910 0.723716
0.665400 0.523076 0.774585
0.776185 0.543017 0.806930
0.858356 0.554728 0.825053
0.114140 0.370199 0.535230
0.123687 0.407222 0.570091
0.188664 0.458243 0.616516
0.388235 0.533451 0.690286
0.569061 0.600638 0.762728
0.706520 0.642369 0.811316
0.817971 0.666345 0.838141
0.899397 0.680318 0.851851
0.126372 0.436739 0.563541
0.139352 0.481666 0.598941
0.218304 0.542466 0.647023
0.418957 0.624408 0.720573
0.598867 0.698898 0.790579
0.737831 0.748854 0.836844
0.850160 0.777440 0.859940
0.930842 0.792363 0.869676
0.138128 0.498295 0.588412
0.159389 0.550972 0.624871
0.251991 0.619006 0.673798
0.443856 0.702375 0.743133
0.620721 0.781194 0.809414
0.759966 0.837256 0.853734
0.871552 0.870613 0.877065
0.947381 0.886574 0.885032
0.149580 0.550371 0.608747
0.183484 0.610252 0.647648
0.284500 0.681308 0.696763
0.465085 0.762166 0.761331
0.634823 0.841713 0.824332
0.771330 0.900708 0.867093
0.881852 0.936936 0.890810
0.950814 0.953992 0.901829
0.040497 0.049713 0.384766
0.044730 0.047224 0.407706
0.098999 0.051662 0.444637
0.222024 0.079454 0.492144
0.336203 0.105752 0.541739
0.443412 0.118448 0.593449
0.541935 0.122175 0.634565
0.620728 0.118774 0.660431
0.068730 0.139374 0.471021
0.074474 0.147355 0.495940
0.135065 0.165509 0.531628
0.279327 0.195375 0.579065
0.407790 0.216942 0.631428
0.525148 0.227873 0.687552
0.630326 0.232133 0.731783
0.711408 0.231912 0.759221
0.091440 0.235918 0.529807
0.098574 0.257109 0.560231
0.155301 0.289205 0.599055
0.325019 0.337134 0.655948
0.476691 0.376771 0.716013
0.603473 0.403527 0.773766
0.715021 0.422388 0.819229
0.799539 0.433733 0.847508
0.106432 0.313485 0.564414
0.114453 0.342817 0.598051
0.168581 0.383421 0.639070
0.351771 0.444922 0.703893
0.523886 0.501544 0.773466
0.656631 0.538363 0.830226
0.769268 0.563685 0.871306
0.853141 0.578949 0.895321
0.119119 0.382629 0.589093
0.128426 0.419341 0.624820
0.182684 0.467976 0.669400
0.373207 0.539614 0.740224
0.559517 0.608130 0.815666
0.698809 0.653351 0.872046
0.811399 0.681806 0.907346
0.893284 0.697937 0.925886
0.131086 0.447562 0.613373
0.142265 0.491773 0.651224
0.205162 0.548785 0.698324
0.399043 0.626883 0.770548
0.587140 0.701264 0.844586
0.730837 0.754760 0.899718
0.845122 0.787832 0.932255
0.925105 0.804404 0.947274
0.142325 0.507167 0.636836
0.156293 0.557672 0.674469
0.231740 0.621203 0.722565
0.423747 0.701981 0.793253
0.611134 0.779854 0.864330
0.754341 0.838983 0.917360
0.868419 0.876542 0.949571
0.944576 0.894030 0.963379
0.151581 0.556854 0.653595
0.170567 0.612754 0.692191
0.262661 0.681126 0.742684
0.451006 0.761862 0.811170
0.630005 0.839473 0.878200
0.768053 0.899924 0.928536
0.880044 0.939462 0.959438
0.952484 0.958496 0.972992
