Plugins/FilmEmulator/Content/LUTs/FE_Fujifilm_Eterna_500T_8573_64.cube
# FilmEmulator LUT (resampled to 64)
LUT_3D_SIZE 4
0.000244 0.000000 0.001984
0.216594 0.005727 0.000000
0.436615 0.000000 0.000000
0.681519 0.000000 0.013489
0.000000 0.185170 0.105082
0.272823 0.242391 0.071842
0.570845 0.272207 0.000000
0.856171 0.296712 0.000000
0.144989 0.392863 0.200511
0.404250 0.507663 0.193644
0.625054 0.536499 0.032253
0.917643 0.612437 0.000000
0.255615 0.599030 0.329834
0.563253 0.728333 0.347555
0.748006 0.790853 0.214691
0.968231 0.822876 0.057709
0.073008 0.000000 0.130208
0.187819 0.031280 0.164764
0.415670 0.048035 0.161292
0.712067 0.000000 0.174215
0.000000 0.240180 0.304080
0.258354 0.314990 0.344790
0.611909 0.315224 0.285102
0.968550 0.271515 0.241614
0.000000 0.467597 0.425988
0.241682 0.587089 0.467787
0.649172 0.621915 0.441437
0.965383 0.652751 0.350338
0.000193 0.674327 0.582357
0.281006 0.810659 0.637983
0.716865 0.855248 0.640923
0.977824 0.889740 0.575246
0.104400 0.027720 0.335988
0.206116 0.042385 0.359433
0.393538 0.116492 0.349420
0.656291 0.173991 0.375458
0.210527 0.277558 0.497989
0.351541 0.340882 0.552494
0.570599 0.376232 0.541329
0.830464 0.439151 0.544515
0.000108 0.511675 0.620534
0.000000 0.629175 0.705078
0.613352 0.668207 0.694621
0.974938 0.681918 0.658155
0.000000 0.704488 0.737406
0.000000 0.846303 0.809214
0.537404 0.906081 0.834530
0.975260 0.917918 0.801452
0.202942 0.087952 0.542969
0.286866 0.086823 0.576030
0.493072 0.160756 0.544891
0.664429 0.294525 0.536652
0.235392 0.355866 0.738444
0.403463 0.439789 0.768121
0.610863 0.432919 0.789426
0.821513 0.536489 0.747019
0.300904 0.549591 0.773489
0.217068 0.665744 0.899566
0.659732 0.711751 0.903510
0.931590 0.736796 0.867299
0.003235 0.737366 0.884003
0.000000 0.858612 0.954905
0.473694 0.919576 0.986623
0.970490 0.946259 0.968170
