Plugins/FilmEmulator/Content/LUTs/FE_Fujiflex_Old_64.cube
TITLE "FE_Fujiflex_Old_33"
LUT_3D_SIZE 8
0.1581355 0.1186588 0.0097221
0.1545973 0.1178420 0.0096437
0.4285694 0.1876768 0.0175445
0.7589493 0.2990801 0.0354966
0.9749131 0.4069543 0.0601890
1.0000000 0.4932450 0.0864761
1.0000000 0.5619079 0.1128073
1.0000000 0.6071256 0.1335090
0.1896242 0.4683909 0.0469655
0.3408275 0.4682239 0.0494689
0.6395417 0.5073574 0.0633563
0.8771167 0.5660771 0.0863034
1.0000000 0.6153973 0.1103613
1.0000000 0.6598844 0.1358352
1.0000000 0.6892893 0.1561663
1.0000000 0.7079297 0.1713220
0.4175678 0.9046926 0.2972481
0.6161053 0.9097532 0.2697442
0.7981233 0.9182023 0.2532982
0.9036602 0.9268778 0.2454505
0.9647595 0.9333309 0.2640317
0.9977787 0.9372488 0.2867569
1.0000000 0.9387050 0.3045806
1.0000000 0.9395986 0.3199075
0.6342746 0.9756893 0.5573180
0.7937111 0.9797190 0.5291204
0.8891279 0.9841914 0.5039315
0.9411942 0.9887277 0.4786929
0.9694606 0.9916987 0.4631119
0.9830881 0.9935255 0.4465742
0.9911656 0.9950773 0.4299090
0.9954246 0.9946430 0.4400055
0.7955423 0.9900866 0.7414407
0.8889841 0.9927797 0.7205800
0.9392365 0.9956200 0.6997861
0.9667689 0.9981792 0.6829699
0.9793032 1.0000000 0.6621327
0.9860865 1.0000000 0.6372217
0.9889817 1.0000000 0.6095830
0.9899160 1.0000000 0.5748962
0.8858063 0.9909869 0.8554829
0.9391514 0.9931173 0.8427689
0.9676951 0.9952383 0.8295850
0.9809961 0.9969650 0.8150303
0.9875993 0.9984759 0.7972218
0.9908518 0.9998583 0.7765479
0.9918786 1.0000000 0.7528156
0.9922287 1.0000000 0.7269725
0.9351733 0.9915289 0.9180236
0.9662896 0.9931710 0.9113883
0.9814726 0.9945360 0.9040384
0.9887169 0.9956162 0.8944016
0.9927226 0.9965500 0.8836935
0.9941403 0.9973184 0.8697634
0.9947690 0.9980577 0.8546886
0.9951577 0.9988990 0.8373165
0.9629044 0.9925105 0.9493220
0.9804849 0.9937587 0.9458771
0.9885476 0.9946049 0.9424785
0.9931020 0.9952915 0.9379761
0.9949355 0.9957173 0.9321518
0.9958172 0.9961022 0.9244075
0.9964322 0.9964951 0.9155949
0.9967815 0.9969604 0.9047024
0.2019347 0.2249228 0.6528777
0.4702122 0.2835535 0.5981203
0.7734057 0.3801672 0.5498319
0.9613624 0.4685744 0.5087667
1.0000000 0.5411625 0.4720810
1.0000000 0.5965902 0.4359598
1.0000000 0.6329455 0.3997062
1.0000000 0.6586026 0.3573181
0.4642017 0.6957265 0.8090861
0.7010416 0.7197094 0.7795463
0.8719612 0.7471905 0.7502261
0.9693049 0.7698643 0.7194048
1.0000000 0.7891693 0.6895636
1.0000000 0.7985047 0.6562583
1.0000000 0.8035802 0.6201640
1.0000000 0.8030002 0.5844169
0.7274961 0.9337400 0.8987008
0.8577253 0.9411902 0.8877367
0.9294966 0.9477714 0.8746951
0.9709550 0.9539575 0.8618692
0.9911082 0.9574640 0.8478583
1.0000000 0.9593771 0.8310988
1.0000000 0.9601540 0.8116832
1.0000000 0.9593945 0.7891002
0.8597321 0.9746101 0.9405881
0.9271844 0.9778572 0.9358748
0.9638219 0.9808159 0.9309268
0.9822122 0.9829896 0.9256173
0.9913459 0.9842164 0.9192657
0.9966807 0.9851567 0.9110658
0.9990267 0.9854403 0.9009636
1.0000000 0.9853964 0.8881910
0.9244774 0.9864678 0.9635870
0.9608707 0.9883845 0.9602919
0.9796638 0.9900022 0.9577691
0.9887578 0.9910570 0.9546521
0.9938087 0.9918430 0.9518763
0.9959772 0.9921783 0.9473585
0.9971237 0.9923570 0.9427458
0.9980165 0.9924483 0.9368907
0.9568016 0.9904500 0.9770641
0.9778977 0.9918972 0.9755294
0.9874832 0.9928535 0.9735766
0.9927096 0.9935360 0.9713459
0.9951724 0.9939111 0.9688298
0.9963295 0.9940876 0.9659719
0.9971415 0.9942166 0.9629241
0.9977392 0.9943164 0.9597542
0.9752965 0.9927115 0.9832542
0.9862022 0.9936713 0.9826884
0.9917263 0.9943326 0.9819893
0.9946223 0.9947445 0.9811925
0.9958822 0.9949218 0.9799938
0.9966566 0.9950306 0.9784359
0.9972848 0.9951025 0.9762710
0.9977143 0.9951409 0.9736657
0.9845400 0.9940478 0.9872178
0.9907306 0.9947217 0.9868372
0.9941871 0.9951900 0.9863657
0.9955429 0.9953902 0.9857142
0.9963596 0.9955034 0.9849696
0.9969980 0.9955945 0.9840522
0.9974196 0.9956466 0.9832615
0.9977300 0.9956804 0.9822628
0.5464097 0.4920100 0.9845235
0.7815568 0.5619781 0.9666319
0.9223076 0.6238649 0.9526562
1.0000000 0.6789144 0.9402921
1.0000000 0.7205335 0.9300001
1.0000000 0.7476295 0.9217800
1.0000000 0.7658298 0.9129834
1.0000000 0.7731705 0.9038705
0.7705739 0.8570588 0.9790086
0.8848807 0.8734550 0.9719316
0.9499543 0.8874498 0.9661345
0.9866816 0.8976707 0.9608122
1.0000000 0.9041260 0.9565127
1.0000000 0.9071018 0.9510919
1.0000000 0.9062669 0.9460770
1.0000000 0.9026704 0.9401041
0.8924561 0.9633012 0.9816138
0.9449783 0.9682271 0.9796963
0.9736238 0.9724948 0.9781348
0.9870294 0.9751046 0.9768081
0.9945571 0.9767697 0.9751146
0.9984615 0.9772159 0.9729418
1.0000000 0.9770147 0.9700879
1.0000000 0.9764061 0.9667621
0.9444688 0.9842649 0.9860495
0.9716210 0.9865878 0.9851963
0.9848127 0.9881973 0.9844398
0.9913685 0.9892041 0.9837145
0.9949293 0.9897987 0.9829292
0.9965526 0.9899545 0.9820561
0.9975612 0.9899324 0.9809644
0.9983994 0.9898660 0.9798041
0.9695163 0.9906570 0.9886454
0.9835217 0.9919886 0.9883196
0.9902633 0.9928558 0.9879905
0.9940546 0.9934490 0.9877757
0.9955953 0.9936975 0.9873458
0.9964918 0.9938172 0.9867840
0.9971799 0.9938669 0.9861030
0.9976849 0.9938966 0.9853377
0.9816309 0.9931420 0.9908254
0.9892668 0.9939802 0.9905481
0.9934459 0.9945738 0.9902983
0.9952015 0.9948488 0.9899801
0.9961116 0.9949765 0.9895232
0.9967840 0.9950780 0.9892042
0.9972747 0.9951441 0.9888631
0.9976054 0.9951710 0.9884485
0.9881472 0.9945093 0.9921749
0.9927475 0.9951033 0.9920269
0.9948849 0.9954430 0.9919128
0.9958712 0.9955947 0.9916836
0.9965292 0.9956928 0.9914301
0.9970498 0.9957738 0.9911280
0.9973828 0.9958071 0.9907842
0.9976471 0.9958336 0.9904170
0.9918923 0.9953421 0.9931639
0.9945219 0.9957239 0.9930406
0.9956522 0.9959093 0.9929261
0.9963352 0.9960190 0.9927866
0.9968762 0.9961089 0.9925964
0.9972342 0.9961632 0.9923848
0.9975010 0.9961987 0.9922095
0.9977207 0.9962239 0.9919610
0.8131940 0.7009717 1.0000000
0.9196360 0.7451094 0.9997466
0.9797624 0.7815536 0.9943746
1.0000000 0.8066785 0.9906160
1.0000000 0.8229156 0.9878213
1.0000000 0.8337642 0.9857473
1.0000000 0.8362802 0.9837290
1.0000000 0.8419595 0.9821025
0.9095103 0.9285838 0.9926796
0.9570278 0.9374436 0.9905198
0.9813427 0.9434628 0.9890487
0.9937840 0.9472257 0.9878271
1.0000000 0.9496884 0.9869153
1.0000000 0.9493030 0.9862353
1.0000000 0.9479424 0.9854777
1.0000000 0.9464356 0.9848510
0.9561768 0.9782431 0.9917943
0.9775712 0.9812482 0.9910962
0.9877650 0.9831219 0.9906378
0.9934663 0.9843953 0.9903176
0.9959801 0.9849270 0.9899526
0.9973887 0.9849477 0.9895080
0.9984714 0.9847270 0.9890309
0.9993041 0.9845184 0.9885289
0.9770705 0.9896590 0.9927234
0.9868704 0.9909036 0.9924390
0.9921947 0.9917796 0.9922746
0.9947528 0.9922326 0.9920642
0.9959303 0.9924002 0.9918830
0.9967483 0.9925197 0.9916381
0.9973567 0.9925529 0.9914312
0.9977993 0.9925103 0.9911299
0.9859926 0.9932513 0.9934910
0.9914355 0.9939980 0.9934043
0.9943278 0.9944825 0.9933234
0.9955914 0.9946857 0.9932211
0.9963288 0.9948068 0.9930969
0.9969171 0.9948935 0.9929143
0.9973071 0.9949377 0.9927602
0.9975920 0.9949346 0.9925851
0.9905773 0.9946856 0.9940537
0.9939854 0.9952031 0.9940111
0.9953513 0.9954340 0.9939520
0.9961303 0.9955776 0.9938797
0.9967111 0.9956774 0.9937957
0.9971256 0.9957448 0.9937055
0.9973986 0.9957787 0.9935937
0.9976341 0.9958046 0.9934760
0.9934941 0.9955502 0.9944646
0.9951183 0.9958233 0.9944471
0.9959474 0.9959649 0.9943942
0.9965574 0.9960786 0.9943374
0.9969959 0.9961585 0.9942957
0.9972845 0.9962102 0.9942218
0.9975217 0.9962456 0.9941421
0.9977280 0.9962807 0.9940599
0.9948654 0.9960220 0.9948013
0.9957969 0.9961824 0.9947610
0.9964123 0.9962913 0.9947323
0.9968942 0.9963846 0.9947016
0.9971967 0.9964398 0.9946431
0.9974335 0.9964777 0.9945807
0.9976468 0.9965184 0.9945359
0.9978163 0.9965425 0.9944658
0.9294827 0.8246748 1.0000000
0.9765097 0.8479084 0.9997677
0.9996737 0.8633421 0.9975326
1.0000000 0.8737014 0.9960067
1.0000000 0.8786456 0.9950455
1.0000000 0.8796580 0.9943894
1.0000000 0.8795205 0.9939182
1.0000000 0.8789025 0.9933858
0.9652030 0.9627765 0.9944023
0.9826589 0.9668009 0.9936764
0.9915311 0.9691467 0.9932280
0.9967300 0.9700627 0.9929004
0.9990951 0.9698596 0.9926704
1.0000000 0.9688269 0.9924660
1.0000000 0.9676887 0.9922432
1.0000000 0.9662964 0.9920289
0.9813950 0.9859416 0.9940620
0.9892105 0.9874278 0.9938697
0.9936640 0.9883753 0.9937217
0.9954931 0.9887447 0.9936080
0.9965621 0.9888091 0.9935191
0.9974027 0.9888830 0.9934015
0.9979966 0.9887618 0.9932759
0.9984531 0.9885725 0.9931421
0.9886438 0.9925407 0.9944869
0.9930466 0.9933008 0.9944325
0.9949230 0.9936081 0.9943681
0.9959081 0.9937239 0.9943147
0.9966092 0.9938220 0.9942418
0.9971229 0.9938356 0.9941812
0.9974696 0.9938145 0.9940947
0.9977417 0.9938166 0.9940085
0.9924595 0.9946243 0.9948360
0.9946880 0.9950157 0.9948213
0.9956954 0.9952008 0.9947947
0.9963819 0.9953264 0.9947498
0.9968805 0.9954184 0.9947158
0.9972243 0.9954723 0.9946563
0.9974794 0.9955083 0.9946113
0.9977014 0.9955186 0.9945616
0.9943796 0.9955485 0.9950783
0.9955541 0.9957552 0.9950711
0.9962328 0.9958775 0.9950548
0.9967672 0.9959860 0.9950367
0.9971174 0.9960482 0.9950123
0.9973659 0.9960882 0.9949839
0.9975895 0.9961206 0.9949336
0.9977803 0.9961568 0.9948983
0.9953547 0.9960362 0.9952635
0.9960949 0.9961697 0.9952555
0.9966447 0.9962786 0.9952464
0.9970343 0.9963529 0.9952319
0.9972873 0.9964038 0.9952130
0.9975039 0.9964427 0.9951925
0.9976980 0.9964827 0.9951712
0.9978447 0.9965060 0.9951429
0.9959345 0.9963329 0.9954056
0.9965227 0.9964452 0.9954001
0.9969448 0.9965250 0.9953910
0.9972201 0.9965814 0.9953864
0.9974452 0.9966268 0.9953706
0.9976404 0.9966625 0.9953528
0.9977935 0.9966931 0.9953340
0.9979082 0.9967147 0.9953127
0.9770643 0.9005524 0.9986716
0.9944007 0.9090343 0.9973906
1.0000000 0.9147772 0.9965157
1.0000000 0.9163022 0.9960750
1.0000000 0.9154227 0.9958759
1.0000000 0.9139957 0.9957308
1.0000000 0.9117027 0.9956148
1.0000000 0.9094222 0.9955512
0.9848998 0.9766935 0.9948278
0.9919729 0.9786230 0.9945494
0.9954951 0.9797094 0.9943901
0.9971769 0.9798170 0.9942901
0.9983790 0.9797039 0.9942038
0.9993650 0.9794068 0.9941189
1.0000000 0.9789017 0.9940370
1.0000000 0.9779664 0.9939358
0.9905936 0.9899662 0.9948670
0.9940758 0.9907092 0.9948003
0.9955111 0.9909670 0.9947558
0.9963875 0.9910128 0.9947092
0.9970892 0.9910852 0.9946674
0.9975678 0.9910805 0.9946251
0.9979421 0.9909648 0.9945745
0.9982619 0.9908908 0.9945244
0.9937127 0.9940991 0.9951611
0.9951770 0.9943626 0.9951521
0.9960074 0.9945242 0.9951351
0.9966473 0.9946296 0.9951156
0.9970688 0.9946994 0.9950928
0.9973743 0.9947010 0.9950635
0.9976227 0.9947169 0.9950363
0.9978511 0.9946990 0.9950038
0.9949782 0.9953411 0.9953612
0.9958670 0.9955087 0.9953542
0.9964902 0.9956319 0.9953530
0.9969389 0.9957197 0.9953424
0.9972329 0.9957711 0.9953264
0.9974622 0.9958076 0.9953076
0.9976832 0.9958441 0.9952891
0.9978476 0.9958674 0.9952769
0.9957123 0.9959496 0.9954975
0.9963611 0.9960794 0.9955018
0.9968305 0.9961686 0.9954969
0.9971512 0.9962279 0.9954886
0.9973878 0.9962779 0.9954854
0.9975917 0.9963124 0.9954711
0.9977712 0.9963422 0.9954563
0.9978932 0.9963579 0.9954460
0.9962322 0.9963008 0.9955966
0.9967474 0.9964005 0.9955976
0.9970840 0.9964712 0.9955999
0.9973219 0.9965163 0.9955941
0.9975334 0.9965624 0.9955934
0.9977151 0.9965969 0.9955840
0.9978421 0.9966237 0.9955783
0.9979466 0.9966443 0.9955658
0.9966365 0.9965439 0.9956748
0.9970021 0.9966148 0.9956785
0.9972621 0.9966686 0.9956759
0.9974719 0.9967132 0.9956762
0.9976600 0.9967533 0.9956720
0.9978011 0.9967794 0.9956687
0.9979087 0.9968010 0.9956599
0.9979925 0.9968175 0.9956546
0.9922394 0.9400387 0.9965097
0.9998552 0.9434792 0.9959927
1.0000000 0.9435732 0.9957924
1.0000000 0.9430340 0.9956767
1.0000000 0.9418721 0.9955963
1.0000000 0.9402692 0.9955694
1.0000000 0.9379724 0.9955703
1.0000000 0.9355995 0.9955782
0.9927370 0.9838154 0.9950263
0.9952889 0.9843377 0.9949428
0.9966440 0.9845318 0.9948831
0.9976195 0.9845832 0.9948398
0.9983833 0.9844164 0.9947915
0.9989106 0.9842417 0.9947470
0.9993855 0.9839110 0.9947111
0.9998295 0.9835353 0.9946666
0.9944362 0.9922591 0.9952451
0.9956039 0.9924537 0.9952267
0.9963977 0.9925596 0.9952049
0.9970076 0.9926082 0.9951881
0.9974006 0.9925850 0.9951644
0.9977127 0.9925359 0.9951435
0.9980012 0.9924784 0.9951158
0.9982376 0.9924006 0.9950873
0.9954300 0.9948469 0.9954696
0.9961486 0.9949659 0.9954666
0.9967182 0.9950787 0.9954656
0.9970960 0.9951462 0.9954576
0.9973746 0.9951720 0.9954503
0.9975988 0.9952014 0.9954384
0.9978058 0.9952090 0.9954289
0.9979607 0.9952173 0.9954149
0.9960177 0.9957255 0.9956004
0.9965876 0.9958377 0.9956042
0.9969943 0.9959181 0.9956059
0.9972694 0.9959686 0.9956008
0.9974921 0.9960083 0.9955984
0.9976920 0.9960435 0.9955952
0.9978430 0.9960654 0.9955859
0.9979583 0.9960787 0.9955797
0.9964920 0.9962112 0.9956961
0.9969206 0.9963020 0.9957017
0.9972003 0.9963547 0.9956995
0.9974174 0.9963950 0.9956992
0.9976259 0.9964414 0.9957001
0.9977810 0.9964688 0.9956976
0.9978969 0.9964922 0.9956906
0.9979874 0.9965032 0.9956855
0.9968262 0.9964865 0.9957624
0.9971377 0.9965525 0.9957670
0.9973674 0.9966019 0.9957696
0.9975643 0.9966409 0.9957709
0.9977372 0.9966790 0.9957687
0.9978545 0.9967000 0.9957663
0.9979483 0.9967196 0.9957637
0.9980243 0.9967347 0.9957603
0.9970776 0.9966843 0.9958166
0.9973105 0.9967338 0.9958205
0.9975176 0.9967785 0.9958239
0.9976946 0.9968174 0.9958266
0.9978186 0.9968403 0.9958257
0.9979202 0.9968618 0.9958246
0.9979994 0.9968775 0.9958194
0.9980562 0.9968880 0.9958161
0.9972824 0.9624463 0.9955627
0.9998873 0.9620892 0.9954582
1.0000000 0.9615741 0.9953843
1.0000000 0.9608545 0.9953341
1.0000000 0.9595009 0.9953122
1.0000000 0.9579474 0.9953125
1.0000000 0.9563366 0.9953167
1.0000000 0.9546560 0.9953195
0.9953076 0.9877284 0.9952025
0.9964058 0.9878120 0.9951679
0.9972709 0.9878253 0.9951373
0.9978701 0.9877317 0.9951109
0.9983209 0.9875714 0.9950818
0.9987192 0.9873856 0.9950572
0.9990733 0.9871905 0.9950333
0.9993739 0.9868515 0.9950033
0.9957806 0.9934482 0.9954586
0.9964846 0.9935514 0.9954498
0.9969987 0.9936454 0.9954405
0.9973415 0.9936537 0.9954302
0.9976232 0.9936441 0.9954187
0.9978713 0.9936228 0.9954066
0.9980765 0.9935672 0.9953884
0.9982347 0.9934940 0.9953731
0.9962960 0.9953154 0.9956414
0.9968141 0.9954173 0.9956442
0.9971390 0.9954734 0.9956411
0.9973907 0.9955131 0.9956391
0.9976185 0.9955459 0.9956362
0.9978007 0.9955491 0.9956300
0.9979411 0.9955578 0.9956247
0.9980469 0.9955563 0.9956182
0.9967044 0.9960087 0.9957395
0.9970572 0.9960766 0.9957435
0.9973154 0.9961243 0.9957455
0.9975222 0.9961696 0.9957467
0.9977112 0.9962029 0.9957466
0.9978521 0.9962240 0.9957449
0.9979541 0.9962347 0.9957417
0.9980402 0.9962412 0.9957379
0.9969874 0.9963956 0.9958089
0.9972515 0.9964474 0.9958134
0.9974649 0.9964944 0.9958170
0.9976562 0.9965320 0.9958193
0.9977995 0.9965638 0.9958209
0.9979089 0.9965819 0.9958203
0.9979940 0.9965993 0.9958196
0.9980605 0.9966059 0.9958165
0.9971942 0.9966202 0.9958553
0.9974060 0.9966618 0.9958591
0.9976094 0.9967072 0.9958640
0.9977601 0.9967408 0.9958671
0.9978727 0.9967613 0.9958681
0.9979601 0.9967799 0.9958686
0.9980280 0.9967933 0.9958676
0.9980865 0.9968003 0.9958653
0.9973618 0.9967831 0.9958935
0.9975551 0.9968255 0.9958984
0.9977247 0.9968606 0.9959022
0.9978395 0.9968859 0.9959044
0.9979313 0.9969060 0.9959055
0.9980057 0.9969218 0.9959058
0.9980646 0.9969339 0.9959053
0.9981121 0.9969404 0.9959054
