Plugins/FilmEmulator/Content/LUTs/FE_Fujifilm_Eterna_500T_8573_64.cube
# FilmEmulator LUT (resampled to 64)
LUT_3D_SIZE 64
0.000244 0.000000 0.001984
0.003375 0.000000 0.001720
0.006662 0.000044 0.001492
0.014769 0.001439 0.002360
0.023032 0.002814 0.003092
0.033634 0.003883 0.001774
0.044225 0.004962 0.000552
0.054704 0.006141 0.000258
0.065167 0.007253 0.000000
0.075522 0.007904 0.000000
0.086054 0.008550 0.000000
0.097540 0.009170 0.000000
0.109091 0.009686 0.000000
0.120917 0.009748 0.000000
0.132429 0.010050 0.000000
0.142815 0.011213 0.000000
0.154030 0.012027 0.000000
0.167733 0.011794 0.000000
0.180743 0.011270 0.000000
0.191981 0.009999 0.000000
0.203728 0.008316 0.000000
0.216594 0.005727 0.000000
0.229198 0.003325 0.000000
0.241305 0.001279 0.000000
0.252870 0.000000 0.000000
0.263535 0.000000 0.000000
0.274029 0.000000 0.000000
0.284276 0.000000 0.000000
0.294671 0.000000 0.000000
0.305258 0.000000 0.000000
0.315729 0.000000 0.000000
0.326068 0.000000 0.000000
0.336136 0.000000 0.000000
0.345933 0.000000 0.000000
0.355738 0.000000 0.000000
0.365550 0.000000 0.000000
0.375842 0.000000 0.000000
0.386506 0.000000 0.000000
0.396821 0.000000 0.000000
0.406897 0.000000 0.000000
0.416769 0.000000 0.000000
0.426519 0.000000 0.000000
0.436615 0.000000 0.000000
0.446892 0.000000 0.000000
0.457521 0.000000 0.000000
0.468310 0.000000 0.000000
0.478797 0.000000 0.000000
0.489167 0.000000 0.000000
0.501154 0.000000 0.000000
0.513678 0.000000 0.000000
0.524895 0.000000 0.000000
0.535746 0.000000 0.000000
0.546748 0.000000 0.000000
0.557785 0.000000 0.000000
0.569475 0.000000 0.000000
0.581287 0.000000 0.000000
0.593194 0.000000 0.000963
0.605114 0.000000 0.002064
0.617428 0.000000 0.004105
0.629782 0.000000 0.006244
0.643807 0.000000 0.009125
0.657944 0.000000 0.012054
0.669769 0.000000 0.012807
0.681519 0.000000 0.013489
0.000120 0.003581 0.003751
0.002724 0.003455 0.003401
0.005502 0.003380 0.003087
0.013696 0.004910 0.003916
0.022059 0.006403 0.004603
0.032977 0.007362 0.003151
0.043856 0.008336 0.001748
0.054358 0.009451 0.000816
0.064871 0.010511 0.000000
0.075462 0.011186 0.000000
0.086191 0.011854 0.000000
0.097661 0.012490 0.000000
0.109194 0.013023 0.000000
0.120998 0.013108 0.000000
0.132605 0.013373 0.000000
0.143510 0.014276 0.000000
0.155085 0.014940 0.000000
0.168670 0.014888 0.000000
0.181449 0.014715 0.000000
0.192167 0.014232 0.000000
0.203478 0.013203 0.000000
0.216092 0.010977 0.000000
0.228610 0.008582 0.000000
0.240945 0.005867 0.000000
0.252760 0.003721 0.000000
0.263707 0.002524 0.000000
0.274639 0.001440 0.000000
0.285547 0.000518 0.000000
0.296538 0.000000 0.000000
0.307637 0.000000 0.000000
0.318380 0.000000 0.000000
0.328719 0.000000 0.000000
0.338728 0.000000 0.000000
0.348406 0.000000 0.000000
0.358156 0.000000 0.000000
0.367968 0.000000 0.000000
0.378255 0.000000 0.000000
0.388912 0.000000 0.000000
0.399130 0.000000 0.000000
0.409048 0.000000 0.000000
0.418827 0.000000 0.000000
0.428522 0.000000 0.000000
0.438589 0.000000 0.000000
0.448850 0.000000 0.000000
0.459398 0.000000 0.000000
0.470077 0.000000 0.000000
0.480601 0.000000 0.000000
0.491066 0.000000 0.000000
0.502934 0.000000 0.000000
0.515270 0.000000 0.000000
0.526433 0.000000 0.000000
0.537268 0.000000 0.000000
0.548203 0.000000 0.000000
0.559161 0.000000 0.000000
0.570654 0.000000 0.000000
0.582245 0.000000 0.000000
0.594159 0.000000 0.000577
0.606118 0.000000 0.001237
0.618421 0.000000 0.003245
0.630760 0.000000 0.005392
0.644614 0.000000 0.008412
0.658570 0.000000 0.011492
0.670534 0.000000 0.012104
0.682433 0.000000 0.012636
0.000000 0.007294 0.005616
0.002072 0.007045 0.005182
0.004339 0.006856 0.004785
0.012621 0.008515 0.005572
0.021090 0.010123 0.006211
0.032347 0.010979 0.004629
0.043538 0.011855 0.003050
0.054092 0.012914 0.001490
0.064684 0.013928 0.000117
0.075540 0.014631 0.000054
0.086494 0.015327 0.000000
0.097970 0.015978 0.000000
0.109511 0.016529 0.000000
0.121333 0.016645 0.000000
0.133079 0.016878 0.000000
0.144550 0.017530 0.000000
0.156513 0.018052 0.000000
0.169953 0.018187 0.000000
0.182493 0.018361 0.000000
0.192738 0.018637 0.000000
0.203655 0.018235 0.000000
0.216053 0.016343 0.000000
0.228507 0.013947 0.000000
0.241070 0.010587 0.000000
0.253142 0.007594 0.000000
0.264395 0.005211 0.000000
0.275772 0.003032 0.000000
0.287331 0.001150 0.000000
0.298901 0.000087 0.000000
0.310487 0.000075 0.000000
0.321489 0.000067 0.000000
0.331830 0.000062 0.000000
0.341792 0.000055 0.000000
0.351373 0.000046 0.000000
0.361081 0.000038 0.000000
0.370900 0.000030 0.000000
0.381188 0.000019 0.000000
0.391843 0.000006 0.000000
0.401975 0.000000 0.000000
0.411751 0.000000 0.000000
0.421451 0.000000 0.000000
0.431107 0.000000 0.000000
0.441164 0.000000 0.000000
0.451431 0.000000 0.000000
0.461914 0.000000 0.000000
0.472496 0.000000 0.000000
0.483064 0.000000 0.000000
0.493627 0.000000 0.000000
0.505368 0.000000 0.000000
0.517502 0.000000 0.000000
0.528614 0.000000 0.000000
0.539441 0.000000 0.000000
0.550309 0.000000 0.000000
0.561187 0.000000 0.000000
0.572482 0.000000 0.000000
0.583855 0.000000 0.000000
0.595774 0.000000 0.000200
0.607772 0.000000 0.000429
0.620073 0.000000 0.002372
0.632405 0.000000 0.004493
0.646107 0.000000 0.007600
0.659900 0.000000 0.010773
0.671991 0.000000 0.011241
0.684027 0.000000 0.011623
0.000000 0.015090 0.010514
0.001419 0.014842 0.010072
0.003057 0.014653 0.009664
0.011514 0.016287 0.010333
0.020213 0.017882 0.010860
0.032564 0.018880 0.009254
0.044834 0.019898 0.007624
0.056318 0.021098 0.005758
0.067868 0.022259 0.003863
0.079890 0.023143 0.001768
0.091931 0.023994 0.000000
0.104076 0.024661 0.000000
0.116408 0.025269 0.000000
0.129554 0.025621 0.000000
0.142774 0.026042 0.000000
0.156261 0.026710 0.000000
0.169488 0.027333 0.000000
0.181935 0.027822 0.000000
0.194026 0.028218 0.000000
0.205208 0.028375 0.000000
0.217047 0.027732 0.000000
0.230334 0.025329 0.000000
0.243449 0.022640 0.000000
0.256232 0.019406 0.000000
0.268807 0.016172 0.000000
0.281037 0.012940 0.000000
0.293128 0.009370 0.000000
0.305017 0.005307 0.000000
0.316650 0.002858 0.000000
0.327952 0.002484 0.000000
0.338834 0.002206 0.000000
0.349238 0.002035 0.000000
0.359502 0.001804 0.000000
0.369627 0.001512 0.000000
0.379710 0.001246 0.000000
0.389757 0.001002 0.000000
0.400235 0.000639 0.000000
0.411046 0.000185 0.000000
0.421435 0.000000 0.000000
0.431533 0.000000 0.000000
0.441625 0.000000 0.000000
0.451714 0.000000 0.000000
0.462364 0.000000 0.000000
0.473308 0.000000 0.000000
0.484225 0.000000 0.000000
0.495130 0.000000 0.000000
0.505947 0.000000 0.000000
0.516731 0.000000 0.000000
0.528072 0.000000 0.000000
0.539600 0.000000 0.000000
0.550746 0.000000 0.000000
0.561784 0.000000 0.000000
0.572583 0.000000 0.000000
0.583327 0.000000 0.000000
0.594469 0.000000 0.000000
0.605684 0.000000 0.000000
0.617584 0.000000 0.000097
0.629582 0.000000 0.000208
0.642140 0.000000 0.001148
0.654756 0.000000 0.002174
0.668859 0.000000 0.003677
0.683061 0.000000 0.005213
0.694914 0.000000 0.005439
0.706690 0.000000 0.005624
0.000000 0.022996 0.015507
0.000781 0.022763 0.015053
0.001800 0.022589 0.014631
0.010241 0.024231 0.015180
0.019000 0.025842 0.015597
0.032544 0.026996 0.014011
0.045981 0.028168 0.012372
0.058377 0.029501 0.010216
0.070865 0.030799 0.007832
0.083996 0.031853 0.003849
0.097082 0.032850 0.000469
0.109922 0.033545 0.000337
0.123062 0.034219 0.000209
0.137500 0.034799 0.000091
0.152151 0.035408 0.000000
0.167564 0.036117 0.000000
0.182022 0.036849 0.000000
0.193612 0.037650 0.000000
0.205341 0.038244 0.000000
0.217424 0.038310 0.000000
0.230133 0.037477 0.000000
0.244218 0.034664 0.000000
0.257933 0.031758 0.000000
0.270945 0.028674 0.000000
0.284010 0.025261 0.000000
0.297164 0.021299 0.000000
0.309945 0.016517 0.000000
0.322179 0.010537 0.000000
0.333910 0.006838 0.000000
0.344994 0.006073 0.000000
0.355821 0.005464 0.000000
0.366356 0.005032 0.000000
0.376950 0.004520 0.000000
0.387602 0.003927 0.000000
0.398054 0.003393 0.000000
0.408327 0.002912 0.000000
0.419006 0.002124 0.000000
0.429999 0.001097 0.000000
0.440654 0.000641 0.000000
0.451078 0.000574 0.000000
0.461587 0.000529 0.000000
0.472147 0.000497 0.000000
0.483352 0.000461 0.000000
0.494897 0.000424 0.000000
0.506206 0.000374 0.000000
0.517409 0.000319 0.000000
0.528474 0.000233 0.000000
0.539484 0.000135 0.000000
0.550463 0.000092 0.000000
0.561433 0.000068 0.000000
0.572609 0.000041 0.000000
0.583843 0.000012 0.000000
0.594591 0.000004 0.000000
0.605226 0.000001 0.000000
0.616234 0.000000 0.000000
0.627311 0.000000 0.000000
0.639185 0.000000 0.000000
0.651172 0.000000 0.000000
0.663962 0.000000 0.000000
0.676834 0.000000 0.000000
0.691333 0.000000 0.000000
0.705940 0.000000 0.000000
0.717598 0.000033 0.000000
0.729162 0.000068 0.000000
0.000000 0.032529 0.021924
0.000371 0.032540 0.021400
0.000905 0.032618 0.020904
0.006495 0.034740 0.021320
0.012749 0.036824 0.021654
0.028963 0.038341 0.020745
0.044881 0.039840 0.019717
0.057946 0.041173 0.017529
0.071054 0.042470 0.015151
0.084461 0.043516 0.011445
0.097949 0.044539 0.007968
0.111876 0.045438 0.005734
0.126056 0.046300 0.003546
0.141327 0.046999 0.001555
0.156759 0.047793 0.000000
0.172764 0.048927 0.000000
0.187954 0.049897 0.000000
0.200701 0.050376 0.000000
0.213370 0.050824 0.000000
0.225839 0.051197 0.000000
0.238629 0.050929 0.000000
0.252123 0.049250 0.000000
0.265571 0.047265 0.000000
0.278928 0.044693 0.000000
0.292269 0.042007 0.000000
0.305581 0.039131 0.000000
0.318679 0.035820 0.000000
0.331464 0.031870 0.000000
0.343839 0.028949 0.000000
0.355687 0.027349 0.000000
0.367455 0.025504 0.000000
0.379131 0.023379 0.000000
0.390449 0.021737 0.000000
0.401409 0.020577 0.000000
0.412109 0.019640 0.000000
0.422580 0.018898 0.000000
0.433650 0.016571 0.000000
0.445187 0.013009 0.000000
0.456282 0.010891 0.000000
0.467076 0.009762 0.000000
0.478373 0.008993 0.000000
0.489972 0.008441 0.000000
0.501168 0.007839 0.000000
0.512154 0.007212 0.000000
0.523240 0.006366 0.000000
0.534371 0.005421 0.000000
0.545648 0.003959 0.000000
0.556981 0.002294 0.000000
0.568160 0.001570 0.000000
0.579286 0.001160 0.000000
0.590448 0.000692 0.000000
0.601619 0.000206 0.000000
0.612585 0.000068 0.000000
0.623504 0.000009 0.000000
0.634676 0.000000 0.000000
0.645894 0.000000 0.000000
0.657641 0.000000 0.000000
0.669463 0.000000 0.000000
0.682109 0.000000 0.000000
0.694840 0.000000 0.000000
0.709639 0.000000 0.000000
0.724577 0.000000 0.000000
0.736719 0.000567 0.000000
0.748770 0.001153 0.000000
0.000000 0.041950 0.028440
0.000000 0.042194 0.027849
0.000089 0.042516 0.027283
0.002953 0.045237 0.027522
0.006801 0.047906 0.027726
0.025409 0.049778 0.027388
0.043564 0.051602 0.026877
0.057328 0.052967 0.024689
0.071080 0.054289 0.022350
0.084744 0.055313 0.018947
0.098611 0.056349 0.015433
0.113579 0.057448 0.011311
0.128749 0.058494 0.007267
0.144797 0.059303 0.003563
0.160972 0.060260 0.000632
0.177598 0.061745 0.000464
0.193522 0.062906 0.000296
0.207341 0.063092 0.000124
0.220890 0.063407 0.000000
0.233750 0.064049 0.000000
0.246643 0.064306 0.000000
0.259608 0.063713 0.000000
0.272809 0.062630 0.000000
0.286462 0.060610 0.000000
0.300036 0.058665 0.000000
0.313482 0.056843 0.000000
0.326873 0.054929 0.000000
0.340184 0.052879 0.000000
0.353181 0.050707 0.000000
0.365771 0.048380 0.000000
0.378436 0.045464 0.000000
0.391185 0.041881 0.000000
0.403193 0.039278 0.000000
0.414460 0.037654 0.000000
0.425427 0.036362 0.000000
0.436128 0.035361 0.000000
0.447576 0.031721 0.000000
0.459604 0.026028 0.000000
0.471183 0.022400 0.000000
0.482453 0.020185 0.000000
0.494453 0.018734 0.000000
0.506891 0.017741 0.000000
0.518063 0.016620 0.000000
0.528571 0.015432 0.000000
0.539487 0.013822 0.000000
0.550588 0.012019 0.000000
0.562109 0.009180 0.000000
0.573794 0.005935 0.000000
0.585177 0.004489 0.000000
0.596459 0.003643 0.000000
0.607632 0.002685 0.000000
0.618775 0.001696 0.000000
0.629958 0.001327 0.000000
0.641150 0.001102 0.000000
0.652501 0.000932 0.000000
0.663881 0.000771 0.000000
0.675538 0.000660 0.000000
0.687235 0.000556 0.000000
0.699768 0.000459 0.000000
0.712389 0.000362 0.000000
0.727447 0.000539 0.000000
0.742668 0.000735 0.000000
0.755215 0.002153 0.000000
0.767676 0.003611 0.000000
0.000000 0.050290 0.035912
0.000000 0.050660 0.035289
0.000042 0.051158 0.034674
0.001378 0.055628 0.034323
0.003778 0.059953 0.033944
0.022126 0.062116 0.033150
0.040138 0.064237 0.032254
0.054894 0.065940 0.030373
0.069525 0.067539 0.028375
0.083267 0.068405 0.025555
0.097293 0.069332 0.022560
0.112851 0.070589 0.018620
0.128542 0.071768 0.014692
0.144811 0.072609 0.010822
0.161360 0.073511 0.007371
0.178907 0.074634 0.005417
0.195583 0.075525 0.003449
0.209646 0.075720 0.001442
0.223492 0.076014 0.000000
0.236785 0.076562 0.000000
0.249995 0.076948 0.000000
0.263023 0.076977 0.000000
0.276195 0.076626 0.000000
0.289643 0.075552 0.000000
0.303052 0.074474 0.000000
0.316395 0.073393 0.000000
0.329844 0.072171 0.000000
0.343446 0.070742 0.000000
0.356840 0.069055 0.000000
0.369966 0.067035 0.000000
0.383108 0.064659 0.000000
0.396266 0.061879 0.000000
0.408633 0.059945 0.000000
0.420207 0.058857 0.000000
0.431614 0.057681 0.000000
0.442875 0.056429 0.000000
0.454563 0.053675 0.000000
0.466583 0.049753 0.000000
0.479051 0.046074 0.000000
0.491825 0.042560 0.000000
0.503705 0.040818 0.000000
0.515049 0.040140 0.000000
0.526051 0.038952 0.000000
0.536874 0.037496 0.000000
0.548137 0.035428 0.000000
0.559601 0.033083 0.000000
0.571677 0.028863 0.000000
0.583991 0.023910 0.000000
0.595632 0.021339 0.000000
0.607047 0.019564 0.000000
0.618490 0.017652 0.000000
0.629940 0.015702 0.000000
0.641321 0.014143 0.000000
0.652687 0.012674 0.000000
0.664364 0.010868 0.000000
0.676098 0.008999 0.000000
0.688027 0.007703 0.000000
0.699983 0.006489 0.000000
0.712712 0.005353 0.000000
0.725521 0.004224 0.000000
0.740429 0.006293 0.000000
0.755477 0.008575 0.000000
0.767676 0.013911 0.000000
0.779782 0.019345 0.000000
0.000000 0.058823 0.043531
0.000000 0.059298 0.042886
0.000000 0.059944 0.042227
0.000000 0.065913 0.041159
0.001124 0.071662 0.040079
0.019108 0.074104 0.038842
0.036889 0.076507 0.037576
0.052712 0.078530 0.036026
0.068282 0.080395 0.034382
0.082082 0.081148 0.032079
0.096203 0.081998 0.029546
0.112063 0.083377 0.025771
0.128045 0.084663 0.021954
0.144556 0.085543 0.017957
0.161480 0.086409 0.014067
0.179881 0.087228 0.010561
0.197285 0.087905 0.007032
0.211699 0.088156 0.003437
0.225903 0.088476 0.000783
0.239568 0.088974 0.000537
0.253057 0.089498 0.000310
0.266161 0.090079 0.000123
0.279330 0.090394 0.000000
0.292627 0.090201 0.000000
0.305907 0.089933 0.000000
0.319159 0.089541 0.000000
0.332668 0.088953 0.000000
0.346551 0.088080 0.000000
0.360325 0.086849 0.000000
0.373959 0.085156 0.000000
0.387564 0.083298 0.000000
0.401135 0.081251 0.000000
0.413880 0.079903 0.000000
0.425798 0.079254 0.000000
0.437663 0.078168 0.000000
0.449480 0.076699 0.000000
0.461396 0.074782 0.000000
0.473388 0.072518 0.000000
0.486614 0.068962 0.000000
0.500683 0.064523 0.000000
0.512490 0.062591 0.000000
0.522940 0.062163 0.000000
0.533826 0.060955 0.000000
0.544940 0.059339 0.000000
0.556536 0.056897 0.000000
0.568352 0.054080 0.000000
0.580877 0.048868 0.000000
0.593679 0.042720 0.000000
0.605486 0.039372 0.000000
0.616960 0.036958 0.000000
0.628649 0.034266 0.000000
0.640398 0.031498 0.000000
0.652009 0.028893 0.000000
0.663588 0.026326 0.000000
0.675583 0.023146 0.000000
0.687656 0.019854 0.000000
0.699808 0.017640 0.000000
0.711971 0.015580 0.000000
0.724854 0.013706 0.000000
0.737812 0.011852 0.000000
0.752664 0.015540 0.000000
0.767642 0.019597 0.000000
0.779553 0.028307 0.000000
0.791365 0.037167 0.000000
0.000000 0.068713 0.052181
0.000000 0.069140 0.051583
0.000000 0.069733 0.050920
0.000000 0.075466 0.048245
0.001056 0.081006 0.045638
0.017945 0.083636 0.044055
0.034883 0.086228 0.042521
0.052288 0.088440 0.041467
0.069231 0.090495 0.040264
0.082936 0.091444 0.038016
0.096710 0.092442 0.035538
0.110854 0.093695 0.031818
0.125515 0.094896 0.028073
0.142420 0.095871 0.024217
0.159734 0.096833 0.020459
0.178513 0.097754 0.017047
0.196476 0.098606 0.013622
0.211992 0.099251 0.010161
0.226972 0.099927 0.007050
0.240582 0.100685 0.004836
0.254085 0.101407 0.002787
0.267354 0.102051 0.001104
0.280709 0.102559 0.000000
0.294225 0.102807 0.000000
0.307640 0.102939 0.000000
0.320884 0.102877 0.000000
0.334472 0.102521 0.000000
0.348560 0.101734 0.000000
0.362587 0.100758 0.000000
0.376536 0.099538 0.000000
0.390510 0.098045 0.000000
0.404515 0.096243 0.000000
0.417779 0.094898 0.000000
0.430304 0.094013 0.000000
0.442741 0.092829 0.000000
0.455102 0.091383 0.000000
0.467158 0.089960 0.000000
0.478977 0.088554 0.000000
0.492034 0.086352 0.000000
0.505938 0.083606 0.000000
0.518003 0.082181 0.000000
0.528964 0.081547 0.000000
0.540109 0.080657 0.000000
0.551349 0.079631 0.000000
0.563174 0.077395 0.000000
0.575265 0.074610 0.000000
0.587505 0.071133 0.000000
0.599804 0.067387 0.000000
0.611137 0.065684 0.000000
0.622147 0.064663 0.000000
0.633918 0.062412 0.000000
0.645903 0.059817 0.000000
0.657961 0.057180 0.000000
0.670036 0.054534 0.000000
0.682302 0.051821 0.000000
0.694603 0.049095 0.000000
0.706639 0.047834 0.000000
0.718636 0.046782 0.000000
0.731383 0.046280 0.000000
0.744207 0.045835 0.000000
0.759663 0.049234 0.000000
0.775295 0.052890 0.000000
0.787348 0.061176 0.000000
0.799286 0.069611 0.000000
0.000000 0.078438 0.060479
0.000000 0.078825 0.059909
0.000000 0.079373 0.059236
0.000000 0.084887 0.055403
0.001020 0.090236 0.051687
0.017335 0.093098 0.049730
0.033860 0.095919 0.047898
0.052410 0.098335 0.047275
0.070339 0.100595 0.046448
0.083917 0.101768 0.044194
0.097354 0.102934 0.041709
0.110026 0.104063 0.037982
0.123524 0.105178 0.034256
0.140597 0.106237 0.030534
0.158073 0.107299 0.026894
0.176987 0.108372 0.023543
0.195286 0.109430 0.020195
0.211738 0.110448 0.016855
0.227398 0.111465 0.013378
0.241031 0.112481 0.009551
0.254622 0.113403 0.005980
0.268119 0.114119 0.002973
0.281702 0.114809 0.000892
0.295449 0.115450 0.000577
0.309034 0.115942 0.000308
0.322348 0.116185 0.000115
0.336044 0.116068 0.000000
0.350297 0.115426 0.000000
0.364540 0.114723 0.000000
0.378769 0.113939 0.000000
0.393064 0.112809 0.000000
0.407432 0.111286 0.000000
0.421191 0.109981 0.000000
0.434340 0.108894 0.000000
0.447342 0.107629 0.000000
0.460213 0.106207 0.000000
0.472479 0.105199 0.000000
0.484274 0.104511 0.000000
0.497234 0.103483 0.000000
0.510992 0.102222 0.000000
0.523298 0.101254 0.000000
0.534733 0.100463 0.000000
0.546134 0.099826 0.000000
0.557518 0.099269 0.000000
0.569524 0.097304 0.000000
0.581813 0.094698 0.000000
0.593776 0.092807 0.000000
0.605612 0.091195 0.000000
0.616574 0.090890 0.000000
0.627245 0.091022 0.000000
0.639057 0.089271 0.000000
0.651189 0.086993 0.000000
0.663615 0.084471 0.000000
0.676109 0.081894 0.000000
0.688634 0.079630 0.000000
0.701165 0.077424 0.000000
0.713218 0.076825 0.000000
0.725203 0.076455 0.000000
0.737899 0.077027 0.000000
0.750669 0.077697 0.000000
0.766452 0.081143 0.000000
0.782436 0.084774 0.000000
0.794599 0.092803 0.000000
0.806640 0.100974 0.000000
0.000000 0.087273 0.066881
0.000000 0.087661 0.066232
0.000000 0.088204 0.065523
0.000000 0.093593 0.062949
0.001159 0.098852 0.060382
0.019711 0.102179 0.057905
0.038148 0.105448 0.055610
0.055478 0.108147 0.055065
0.072301 0.110701 0.054265
0.085580 0.112236 0.051672
0.098742 0.113689 0.048848
0.111264 0.114699 0.044774
0.124443 0.115725 0.040783
0.140470 0.116815 0.037157
0.156871 0.117993 0.033565
0.174611 0.119483 0.030095
0.192040 0.120920 0.026672
0.208532 0.122197 0.023388
0.224346 0.123471 0.020037
0.238429 0.124739 0.016517
0.252505 0.125872 0.013034
0.266569 0.126706 0.009634
0.280621 0.127519 0.006601
0.294652 0.128294 0.004270
0.308597 0.128931 0.002278
0.322399 0.129340 0.000849
0.336366 0.129507 0.000000
0.350572 0.129322 0.000000
0.364830 0.128982 0.000000
0.379153 0.128443 0.000000
0.393494 0.127664 0.000000
0.407855 0.126613 0.000000
0.421972 0.125536 0.000000
0.435846 0.124433 0.000000
0.449362 0.123178 0.000000
0.462564 0.121788 0.000000
0.475417 0.120771 0.000000
0.488000 0.120043 0.000000
0.501252 0.119214 0.000000
0.514962 0.118315 0.000000
0.527418 0.117543 0.000000
0.539121 0.116846 0.000000
0.550769 0.116117 0.000000
0.562389 0.115372 0.000000
0.574317 0.114024 0.000000
0.586386 0.112402 0.000000
0.598111 0.111286 0.000000
0.609703 0.110366 0.000000
0.620858 0.110123 0.000000
0.631867 0.110105 0.000000
0.643496 0.109176 0.000000
0.655297 0.107993 0.000000
0.667661 0.106380 0.000000
0.680155 0.104669 0.000000
0.692879 0.102766 0.000000
0.705646 0.100828 0.000000
0.718438 0.099318 0.000000
0.731234 0.097870 0.000000
0.744349 0.097913 0.000000
0.757497 0.098111 0.000000
0.772108 0.103409 0.000000
0.786816 0.109048 0.000000
0.798917 0.117727 0.000000
0.810934 0.126504 0.000000
0.000000 0.096219 0.073141
0.000000 0.096602 0.072451
0.000000 0.097139 0.071735
0.000000 0.102433 0.070191
0.001291 0.107630 0.068561
0.021941 0.111363 0.065654
0.042204 0.115024 0.062977
0.058724 0.117988 0.062530
0.074816 0.120812 0.061794
0.087912 0.122659 0.059026
0.100888 0.124357 0.056036
0.113211 0.125252 0.051844
0.126029 0.126198 0.047749
0.140997 0.127364 0.044072
0.156321 0.128679 0.040398
0.172923 0.130521 0.036734
0.189425 0.132291 0.033167
0.205629 0.133844 0.029890
0.221354 0.135389 0.026610
0.235859 0.136913 0.023318
0.250372 0.138272 0.019886
0.264903 0.139267 0.016144
0.279373 0.140235 0.012321
0.293724 0.141151 0.008346
0.308036 0.141936 0.004898
0.322282 0.142502 0.002332
0.336510 0.142926 0.000656
0.350710 0.143142 0.000281
0.365003 0.143143 0.000054
0.379415 0.142868 0.000019
0.393788 0.142439 0.000000
0.408117 0.141836 0.000000
0.422513 0.140998 0.000000
0.436976 0.139925 0.000000
0.450960 0.138715 0.000000
0.464521 0.137383 0.000000
0.478035 0.136353 0.000000
0.491511 0.135558 0.000000
0.505017 0.134903 0.000000
0.518542 0.134342 0.000000
0.531086 0.133761 0.000000
0.543040 0.133165 0.000000
0.554928 0.132403 0.000000
0.566781 0.131552 0.000000
0.578675 0.130730 0.000000
0.590586 0.129920 0.000000
0.602140 0.129476 0.000000
0.613553 0.129176 0.000000
0.624921 0.128983 0.000000
0.636274 0.128826 0.000000
0.647777 0.128602 0.000000
0.659321 0.128359 0.000000
0.671621 0.127547 0.000000
0.684096 0.126605 0.000000
0.696918 0.125156 0.000000
0.709805 0.123615 0.000000
0.723152 0.121556 0.000000
0.736566 0.119425 0.000000
0.750061 0.119031 0.000000
0.763564 0.118817 0.000000
0.777328 0.125414 0.000000
0.791110 0.132466 0.000000
0.803182 0.141556 0.000000
0.815199 0.150711 0.000000
0.000000 0.105644 0.078783
0.000000 0.106003 0.078219
0.000000 0.106518 0.077626
0.000000 0.111860 0.076114
0.001385 0.117111 0.074511
0.023539 0.120993 0.071556
0.045255 0.124806 0.068853
0.062744 0.127951 0.068588
0.079723 0.130946 0.068077
0.093143 0.132887 0.065845
0.106326 0.134649 0.063443
0.118231 0.135442 0.060125
0.130502 0.136355 0.056613
0.144359 0.137789 0.052259
0.158600 0.139328 0.047941
0.174209 0.141241 0.043749
0.189540 0.143151 0.039737
0.204035 0.145050 0.036263
0.218620 0.146922 0.032810
0.233431 0.148722 0.029409
0.248167 0.150378 0.025864
0.262739 0.151720 0.022003
0.277399 0.152974 0.018090
0.292231 0.154064 0.014075
0.306937 0.155004 0.010337
0.321435 0.155696 0.007062
0.335883 0.156258 0.004152
0.350256 0.156632 0.001777
0.364674 0.156877 0.000343
0.379149 0.156956 0.000119
0.393493 0.156874 0.000000
0.407688 0.156610 0.000000
0.422017 0.156055 0.000000
0.436479 0.155211 0.000000
0.450723 0.154199 0.000000
0.464773 0.153040 0.000000
0.479262 0.151980 0.000000
0.494092 0.150996 0.000000
0.507685 0.150404 0.000000
0.520431 0.150080 0.000000
0.532796 0.149670 0.000000
0.544931 0.149209 0.000000
0.557026 0.148663 0.000000
0.569100 0.148073 0.000000
0.581143 0.147375 0.000000
0.593172 0.146628 0.000000
0.604839 0.146417 0.000000
0.616363 0.146416 0.000000
0.628030 0.146227 0.000000
0.639745 0.145975 0.000000
0.651376 0.145946 0.000000
0.662983 0.145978 0.000000
0.675212 0.145500 0.000000
0.687584 0.144904 0.000000
