Plugins/FilmEmulator/Content/LUTs/FE_Fuji_CA_DPII_64.cube
TITLE "FE_Fuji_CA_DPII_33"
LUT_3D_SIZE 8
0.1067315 0.0929517 0.0143656
0.3957223 0.1392609 0.0201014
0.9100333 0.2719164 0.0481134
1.0000000 0.3763536 0.0855389
1.0000000 0.4380821 0.1198561
1.0000000 0.4770544 0.1454414
1.0000000 0.5041982 0.1716192
1.0000000 0.5287349 0.1970757
0.1282575 0.5957133 0.1087477
0.4495103 0.6221370 0.1070571
0.8623991 0.6796555 0.1325106
1.0000000 0.7266716 0.1718911
1.0000000 0.7534077 0.2047520
1.0000000 0.7701384 0.2339565
1.0000000 0.7819833 0.2603739
1.0000000 0.7889830 0.2866699
0.2526417 0.9386255 0.3781608
0.5623741 0.9421993 0.3594029
0.8571218 0.9529437 0.3645790
0.9471300 0.9609970 0.3700643
0.9760578 0.9664440 0.3712091
0.9887386 0.9693370 0.3945131
0.9953302 0.9700348 0.4194671
0.9989028 0.9707955 0.4427822
0.3454936 0.9870965 0.6190498
0.6569409 0.9853210 0.5949658
0.8844298 0.9884552 0.5845805
0.9488937 0.9925541 0.5739461
0.9695495 0.9958063 0.5575032
0.9778752 0.9980510 0.5402157
0.9813780 1.0000000 0.5230550
0.9844166 0.9997752 0.5359668
0.4063573 0.9921781 0.7763119
0.7224998 0.9882974 0.7605605
0.9080785 0.9898786 0.7491751
0.9581366 0.9927455 0.7352902
0.9754404 0.9949565 0.7224529
0.9821495 0.9969578 0.7044095
0.9848772 0.9986484 0.6847392
0.9859114 1.0000000 0.6630298
0.4615756 0.9918420 0.8652384
0.7708699 0.9874789 0.8533837
0.9240324 0.9885057 0.8463482
0.9655067 0.9904282 0.8392954
0.9803737 0.9919605 0.8310800
0.9865478 0.9932566 0.8199648
0.9892071 0.9943792 0.8073027
0.9904694 0.9955849 0.7913781
0.5154842 0.9904224 0.9182237
0.8096884 0.9863426 0.9096255
0.9358105 0.9873778 0.9039441
0.9705678 0.9888928 0.8996607
0.9834673 0.9900754 0.8935141
0.9891462 0.9909655 0.8866689
0.9918198 0.9916780 0.8789921
0.9932714 0.9923849 0.8694221
0.5711564 0.9896597 0.9495129
0.8396845 0.9862061 0.9432070
0.9445001 0.9872129 0.9404308
0.9741926 0.9884877 0.9371884
0.9853998 0.9893525 0.9341037
0.9905419 0.9899967 0.9294291
0.9930791 0.9904749 0.9242141
0.9945672 0.9909258 0.9175040
0.1323998 0.1319211 0.6588032
0.6395140 0.2210084 0.6173742
1.0000000 0.3471990 0.5864658
1.0000000 0.4260218 0.5630898
1.0000000 0.4725834 0.5405831
1.0000000 0.5039967 0.5140369
1.0000000 0.5295495 0.4838531
1.0000000 0.5492903 0.4513209
0.2182769 0.6782649 0.8000612
0.6755004 0.7128348 0.7774955
0.9390401 0.7584642 0.7625841
1.0000000 0.7846885 0.7501180
1.0000000 0.7984315 0.7342196
1.0000000 0.8074868 0.7165313
1.0000000 0.8128762 0.6937911
1.0000000 0.8149998 0.6689836
0.3872071 0.9361057 0.8944410
0.7525109 0.9402555 0.8832655
0.9258702 0.9483274 0.8752058
0.9740174 0.9539425 0.8681308
0.9920199 0.9573645 0.8605698
1.0000000 0.9595385 0.8520539
1.0000000 0.9609233 0.8409457
1.0000000 0.9614770 0.8289446
0.4922224 0.9756944 0.9419085
0.8095055 0.9738991 0.9339098
0.9367869 0.9768690 0.9303160
0.9726661 0.9792156 0.9261547
0.9865156 0.9807526 0.9213726
0.9927570 0.9817494 0.9160365
0.9957718 0.9824030 0.9100651
0.9976397 0.9829533 0.9028232
0.5612199 0.9842777 0.9620569
0.8450111 0.9817487 0.9564312
0.9457991 0.9834984 0.9539754
0.9751068 0.9850340 0.9521793
0.9864752 0.9860252 0.9502130
0.9917660 0.9866575 0.9478706
0.9943771 0.9870483 0.9451489
0.9960600 0.9873612 0.9412723
0.6201806 0.9869370 0.9736713
0.8715527 0.9847149 0.9688513
0.9528761 0.9861057 0.9672227
0.9771684 0.9872962 0.9662018
0.9870492 0.9880704 0.9647487
0.9915674 0.9885368 0.9630928
0.9939891 0.9888366 0.9616773
0.9955870 0.9890597 0.9597038
0.6690184 0.9875434 0.9803949
0.8918481 0.9859766 0.9767471
0.9580861 0.9872556 0.9753618
0.9789969 0.9882928 0.9745389
0.9875616 0.9889495 0.9737248
0.9916924 0.9893529 0.9728072
0.9939036 0.9895902 0.9714464
0.9954305 0.9897771 0.9703150
0.7132973 0.9878947 0.9843047
0.9088454 0.9869391 0.9812907
0.9625816 0.9881443 0.9804019
0.9805938 0.9890684 0.9798203
0.9881774 0.9896599 0.9794586
0.9918275 0.9900062 0.9788357
0.9938416 0.9902123 0.9780211
0.9952533 0.9903769 0.9774049
0.3004046 0.2606414 0.9854674
0.8051177 0.3705968 0.9626881
1.0000000 0.4676381 0.9478619
1.0000000 0.5266954 0.9390262
1.0000000 0.5667151 0.9320534
1.0000000 0.5939222 0.9258121
1.0000000 0.6145530 0.9194727
1.0000000 0.6320980 0.9129410
0.4294683 0.7717803 0.9729112
0.8151274 0.8069984 0.9617796
0.9583454 0.8336384 0.9556834
1.0000000 0.8493153 0.9526363
1.0000000 0.8583908 0.9495621
1.0000000 0.8623215 0.9465189
1.0000000 0.8654094 0.9440573
1.0000000 0.8674685 0.9407875
0.5799918 0.9504881 0.9777889
0.8610423 0.9558519 0.9719783
0.9516320 0.9613292 0.9696909
0.9796193 0.9647776 0.9684278
0.9915061 0.9668677 0.9672863
0.9970230 0.9680392 0.9660550
1.0000000 0.9687345 0.9647102
1.0000000 0.9691552 0.9628343
0.6647087 0.9775887 0.9833617
0.8914660 0.9784082 0.9795934
0.9580588 0.9808663 0.9782298
0.9794669 0.9823455 0.9774746
0.9885107 0.9833508 0.9770311
0.9929088 0.9839263 0.9761899
0.9952900 0.9842607 0.9752654
0.9969121 0.9844963 0.9742877
0.7200825 0.9838771 0.9857861
0.9098922 0.9840059 0.9827865
0.9627551 0.9856589 0.9820350
0.9809278 0.9867843 0.9817632
0.9886002 0.9875006 0.9814349
0.9921895 0.9879171 0.9811581
0.9943194 0.9881834 0.9807093
0.9957193 0.9883765 0.9803470
0.7631762 0.9860845 0.9872414
0.9235320 0.9862781 0.9847560
0.9669374 0.9876079 0.9841738
0.9821522 0.9885469 0.9839770
0.9889265 0.9891472 0.9838300
0.9921821 0.9895015 0.9836603
0.9940894 0.9897268 0.9833712
0.9953966 0.9898974 0.9831370
0.7984397 0.9868162 0.9882017
0.9334208 0.9872783 0.9861311
0.9700717 0.9884816 0.9856446
0.9834689 0.9893290 0.9855444
0.9893640 0.9898479 0.9854120
0.9922818 0.9901580 0.9852636
0.9940400 0.9903661 0.9850957
0.9952942 0.9905263 0.9849163
0.8287112 0.9873343 0.9888315
0.9412631 0.9880136 0.9871399
0.9725291 0.9891320 0.9868158
0.9844888 0.9898998 0.9866929
0.9897580 0.9903716 0.9866597
0.9924097 0.9906499 0.9865338
0.9940889 0.9908461 0.9863966
0.9952436 0.9909972 0.9863167
0.5436091 0.3843512 1.0000000
0.9140289 0.4901559 1.0000000
1.0000000 0.5550622 0.9956118
1.0000000 0.6030084 0.9906285
1.0000000 0.6364675 0.9873176
1.0000000 0.6603656 0.9849420
1.0000000 0.6807213 0.9826429
1.0000000 0.6985309 0.9806589
0.6435894 0.8355176 0.9913087
0.8979253 0.8639029 0.9842677
0.9721677 0.8796196 0.9817349
0.9991786 0.8895409 0.9803733
1.0000000 0.8954446 0.9796308
1.0000000 0.8979644 0.9790835
1.0000000 0.9002224 0.9785572
1.0000000 0.9018887 0.9780461
0.7422732 0.9598135 0.9876697
0.9175009 0.9654392 0.9843742
0.9661368 0.9694736 0.9834477
0.9838297 0.9719148 0.9831713
0.9918693 0.9731462 0.9829131
0.9956595 0.9739876 0.9826874
0.9979852 0.9745575 0.9824562
0.9995958 0.9749776 0.9822176
0.7973124 0.9793144 0.9885272
0.9325847 0.9814133 0.9863712
0.9699017 0.9833679 0.9858333
0.9839191 0.9845359 0.9856218
0.9901058 0.9852999 0.9855500
0.9931169 0.9857341 0.9854006
0.9950676 0.9860468 0.9852445
0.9963683 0.9862666 0.9850633
0.8331883 0.9842812 0.9890793
0.9420091 0.9856494 0.9874444
0.9730877 0.9870678 0.9871020
0.9848111 0.9879761 0.9869809
0.9901223 0.9884977 0.9869490
0.9928088 0.9888310 0.9868550
0.9944656 0.9890647 0.9867991
0.9956619 0.9892405 0.9866818
0.8609190 0.9862040 0.9894333
0.9493371 0.9873834 0.9881193
0.9754390 0.9885563 0.9878584
0.9855729 0.9893119 0.9878065
0.9904096 0.9897951 0.9877927
0.9928101 0.9900756 0.9877297
0.9943741 0.9902833 0.9876989
0.9954911 0.9904380 0.9876105
0.8833351 0.9870442 0.9896391
0.9554020 0.9882354 0.9886334
0.9774593 0.9892708 0.9884284
0.9864596 0.9899474 0.9883894
0.9906638 0.9903502 0.9883743
0.9929352 0.9906104 0.9883204
0.9944319 0.9908050 0.9882966
0.9954537 0.9909486 0.9882655
0.9012526 0.9876989 0.9898465
0.9601567 0.9888574 0.9890546
0.9792699 0.9897997 0.9888924
0.9872633 0.9904121 0.9888663
0.9910100 0.9907733 0.9888537
0.9930794 0.9910115 0.9888352
0.9944684 0.9911889 0.9888119
0.9954537 0.9913248 0.9887831
0.7461962 0.4943394 1.0000000
0.9698379 0.5758573 1.0000000
1.0000000 0.6211658 1.0000000
1.0000000 0.6524096 0.9975728
1.0000000 0.6819265 0.9950837
1.0000000 0.7041544 0.9933267
1.0000000 0.7214146 0.9918906
1.0000000 0.7378971 0.9906806
0.7957057 0.8797328 0.9916393
0.9379270 0.8988632 0.9876861
0.9812784 0.9097077 0.9862865
0.9985598 0.9150175 0.9856234
1.0000000 0.9189401 0.9852743
1.0000000 0.9213083 0.9850461
1.0000000 0.9229151 0.9847911
1.0000000 0.9233228 0.9846309
0.8510619 0.9667764 0.9891250
0.9466280 0.9713921 0.9874123
0.9755386 0.9742695 0.9869625
0.9872051 0.9757892 0.9867589
0.9926963 0.9768543 0.9866895
0.9955407 0.9774987 0.9866351
0.9974113 0.9779688 0.9865834
0.9987528 0.9783191 0.9864818
0.8833379 0.9812056 0.9895496
0.9546733 0.9833773 0.9884618
0.9775830 0.9849232 0.9882054
0.9869534 0.9858856 0.9881390
0.9913380 0.9864646 0.9881098
0.9936623 0.9868215 0.9880804
0.9952675 0.9870887 0.9880144
0.9963613 0.9872895 0.9879784
0.9026154 0.9853265 0.9898582
0.9603386 0.9868720 0.9890568
0.9795442 0.9880141 0.9888863
0.9874507 0.9886858 0.9888496
0.9913453 0.9891317 0.9888362
0.9933897 0.9894029 0.9888178
0.9948191 0.9896128 0.9887973
0.9958307 0.9897728 0.9887722
0.9171569 0.9869219 0.9900175
0.9647684 0.9882482 0.9894028
0.9812117 0.9892150 0.9892830
0.9881579 0.9898190 0.9892746
0.9914951 0.9901863 0.9892958
0.9934177 0.9904280 0.9892909
0.9947731 0.9906167 0.9892838
0.9956827 0.9907528 0.9892702
0.9287480 0.9877535 0.9901007
0.9681164 0.9889520 0.9896247
0.9824512 0.9898150 0.9895527
0.9887042 0.9903578 0.9895537
0.9917872 0.9906910 0.9895629
0.9935449 0.9909086 0.9895654
0.9947979 0.9910686 0.9895635
0.9956682 0.9911990 0.9895759
0.9370057 0.9883429 0.9901917
0.9710841 0.9894693 0.9898062
0.9835855 0.9902465 0.9897570
0.9892178 0.9907396 0.9897646
0.9920038 0.9910396 0.9897763
0.9936892 0.9912465 0.9897836
0.9948875 0.9914107 0.9898033
0.9956843 0.9915263 0.9898012
0.8752517 0.5932583 1.0000000
0.9983987 0.6487491 1.0000000
1.0000000 0.6808404 0.9999467
1.0000000 0.6996869 0.9979949
1.0000000 0.7186865 0.9963976
1.0000000 0.7372947 0.9949983
1.0000000 0.7545480 0.9938381
1.0000000 0.7709531 0.9927419
0.8860758 0.9118535 0.9905184
0.9608253 0.9236511 0.9884804
0.9869254 0.9304739 0.9877137
0.9984120 0.9337282 0.9873644
1.0000000 0.9362182 0.9871655
1.0000000 0.9378589 0.9870642
1.0000000 0.9390354 0.9869601
1.0000000 0.9392079 0.9868742
0.9127774 0.9720384 0.9894128
0.9633607 0.9754022 0.9885921
0.9818411 0.9775271 0.9883574
0.9895875 0.9787694 0.9882888
0.9934496 0.9795292 0.9882604
0.9957306 0.9798700 0.9882284
0.9973205 0.9802662 0.9882115
0.9983850 0.9805566 0.9882126
0.9281986 0.9830687 0.9898312
0.9679106 0.9848861 0.9892989
0.9827378 0.9860989 0.9891956
0.9892352 0.9867849 0.9891724
0.9923610 0.9872250 0.9891727
0.9942266 0.9875269 0.9891888
0.9955558 0.9877610 0.9891881
0.9964822 0.9879362 0.9891831
0.9379749 0.9864334 0.9900931
0.9713405 0.9877627 0.9896935
0.9838764 0.9886742 0.9896197
0.9895211 0.9892457 0.9896341
0.9922608 0.9895821 0.9896427
0.9939862 0.9898226 0.9896502
0.9952147 0.9900133 0.9896693
0.9960297 0.9901472 0.9896685
0.9462585 0.9877292 0.9902126
0.9741356 0.9888973 0.9899118
0.9849252 0.9896696 0.9898628
0.9899310 0.9901592 0.9898830
0.9923971 0.9904487 0.9898940
0.9940309 0.9906675 0.9899167
0.9951545 0.9908310 0.9899232
0.9959273 0.9909514 0.9899243
0.9520798 0.9884512 0.9903055
0.9762850 0.9895136 0.9900776
0.9858723 0.9902089 0.9900439
0.9903331 0.9906433 0.9900665
0.9926357 0.9909098 0.9900784
0.9940966 0.9911014 0.9900990
0.9951771 0.9912441 0.9901038
0.9959182 0.9913584 0.9901170
0.9571802 0.9889874 0.9903900
0.9782116 0.9899639 0.9902117
0.9867446 0.9905990 0.9902022
0.9906362 0.9909775 0.9902132
0.9928234 0.9912232 0.9902363
0.9942269 0.9914039 0.9902456
0.9952217 0.9915449 0.9902629
0.9959363 0.9916515 0.9902640
0.9426880 0.6731272 1.0000000
1.0000000 0.7093318 1.0000000
1.0000000 0.7316486 0.9978030
1.0000000 0.7440313 0.9965689
1.0000000 0.7522815 0.9958015
1.0000000 0.7703339 0.9945946
1.0000000 0.7874612 0.9935052
1.0000000 0.8026609 0.9926097
0.9313614 0.9332664 0.9897003
0.9733916 0.9406255 0.9886256
0.9904844 0.9444650 0.9882125
0.9981343 0.9471532 0.9880145
1.0000000 0.9488310 0.9879236
1.0000000 0.9499513 0.9878525
1.0000000 0.9502551 0.9877942
1.0000000 0.9509180 0.9877631
0.9438424 0.9759692 0.9895537
0.9738308 0.9784508 0.9891109
0.9858156 0.9799875 0.9890031
0.9913127 0.9809095 0.9889707
0.9942269 0.9813412 0.9889620
0.9960396 0.9817481 0.9889550
0.9973350 0.9820650 0.9889488
0.9982258 0.9823011 0.9889538
0.9520938 0.9845488 0.9900171
0.9763730 0.9860209 0.9897408
0.9862557 0.9869609 0.9896986
0.9907580 0.9875221 0.9897087
0.9931894 0.9878256 0.9897071
0.9947838 0.9880905 0.9897240
0.9958743 0.9882857 0.9897254
0.9966575 0.9884374 0.9897357
0.9579821 0.9873688 0.9902801
0.9785075 0.9884990 0.9900945
0.9868994 0.9892120 0.9900659
0.9909295 0.9896575 0.9900851
0.9930726 0.9899344 0.9900935
0.9945050 0.9901428 0.9901121
0.9955208 0.9903038 0.9901279
0.9962503 0.9904253 0.9901280
0.9626063 0.9884443 0.9904183
0.9802655 0.9894236 0.9902699
0.9876881 0.9900469 0.9902655
0.9911578 0.9904065 0.9902840
0.9931840 0.9906582 0.9902946
0.9945521 0.9908492 0.9903145
0.9954749 0.9909892 0.9903296
0.9961703 0.9910999 0.9903308
0.9661686 0.9890872 0.9905161
0.9815969 0.9899669 0.9904116
0.9882753 0.9905288 0.9904152
0.9914783 0.9908674 0.9904274
0.9933333 0.9910955 0.9904492
0.9946020 0.9912581 0.9904670
0.9954874 0.9913878 0.9904724
0.9961572 0.9914935 0.9904848
0.9693184 0.9895486 0.9905964
0.9829901 0.9903612 0.9905193
0.9888313 0.9908611 0.9905295
0.9917234 0.9911680 0.9905527
0.9934999 0.9913837 0.9905666
0.9947140 0.9915481 0.9905863
0.9955567 0.9916715 0.9906015
0.9961447 0.9917627 0.9906118
0.9746457 0.7429852 0.9995426
1.0000000 0.7674217 0.9967833
1.0000000 0.7808954 0.9954026
1.0000000 0.7901537 0.9945410
1.0000000 0.7957742 0.9940526
1.0000000 0.8025715 0.9935332
1.0000000 0.8180441 0.9926322
1.0000000 0.8310241 0.9919154
0.9556576 0.9468890 0.9894347
0.9815561 0.9518442 0.9888414
0.9926443 0.9548391 0.9886075
0.9979202 0.9566153 0.9884920
1.0000000 0.9572761 0.9884350
1.0000000 0.9581405 0.9883856
1.0000000 0.9588131 0.9883606
1.0000000 0.9593273 0.9883413
0.9612267 0.9788758 0.9897658
0.9805353 0.9807635 0.9895359
0.9885629 0.9818810 0.9894747
0.9925270 0.9825713 0.9894712
0.9947281 0.9830136 0.9894773
0.9962828 0.9833570 0.9894752
0.9973607 0.9834815 0.9894711
0.9981518 0.9836854 0.9894766
0.9664289 0.9858059 0.9902270
0.9818256 0.9869583 0.9901009
0.9886888 0.9876907 0.9900914
0.9919131 0.9880654 0.9900901
0.9938589 0.9883627 0.9901069
0.9951902 0.9885879 0.9901226
0.9961206 0.9887560 0.9901247
0.9967965 0.9888872 0.9901342
0.9699883 0.9881855 0.9904792
0.9832719 0.9890730 0.9903951
0.9891136 0.9896378 0.9904003
0.9920004 0.9899798 0.9904109
0.9937410 0.9902167 0.9904306
0.9949791 0.9904029 0.9904492
0.9958032 0.9905366 0.9904630
0.9964373 0.9906440 0.9904651
0.9725397 0.9890282 0.9905987
0.9843630 0.9898375 0.9905409
0.9895656 0.9903314 0.9905533
0.9921817 0.9906323 0.9905671
0.9938383 0.9908503 0.9905888
0.9949789 0.9910156 0.9906080
0.9957635 0.9911380 0.9906227
0.9963707 0.9912383 0.9906351
0.9751197 0.9896268 0.9906848
0.9853573 0.9903424 0.9906479
0.9900111 0.9907734 0.9906633
0.9923826 0.9910441 0.9906858
0.9939212 0.9912427 0.9907073
0.9950171 0.9913981 0.9907264
0.9957706 0.9915129 0.9907410
0.9963583 0.9916064 0.9907455
0.9771348 0.9900228 0.9907626
0.9861258 0.9906675 0.9907395
0.9904140 0.9910768 0.9907593
0.9925854 0.9913239 0.9907814
0.9940679 0.9915128 0.9907961
0.9950784 0.9916546 0.9908146
0.9958045 0.9917638 0.9908294
0.9963483 0.9918502 0.9908411
