Plugins/FilmEmulator/Content/LUTs/FE_Fuji_3523XD_64.cube
TITLE "FE_Fuji_3523XD_33"
LUT_3D_SIZE 64
0.0035673 0.0684181 0.0923597
0.0305228 0.0740679 0.0929961
0.0409096 0.0762774 0.0932485
0.0408391 0.0762622 0.0932467
0.0446879 0.0770856 0.0933413
0.0582317 0.0796378 0.0936398
0.0798855 0.0822318 0.0938981
0.1077377 0.0882415 0.0944759
0.1377693 0.0956758 0.0952194
0.1728847 0.1053207 0.0961958
0.2111522 0.1164991 0.0973591
0.2477146 0.1273961 0.0985487
0.2898329 0.1398668 0.1000283
0.3309470 0.1524355 0.1015738
0.3678570 0.1636503 0.1030492
0.4080737 0.1756692 0.1047937
0.4504908 0.1887858 0.1068299
0.4855268 0.2001237 0.1086717
0.5267642 0.2141078 0.1110405
0.5611016 0.2263272 0.1131988
0.6011488 0.2413617 0.1159630
0.6366104 0.2554631 0.1187024
0.6728010 0.2707397 0.1218153
0.7054636 0.2853978 0.1249796
0.7368674 0.3003900 0.1283315
0.7696837 0.3171557 0.1322294
0.8009107 0.3343356 0.1364099
0.8263245 0.3493586 0.1402006
0.8498350 0.3642182 0.1445625
0.8758350 0.3819670 0.1497618
0.8918761 0.3936898 0.1539798
0.9107248 0.4084095 0.1588817
0.9279957 0.4229039 0.1642729
0.9410129 0.4345888 0.1688259
0.9558388 0.4488451 0.1745384
0.9673755 0.4607549 0.1794307
0.9779210 0.4723971 0.1843073
0.9876204 0.4837929 0.1894243
0.9965477 0.4950034 0.1946667
1.0000000 0.5031918 0.1990767
1.0000000 0.5141907 0.2042445
1.0000000 0.5250350 0.2100025
1.0000000 0.5330015 0.2142974
1.0000000 0.5438932 0.2205411
1.0000000 0.5520085 0.2252342
1.0000000 0.5599731 0.2299005
1.0000000 0.5678273 0.2354814
1.0000000 0.5756211 0.2403479
1.0000000 0.5832679 0.2451834
1.0000000 0.5911111 0.2503000
1.0000000 0.5991865 0.2555735
1.0000000 0.6070200 0.2599912
1.0000000 0.6147735 0.2651938
1.0000000 0.6229479 0.2709205
1.0000000 0.6285626 0.2756975
1.0000000 0.6363161 0.2804095
1.0000000 0.6441547 0.2861259
1.0000000 0.6488577 0.2899003
1.0000000 0.6556361 0.2954583
1.0000000 0.6600823 0.2991372
1.0000000 0.6666538 0.3046503
1.0000000 0.6716710 0.3087454
1.0000000 0.6772090 0.3140818
1.0000000 0.6846767 0.3191939
0.0037881 0.0761058 0.0944371
0.0298818 0.0815802 0.0950640
0.0410693 0.0839549 0.0953387
0.0409901 0.0839433 0.0953382
0.0446029 0.0847191 0.0954291
0.0576496 0.0875654 0.0960979
0.0780293 0.0919706 0.0965852
0.1050501 0.0978996 0.0971068
0.1360257 0.1048597 0.0976800
0.1705216 0.1128068 0.0982022
0.2062108 0.1212921 0.0987818
0.2444080 0.1305947 0.0995479
0.2863718 0.1411924 0.1005036
0.3239387 0.1510060 0.1014755
0.3639919 0.1624301 0.1028957
0.4038880 0.1744072 0.1046116
0.4417747 0.1860385 0.1063924
0.4808488 0.1985838 0.1084163
0.5216818 0.2123466 0.1107352
0.5563260 0.2245913 0.1128889
0.5961385 0.2394326 0.1156018
0.6311934 0.2532564 0.1182612
0.6678106 0.2685758 0.1213682
0.7000678 0.2829139 0.1244376
0.7313594 0.2976750 0.1277668
0.7644302 0.3143739 0.1316302
0.7955486 0.3312895 0.1356547
0.8263245 0.3493586 0.1402006
0.8498388 0.3642321 0.1443831
0.8717017 0.3790470 0.1488645
0.8918817 0.3937072 0.1536948
0.9107248 0.4084095 0.1588817
0.9245707 0.4199437 0.1631331
0.9410129 0.4345888 0.1688259
0.9529952 0.4460289 0.1733694
0.9645880 0.4578025 0.1782089
0.9753695 0.4694849 0.1834656
0.9852552 0.4809017 0.1885718
0.9943933 0.4922249 0.1933584
1.0000000 0.5032443 0.1985823
1.0000000 0.5141907 0.2042445
1.0000000 0.5223480 0.2085665
1.0000000 0.5330015 0.2142974
1.0000000 0.5411538 0.2189708
1.0000000 0.5492573 0.2243221
1.0000000 0.5599731 0.2299005
1.0000000 0.5678744 0.2347640
1.0000000 0.5756680 0.2396356
1.0000000 0.5833147 0.2444761
1.0000000 0.5910284 0.2494699
1.0000000 0.5991060 0.2547499
1.0000000 0.6070200 0.2599912
1.0000000 0.6147735 0.2651938
1.0000000 0.6204290 0.2699803
1.0000000 0.6283538 0.2747321
1.0000000 0.6363161 0.2804095
1.0000000 0.6417781 0.2852066
1.0000000 0.6488577 0.2899003
1.0000000 0.6536556 0.2946779
1.0000000 0.6600823 0.2991372
1.0000000 0.6647363 0.3038813
1.0000000 0.6716710 0.3087454
1.0000000 0.6769359 0.3129460
1.0000000 0.6823857 0.3182469
0.0036519 0.0709785 0.0927958
0.0295570 0.0768501 0.0939233
0.0409560 0.0795317 0.0944592
0.0408830 0.0797385 0.0944849
0.0443777 0.0806099 0.0946673
0.0569564 0.0835152 0.0949240
0.0779886 0.0881622 0.0952586
0.1050388 0.0942951 0.0956810
0.1342803 0.1009392 0.0959849
0.1705707 0.1095201 0.0965824
0.2062805 0.1181508 0.0972552
0.2444966 0.1277997 0.0981101
0.2830609 0.1378173 0.0991297
0.3240333 0.1489950 0.1005282
0.3641012 0.1603159 0.1021075
0.4040192 0.1721758 0.1038903
0.4419151 0.1839511 0.1057473
0.4810022 0.1965899 0.1078135
0.5174365 0.2090248 0.1099485
0.5564829 0.2229559 0.1124207
0.5912287 0.2360659 0.1148379
0.6258484 0.2498317 0.1175640
0.6628830 0.2654163 0.1206947
0.7001737 0.2821254 0.1242621
0.7314380 0.2971326 0.1276422
0.7644804 0.3140591 0.1315219
0.7901124 0.3280734 0.1349233
0.8214232 0.3463814 0.1394408
0.8452163 0.3612268 0.1434883
0.8674870 0.3760984 0.1481458
0.8878871 0.3907219 0.1526572
0.9071023 0.4054987 0.1578445
0.9245707 0.4199437 0.1631331
0.9378582 0.4316907 0.1676886
0.9500869 0.4431706 0.1725815
0.9645880 0.4578025 0.1782089
0.9753736 0.4695112 0.1830896
0.9852556 0.4809499 0.1881098
0.9943933 0.4922249 0.1933584
1.0000000 0.5004660 0.1977344
1.0000000 0.5114392 0.2027996
1.0000000 0.5223480 0.2085665
1.0000000 0.5303621 0.2128680
1.0000000 0.5411538 0.2189708
1.0000000 0.5493205 0.2236727
1.0000000 0.5573344 0.2283480
1.0000000 0.5651961 0.2338523
1.0000000 0.5756680 0.2396356
1.0000000 0.5833147 0.2444761
1.0000000 0.5910284 0.2494699
1.0000000 0.5991060 0.2547499
1.0000000 0.6044793 0.2590678
1.0000000 0.6122067 0.2634638
1.0000000 0.6202155 0.2690067
1.0000000 0.6283538 0.2747321
1.0000000 0.6338869 0.2794824
1.0000000 0.6415288 0.2841678
1.0000000 0.6488577 0.2899003
1.0000000 0.6533912 0.2936108
1.0000000 0.6600823 0.2991372
1.0000000 0.6644713 0.3027952
1.0000000 0.6692861 0.3077813
1.0000000 0.6769359 0.3129460
1.0000000 0.6821171 0.3171183
0.0035843 0.0644315 0.0887658
0.0292761 0.0690123 0.0897948
0.0408732 0.0712695 0.0905158
0.0407654 0.0710289 0.0909570
0.0442292 0.0712523 0.0914568
0.0561789 0.0735665 0.0919079
0.0768893 0.0779963 0.0919708
0.1036111 0.0838398 0.0921039
0.1343039 0.0907565 0.0924759
0.1683320 0.0986647 0.0930222
0.2040076 0.1072242 0.0936662
0.2418270 0.1166434 0.0945801
0.2833967 0.1274366 0.0958728
0.3244597 0.1385689 0.0973794
0.3607192 0.1488049 0.0988439
0.4004118 0.1604909 0.1005979
0.4426163 0.1736714 0.1026840
0.4817802 0.1865944 0.1048248
0.5182888 0.1992375 0.1070126
0.5574045 0.2134643 0.1095915
0.5922096 0.2268245 0.1121472
0.6268879 0.2408509 0.1149685
0.6639830 0.2567141 0.1182112
0.6958431 0.2712173 0.1214057
0.7326353 0.2890127 0.1253210
0.7657203 0.3062199 0.1293300
0.7913738 0.3205134 0.1328375
0.8226845 0.3392219 0.1378775
0.8464476 0.3545539 0.1421937
0.8686662 0.3699784 0.1471182
0.8889717 0.3852786 0.1520925
0.9081330 0.4005712 0.1571661
0.9221200 0.4126197 0.1617600
0.9387299 0.4277914 0.1672447
0.9508718 0.4397784 0.1720307
0.9624164 0.4519179 0.1769927
0.9733707 0.4641218 0.1816394
0.9832997 0.4762514 0.1870034
0.9925286 0.4880899 0.1919708
1.0000000 0.4997184 0.1974198
1.0000000 0.5111883 0.2026925
1.0000000 0.5196451 0.2071279
1.0000000 0.5303621 0.2128680
1.0000000 0.5383971 0.2173978
1.0000000 0.5493205 0.2236727
1.0000000 0.5573344 0.2283480
1.0000000 0.5652432 0.2331333
1.0000000 0.5730865 0.2380152
1.0000000 0.5807819 0.2428661
1.0000000 0.5883760 0.2477287
1.0000000 0.5964319 0.2529942
1.0000000 0.6044000 0.2582484
1.0000000 0.6122067 0.2634638
1.0000000 0.6202155 0.2690067
1.0000000 0.6258709 0.2737972
1.0000000 0.6336812 0.2785223
1.0000000 0.6415288 0.2841678
1.0000000 0.6465684 0.2880369
1.0000000 0.6533912 0.2936108
1.0000000 0.6581273 0.2983614
1.0000000 0.6644713 0.3027952
1.0000000 0.6690062 0.3066343
1.0000000 0.6745893 0.3119889
1.0000000 0.6821171 0.3171183
0.0160171 0.0947464 0.0961804
0.0297846 0.0952286 0.0958679
0.0415035 0.0965051 0.0958788
0.0413920 0.0953236 0.0956835
0.0448352 0.0949184 0.0957366
0.0566978 0.0963323 0.0961546
0.0762526 0.0994468 0.0968285
0.1038313 0.1054776 0.0974444
0.1343800 0.1112424 0.0975415
0.1682614 0.1182857 0.0979358
0.2037882 0.1260006 0.0985605
0.2414451 0.1352965 0.0997049
0.2828627 0.1452128 0.1009247
0.3202777 0.1545035 0.1021316
0.3599148 0.1655428 0.1037689
0.3994980 0.1763589 0.1053494
0.4416066 0.1885110 0.1072147
0.4759951 0.1988154 0.1088560
0.5171168 0.2126179 0.1113043
0.5561935 0.2257930 0.1136600
0.5909842 0.2381476 0.1160498
0.6256641 0.2511790 0.1186593
0.6626905 0.2666730 0.1219100
0.6945610 0.2804035 0.1248810
0.7263184 0.2949704 0.1281798
0.7591230 0.3111043 0.1320168
0.7901338 0.3275625 0.1364858
0.8214339 0.3459063 0.1413590
0.8452423 0.3606059 0.1458846
0.8675253 0.3753976 0.1508583
0.8879448 0.3899078 0.1557291
0.9071862 0.4046160 0.1608622
0.9212015 0.4164286 0.1653718
0.9379313 0.4309886 0.1703833
0.9501807 0.4424389 0.1750365
0.9618300 0.4540803 0.1798668
0.9728726 0.4658537 0.1846338
0.9828637 0.4776954 0.1900026
0.9921988 0.4891042 0.1948259
1.0000000 0.5003045 0.1999850
1.0000000 0.5114438 0.2057821
1.0000000 0.5197597 0.2101404
1.0000000 0.5306733 0.2156517
1.0000000 0.5388445 0.2203240
1.0000000 0.5474421 0.2251871
1.0000000 0.5583556 0.2309442
1.0000000 0.5663103 0.2350973
1.0000000 0.5742720 0.2400281
1.0000000 0.5821319 0.2449502
1.0000000 0.5898556 0.2500046
1.0000000 0.5976305 0.2543469
1.0000000 0.6053947 0.2595039
1.0000000 0.6130828 0.2638857
1.0000000 0.6181048 0.2682707
1.0000000 0.6256608 0.2728290
1.0000000 0.6336812 0.2785223
1.0000000 0.6391344 0.2832459
1.0000000 0.6465684 0.2880369
1.0000000 0.6513978 0.2928281
1.0000000 0.6578664 0.2973003
1.0000000 0.6625413 0.3020239
1.0000000 0.6690062 0.3066343
1.0000000 0.6743140 0.3108492
1.0000000 0.6821171 0.3171183
0.0233036 0.1503160 0.1121557
0.0314709 0.1480607 0.1109800
0.0431747 0.1484687 0.1106297
0.0430244 0.1465130 0.1100282
0.0462784 0.1452429 0.1095266
0.0581781 0.1476589 0.1098272
0.0774984 0.1497235 0.1097967
0.1047267 0.1535457 0.1100303
0.1331525 0.1578062 0.1104779
0.1661203 0.1650847 0.1112323
0.2035698 0.1717711 0.1117721
0.2408454 0.1806238 0.1129822
0.2784692 0.1881419 0.1137825
0.3189189 0.1969922 0.1148682
0.3581769 0.2075222 0.1165158
0.3974138 0.2170038 0.1178452
0.4347271 0.2279482 0.1197230
0.4731919 0.2382864 0.1214021
0.5140445 0.2500455 0.1234407
0.5479414 0.2616103 0.1257284
0.5872655 0.2743163 0.1281901
0.6215761 0.2873894 0.1309753
0.6584426 0.3008688 0.1337945
0.6901661 0.3131018 0.1364814
0.7215976 0.3275067 0.1402177
0.7542654 0.3421109 0.1439463
0.7849751 0.3583003 0.1486810
0.8112812 0.3718439 0.1528227
0.8400410 0.3880162 0.1576828
0.8621204 0.4025836 0.1626676
0.8825446 0.4158818 0.1673394
0.8979247 0.4275376 0.1718296
0.9157542 0.4407780 0.1767883
0.9325246 0.4542183 0.1818847
0.9446605 0.4655434 0.1863655
0.9563993 0.4761677 0.1912095
0.9675602 0.4868947 0.1956486
0.9775456 0.4982876 0.2006203
0.9869685 0.5087951 0.2060907
0.9953855 0.5198690 0.2112843
1.0000000 0.5272577 0.2153730
1.0000000 0.5374888 0.2205865
1.0000000 0.5482885 0.2261291
1.0000000 0.5556374 0.2304878
1.0000000 0.5631960 0.2351295
1.0000000 0.5740125 0.2410131
1.0000000 0.5812987 0.2449138
1.0000000 0.5886319 0.2496198
1.0000000 0.5964218 0.2547560
1.0000000 0.6034259 0.2587724
1.0000000 0.6106243 0.2636693
1.0000000 0.6182427 0.2680237
1.0000000 0.6228231 0.2722887
1.0000000 0.6296778 0.2765324
1.0000000 0.6372338 0.2819924
1.0000000 0.6440506 0.2862659
1.0000000 0.6484058 0.2897614
1.0000000 0.6548756 0.2950624
1.0000000 0.6589607 0.2985486
1.0000000 0.6644382 0.3025337
1.0000000 0.6679837 0.3057880
1.0000000 0.6739649 0.3102244
1.0000000 0.6785007 0.3140456
1.0000000 0.6829710 0.3178431
0.0305822 0.2214629 0.1349159
0.0348642 0.2161810 0.1324528
0.0466217 0.2183305 0.1324012
0.0463732 0.2152461 0.1311803
0.0494754 0.2127954 0.1301132
0.0611962 0.2150021 0.1302200
0.0801322 0.2157468 0.1297194
0.1068783 0.2183191 0.1295299
0.1349213 0.2240080 0.1302779
0.1672987 0.2280794 0.1303692
0.2017608 0.2328435 0.1305910
0.2381827 0.2409953 0.1317996
0.2779342 0.2475997 0.1323779
0.3177699 0.2572729 0.1339310
0.3565120 0.2644946 0.1347397
0.3951374 0.2747467 0.1365610
0.4319209 0.2849586 0.1384714
0.4698775 0.2934740 0.1398186
0.5057282 0.3044451 0.1420851
0.5436596 0.3141689 0.1438178
0.5823289 0.3273519 0.1466668
0.6164030 0.3372206 0.1486622
0.6526396 0.3511131 0.1519094
0.6840309 0.3615882 0.1547235
0.7150723 0.3750817 0.1584148
0.7474357 0.3878332 0.1622943
0.7777869 0.4030214 0.1670024
0.8038785 0.4150888 0.1709011
0.8320966 0.4314215 0.1763895
0.8542625 0.4433584 0.1806276
0.8742822 0.4568024 0.1856887
0.8898707 0.4660476 0.1891136
0.9073388 0.4794036 0.1943383
0.9209079 0.4887003 0.1986387
0.9361364 0.5020152 0.2039102
0.9479659 0.5112741 0.2078607
0.9587995 0.5222956 0.2134862
0.9690941 0.5315379 0.2179054
0.9782903 0.5421798 0.2230027
0.9870472 0.5511859 0.2276402
0.9932119 0.5575479 0.2315571
1.0000000 0.5679688 0.2370092
1.0000000 0.5743125 0.2410141
1.0000000 0.5844945 0.2466813
1.0000000 0.5910427 0.2509675
1.0000000 0.5987062 0.2550998
1.0000000 0.6076767 0.2604069
1.0000000 0.6151672 0.2654629
1.0000000 0.6215132 0.2692206
1.0000000 0.6287301 0.2742161
1.0000000 0.6350902 0.2781237
1.0000000 0.6423674 0.2834795
1.0000000 0.6462548 0.2865762
1.0000000 0.6533016 0.2918660
1.0000000 0.6595204 0.2959535
1.0000000 0.6656303 0.3001435
1.0000000 0.6702365 0.3038517
1.0000000 0.6760074 0.3088568
1.0000000 0.6798697 0.3122704
1.0000000 0.6847246 0.3161086
1.0000000 0.6884915 0.3196598
1.0000000 0.6933676 0.3235759
1.0000000 0.6979457 0.3274719
1.0000000 0.7016943 0.3309223
0.0389899 0.2940307 0.1621842
0.0403211 0.2904093 0.1587227
0.0517093 0.2887074 0.1568216
0.0513388 0.2850089 0.1550924
0.0545636 0.2855198 0.1547657
0.0651840 0.2837760 0.1534336
0.0845410 0.2872141 0.1535656
0.1093540 0.2881801 0.1527464
0.1382344 0.2936081 0.1533110
0.1699354 0.2962203 0.1528662
0.2038518 0.3030360 0.1538007
0.2395254 0.3075235 0.1538911
0.2785914 0.3160120 0.1553093
0.3176874 0.3219721 0.1558342
0.3519653 0.3300945 0.1573998
0.3936917 0.3375664 0.1584002
0.4298558 0.3469731 0.1603252
0.4670463 0.3571113 0.1625217
0.5024021 0.3644468 0.1637486
0.5395298 0.3756467 0.1663045
0.5728114 0.3835056 0.1678393
0.6110196 0.3964097 0.1711548
0.6419662 0.4048411 0.1732872
0.6775174 0.4184260 0.1773100
0.7080435 0.4308903 0.1813478
0.7399169 0.4421813 0.1847910
0.7697819 0.4562217 0.1899077
0.7955483 0.4666518 0.1935926
0.8188144 0.4791414 0.1978983
0.8453175 0.4920095 0.2025426
0.8650766 0.5044128 0.2075013
0.8801345 0.5144690 0.2115542
0.8978060 0.5246688 0.2160819
0.9109015 0.5346730 0.2204584
0.9263642 0.5450749 0.2253578
0.9377114 0.5550718 0.2302159
0.9488993 0.5633857 0.2343273
0.9587556 0.5732867 0.2392559
0.9678817 0.5831167 0.2445039
0.9766544 0.5910388 0.2489121
0.9824286 0.5981916 0.2533349
0.9902034 0.6061438 0.2579390
0.9952336 0.6132538 0.2626072
1.0000000 0.6210331 0.2673092
1.0000000 0.6282237 0.2713426
1.0000000 0.6353408 0.2762417
1.0000000 0.6430752 0.2812237
1.0000000 0.6499121 0.2853454
1.0000000 0.6552129 0.2894535
1.0000000 0.6618227 0.2937301
1.0000000 0.6671716 0.2981779
1.0000000 0.6738256 0.3025136
1.0000000 0.6768461 0.3052104
1.0000000 0.6833649 0.3105102
1.0000000 0.6885716 0.3142999
1.0000000 0.6929113 0.3179283
1.0000000 0.6993057 0.3233323
1.0000000 0.7040901 0.3270186
1.0000000 0.7076662 0.3305101
1.0000000 0.7117617 0.3340678
1.0000000 0.7152418 0.3375195
1.0000000 0.7175703 0.3403104
1.0000000 0.7236025 0.3448871
1.0000000 0.7267030 0.3481596
0.0499485 0.3680055 0.1944534
0.0489116 0.3635392 0.1898855
0.0588825 0.3609648 0.1868015
0.0588262 0.3608016 0.1855699
0.0619925 0.3611247 0.1841372
0.0722253 0.3587196 0.1819925
0.0911813 0.3617441 0.1815220
0.1153256 0.3617946 0.1799736
0.1436106 0.3666729 0.1803555
0.1745402 0.3684776 0.1794591
0.2077646 0.3746151 0.1801817
0.2425954 0.3777407 0.1796846
0.2808802 0.3853919 0.1807590
0.3157794 0.3891761 0.1806356
0.3526970 0.3972639 0.1823368
0.3895409 0.4022479 0.1828066
0.4289840 0.4117481 0.1849686
0.4654531 0.4209663 0.1870942
0.5000838 0.4268147 0.1880232
0.5365044 0.4370230 0.1905565
0.5689607 0.4466560 0.1934483
0.6018805 0.4536856 0.1951436
0.6367487 0.4653030 0.1989945
0.6716210 0.4776672 0.2030694
0.7018864 0.4859789 0.2057082
0.7328800 0.4985498 0.2102814
0.7625992 0.5083986 0.2137176
0.7875827 0.5200896 0.2183034
0.8104374 0.5315164 0.2229685
0.8324819 0.5402681 0.2260993
0.8521781 0.5515957 0.2311381
0.8708479 0.5630501 0.2359547
0.8883412 0.5717055 0.2400122
0.9012514 0.5808618 0.2445369
0.9166176 0.5896932 0.2486897
0.9278357 0.5988273 0.2533934
0.9384621 0.6081148 0.2589527
0.9486991 0.6150712 0.2629488
0.9577518 0.6240548 0.2680230
0.9660564 0.6327873 0.2724127
0.9722949 0.6373389 0.2758423
0.9795988 0.6461123 0.2811716
0.9851267 0.6506768 0.2846640
0.9913914 0.6592491 0.2900741
0.9958959 0.6658150 0.2941059
1.0000000 0.6704848 0.2978860
1.0000000 0.6768249 0.3018767
1.0000000 0.6851841 0.3075461
1.0000000 0.6895832 0.3107243
1.0000000 0.6956687 0.3157096
1.0000000 0.7001095 0.3189366
1.0000000 0.7042094 0.3222962
1.0000000 0.7102668 0.3275481
1.0000000 0.7145410 0.3309243
1.0000000 0.7205213 0.3353096
1.0000000 0.7229022 0.3378812
1.0000000 0.7287548 0.3432295
1.0000000 0.7342697 0.3476197
1.0000000 0.7360199 0.3500779
1.0000000 0.7408018 0.3541513
1.0000000 0.7424999 0.3565827
1.0000000 0.7456510 0.3599786
1.0000000 0.7511684 0.3645462
1.0000000 0.7537885 0.3675748
0.0634308 0.4403890 0.2291345
0.0621274 0.4353871 0.2238740
0.0689926 0.4361420 0.2217799
0.0682790 0.4318420 0.2189502
0.0712498 0.4321042 0.2174240
0.0811779 0.4292917 0.2141826
0.0997088 0.4319425 0.2131850
0.1231463 0.4313449 0.2108132
0.1508145 0.4356038 0.2101005
0.1813607 0.4405035 0.2098389
0.2134064 0.4418207 0.2082490
0.2476946 0.4477852 0.2084401
0.2848018 0.4505837 0.2076910
0.3190848 0.4571388 0.2085792
0.3549848 0.4603626 0.2080053
0.3911002 0.4679753 0.2096540
0.4256020 0.4755978 0.2115376
0.4612882 0.4800234 0.2120237
0.4991462 0.4893000 0.2145280
0.5347748 0.4985523 0.2174969
0.5666482 0.5035352 0.2185818
0.5987093 0.5128412 0.2218776
0.6328494 0.5233518 0.2258394
0.6672496 0.5310178 0.2283217
0.6966279 0.5413383 0.2323759
0.7270072 0.5527049 0.2367870
0.7510062 0.5622671 0.2405508
0.7806672 0.5714910 0.2440129
0.8030968 0.5818428 0.2485786
0.8242906 0.5922714 0.2530955
0.8440409 0.5998538 0.2567445
0.8623909 0.6102309 0.2614308
0.8791089 0.6203927 0.2664402
0.8922629 0.6262053 0.2701440
0.9040803 0.6343778 0.2745899
0.9179484 0.6446085 0.2800837
0.9289570 0.6505949 0.2836915
0.9385915 0.6587722 0.2885610
0.9475397 0.6668738 0.2935614
0.9542897 0.6705958 0.2959354
0.9619803 0.6784440 0.3009993
0.9692324 0.6863518 0.3061301
0.9747702 0.6900780 0.3093993
0.9810266 0.6977718 0.3139647
0.9855039 0.7037366 0.3185973
0.9902182 0.7075268 0.3212553
0.9940472 0.7133008 0.3260325
0.9987786 0.7208076 0.3308553
1.0000000 0.7244609 0.3345052
1.0000000 0.7299082 0.3384910
1.0000000 0.7354347 0.3425944
1.0000000 0.7373275 0.3457455
1.0000000 0.7427517 0.3499436
1.0000000 0.7480642 0.3541133
1.0000000 0.7516833 0.3572009
1.0000000 0.7552547 0.3606967
1.0000000 0.7588060 0.3648650
1.0000000 0.7637931 0.3690993
1.0000000 0.7667319 0.3723574
1.0000000 0.7694799 0.3752456
1.0000000 0.7723502 0.3786035
1.0000000 0.7751848 0.3819413
1.0000000 0.7786958 0.3853548
1.0000000 0.7821430 0.3890011
0.0794166 0.5144453 0.2692428
0.0781770 0.5095085 0.2626721
0.0812370 0.5052508 0.2578399
0.0811570 0.5050678 0.2560397
0.0831269 0.5007256 0.2522072
0.0934033 0.5019734 0.2510110
0.1105913 0.4997104 0.2475915
0.1339890 0.5028546 0.2466397
0.1593524 0.5063671 0.2457671
0.1899939 0.5063886 0.2431922
0.2216750 0.5111586 0.2427311
0.2545198 0.5119331 0.2404029
0.2879779 0.5174094 0.2401100
0.3244873 0.5236812 0.2403126
0.3593407 0.5258826 0.2387496
0.3945774 0.5325609 0.2393568
0.4280174 0.5353247 0.2385475
0.4629338 0.5427668 0.2409081
0.4998759 0.5510491 0.2435457
0.5302737 0.5582532 0.2463080
0.5656518 0.5633352 0.2477732
0.5969557 0.5716379 0.2509710
0.6302953 0.5810100 0.2547306
0.6587944 0.5859025 0.2565594
0.6925172 0.5966603 0.2609118
0.7222015 0.6068256 0.2652866
0.7456520 0.6153957 0.2692623
0.7746063 0.6232361 0.2721402
0.7965455 0.6325133 0.2768269
0.8172882 0.6418377 0.2811615
0.8366705 0.6478398 0.2839330
0.8546368 0.6571909 0.2893009
0.8710334 0.6662881 0.2941069
0.8834940 0.6736771 0.2984552
0.8956184 0.6780876 0.3013159
0.9092544 0.6872592 0.3065916
0.9195895 0.6947207 0.3112819
0.9296521 0.6992961 0.3144880
0.9384800 0.7065707 0.3193800
0.9446216 0.7119082 0.3228636
0.9528316 0.7163177 0.3261316
0.9600110 0.7234322 0.3312512
0.9649796 0.7286409 0.3348857
0.9711750 0.7355494 0.3399906
0.9762771 0.7384158 0.3421515
0.9804074 0.7436836 0.3468603
0.9842474 0.7488084 0.3507355
0.9884366 0.7516916 0.3539342
0.9928150 0.7583230 0.3585457
0.9957986 0.7632034 0.3625203
0.9982551 0.7646244 0.3653531
1.0000000 0.7695827 0.3694139
1.0000000 0.7744374 0.3734476
1.0000000 0.7791917 0.3774806
1.0000000 0.7821930 0.3804193
1.0000000 0.7853884 0.3838320
1.0000000 0.7900618 0.3880010
1.0000000 0.7914250 0.3910221
1.0000000 0.7954185 0.3949201
1.0000000 0.7980163 0.3981647
1.0000000 0.8001329 0.4008111
1.0000000 0.8026374 0.4030685
1.0000000 0.8070869 0.4073035
1.0000000 0.8085257 0.4095986
0.0962018 0.5784819 0.3069681
0.0936018 0.5693367 0.2984928
0.0957806 0.5693684 0.2957785
0.0945551 0.5647448 0.2917007
0.0973290 0.5648576 0.2890930
0.1073147 0.5659202 0.2874993
0.1229352 0.5633669 0.2840478
0.1465663 0.5661733 0.2823054
0.1712554 0.5692614 0.2813945
0.2008685 0.5687885 0.2782519
0.2317193 0.5729936 0.2777524
0.2642560 0.5775852 0.2771230
0.2960914 0.5780399 0.2745817
0.3316538 0.5835556 0.2743616
0.3654116 0.5848546 0.2721895
0.3997482 0.5907388 0.2722642
0.4325576 0.5966140 0.2722316
0.4662195 0.5988902 0.2706475
0.4983325 0.6053905 0.2723029
0.5319034 0.6126165 0.2752268
0.5664091 0.6204661 0.2784556
0.5968393 0.6238948 0.2796549
0.6293775 0.6322531 0.2833010
0.6570386 0.6398018 0.2868708
0.6853985 0.6479743 0.2903701
0.7142323 0.6531317 0.2924073
0.7419438 0.6623412 0.2970270
0.7698915 0.6722948 0.3015800
0.7916131 0.6774292 0.3038179
0.8118876 0.6858133 0.3087809
0.8304102 0.6939642 0.3132707
0.8479823 0.7022260 0.3178687
0.8613445 0.7058867 0.3202738
0.8766528 0.7140925 0.3252226
0.8880222 0.7206041 0.3295690
0.9013858 0.7287397 0.3346562
0.9120243 0.7327418 0.3376153
0.9213492 0.7392583 0.3422806
0.9279289 0.7440993 0.3456261
0.9360730 0.7504392 0.3503685
0.9441056 0.7542005 0.3535184
0.9511995 0.7604753 0.3577108
0.9561009 0.7651185 0.3618864
0.9606837 0.7696488 0.3654338
0.9672315 0.7736460 0.3690577
0.9713463 0.7782781 0.3727866
0.9751589 0.7828434 0.3772613
0.9793194 0.7851401 0.3794206
0.9826349 0.7895820 0.3832800
0.9857032 0.7939333 0.3871152
0.9885911 0.7983060 0.3917992
0.9919173 0.8006034 0.3941196
0.9944296 0.8049092 0.3980847
0.9967368 0.8091255 0.4020739
0.9989212 0.8133886 0.4061079
1.0000000 0.8142483 0.4078508
1.0000000 0.8183925 0.4118428
1.0000000 0.8211212 0.4151312
1.0000000 0.8227630 0.4174345
1.0000000 0.8250641 0.4205490
1.0000000 0.8284388 0.4242694
1.0000000 0.8306671 0.4273438
1.0000000 0.8328002 0.4299907
1.0000000 0.8355253 0.4335126
0.1136333 0.6338627 0.3436682
0.1119068 0.6287813 0.3367261
0.1112994 0.6242038 0.3314359
0.1111802 0.6240433 0.3293265
0.1138641 0.6241865 0.3272902
0.1217061 0.6207168 0.3231617
0.1384574 0.6224346 0.3215071
0.1614183 0.6249077 0.3201211
0.1842383 0.6232798 0.3165406
0.2121205 0.6265261 0.3153307
0.2439083 0.6303666 0.3140017
0.2745851 0.6301571 0.3110160
0.3062561 0.6343473 0.3098836
0.3408324 0.6391948 0.3097447
0.3734589 0.6399314 0.3069471
0.4068457 0.6450855 0.3066388
0.4387530 0.6502829 0.3069577
0.4713209 0.6519091 0.3048176
0.5025588 0.6575561 0.3050611
0.5352218 0.6637697 0.3052740
0.5688103 0.6707038 0.3085209
0.5983022 0.6733758 0.3091134
0.6299857 0.6807697 0.3127254
0.6569239 0.6874431 0.3161667
0.6845415 0.6946738 0.3195646
0.7125226 0.6989471 0.3216151
0.7395282 0.7070793 0.3256367
0.7667632 0.7159227 0.3305454
0.7876440 0.7231992 0.3347388
0.8076785 0.7272757 0.3368583
