Plugins/FilmEmulator/Content/LUTs/FE_Fuji_CA_DPII_64.cube
TITLE "FE_Fuji_CA_DPII_33"
LUT_3D_SIZE 4
0.1067315 0.0929517 0.0143656
1.0000000 0.3136923 0.0605966
1.0000000 0.4657872 0.1367478
1.0000000 0.5287349 0.1970757
0.2908434 0.9677988 0.4687234
0.9037945 0.9769924 0.4406392
0.9782391 0.9866520 0.4320318
0.9906518 0.9871948 0.4808446
0.4434531 0.9922534 0.8403316
0.9402215 0.9897693 0.8170488
0.9836504 0.9938728 0.7922097
0.9890656 0.9970801 0.7543658
0.5711564 0.9896597 0.9495129
0.9582619 0.9876832 0.9393854
0.9892743 0.9898093 0.9310749
0.9945672 0.9909258 0.9175040
0.3832211 0.3004680 1.0000000
1.0000000 0.5213422 0.9714214
1.0000000 0.6112362 0.9587541
1.0000000 0.6570956 0.9496284
0.6680958 0.9658756 0.9846376
0.9683738 0.9740496 0.9791757
0.9932200 0.9774256 0.9781473
0.9986823 0.9782836 0.9766709
0.7885555 0.9855819 0.9881535
0.9752094 0.9879298 0.9854143
0.9915110 0.9893140 0.9850649
0.9954304 0.9898090 0.9846559
0.8576294 0.9873686 0.9892964
0.9795734 0.9896514 0.9876755
0.9919947 0.9907210 0.9876038
0.9953104 0.9911322 0.9874538
0.8411282 0.5627468 1.0000000
1.0000000 0.6710304 0.9994878
1.0000000 0.7200300 0.9952130
1.0000000 0.7598786 0.9923493
0.9047625 0.9763487 0.9895194
0.9838176 0.9813347 0.9883616
0.9941869 0.9830039 0.9883027
0.9974520 0.9837102 0.9882441
0.9354285 0.9871343 0.9901171
0.9858979 0.9895045 0.9896346
0.9932880 0.9903247 0.9896653
0.9958701 0.9907058 0.9896782
0.9516870 0.9887849 0.9903249
0.9876987 0.9906505 0.9900618
0.9936033 0.9912956 0.9901100
0.9958624 0.9916139 0.9901296
0.9746457 0.7429852 0.9995426
1.0000000 0.7844502 0.9950593
1.0000000 0.7975079 0.9938594
1.0000000 0.8310241 0.9919154
0.9632229 0.9824978 0.9899677
0.9900427 0.9850516 0.9897406
0.9952245 0.9859439 0.9897583
0.9974263 0.9864143 0.9897745
0.9718397 0.9888174 0.9905668
0.9904915 0.9902806 0.9905153
0.9946299 0.9908042 0.9905575
0.9963835 0.9910826 0.9905822
0.9771348 0.9900228 0.9907626
0.9912741 0.9911700 0.9907619
0.9948096 0.9916165 0.9908144
0.9963483 0.9918502 0.9908411
