Plugins/FilmEmulator/Content/LUTs/FE_Fuji_Eterna_500_Vivid_64.cube
TITLE "FE_Fuji_Eterna_500_Vivid_33"
LUT_3D_SIZE 8
0.0036428 0.0019930 0.0033160
0.0674222 0.0030945 0.0039957
0.1865397 0.0063830 0.0060339
0.3076535 0.0113223 0.0087651
0.4245943 0.0176108 0.0120621
0.5180258 0.0248124 0.0156921
0.5954686 0.0338082 0.0195328
0.6408489 0.0427058 0.0249039
0.0059324 0.0889310 0.0060446
0.0794652 0.0991017 0.0074580
0.1925319 0.1147024 0.0100648
0.3196288 0.1277828 0.0134582
0.4302410 0.1420003 0.0175052
0.5243176 0.1519762 0.0218112
0.5911305 0.1682112 0.0267877
0.6377906 0.1797612 0.0321838
0.0131621 0.2354820 0.0113756
0.0928114 0.2492830 0.0133855
0.2083795 0.2641465 0.0158359
0.3328535 0.2715607 0.0189853
0.4456574 0.2872397 0.0238276
0.5283067 0.3035641 0.0292205
0.5936417 0.3117768 0.0354089
0.6401969 0.3290095 0.0413639
0.0220946 0.3783118 0.0186790
0.1097034 0.3867403 0.0210659
0.2273028 0.3957114 0.0241302
0.3485718 0.4049636 0.0267194
0.4523989 0.4241966 0.0307266
0.5346609 0.4336867 0.0372858
0.5978479 0.4433245 0.0435002
0.6444888 0.4530390 0.0509023
0.0334362 0.4960457 0.0270005
0.1298043 0.5049902 0.0309979
0.2482843 0.5043679 0.0347860
0.3658445 0.5139571 0.0375946
0.4708298 0.5235632 0.0422100
0.5523695 0.5332168 0.0474442
0.6031930 0.5429150 0.0534028
0.6494457 0.5525379 0.0624450
0.0461514 0.5838172 0.0393836
0.1485021 0.5923421 0.0425293
0.2627621 0.5917829 0.0477451
0.3841392 0.6006897 0.0516706
0.4787342 0.6096325 0.0559076
0.5604903 0.6093534 0.0604187
0.6091322 0.6183300 0.0653370
0.6546404 0.6271869 0.0731493
0.0617389 0.6473750 0.0519750
0.1639819 0.6553199 0.0562115
0.2870125 0.6548424 0.0607332
0.3928756 0.6626976 0.0656633
0.4974768 0.6704974 0.0708506
0.5675941 0.6702650 0.0762313
0.6153854 0.6780927 0.0820630
0.6603435 0.6779519 0.0850907
0.0766160 0.7032301 0.0660208
0.1872957 0.7026311 0.0711483
0.3035387 0.7098225 0.0766017
0.4125583 0.7095124 0.0823777
0.5063109 0.7167776 0.0854815
0.5743163 0.7165679 0.0918787
0.6218548 0.7238100 0.0953164
0.6660633 0.7236398 0.1023632
0.0050048 0.0029518 0.0969972
0.0807069 0.0046113 0.1014656
0.1999643 0.0072518 0.1062409
0.3272469 0.0120119 0.1153578
0.4365073 0.0180584 0.1206248
0.5293252 0.0255032 0.1259218
0.5966801 0.0334761 0.1312060
0.6494951 0.0423289 0.1365813
0.0103067 0.0910235 0.1215748
0.0891191 0.1014864 0.1260803
0.2070734 0.1132888 0.1308235
0.3303783 0.1263824 0.1357547
0.4423468 0.1406072 0.1408678
0.5252761 0.1559269 0.1461472
0.6002268 0.1668621 0.1514543
0.6464077 0.1784499 0.1569303
0.0190149 0.2401655 0.1384395
0.1079654 0.2467787 0.1432513
0.2236784 0.2617090 0.1484200
0.3434624 0.2771986 0.1537653
0.4577537 0.2850449 0.1591377
0.5396730 0.3014815 0.1648234
0.6026312 0.3098429 0.1705298
0.6487194 0.3271557 0.1765558
0.0293866 0.3753049 0.1608403
0.1227500 0.3839073 0.1663203
0.2434791 0.3930003 0.1720177
0.3593299 0.4121536 0.1722744
0.4644507 0.4217111 0.1781734
0.5459357 0.4313953 0.1842432
0.6067586 0.4411816 0.1904829
0.6527678 0.4510492 0.1968919
0.0417828 0.4931853 0.1795263
0.1399764 0.5023539 0.1855332
0.2651637 0.5119039 0.1856185
0.3767730 0.5215679 0.1918669
0.4820800 0.5212746 0.1981207
0.5533651 0.5310629 0.2047195
0.6120125 0.5408589 0.2114891
0.6502472 0.5506716 0.2184335
0.0557989 0.5814319 0.1930502
0.1598204 0.5900906 0.1994180
0.2804888 0.5896361 0.2058340
0.3954356 0.5986360 0.2125966
0.4899002 0.6076500 0.2195389
0.5701885 0.6074281 0.2264768
0.6178310 0.6165255 0.2266339
0.6553897 0.6255164 0.2339322
0.0718431 0.6453488 0.2136633
0.1823048 0.6533871 0.2205529
0.2964222 0.6612207 0.2276464
0.4147300 0.6609560 0.2275919
0.4983229 0.6688677 0.2348827
0.5765034 0.6686651 0.2421670
0.6239630 0.6765582 0.2498000
0.6610641 0.6764336 0.2574195
0.0889685 0.7015165 0.2358212
0.2010155 0.7010455 0.2357146
0.3133968 0.7083231 0.2431595
0.4239650 0.7080557 0.2506039
0.5173486 0.7153439 0.2583981
0.5831205 0.7152231 0.2583681
0.6303321 0.7224861 0.2663443
0.6667126 0.7223723 0.2742966
0.0087741 0.0056784 0.2503265
0.0920153 0.0086293 0.2595956
0.2116745 0.0119548 0.2687609
0.3353721 0.0160826 0.2703359
0.4470580 0.0201664 0.2792529
0.5395492 0.0274159 0.2809736
0.6046324 0.0360145 0.2904249
0.6497578 0.0438583 0.2996300
0.0160671 0.0905077 0.2806992
0.1032074 0.1048432 0.2892500
0.2215059 0.1170303 0.2898406
0.3402354 0.1305110 0.2985078
0.4534746 0.1449698 0.3073277
0.5360681 0.1552839 0.3077594
0.6004924 0.1719353 0.3167592
0.6466386 0.1838350 0.3172159
0.0260184 0.2391036 0.3030863
0.1203929 0.2533639 0.3115674
0.2391451 0.2607338 0.3116901
0.3537674 0.2762069 0.3204585
0.4689150 0.2923034 0.3208663
0.5504007 0.3004832 0.3295680
0.6028789 0.3174935 0.3386518
0.6491976 0.3261767 0.3388676
0.0379957 0.3740563 0.3234148
0.1367057 0.3923696 0.3236918
0.2596346 0.4015625 0.3323678
0.3699149 0.4109946 0.3412062
0.4751486 0.4205959 0.3413904
0.5566154 0.4302750 0.3503767
0.6072339 0.4401284 0.3505946
0.6532186 0.4499935 0.3596182
0.0504546 0.4919406 0.3434787
0.1558372 0.5012058 0.3435383
0.2739978 0.5107543 0.3524910
0.3875290 0.5204713 0.3526618
0.4925146 0.5301837 0.3616738
0.5639647 0.5300246 0.3616340
0.6203047 0.5398311 0.3705812
0.6577281 0.5497000 0.3708071
0.0672773 0.5802656 0.3544077
0.1715339 0.5890023 0.3633348
0.2893858 0.5979622 0.3634740
0.4063660 0.5976316 0.3721509
0.5005778 0.6067047 0.3723363
0.5703560 0.6157179 0.3813812
0.6260527 0.6155958 0.3813484
0.6628162 0.6245993 0.3904992
0.0832497 0.6529930 0.3738796
0.1954924 0.6524628 0.3737327
0.3150286 0.6603098 0.3827231
0.4258088 0.6600667 0.3826542
0.5090029 0.6679937 0.3917771
0.5769107 0.6678579 0.3917377
0.6321084 0.6757476 0.4009583
0.6681594 0.6836199 0.4011668
0.0994615 0.7006873 0.3840727
0.2152273 0.7001947 0.3928896
0.3325705 0.7075279 0.3930309
0.4350873 0.7072836 0.4020007
0.5279701 0.7146275 0.4021778
0.5915496 0.7144704 0.4112475
0.6306953 0.7218019 0.4114569
0.6739730 0.7216772 0.4206049
0.0145584 0.0103578 0.3939548
0.1014078 0.0138439 0.3956340
0.2242840 0.0179351 0.4063372
0.3528363 0.0225782 0.4078401
0.4559562 0.0273475 0.4182737
0.5486096 0.0332361 0.4195955
0.6122832 0.0388192 0.4206592
0.6570271 0.0473944 0.4313035
0.0225358 0.0937114 0.4184304
0.1151720 0.1045349 0.4282280
0.2364982 0.1210916 0.4292284
0.3601636 0.1301693 0.4297055
0.4646936 0.1446078 0.4397681
0.5463033 0.1603192 0.4405498
0.6087409 0.1715221 0.4504215
0.6545033 0.1833990 0.4509490
0.0334434 0.2384707 0.4350756
0.1294198 0.2527865 0.4447068
0.2549641 0.2679533 0.4451192
0.3741713 0.2755965 0.4546785
0.4692482 0.2917102 0.4551601
0.5504258 0.3084205 0.4556522
0.6110887 0.3168990 0.4653035
0.6568661 0.3255734 0.4655454
0.0456758 0.3827662 0.4583261
0.1469151 0.3916340 0.4583905
0.2681684 0.4008912 0.4585428
0.3907484 0.4102959 0.4681558
0.4856688 0.4199174 0.4683686
0.5670438 0.4295936 0.4780490
0.6154122 0.4394472 0.4782914
0.6605296 0.4493584 0.4785343
0.0607890 0.4911457 0.4706755
0.1672137 0.5004799 0.4707604
0.2916384 0.5100295 0.4803793
0.3982296 0.5197713 0.4805740
0.4928025 0.5295583 0.4807833
0.5727668 0.5393167 0.4904879
0.6205778 0.5392069 0.4904577
0.6650147 0.5490124 0.5001952
0.0780428 0.5795105 0.4824805
0.1838167 0.5883451 0.4825807
0.3076223 0.5972620 0.4922199
0.4172261 0.5970016 0.4921463
0.5111292 0.6060344 0.5018463
0.5787292 0.6151031 0.5020632
0.6263243 0.6149981 0.5020330
0.6630757 0.6240069 0.5117716
0.0930137 0.6523539 0.4939971
0.2093250 0.6517999 0.5033459
0.3246342 0.6597197 0.5034949
0.4368215 0.6594765 0.5034211
0.5195311 0.6674112 0.5131174
0.5850037 0.6753322 0.5133195
0.6323572 0.6752352 0.5132894
0.6684170 0.6830714 0.5230080
0.1110123 0.7000937 0.5049213
0.2226556 0.6996412 0.5142929
0.3424582 0.7069821 0.5144420
0.4461389 0.7067782 0.5143748
0.5282576 0.7141095 0.5240663
0.5918080 0.7139921 0.5240271
0.6386452 0.7213161 0.5242394
0.6742083 0.7212063 0.5337030
0.0213923 0.0160840 0.5090511
0.1161607 0.0201173 0.5103913
0.2376787 0.0253021 0.5119194
0.3608379 0.0307106 0.5227401
0.4650179 0.0358761 0.5238103
0.5572159 0.0419678 0.5249053
0.6189151 0.0473155 0.5350758
0.6635833 0.0554937 0.5362254
0.0297790 0.0970680 0.5317178
0.1281672 0.1082947 0.5323335
0.2523420 0.1208543 0.5330728
0.3701466 0.1346978 0.5338551
0.4755692 0.1494503 0.5439380
0.5567083 0.1600309 0.5444500
0.6165414 0.1771276 0.5452544
0.6544542 0.1892942 0.5549842
0.0415817 0.2453710 0.5485852
0.1439595 0.2600548 0.5489159
0.2633036 0.2675267 0.5490702
0.3843704 0.2832645 0.5495275
0.4796843 0.2912621 0.5589201
0.5608141 0.3079573 0.5594125
0.6191533 0.3164734 0.5596468
0.6568245 0.3340084 0.5693041
0.0550626 0.3822043 0.5528896
0.1632952 0.3910658 0.5621350
0.2855174 0.4003406 0.5622934
0.4013961 0.4098106 0.5624843
0.4961399 0.4193847 0.5718259
0.5672609 0.4291266 0.5720519
0.6231724 0.4489753 0.5725552
0.6604926 0.4587336 0.5818757
0.0705619 0.4905707 0.5649682
0.1792221 0.4999046 0.5741837
0.3007690 0.5095258 0.5743430
0.4089498 0.5192682 0.5745349
0.5032812 0.5290104 0.5838119
0.5810617 0.5388225 0.5840278
0.6283029 0.5486748 0.5842612
0.6652114 0.5485391 0.5932532
0.0871402 0.5789716 0.5763988
0.1969666 0.5877848 0.5855641
0.3170421 0.5967761 0.5857185
0.4278444 0.6058015 0.5858988
0.5215868 0.6055546 0.5948488
0.5869939 0.6146312 0.5950603
0.6340135 0.6236690 0.5952816
0.6702060 0.6235856 0.5952582
0.1038677 0.6518502 0.5874399
0.2165563 0.6513408 0.5963012
0.3343368 0.6592658 0.5964456
0.4475866 0.6671712 0.5966092
0.5299571 0.6670070 0.5965604
0.5932348 0.6748947 0.6056916
0.6402481 0.6747975 0.6056626
0.6754916 0.6826823 0.6058729
0.1237147 0.6996274 0.5978133
0.2376259 0.7068673 0.5979258
0.3524571 0.7065630 0.6067684
0.4569538 0.7138869 0.6069370
0.5386682 0.7137376 0.6068891
0.5997528 0.7210039 0.6159437
0.6463277 0.7209153 0.6159150
0.6809965 0.7281508 0.6161237
0.0289816 0.0226106 0.5942596
0.1283500 0.0273254 0.5953564
0.2519988 0.0331859 0.5966063
0.3693802 0.0387401 0.6065521
0.4852744 0.0454314 0.6076103
0.5659964 0.0512052 0.6084138
0.6176029 0.0576851 0.6092331
0.6626320 0.0649809 0.6188946
0.0383883 0.1006089 0.6048957
0.1424884 0.1122160 0.6143820
0.2603554 0.1251934 0.6151016
0.3802660 0.1393064 0.6158404
0.4859734 0.1492310 0.6250978
0.5667299 0.1653578 0.6258502
0.6167264 0.1768878 0.6263528
0.6619446 0.1890590 0.6268569
0.0520128 0.2449958 0.6207265
0.1545538 0.2596991 0.6298081
0.2801640 0.2750769 0.6302112
0.3949272 0.2829075 0.6303931
0.4897889 0.2992857 0.6308514
0.5711078 0.3075838 0.6395853
0.6190647 0.3248706 0.6400657
0.6639960 0.3336637 0.6402925
0.0663089 0.3816974 0.6335449
0.1750377 0.3906650 0.6336352
0.2945104 0.3999149 0.6422888
0.4118443 0.4192059 0.6427215
0.5062647 0.4288940 0.6429209
0.5759082 0.4386994 0.6431347
0.6233550 0.4485610 0.6515138
0.6676272 0.4583470 0.6517333
0.0817013 0.5000603 0.6450256
0.1919718 0.4994806 0.6448797
0.3100283 0.5091263 0.6450357
0.4197404 0.5188236 0.6533511
0.5136942 0.5286152 0.6535441
0.5812297 0.5384506 0.6537520
0.6284642 0.5483040 0.6539702
0.6722966 0.5481533 0.6619871
0.0972540 0.5878930 0.6553081
0.2107895 0.5873734 0.6551756
0.3361216 0.5963673 0.6553201
0.4387570 0.6054192 0.6554949
0.5217575 0.6051976 0.6634758
0.5871603 0.6142770 0.6636724
0.6341730 0.6233178 0.6638786
0.6772394 0.6232179 0.6638525
0.1158286 0.6514422 0.6569219
0.2313886 0.6509560 0.6648134
0.3539727 0.6588848 0.6649479
0.4586135 0.6668165 0.6651059
0.5403384 0.6666538 0.6650612
0.6013709 0.6745514 0.6731620
0.6404054 0.6744702 0.6731398
0.6756414 0.6823590 0.6733343
0.1329726 0.6992707 0.6662180
0.2534683 0.7065151 0.6663225
0.3727300 0.7062122 0.6741495
0.4672759 0.7135630 0.6743119
0.5490257 0.7134134 0.6742679
0.6078269 0.7207266 0.6744505
0.6464640 0.7206526 0.6744285
0.6811444 0.7278563 0.6824277
0.0369922 0.0295987 0.6555315
0.1417633 0.0358741 0.6646240
0.2670901 0.0419349 0.6655481
0.3885313 0.0472658 0.6662676
0.4940972 0.0554185 0.6672700
0.5646058 0.0624213 0.6680290
0.6243856 0.0675636 0.6764082
0.6688914 0.0760669 0.6771742
0.0478639 0.1004336 0.6716712
0.1529685 0.1120757 0.6722639
0.2772212 0.1250390 0.6729353
0.3907333 0.1391479 0.6736303
0.4960520 0.1543124 0.6821318
0.5769454 0.1651766 0.6825827
0.6243974 0.1827296 0.6832975
0.6687806 0.1950982 0.6837608
0.0603499 0.2446969 0.6781625
0.1715786 0.2594062 0.6862404
0.2890130 0.2748102 0.6866252
0.4055446 0.2826361 0.6867938
0.5001684 0.2990060 0.6872190
0.5799912 0.3073032 0.6950560
0.6269972 0.3245825 0.6954996
0.6710711 0.3333725 0.6957089
0.0768892 0.3813125 0.6896930
0.1872665 0.3999841 0.6900247
0.3125533 0.4093142 0.6977740
0.4226119 0.4188779 0.6979449
0.5166503 0.4285654 0.6981292
0.5841148 0.4383731 0.6983271
0.6312336 0.4482775 0.6985347
0.6677564 0.4580359 0.7062305
0.0946159 0.4996503 0.7000482
0.2053300 0.5091299 0.7001536
0.3286081 0.5187747 0.7002974
0.4413108 0.5185053 0.7002351
0.5240756 0.5282788 0.7078842
0.5894094 0.5381192 0.7080758
0.6363204 0.5479733 0.7082758
0.6721621 0.5575609 0.7084748
0.1085176 0.5875601 0.7020468
0.2253143 0.5870194 0.7093714
0.3459354 0.5960392 0.7095096
0.4497113 0.6050933 0.7096698
0.5321078 0.6049166 0.7096280
0.5952879 0.6140024 0.7098111
0.6419797 0.6230031 0.7173265
0.6773670 0.6229205 0.7173071
0.1290020 0.6510881 0.7109635
0.2467206 0.6589056 0.7110607
0.3641003 0.6586180 0.7109888
0.4689175 0.6665138 0.7184435
0.5506662 0.6663508 0.7184029
0.6014906 0.6743121 0.7185760
0.6477518 0.6821832 0.7187501
0.6825746 0.6821076 0.7187309
0.1479944 0.6989411 0.7194440
0.2617402 0.7062305 0.7195502
0.3830910 0.7059654 0.7194796
0.4775884 0.7133209 0.7196298
0.5593017 0.7131715 0.7195892
0.6079662 0.7204701 0.7269394
0.6537088 0.7203821 0.7269155
0.6880162 0.7276261 0.7270919
0.0474017 0.0388333 0.7109832
0.1568219 0.0436673 0.7115365
0.2829760 0.0511968 0.7124200
0.3975866 0.0576487 0.7130894
0.5032101 0.0649282 0.7137747
0.5735978 0.0731013 0.7213991
0.6310775 0.0790735 0.7218558
0.6678774 0.0889124 0.7225640
0.0575972 0.1041391 0.7170714
0.1639114 0.1161892 0.7176338
0.2857483 0.1295769 0.7182581
0.4010241 0.1439402 0.7257461
0.5064137 0.1541670 0.7261487
0.5767747 0.1707421 0.7267956
0.6322660 0.1825650 0.7272213
0.6688897 0.1949357 0.7276509
0.0725709 0.2519335 0.7298305
0.1836006 0.2669590 0.7301355
0.3070791 0.2745644 0.7302694
0.4159595 0.2906017 0.7306479
0.5105318 0.2987683 0.7308201
0.5798286 0.3156985 0.7378903
0.6348436 0.3243391 0.7380776
0.6709231 0.3421472 0.7384875
0.0889230 0.3905491 0.7332888
0.2005343 0.3996845 0.7333858
0.3219739 0.4090379 0.7401553
0.4334390 0.4185995 0.7403119
0.5270054 0.4282866 0.7404808
0.5922565 0.4380972 0.7406627
0.6390440 0.4480000 0.7408526
0.6747532 0.4578027 0.7410433
0.1056045 0.4993148 0.7422225
0.2195592 0.5088177 0.7423239
0.3382876 0.5184872 0.7424605
0.4519776 0.5282219 0.7426125
0.5343988 0.5280379 0.7425739
0.5975206 0.5378408 0.7492357
0.6440851 0.5476955 0.7494180
0.6791302 0.5572851 0.7495996
0.1209309 0.5872333 0.7440467
0.2403323 0.5961118 0.7441444
0.3558951 0.5957626 0.7505394
0.4606988 0.6048187 0.7506856
0.5421638 0.6138681 0.7508442
0.6033638 0.6137356 0.7508159
0.6495234 0.6227814 0.7509894
0.6840400 0.6317286 0.7575112
0.1386220 0.6508039 0.7518572
0.2629766 0.6586243 0.7519457
0.3743545 0.6583588 0.7518857
0.4792102 0.6662993 0.7520198
0.5507847 0.6661183 0.7583165
0.6095258 0.6740659 0.7584700
0.6478617 0.6819561 0.7586319
0.6826793 0.6818805 0.7586145
0.1587883 0.6987158 0.7529377
0.2787250 0.7059723 0.7593473
0.3935634 0.7057272 0.7592885
0.4879225 0.7130878 0.7594253
0.5682138 0.7129405 0.7593893
0.6159374 0.7202803 0.7595471
0.6537992 0.7202072 0.7595290
0.6881188 0.7274195 0.7658876
