Plugins/FilmEmulator/Content/LUTs/FE_Fuji_Pro_160S_64.cube
TITLE "FE_Fuji_Pro_160S_33"
LUT_3D_SIZE 64
0.0012194 0.0018939 0.0023375
0.0023121 0.0018922 0.0023257
0.0056606 0.0019062 0.0023246
0.0102476 0.0019903 0.0023500
0.0163201 0.0020761 0.0024589
0.0233961 0.0021659 0.0026284
0.0310352 0.0022675 0.0027721
0.0395250 0.0023995 0.0029412
0.0483046 0.0026488 0.0031036
0.0589467 0.0028800 0.0032992
0.0690569 0.0032434 0.0035132
0.0807966 0.0035168 0.0037371
0.0944642 0.0039178 0.0039863
0.1061625 0.0042719 0.0042705
0.1191395 0.0046710 0.0045752
0.1335319 0.0051072 0.0049210
0.1440095 0.0055918 0.0053356
0.1610995 0.0059611 0.0056312
0.1733807 0.0063537 0.0061008
0.1864066 0.0067727 0.0064509
0.2002518 0.0072191 0.0068466
0.2149058 0.0076974 0.0072664
0.2303445 0.0082220 0.0077123
0.2465662 0.0087832 0.0079522
0.2635705 0.0093812 0.0084399
0.2723646 0.0096939 0.0089670
0.2905125 0.0103546 0.0092593
0.2998103 0.0110632 0.0098559
0.3190913 0.0114382 0.0101678
0.3289638 0.0118241 0.0108127
0.3491723 0.0126398 0.0111649
0.3595043 0.0130674 0.0115183
0.3699826 0.0135075 0.0122677
0.3804885 0.0144377 0.0126877
0.4020153 0.0149255 0.0131093
0.4129087 0.0154435 0.0135457
0.4238955 0.0159866 0.0139966
0.4349729 0.0165463 0.0149298
0.4461186 0.0171276 0.0154263
0.4573274 0.0177291 0.0159390
0.4685883 0.0183514 0.0164686
0.4798902 0.0189952 0.0170267
0.4911864 0.0196611 0.0176092
0.5024307 0.0203500 0.0182113
0.5136744 0.0210657 0.0182279
0.5249180 0.0218103 0.0188510
0.5361428 0.0225960 0.0194955
0.5473391 0.0234096 0.0201617
0.5584958 0.0242518 0.0208503
0.5584276 0.0251242 0.0215631
0.5696069 0.0251202 0.0222768
0.5806442 0.0260264 0.0222975
0.5916144 0.0269607 0.0230577
0.6025011 0.0279278 0.0238453
0.6025069 0.0279238 0.0246406
0.6132525 0.0289287 0.0246635
0.6239011 0.0299647 0.0255091
0.6238363 0.0310375 0.0263846
0.6344433 0.0310322 0.0272614
0.6448526 0.0321631 0.0272869
0.6447881 0.0333303 0.0282224
0.6551434 0.0333244 0.0291588
0.6652857 0.0345364 0.0291861
0.6652229 0.0357873 0.0301851
0.0013637 0.0049953 0.0023909
0.0029521 0.0054576 0.0024061
0.0064982 0.0058080 0.0024682
0.0113782 0.0063888 0.0026114
0.0175124 0.0068064 0.0027960
0.0241266 0.0072532 0.0029283
0.0333370 0.0077316 0.0031011
0.0407707 0.0082576 0.0032694
0.0518624 0.0088183 0.0035063
0.0608250 0.0091113 0.0037248
0.0712638 0.0097314 0.0039113
0.0833605 0.0103915 0.0042816
0.0975394 0.0107363 0.0045797
0.1095934 0.0114759 0.0049034
0.1229861 0.0118630 0.0051708
0.1327251 0.0122619 0.0055974
0.1486817 0.0131064 0.0059080
0.1602127 0.0135468 0.0063952
0.1788989 0.0140029 0.0067751
0.1923041 0.0144744 0.0071845
0.2065093 0.0154836 0.0076257
0.2215420 0.0160284 0.0078562
0.2373706 0.0165901 0.0083308
0.2455584 0.0171714 0.0088386
0.2625613 0.0177747 0.0091189
0.2803427 0.0183964 0.0096977
0.2894928 0.0190399 0.0103134
0.3083827 0.0197077 0.0106401
0.3180626 0.0203989 0.0109775
0.3379844 0.0211108 0.0116732
0.3481504 0.0218578 0.0120432
0.3584637 0.0226459 0.0124449
0.3795362 0.0234614 0.0128594
0.3902731 0.0234544 0.0137045
0.4010490 0.0242989 0.0141610
0.4119304 0.0251732 0.0146326
0.4229073 0.0260782 0.0151198
0.4339695 0.0270150 0.0156229
0.4451805 0.0270107 0.0161267
0.4563823 0.0279802 0.0166629
0.4676374 0.0289836 0.0172280
0.4789340 0.0300220 0.0178178
0.4903010 0.0300169 0.0184094
0.5015422 0.0310914 0.0190390
0.5127887 0.0322203 0.0196902
0.5241063 0.0322149 0.0203430
0.5353317 0.0333834 0.0210379
0.5465235 0.0345980 0.0210578
0.5577574 0.0345920 0.0217552
0.5688654 0.0358441 0.0224975
0.5687964 0.0371414 0.0232659
0.5799178 0.0371349 0.0240370
0.5908862 0.0384815 0.0240597
0.6018509 0.0384747 0.0248607
0.6017837 0.0398639 0.0257148
0.6125344 0.0413061 0.0257389
0.6232612 0.0412987 0.0265947
0.6338036 0.0427847 0.0275056
0.6338094 0.0427785 0.0284202
0.6442263 0.0443221 0.0284469
0.6545888 0.0443140 0.0293905
0.6545249 0.0459075 0.0303964
0.6646758 0.0475615 0.0304248
0.6747548 0.0475527 0.0314324
0.0015047 0.0123777 0.0025695
0.0036568 0.0127798 0.0026663
0.0074742 0.0136478 0.0027697
0.0127185 0.0140978 0.0029190
0.0188670 0.0145659 0.0030627
0.0260072 0.0150503 0.0032586
0.0345265 0.0155670 0.0034076
0.0439604 0.0166773 0.0036777
0.0537053 0.0172592 0.0038489
0.0629830 0.0178596 0.0041589
0.0737855 0.0184815 0.0044487
0.0862944 0.0191248 0.0047587
0.0971121 0.0197908 0.0051107
0.1091448 0.0204789 0.0055323
0.1224882 0.0211931 0.0058341
0.1373389 0.0219392 0.0061524
0.1538351 0.0219289 0.0066656
0.1656910 0.0227164 0.0070688
0.1782859 0.0235316 0.0074964
0.1916488 0.0243785 0.0077232
0.2058595 0.0252522 0.0081900
0.2208592 0.0261565 0.0086849
0.2367045 0.0261479 0.0092185
0.2532838 0.0270869 0.0095110
0.2618441 0.0280560 0.0101152
0.2795880 0.0290618 0.0104360
0.2981507 0.0290523 0.0110870
0.3076420 0.0300939 0.0114388
0.3272003 0.0311708 0.0118011
0.3372009 0.0322989 0.0125698
0.3474211 0.0322934 0.0129761
0.3682316 0.0334643 0.0134083
0.3787756 0.0346775 0.0138553
0.3894982 0.0346716 0.0143027
0.4002651 0.0359272 0.0147792
0.4112112 0.0359211 0.0152561
0.4221866 0.0372154 0.0162730
0.4444431 0.0385587 0.0168135
0.4557152 0.0385520 0.0173665
0.4669664 0.0399431 0.0179613
0.4783295 0.0399417 0.0179604
0.4896191 0.0413812 0.0185752
0.5008583 0.0428706 0.0192107
0.5121808 0.0428630 0.0198478
0.5121109 0.0444054 0.0205272
0.5234293 0.0443974 0.0212073
0.5346559 0.0459925 0.0219313
0.5459310 0.0459843 0.0226571
0.5570861 0.0476414 0.0226785
0.5682722 0.0476328 0.0234285
0.5793223 0.0493399 0.0242289
0.5793282 0.0493329 0.0250368
0.5903006 0.0511053 0.0250604
0.6012702 0.0510960 0.0258941
0.6120313 0.0529213 0.0267815
0.6120373 0.0529138 0.0276727
0.6226913 0.0548087 0.0276987
0.6333109 0.0547985 0.0286181
0.6332454 0.0567520 0.0295982
0.6437392 0.0567494 0.0295966
0.6540386 0.0587662 0.0306077
0.6540386 0.0587662 0.0306077
0.6642014 0.0608507 0.0316525
0.6742876 0.0608394 0.0326996
0.0017732 0.0213858 0.0029392
0.0044873 0.0221135 0.0030048
0.0086525 0.0228897 0.0031048
0.0142448 0.0236986 0.0032027
0.0203622 0.0245386 0.0033728
0.0280946 0.0254090 0.0035602
0.0372869 0.0253921 0.0037779
0.0456076 0.0262959 0.0040230
0.0557004 0.0272307 0.0043033
0.0653179 0.0281970 0.0047066
0.0765126 0.0281828 0.0050295
0.0895035 0.0291868 0.0053039
0.1006845 0.0302239 0.0057416
0.1131085 0.0313005 0.0060549
0.1269067 0.0312888 0.0063789
0.1422786 0.0324152 0.0069372
0.1533885 0.0335864 0.0073569
0.1652534 0.0335791 0.0075720
0.1844066 0.0347896 0.0080295
0.1981720 0.0360440 0.0085149
0.2127987 0.0360318 0.0090248
0.2281656 0.0373341 0.0093114
0.2361254 0.0386785 0.0099032
0.2527321 0.0386702 0.0102071
0.2700679 0.0400594 0.0108549
0.2790574 0.0400524 0.0111883
0.2975356 0.0414895 0.0118978
0.3070784 0.0414824 0.0122630
0.3266161 0.0429743 0.0126716
0.3366024 0.0445196 0.0130943
0.3571759 0.0445036 0.0139541
0.3676124 0.0461031 0.0144191
0.3782196 0.0460949 0.0148845
0.3888641 0.0477499 0.0153802
0.4106319 0.0477395 0.0158755
0.4215967 0.0494509 0.0164038
0.4327225 0.0494422 0.0169324
0.4438508 0.0512117 0.0175068
0.4551198 0.0512024 0.0180882
0.4663684 0.0530320 0.0187074
0.4777355 0.0530223 0.0193281
0.4890236 0.0549137 0.0199890
0.5003381 0.0549036 0.0206515
0.5115783 0.0568667 0.0206711
0.5228972 0.0568563 0.0213559
0.5341247 0.0588773 0.0220849
0.5341308 0.0588690 0.0228168
0.5454077 0.0588582 0.0235713
0.5565645 0.0609549 0.0235935
0.5677535 0.0609436 0.0243753
0.5788065 0.0631015 0.0252117
0.5898625 0.0630898 0.0260503
0.5897886 0.0653248 0.0260761
0.6007623 0.0653127 0.0269429
0.6116008 0.0653005 0.0278378
0.6222656 0.0675830 0.0287900
0.6222656 0.0675830 0.0287900
0.6328192 0.0699401 0.0297741
0.6433238 0.0699271 0.0307606
0.6433238 0.0699271 0.0307606
0.6536291 0.0723606 0.0318102
0.6638607 0.0723571 0.0318085
0.6637982 0.0748729 0.0328947
0.6738901 0.0748588 0.0339817
0.0022042 0.0327187 0.0032738
0.0053359 0.0338632 0.0033751
0.0100250 0.0338262 0.0034882
0.0153563 0.0350328 0.0035954
0.0220017 0.0350096 0.0037026
0.0303846 0.0362582 0.0039327
0.0387085 0.0375517 0.0042490
0.0473500 0.0375301 0.0045404
0.0578132 0.0388716 0.0048567
0.0677827 0.0402612 0.0052158
0.0793686 0.0402432 0.0054947
0.0928650 0.0416788 0.0059479
0.1044492 0.0416626 0.0062662
0.1172839 0.0431543 0.0066080
0.1315631 0.0431370 0.0069940
0.1419604 0.0446807 0.0074172
0.1589176 0.0446628 0.0078575
0.1710929 0.0462605 0.0083325
0.1840156 0.0479138 0.0088361
0.1978019 0.0479031 0.0090986
0.2123585 0.0496119 0.0096766
0.2277583 0.0495942 0.0102806
0.2438960 0.0513674 0.0106067
0.2608759 0.0513559 0.0109321
0.2696056 0.0531848 0.0116260
0.2877488 0.0531729 0.0119824
0.2970397 0.0550705 0.0123625
0.3162832 0.0550504 0.0131747
0.3261641 0.0550404 0.0136004
0.3463418 0.0569982 0.0140531
0.3566974 0.0569879 0.0145068
0.3671275 0.0590139 0.0149901
0.3777287 0.0590032 0.0154737
0.3991894 0.0610942 0.0159880
0.4101253 0.0610832 0.0165034
0.4210858 0.0632466 0.0170523
0.4322080 0.0632350 0.0176131
0.4434080 0.0632233 0.0181980
0.4545994 0.0654511 0.0188208
0.4659212 0.0654391 0.0194452
0.4772118 0.0677266 0.0201099
0.4885748 0.0677142 0.0207764
0.4998888 0.0677017 0.0214646
0.5111355 0.0700633 0.0221971
0.5224485 0.0700601 0.0221959
0.5336776 0.0724984 0.0229529
0.5449558 0.0724851 0.0237118
0.5449619 0.0724750 0.0244987
0.5561273 0.0749915 0.0253391
0.5673120 0.0749880 0.0253378
0.5783686 0.0775854 0.0262063
0.5894276 0.0775710 0.0270773
0.5894276 0.0775710 0.0270773
0.6003313 0.0802511 0.0280041
0.6111737 0.0802362 0.0289335
0.6219082 0.0802324 0.0289319
0.6218425 0.0830013 0.0299223
0.6324716 0.0829859 0.0309136
0.6429746 0.0829818 0.0309119
0.6429103 0.0858379 0.0319683
0.6532899 0.0858220 0.0330256
0.6635262 0.0858177 0.0330238
0.6634637 0.0887635 0.0341503
0.6735553 0.0887590 0.0341485
0.0028147 0.0450736 0.0036846
0.0063956 0.0450097 0.0038487
0.0112043 0.0465913 0.0039662
0.0172541 0.0465551 0.0040938
0.0237776 0.0482039 0.0042821
0.0315710 0.0481793 0.0043765
0.0402174 0.0498843 0.0046811
0.0511908 0.0498526 0.0050017
0.0600425 0.0516186 0.0053929
0.0703916 0.0515896 0.0058317
0.0823674 0.0534195 0.0061497
0.0926971 0.0533986 0.0064787
0.1083676 0.0552891 0.0068445
0.1216579 0.0552664 0.0072510
0.1313012 0.0572252 0.0076896
0.1471811 0.0572019 0.0081459
0.1586102 0.0592257 0.0086383
0.1771849 0.0592017 0.0091551
0.1904820 0.0612996 0.0094457
0.2046743 0.0612775 0.0100355
0.2196563 0.0612633 0.0103434
0.2353858 0.0634221 0.0109998
0.2435743 0.0634107 0.0113376
0.2604816 0.0656426 0.0116969
0.2782291 0.0656193 0.0124259
0.2873294 0.0679134 0.0128404
0.3061965 0.0678976 0.0132548
0.3158996 0.0678852 0.0136830
0.3357471 0.0702406 0.0145955
0.3459450 0.0702277 0.0150666
0.3562266 0.0726723 0.0155681
0.3667203 0.0726590 0.0160702
0.3880166 0.0726424 0.0165874
0.3987686 0.0751651 0.0171389
0.4097007 0.0751512 0.0177025
0.4207315 0.0751373 0.0182904
0.4317775 0.0777401 0.0189162
0.4429746 0.0777257 0.0195437
0.4541641 0.0804114 0.0202117
0.4654840 0.0803965 0.0208815
0.4768420 0.0803927 0.0208805
0.4881290 0.0831632 0.0215934
0.4994423 0.0831478 0.0223082
0.5107645 0.0831325 0.0230462
0.5220084 0.0859899 0.0238316
0.5333075 0.0859857 0.0238304
0.5445867 0.0859698 0.0246198
0.5557535 0.0889164 0.0254643
0.5669464 0.0888999 0.0263112
0.5669464 0.0888999 0.0263112
0.5780049 0.0919380 0.0272124
0.5890664 0.0919210 0.0281160
0.6000400 0.0919165 0.0281145
0.5999724 0.0950745 0.0290778
0.6108181 0.0950568 0.0300419
0.6215560 0.0950522 0.0300402
0.6321171 0.0983029 0.0310661
0.6321229 0.0982894 0.0320961
0.6426299 0.0982846 0.0320944
0.6530130 0.0982664 0.0331558
0.6529493 0.1016212 0.0342869
0.6631901 0.1016162 0.0342850
0.6732911 0.1015972 0.0354185
0.6732236 0.1050684 0.0354534
0.0034946 0.0576773 0.0042211
0.0073888 0.0596670 0.0043155
0.0125771 0.0596091 0.0045079
0.0186630 0.0595633 0.0047099
0.0257266 0.0616477 0.0049264
0.0341651 0.0616164 0.0050349
0.0435141 0.0637749 0.0052879
0.0531790 0.0637423 0.0055704
0.0623702 0.0659638 0.0060297
0.0730928 0.0659341 0.0063519
0.0855148 0.0659046 0.0066913
0.0962418 0.0681934 0.0070892
0.1082037 0.0681652 0.0075101
0.1214451 0.0705274 0.0079638
0.1362209 0.0704985 0.0084363
0.1469675 0.0704736 0.0089371
0.1643765 0.0729192 0.0092113
0.1769336 0.0728927 0.0097865
0.1902162 0.0754203 0.0100969
0.2043932 0.0753931 0.0107270
0.2193599 0.0753755 0.0110560
0.2350746 0.0779732 0.0117571
0.2516299 0.0779552 0.0121174
0.2602050 0.0779413 0.0124892
0.2778812 0.0806197 0.0133229
0.2963698 0.0806007 0.0137526
0.3058906 0.0805859 0.0141968
0.3155240 0.0833633 0.0146697
0.3354202 0.0833438 0.0151424
0.3455455 0.0862087 0.0156465
0.3663734 0.0861886 0.0161502
0.3769651 0.0861730 0.0166708
0.3875959 0.0891268 0.0172250
0.3984154 0.0891104 0.0177914
0.4093442 0.0890938 0.0183822
0.4202989 0.0921386 0.0190111
0.4426038 0.0921170 0.0196408
0.4538659 0.0921000 0.0202920
0.4651091 0.0952596 0.0209853
0.4764720 0.0952420 0.0216803
0.4878333 0.0952245 0.0223979
0.4991401 0.0952198 0.0223967
0.5103862 0.0984763 0.0231606
0.5103922 0.0984630 0.0239275
0.5217121 0.0984449 0.0247201
0.5329421 0.1018006 0.0255681
0.5442161 0.1017956 0.0255668
0.5554593 0.1017768 0.0264170
0.5665784 0.1052344 0.0273219
0.5777070 0.1052292 0.0273205
0.5777131 0.1052150 0.0282292
0.5887768 0.1051956 0.0291658
0.5996792 0.1087716 0.0291931
0.6105272 0.1087516 0.0301609
0.6105333 0.1087369 0.0311617
0.6212021 0.1124199 0.0311908
0.6318381 0.1123991 0.0322231
0.6318437 0.1123841 0.0332905
0.6423542 0.1123785 0.0332886
0.6526712 0.1161551 0.0344223
0.6526712 0.1161551 0.0344223
0.6629216 0.1161336 0.0355602
0.6729590 0.1200213 0.0367708
0.6729590 0.1200213 0.0367708
0.0044465 0.0710167 0.0048501
0.0085742 0.0734242 0.0049591
0.0141205 0.0733572 0.0051804
0.0201907 0.0733110 0.0053150
0.0278594 0.0758183 0.0056034
0.0355156 0.0757833 0.0057499
0.0452300 0.0783782 0.0060626
0.0552567 0.0783469 0.0062215
0.0648179 0.0783118 0.0065539
0.0759120 0.0809957 0.0069239
0.0888330 0.0809578 0.0073346
0.0999629 0.0809245 0.0077699
0.1123078 0.0836944 0.0082393
0.1260211 0.0836603 0.0087280
0.1413323 0.0836362 0.0089824
0.1523805 0.0864957 0.0095436
0.1641842 0.0864644 0.0101394
0.1832795 0.0864394 0.0104499
0.1969801 0.0893863 0.0111129
0.2115367 0.0893655 0.0114536
0.2268889 0.0893447 0.0118047
0.2348169 0.0923870 0.0125534
0.2513600 0.0923651 0.0129586
0.2686877 0.0923433 0.0133767
0.2775880 0.0955112 0.0138227
0.2960695 0.0954762 0.0147298
0.3055845 0.0954588 0.0152051
0.3250693 0.0987182 0.0157106
0.3350975 0.0987003 0.0162172
0.3556204 0.0986774 0.0167391
0.3660361 0.1020411 0.0172957
0.3766238 0.1020223 0.0178643
0.3873217 0.1020035 0.0184575
0.3981384 0.1019847 0.0190701
0.4200104 0.1054439 0.0197213
0.4311244 0.1054245 0.0203751
0.4423114 0.1054192 0.0203741
0.4534967 0.1089879 0.0210702
0.4648137 0.1089679 0.0217679
0.4761756 0.1089478 0.0224884
0.4874603 0.1126227 0.0232554
0.4987728 0.1126021 0.0240241
0.5100886 0.1125965 0.0240228
0.5214085 0.1125759 0.0248185
0.5326389 0.1163588 0.0256699
0.5326451 0.1163432 0.0265248
0.5439201 0.1163375 0.0265234
0.5551640 0.1163161 0.0274047
0.5662848 0.1202096 0.0283427
0.5774152 0.1202036 0.0283412
0.5884810 0.1201815 0.0292815
0.5884868 0.1201656 0.0302538
0.5993916 0.1241882 0.0302821
0.6102423 0.1241655 0.0312851
0.6209918 0.1241429 0.0323205
0.6209196 0.1282878 0.0323524
0.6315588 0.1282644 0.0334221
0.6420780 0.1282410 0.0345261
0.6420780 0.1282410 0.0345261
0.6523988 0.1324915 0.0357026
0.6626472 0.1324848 0.0357006
0.6626528 0.1324674 0.0368816
0.6727560 0.1324607 0.0368796
0.6826461 0.1368372 0.0381338
0.0052965 0.0871169 0.0054940
0.0095846 0.0870236 0.0057840
0.0152483 0.0869560 0.0059332
0.0218417 0.0898957 0.0060933
0.0301735 0.0898346 0.0064173
0.0384508 0.0897936 0.0065850
0.0470229 0.0928417 0.0067642
0.0574318 0.0928044 0.0069543
0.0673560 0.0927721 0.0071568
0.0788532 0.0959271 0.0075889
0.0922929 0.0958825 0.0080389
0.1038133 0.0958435 0.0085158
0.1165793 0.0990986 0.0090299
0.1307818 0.0990700 0.0092975
0.1411622 0.0990343 0.0098781
0.1580372 0.0990055 0.0101806
0.1701578 0.1023619 0.0108268
0.1830654 0.1023380 0.0111588
0.1967999 0.1023016 0.0118545
0.2112970 0.1057713 0.0122300
0.2266364 0.1057469 0.0126046
0.2427769 0.1057082 0.0134325
0.2596468 0.1092805 0.0138797
0.2684039 0.1092606 0.0143279
0.2864961 0.1092350 0.0147897
0.2958251 0.1092151 0.0152670
0.3149533 0.1128928 0.0157744
0.3248114 0.1128723 0.0162831
0.3450138 0.1128461 0.0168070
0.3552814 0.1166380 0.0173659
0.3657626 0.1166167 0.0179368
0.3763467 0.1165954 0.0185323
0.3978496 0.1165680 0.0191464
0.4086998 0.1204694 0.0198012
0.4197220 0.1204474 0.0204576
0.4308338 0.1204254 0.0211354
0.4420249 0.1204034 0.0218353
0.4532087 0.1244171 0.0225804
0.4645182 0.1244108 0.0225793
0.4758792 0.1243882 0.0233261
0.4872389 0.1243656 0.0240971
0.4984752 0.1284941 0.0249200
0.5097910 0.1284876 0.0249187
0.5211110 0.1284643 0.0257478
0.5324178 0.1284409 0.0266039
0.5436239 0.1326975 0.0275152
0.5436239 0.1326975 0.0275152
0.5548690 0.1326735 0.0284287
0.5660661 0.1326495 0.0293718
0.5771230 0.1370496 0.0293994
0.5881904 0.1370248 0.0303739
0.5881966 0.1370069 0.0313816
0.5991770 0.1370000 0.0313799
0.6099565 0.1415050 0.0324505
0.6207089 0.1414795 0.0335233
0.6207089 0.1414795 0.0335233
0.6313501 0.1414540 0.0346306
0.6417955 0.1461020 0.0346629
0.6418012 0.1460831 0.0358106
0.6521950 0.1460568 0.0369931
0.6624463 0.1460494 0.0369910
0.6624516 0.1460305 0.0382133
0.6724900 0.1508052 0.0382489
0.6824510 0.1507779 0.0395092
0.0063557 0.0996611 0.0062850
0.0111347 0.1029818 0.0064526
0.0171475 0.1029076 0.0066193
0.0236383 0.1028380 0.0069842
0.0313786 0.1062940 0.0071935
0.0399842 0.1062450 0.0074020
0.0488974 0.1062021 0.0076170
0.0597134 0.1061594 0.0078382
0.0699880 0.1097340 0.0080744
0.0819212 0.1096964 0.0083094
0.0922001 0.1096522 0.0088022
0.1077937 0.1133312 0.0090673
0.1210222 0.1132850 0.0096236
0.1306556 0.1132446 0.0102244
0.1464667 0.1132118 0.0105375
0.1578498 0.1169947 0.0112060
0.1699972 0.1169675 0.0115495
0.1896427 0.1169341 0.0119029
0.2037386 0.1208265 0.0126572
0.2186697 0.1207980 0.0130657
0.2264362 0.1207760 0.0134879
0.2425624 0.1207476 0.0139229
0.2594220 0.1247655 0.0143862
0.2771232 0.1247205 0.0153298
0.2862614 0.1246980 0.0158243
0.3050866 0.1246690 0.0163337
0.3147049 0.1288071 0.0168770
0.3345733 0.1287774 0.0174198
0.3447532 0.1287540 0.0179925
0.3550859 0.1287305 0.0185899
0.3654947 0.1329959 0.0192260
0.3867613 0.1329650 0.0198626
0.3975720 0.1329409 0.0205211
0.4084868 0.1329341 0.0205200
0.4194333 0.1373250 0.0212211
0.4305431 0.1373003 0.0219238
0.4417320 0.1372755 0.0226493
0.4529893 0.1372508 0.0233984
0.4642282 0.1417633 0.0241959
0.4755819 0.1417561 0.0241946
0.4869411 0.1417306 0.0249959
0.4982528 0.1417051 0.0258276
0.5095747 0.1416795 0.0266863
0.5208125 0.1463343 0.0267115
0.5321195 0.1463081 0.0275989
0.5434021 0.1462818 0.0285152
0.5546421 0.1462745 0.0285136
0.5545729 0.1510443 0.0294904
0.5657712 0.1510173 0.0304678
0.5769045 0.1510097 0.0304662
0.5879737 0.1509827 0.0314752
0.5988880 0.1558731 0.0325489
0.5988880 0.1558731 0.0325489
0.6097433 0.1558453 0.0336249
0.6204919 0.1558374 0.0336230
0.6311355 0.1558096 0.0347335
0.6310695 0.1608376 0.0359189
0.6415891 0.1608294 0.0359170
0.6519857 0.1608009 0.0371028
0.6519857 0.1608009 0.0371028
0.6622451 0.1607723 0.0383265
0.6722866 0.1659445 0.0383622
0.6722921 0.1659235 0.0396283
0.6822560 0.1658940 0.0409325
0.0073491 0.1177270 0.0070245
0.0125097 0.1176255 0.0072250
0.0185634 0.1175468 0.0074327
0.0255970 0.1174801 0.0076472
0.0339856 0.1213553 0.0081072
0.0432987 0.1213000 0.0083420
0.0529172 0.1212517 0.0085841
0.0620624 0.1252859 0.0085908
0.0727344 0.1252434 0.0088407
0.0850990 0.1252011 0.0090977
0.0958022 0.1251653 0.0093673
0.1076872 0.1292886 0.0099617
0.1209019 0.1292516 0.0102668
0.1356209 0.1291989 0.0109067
0.1463249 0.1291691 0.0112411
0.1636737 0.1334180 0.0119533
0.1761841 0.1333874 0.0123195
0.1894674 0.1333570 0.0126968
0.2035980 0.1333257 0.0131065
0.2184745 0.1377037 0.0139812
0.2341926 0.1376716 0.0144319
0.2507050 0.1376397 0.0148970
0.2592590 0.1376150 0.0153776
0.2769481 0.1375832 0.0158728
0.2953360 0.1420985 0.0164002
0.3048372 0.1420732 0.0169288
0.3145156 0.1420480 0.0174741
0.3343776 0.1420151 0.0180477
0.3444862 0.1466607 0.0186655
0.3548152 0.1466343 0.0192849
0.3758625 0.1466004 0.0199235
0.3865517 0.1465740 0.0205839
0.3972878 0.1513451 0.0212871
0.4082056 0.1513180 0.0219920
0.4192177 0.1513104 0.0219908
0.4415073 0.1512756 0.0227174
0.4527632 0.1512487 0.0234686
0.4640011 0.1561467 0.0242685
0.4753602 0.1561189 0.0250722
0.4867127 0.1561111 0.0250709
0.4980241 0.1560833 0.0259050
0.4979541 0.1611189 0.0267943
0.5092756 0.1610903 0.0276844
0.5205899 0.1610823 0.0276829
0.5318977 0.1610537 0.0286019
0.5431808 0.1610252 0.0295506
0.5543461 0.1662045 0.0295785
0.5655456 0.1661752 0.0305588
0.5766862 0.1661458 0.0315707
0.5766862 0.1661458 0.0315707
0.5877568 0.1661164 0.0326152
0.5986727 0.1714076 0.0337268
0.6095240 0.1713990 0.0337249
0.6095296 0.1713775 0.0348406
0.6202806 0.1713689 0.0348387
0.6309265 0.1713387 0.0359900
0.6308550 0.1767951 0.0360256
0.6413827 0.1767640 0.0372149
0.6517816 0.1767332 0.0384423
0.6517816 0.1767332 0.0384423
0.6620440 0.1767021 0.0397087
0.6720885 0.1822782 0.0397456
0.6720940 0.1822554 0.0410558
0.6820557 0.1822462 0.0410535
0.0085329 0.1341916 0.0079161
0.0135138 0.1340911 0.0081427
0.0200943 0.1340024 0.0083766
0.0277346 0.1339273 0.0086181
0.0353576 0.1338670 0.0088676
0.0450296 0.1382483 0.0091336
0.0550141 0.1381939 0.0094031
0.0645348 0.1381467 0.0096905
0.0756029 0.1380995 0.0099868
0.0884487 0.1426311 0.0099947
0.0995333 0.1425905 0.0103007
0.1118579 0.1425499 0.0106161
0.1255209 0.1425095 0.0109410
0.1407471 0.1471368 0.0116344
0.1517919 0.1471033 0.0119909
0.1635549 0.1470699 0.0123582
0.1825950 0.1470104 0.0131483
0.1962986 0.1469762 0.0135724
0.2107678 0.1517507 0.0140242
0.2260791 0.1517158 0.0144763
0.2340361 0.1516890 0.0149436
0.2505452 0.1516353 0.0159232
0.2677768 0.1565363 0.0164523
0.2767174 0.1565089 0.0169825
0.2951581 0.1564732 0.0175286
0.3046561 0.1564454 0.0181049
0.3241735 0.1564094 0.0187050
0.3341202 0.1614459 0.0193450
0.3546135 0.1614090 0.0199855
0.3650800 0.1614007 0.0199845
0.3756555 0.1613720 0.0206469
0.3862706 0.1665400 0.0213523
0.3970762 0.1665106 0.0220592
0.4190021 0.1664728 0.0227880
0.4301084 0.1664434 0.0235416
0.4412887 0.1664350 0.0235403
0.4524682 0.1717349 0.0243426
0.4637804 0.1717048 0.0251487
0.4751385 0.1716746 0.0259853
0.4864905 0.1716660 0.0259839
0.4978016 0.1716358 0.0268477
0.5090469 0.1770691 0.0277672
0.5203677 0.1770382 0.0286889
0.5316694 0.1770294 0.0286874
0.5316755 0.1770072 0.0296405
0.5429593 0.1769763 0.0306228
0.5541254 0.1825597 0.0306516
0.5653262 0.1825279 0.0316665
0.5764679 0.1824961 0.0327141
0.5764679 0.1824961 0.0327141
0.5875403 0.1824644 0.0337954
0.5985256 0.1824554 0.0337936
0.6093109 0.1881363 0.0349439
0.6093171 0.1881128 0.0361007
0.6200697 0.1881036 0.0360987
0.6307180 0.1880710 0.0372904
0.6412416 0.1880616 0.0372883
0.6411769 0.1938888 0.0385580
0.6515726 0.1938792 0.0385558
0.6618381 0.1938457 0.0398259
0.6618381 0.1938457 0.0398259
0.6719588 0.1938122 0.0411363
0.6818611 0.1997674 0.0425299
0.6818611 0.1997674 0.0425299
0.0095434 0.1478569 0.0086579
0.0151832 0.1477468 0.0089056
0.0217550 0.1476578 0.0091617
0.0288521 0.1524107 0.0094405
0.0382892 0.1523340 0.0097273
0.0468398 0.1522741 0.0100240
0.0572103 0.1522143 0.0103297
0.0670802 0.1571147 0.0106560
0.0785535 0.1570621 0.0109815
0.0919431 0.1570278 0.0109790
0.1034223 0.1569836 0.0113150
0.1161739 0.1569396 0.0116611
0.1303000 0.1619746 0.0120298
0.1406451 0.1619381 0.0123983
0.1574686 0.1618930 0.0127773
0.1695921 0.1618557 0.0131895
0.1824690 0.1617988 0.0140555
0.1961183 0.1669697 0.0145232
0.2106268 0.1669316 0.0149911
0.2259307 0.1668937 0.0154740
0.2420313 0.1668557 0.0159722
0.2503812 0.1668266 0.0164871
0.2676052 0.1721285 0.0170347
0.2856635 0.1720898 0.0175825
0.2949758 0.1720596 0.0181605
0.3141369 0.1720203 0.0187623
0.3239811 0.1719900 0.0193849
0.3440889 0.1774236 0.0200468
0.3544119 0.1773925 0.0207112
0.3648812 0.1773614 0.0213973
