Plugins/FilmEmulator/Content/LUTs/FE_Fujifilm_Eterna_Vivid_160T_8543_64.cube
# FilmEmulator LUT (resampled to 64)
LUT_3D_SIZE 64
0.000793 0.000000 0.000000
0.009055 0.000852 0.000852
0.017325 0.001721 0.001728
0.025835 0.003085 0.003341
0.034340 0.004469 0.004904
0.042773 0.006143 0.005741
0.051259 0.007738 0.006577
0.060266 0.008576 0.007399
0.069247 0.009413 0.008221
0.078051 0.010250 0.009042
0.086950 0.011026 0.009791
0.096359 0.011476 0.010147
0.105748 0.011931 0.010434
0.115048 0.012412 0.010418
0.124430 0.012811 0.010484
0.134103 0.012919 0.010841
0.143795 0.012919 0.011193
0.153545 0.012594 0.011535
0.163304 0.012268 0.011776
0.173085 0.011943 0.011760
0.182852 0.011758 0.011851
0.192587 0.011882 0.012176
0.202385 0.011856 0.012640
0.212306 0.011547 0.013369
0.222191 0.011394 0.013946
0.232019 0.011502 0.014272
0.241897 0.011780 0.014742
0.251848 0.012307 0.015424
0.261874 0.012658 0.016276
0.271997 0.012782 0.017346
0.282191 0.013088 0.018255
0.292468 0.013599 0.018984
0.302753 0.013932 0.019674
0.313046 0.014087 0.020325
0.323463 0.014448 0.020976
0.333988 0.014991 0.021627
0.344444 0.015324 0.022269
0.354845 0.015495 0.022905
0.365319 0.015904 0.023531
0.375844 0.016478 0.024151
0.386301 0.016800 0.024762
0.396718 0.016970 0.025366
0.407125 0.017415 0.026215
0.417526 0.018004 0.027191
0.427938 0.018337 0.027869
0.438354 0.018555 0.028411
0.448749 0.018738 0.028987
0.459135 0.018908 0.029577
0.469451 0.019358 0.030189
0.479743 0.019901 0.030809
0.489855 0.020165 0.031381
0.499915 0.020351 0.031938
0.509672 0.020524 0.032535
0.519360 0.020694 0.033139
0.528695 0.021231 0.033692
0.537965 0.021836 0.034234
0.546868 0.022034 0.034831
0.555719 0.022173 0.035435
0.564205 0.022298 0.036082
0.572653 0.022422 0.036733
0.580752 0.022953 0.037283
0.588829 0.023512 0.037825
0.596754 0.023679 0.038007
0.604675 0.023834 0.038177
0.002359 0.006402 0.002046
0.010676 0.007656 0.003064
0.019000 0.008919 0.004095
0.027534 0.010464 0.005542
0.036062 0.012018 0.006951
0.044510 0.013700 0.007796
0.053008 0.015340 0.008620
0.061983 0.016570 0.009245
0.070967 0.017782 0.009887
0.080024 0.018864 0.010645
0.089171 0.019908 0.011316
0.098809 0.020751 0.011515
0.108442 0.021525 0.011711
0.118057 0.021997 0.011892
0.127751 0.022428 0.012077
0.137723 0.022710 0.012276
0.147675 0.022899 0.012503
0.157567 0.022809 0.012813
0.167516 0.022709 0.013089
0.177612 0.022580 0.013278
0.187671 0.022467 0.013505
0.197650 0.022386 0.013814
0.207652 0.022229 0.014268
0.217699 0.021927 0.014997
0.227749 0.021779 0.015645
0.237805 0.021887 0.016159
0.247886 0.022003 0.016745
0.258002 0.022128 0.017435
0.268156 0.022260 0.018191
0.278357 0.022400 0.019032
0.288652 0.022525 0.019821
0.299055 0.022636 0.020549
0.309458 0.022776 0.021227
0.319861 0.022947 0.021855
0.330388 0.023198 0.022608
0.341024 0.023520 0.023471
0.351607 0.023646 0.024198
0.362150 0.023620 0.024818
0.372734 0.023819 0.025443
0.383345 0.024172 0.026071
0.393894 0.024411 0.026698
0.404405 0.024581 0.027326
0.414906 0.024892 0.028059
0.425402 0.025276 0.028847
0.435876 0.025535 0.029460
0.446339 0.025736 0.029995
0.456781 0.025910 0.030586
0.467214 0.026072 0.031198
0.477560 0.026378 0.031811
0.487876 0.026732 0.032423
0.498004 0.026948 0.033024
0.508080 0.027126 0.033621
0.517860 0.027452 0.034211
0.527572 0.027811 0.034800
0.536911 0.028185 0.035370
0.546181 0.028561 0.035936
0.555029 0.028744 0.036515
0.563817 0.028899 0.037096
0.572254 0.029212 0.037534
0.580654 0.029540 0.037956
0.588707 0.029899 0.038491
0.596736 0.030261 0.039034
0.604622 0.030597 0.039239
0.612503 0.030933 0.039433
0.003940 0.012816 0.004103
0.012302 0.014466 0.005282
0.020670 0.016119 0.006465
0.029221 0.017845 0.007745
0.037767 0.019570 0.008998
0.046239 0.021265 0.009850
0.054755 0.022953 0.010663
0.063702 0.024571 0.011097
0.072694 0.026153 0.011563
0.082004 0.027481 0.012256
0.091400 0.028794 0.012847
0.101262 0.030023 0.012892
0.111136 0.031111 0.012999
0.121065 0.031586 0.013372
0.131068 0.032057 0.013673
0.141336 0.032511 0.013718
0.151547 0.032887 0.013822
0.161587 0.033031 0.014103
0.171730 0.033152 0.014413
0.182137 0.033215 0.014800
0.192486 0.033173 0.015158
0.202709 0.032899 0.015454
0.212915 0.032619 0.015898
0.223092 0.032325 0.016626
0.233308 0.032181 0.017343
0.243589 0.032285 0.018039
0.253872 0.032240 0.018737
0.264156 0.031976 0.019436
0.274440 0.031891 0.020100
0.284723 0.032035 0.020721
0.295121 0.031981 0.021395
0.305650 0.031703 0.022128
0.316171 0.031651 0.022798
0.326686 0.031825 0.023403
0.337324 0.031962 0.024251
0.348070 0.032065 0.025314
0.358781 0.031985 0.026120
0.369465 0.031763 0.026725
0.380157 0.031752 0.027348
0.390854 0.031886 0.027983
0.401494 0.032043 0.028628
0.412101 0.032213 0.029279
0.422696 0.032389 0.029899
0.433285 0.032569 0.030503
0.443821 0.032752 0.031055
0.454334 0.032938 0.031584
0.464823 0.033102 0.032189
0.475303 0.033258 0.032824
0.485678 0.033424 0.033436
0.496018 0.033594 0.034041
0.506164 0.033764 0.034669
0.516255 0.033935 0.035305
0.526056 0.034402 0.035889
0.535790 0.034939 0.036462
0.545132 0.035153 0.037048
0.554400 0.035308 0.037637
0.563195 0.035476 0.038194
0.571921 0.035647 0.038746
0.580310 0.036140 0.038986
0.588665 0.036667 0.039193
0.596670 0.036859 0.039710
0.604651 0.037028 0.040246
0.612497 0.037529 0.040478
0.620338 0.038040 0.040700
0.006002 0.019605 0.006490
0.014096 0.021484 0.007701
0.022199 0.023364 0.008907
0.030569 0.025279 0.009983
0.038960 0.027192 0.011044
0.047676 0.029068 0.011888
0.056423 0.030939 0.012693
0.065481 0.032754 0.013119
0.074607 0.034549 0.013558
0.084207 0.036208 0.014085
0.093864 0.037823 0.014533
0.103820 0.039202 0.014555
0.113821 0.040474 0.014644
0.124018 0.041280 0.015024
0.134273 0.042038 0.015326
0.144738 0.042626 0.015348
0.155181 0.043140 0.015443
0.165559 0.043433 0.015754
0.175999 0.043668 0.016081
0.186595 0.043755 0.016444
0.197150 0.043786 0.016800
0.207617 0.043693 0.017144
0.218065 0.043543 0.017611
0.228478 0.043281 0.018315
0.238897 0.043100 0.019008
0.249329 0.043054 0.019681
0.259793 0.042920 0.020383
0.270305 0.042656 0.021130
0.280804 0.042416 0.021832
0.291284 0.042206 0.022476
0.301835 0.041978 0.023236
0.312466 0.041732 0.024127
0.323125 0.041507 0.024883
0.333813 0.041303 0.025504
0.344595 0.041175 0.026251
0.355459 0.041113 0.027109
0.366284 0.040859 0.027829
0.377077 0.040455 0.028442
0.387842 0.040272 0.029064
0.398587 0.040241 0.029691
0.409329 0.040326 0.030333
0.420069 0.040480 0.030984
0.430746 0.040522 0.031588
0.441390 0.040505 0.032169
0.452003 0.040611 0.032763
0.462602 0.040772 0.033363
0.473144 0.040941 0.033971
0.483664 0.041113 0.034582
0.494078 0.041277 0.035182
0.504457 0.041439 0.035779
0.514612 0.041602 0.036399
0.524703 0.041764 0.037027
0.534491 0.042070 0.037590
0.544210 0.042410 0.038140
0.553522 0.042594 0.038709
0.562759 0.042749 0.039282
0.571543 0.042903 0.039685
0.580262 0.043057 0.040064
0.588622 0.043535 0.040459
0.596944 0.044046 0.040856
0.604903 0.044222 0.041214
0.612837 0.044377 0.041570
0.620613 0.044869 0.041956
0.628383 0.045372 0.042344
0.008034 0.026397 0.008903
0.015877 0.028511 0.010131
0.023731 0.030624 0.011349
0.031934 0.032720 0.012233
0.040183 0.034813 0.013114
0.049123 0.036884 0.013949
0.058084 0.038949 0.014744
0.067258 0.040957 0.015149
0.076520 0.042960 0.015551
0.086399 0.044935 0.015923
0.096306 0.046840 0.016238
0.106363 0.048377 0.016239
0.116496 0.049838 0.016310
0.126962 0.050973 0.016686
0.137471 0.052018 0.016979
0.148137 0.052744 0.016978
0.158815 0.053401 0.017063
0.169526 0.053850 0.017406
0.180260 0.054207 0.017748
0.191051 0.054330 0.018090
0.201817 0.054443 0.018449
0.212525 0.054530 0.018848
0.223213 0.054507 0.019345
0.233862 0.054277 0.020029
0.244488 0.054063 0.020701
0.255074 0.053878 0.021353
0.265721 0.053659 0.022061
0.276457 0.053391 0.022849
0.287168 0.053001 0.023585
0.297847 0.052454 0.024251
0.308553 0.052056 0.025087
0.319292 0.051825 0.026114
0.330092 0.051428 0.026946
0.340952 0.050867 0.027584
0.351877 0.050480 0.028236
0.362859 0.050248 0.028902
0.373798 0.049827 0.029549
0.384704 0.049258 0.030181
0.395545 0.048907 0.030806
0.406343 0.048705 0.031427
0.417186 0.048711 0.032059
0.428057 0.048841 0.032697
0.438817 0.048755 0.033284
0.449519 0.048556 0.033845
0.460208 0.048583 0.034477
0.470891 0.048714 0.035142
0.481485 0.048877 0.035761
0.492045 0.049053 0.036362
0.502498 0.049206 0.036953
0.512916 0.049351 0.037541
0.523079 0.049504 0.038152
0.533171 0.049659 0.038768
0.542948 0.049814 0.039305
0.552651 0.049968 0.039823
0.561935 0.050123 0.040374
0.571142 0.050279 0.040931
0.579913 0.050420 0.041199
0.588621 0.050559 0.041425
0.596950 0.051011 0.041956
0.605240 0.051495 0.042518
0.613152 0.051665 0.042727
0.621040 0.051815 0.042912
0.628746 0.052297 0.043444
0.636447 0.052789 0.043988
0.009614 0.033234 0.011709
0.017458 0.035686 0.012748
0.025314 0.038128 0.013783
0.033564 0.040263 0.014675
0.041853 0.042418 0.015562
0.050713 0.044883 0.016365
0.059622 0.047317 0.017112
0.069001 0.049459 0.017304
0.078453 0.051590 0.017521
0.088419 0.053651 0.017910
0.098428 0.055672 0.018239
0.108674 0.057484 0.018248
0.119014 0.059225 0.018291
0.129763 0.060659 0.018486
0.140554 0.061985 0.018635
0.151496 0.062924 0.018618
0.162443 0.063799 0.018695
0.173406 0.064484 0.019053
0.184403 0.065078 0.019411
0.195486 0.065437 0.019768
0.206516 0.065758 0.020195
0.217429 0.065995 0.020775
0.228335 0.066082 0.021399
0.239228 0.065883 0.022106
0.250095 0.065695 0.022805
0.260918 0.065526 0.023489
0.271766 0.065284 0.024200
0.282651 0.064937 0.024948
0.293539 0.064475 0.025665
0.304430 0.063866 0.026340
0.315342 0.063330 0.027091
0.326278 0.062879 0.027929
0.337254 0.062341 0.028682
0.348272 0.061716 0.029352
0.359330 0.061174 0.030015
0.370422 0.060706 0.030673
0.381489 0.060226 0.031422
0.392536 0.059736 0.032243
0.403515 0.059262 0.032950
0.414446 0.058800 0.033579
0.425394 0.058620 0.034090
0.436352 0.058609 0.034532
0.447203 0.058495 0.035077
0.458000 0.058327 0.035678
0.468751 0.058267 0.036306
0.479481 0.058256 0.036947
0.490122 0.058266 0.037689
0.500729 0.058285 0.038471
0.511211 0.058280 0.039096
0.521653 0.058268 0.039668
0.531834 0.058386 0.040238
0.541942 0.058541 0.040808
0.551721 0.058690 0.041214
0.561425 0.058836 0.041582
0.570689 0.058990 0.042096
0.579871 0.059145 0.042638
0.588598 0.059286 0.043034
0.597260 0.059426 0.043410
0.605534 0.059699 0.043798
0.613768 0.059986 0.044188
0.621641 0.060292 0.044371
0.629489 0.060599 0.044540
0.637149 0.061040 0.045087
0.644802 0.061485 0.045647
0.011230 0.040108 0.014514
0.019074 0.042874 0.015383
0.026931 0.045623 0.016253
0.035212 0.047820 0.017150
0.043526 0.050056 0.018037
0.052321 0.052877 0.018794
0.061187 0.055649 0.019481
0.070743 0.057945 0.019481
0.080363 0.060225 0.019529
0.090429 0.062393 0.019912
0.100553 0.064547 0.020239
0.110995 0.066624 0.020255
0.121547 0.068636 0.020274
0.132573 0.070369 0.020304
0.143640 0.071978 0.020321
0.154849 0.073142 0.020291
0.166061 0.074245 0.020361
0.177284 0.075162 0.020733
0.188547 0.075988 0.021105
0.199910 0.076579 0.021478
0.211198 0.077107 0.021961
0.222324 0.077494 0.022686
0.233454 0.077698 0.023413
0.244592 0.077548 0.024142
0.255700 0.077398 0.024865
0.266756 0.077247 0.025577
0.277807 0.076989 0.026298
0.288848 0.076576 0.027029
0.299915 0.076056 0.027740
0.311016 0.075397 0.028423
0.322133 0.074741 0.029100
0.333268 0.074086 0.029772
0.344423 0.073416 0.030455
0.355598 0.072733 0.031150
0.366790 0.072044 0.031831
0.377996 0.071351 0.032499
0.389194 0.070803 0.033342
0.400385 0.070369 0.034320
0.411501 0.069784 0.035094
0.422564 0.069096 0.035728
0.433617 0.068738 0.036142
0.444663 0.068578 0.036422
0.455607 0.068420 0.036935
0.466497 0.068262 0.037570
0.477311 0.068120 0.038192
0.488090 0.067985 0.038808
0.498781 0.067850 0.039648
0.509438 0.067716 0.040577
0.519950 0.067561 0.041227
0.530414 0.067400 0.041785
0.540613 0.067475 0.042318
0.550737 0.067618 0.042845
0.560518 0.067749 0.043131
0.570219 0.067878 0.043360
0.579463 0.068027 0.043842
0.588623 0.068181 0.044370
0.597307 0.068322 0.044885
0.605922 0.068461 0.045397
0.614143 0.068573 0.045652
0.622323 0.068682 0.045881
0.630154 0.069095 0.046043
0.637961 0.069529 0.046201
0.645575 0.069930 0.046743
0.653183 0.070331 0.047298
0.013184 0.047346 0.017304
0.021027 0.050192 0.018189
0.028880 0.053026 0.019074
0.037035 0.055514 0.019938
0.045235 0.058023 0.020784
0.054093 0.060836 0.021353
0.063008 0.063634 0.021868
0.072477 0.066284 0.021868
0.082050 0.068914 0.021890
0.092344 0.071397 0.022069
0.102703 0.073842 0.022224
0.113413 0.076076 0.022248
0.124223 0.078272 0.022272
0.135470 0.080304 0.022294
0.146750 0.082223 0.022307
0.158148 0.083733 0.022285
0.169585 0.085144 0.022361
0.181139 0.086259 0.022733
0.192688 0.087279 0.023107
0.204224 0.088059 0.023488
0.215723 0.088769 0.023915
0.227140 0.089322 0.024444
0.238548 0.089712 0.025041
0.249938 0.089791 0.025770
0.261282 0.089798 0.026492
0.272552 0.089686 0.027205
0.283814 0.089475 0.028006
0.295068 0.089116 0.028934
0.306338 0.088665 0.029758
0.317627 0.088093 0.030449
0.328948 0.087464 0.031157
0.340303 0.086770 0.031884
0.351648 0.086073 0.032579
0.362981 0.085374 0.033242
0.374325 0.084615 0.034008
0.385681 0.083803 0.034866
0.397037 0.083111 0.035707
0.408394 0.082512 0.036535
0.419647 0.081915 0.037239
0.430828 0.081321 0.037858
0.441989 0.080866 0.038383
0.453138 0.080494 0.038853
0.464174 0.080134 0.039421
0.475150 0.079779 0.040039
0.486040 0.079608 0.040629
0.496891 0.079520 0.041206
0.507658 0.079319 0.041906
0.518394 0.079075 0.042653
0.528931 0.078839 0.043252
0.539403 0.078606 0.043802
0.549622 0.078562 0.044333
0.559770 0.078571 0.044860
0.569536 0.078581 0.045120
0.579214 0.078592 0.045318
0.588441 0.078710 0.045808
0.597584 0.078847 0.046353
0.606239 0.078986 0.046876
0.614823 0.079125 0.047396
0.622998 0.079245 0.047616
0.631131 0.079362 0.047806
0.638907 0.079613 0.047987
0.646659 0.079873 0.048168
0.654241 0.080247 0.048521
0.661818 0.080624 0.048879
0.015139 0.054618 0.020043
0.022978 0.057541 0.020962
0.030823 0.060460 0.021878
0.038853 0.063223 0.022693
0.046937 0.065990 0.023483
0.055846 0.068828 0.023887
0.064804 0.071677 0.024255
0.074233 0.074645 0.024280
0.083795 0.077591 0.024300
0.094286 0.080390 0.024276
0.104853 0.083128 0.024261
0.115827 0.085539 0.024291
0.126893 0.087932 0.024318
0.138356 0.090251 0.024334
0.149849 0.092468 0.024343
0.161447 0.094317 0.024327
0.173113 0.096037 0.024403
0.184980 0.097367 0.024754
0.196807 0.098598 0.025114
0.208530 0.099575 0.025499
0.220246 0.100472 0.025882
0.231944 0.101193 0.026262
0.243621 0.101773 0.026754
0.255257 0.102082 0.027460
0.266837 0.102254 0.028169
0.278324 0.102198 0.028886
0.289805 0.102049 0.029758
0.301275 0.101766 0.030858
0.312750 0.101392 0.031782
0.324233 0.100903 0.032481
0.335757 0.100307 0.033215
0.347328 0.099589 0.033987
0.358861 0.098874 0.034692
0.370355 0.098162 0.035330
0.381858 0.097349 0.036173
0.393367 0.096446 0.037196
0.404879 0.095634 0.038033
0.416393 0.094893 0.038724
0.427783 0.094278 0.039366
0.439090 0.093751 0.039974
0.450362 0.093212 0.040597
0.461613 0.092665 0.041230
0.472742 0.092128 0.041844
0.483807 0.091597 0.042448
0.494775 0.091384 0.043025
0.505700 0.091316 0.043589
0.516540 0.091050 0.044168
0.527347 0.090706 0.044754
0.537915 0.090393 0.045307
0.548404 0.090090 0.045849
0.558642 0.089934 0.046361
0.568811 0.089819 0.046864
0.578564 0.089715 0.047114
0.588221 0.089613 0.047305
0.597431 0.089681 0.047805
0.606558 0.089780 0.048362
0.615182 0.089904 0.048873
0.623735 0.090031 0.049377
0.631866 0.090154 0.049569
0.639954 0.090277 0.049728
0.647677 0.090397 0.049926
0.655376 0.090517 0.050126
0.662923 0.090850 0.050333
0.670466 0.091190 0.050539
0.017107 0.062121 0.022431
0.024915 0.065115 0.023507
0.032726 0.068106 0.024569
0.040629 0.071027 0.025212
0.048594 0.073958 0.025840
0.057471 0.077047 0.026251
0.066428 0.080130 0.026646
0.076140 0.083153 0.026876
0.085946 0.086187 0.027051
0.096414 0.089301 0.026839
0.106999 0.092353 0.026663
0.118218 0.095079 0.026685
0.129517 0.097766 0.026706
0.141170 0.100282 0.026721
0.152870 0.102716 0.026730
0.164744 0.104857 0.026715
0.176665 0.106882 0.026747
0.188730 0.108558 0.026924
0.200778 0.110108 0.027153
0.212784 0.111337 0.027514
0.224758 0.112467 0.027940
0.236661 0.113377 0.028509
0.248545 0.114165 0.029063
0.260394 0.114718 0.029588
0.272202 0.115105 0.030193
0.283941 0.115214 0.030933
0.295670 0.115249 0.031819
0.307384 0.115178 0.032920
0.319094 0.114948 0.033848
0.330797 0.114514 0.034554
0.342523 0.113988 0.035280
0.354275 0.113357 0.036029
0.365993 0.112690 0.036734
0.377676 0.111985 0.037396
0.389367 0.111226 0.038250
0.401066 0.110417 0.039273
0.412714 0.109660 0.040083
0.424322 0.108943 0.040728
0.435854 0.108263 0.041364
0.447333 0.107610 0.041995
0.458734 0.107077 0.042613
0.470088 0.106617 0.043222
0.481319 0.106089 0.043828
0.492486 0.105527 0.044432
0.503552 0.105185 0.045128
0.514571 0.104944 0.045866
0.525454 0.104612 0.046471
0.536285 0.104244 0.047024
0.546918 0.103878 0.047570
0.557485 0.103513 0.048112
0.567741 0.103300 0.048476
0.577910 0.103129 0.048791
0.587663 0.102957 0.049140
0.597320 0.102784 0.049496
0.606510 0.102675 0.050015
0.615614 0.102577 0.050564
0.624207 0.102594 0.050916
0.632728 0.102627 0.051239
0.640828 0.102727 0.051442
0.648884 0.102833 0.051633
0.656569 0.103041 0.051825
0.664228 0.103256 0.052017
0.671721 0.103462 0.052384
0.679208 0.103668 0.052756
0.019146 0.069601 0.024878
0.026895 0.072674 0.026059
0.034647 0.075746 0.027219
0.042448 0.078833 0.027741
0.050315 0.081934 0.028257
0.059154 0.085249 0.028674
0.068097 0.088546 0.029086
0.078047 0.091661 0.029460
0.088062 0.094813 0.029745
0.098530 0.098222 0.029405
0.109150 0.101573 0.029116
0.120595 0.104609 0.029102
0.132116 0.107587 0.029092
0.143960 0.110314 0.029104
0.155871 0.112975 0.029104
0.168018 0.115405 0.029062
0.180194 0.117732 0.029044
0.192455 0.119750 0.029102
0.204721 0.121619 0.029240
0.217000 0.123110 0.029584
0.229228 0.124482 0.030039
0.241347 0.125594 0.030739
0.253446 0.126592 0.031336
0.265509 0.127372 0.031736
0.277544 0.127968 0.032260
0.289532 0.128258 0.032989
0.301503 0.128487 0.033870
0.313450 0.128626 0.034973
0.325385 0.128551 0.035905
0.337308 0.128202 0.036618
0.349236 0.127770 0.037335
0.361170 0.127244 0.038058
0.373076 0.126644 0.038775
0.384953 0.125968 0.039488
0.396833 0.125278 0.040349
0.408714 0.124574 0.041342
0.420504 0.123879 0.042117
0.432223 0.123193 0.042723
0.443897 0.122471 0.043369
0.455542 0.121726 0.044043
0.467070 0.121194 0.044665
0.478528 0.120790 0.045256
0.489862 0.120274 0.045853
0.501130 0.119698 0.046454
0.512290 0.119250 0.047246
0.523401 0.118860 0.048124
0.534336 0.118468 0.048752
0.545201 0.118076 0.049281
0.555895 0.117662 0.049819
0.566532 0.117241 0.050359
0.576806 0.116964 0.050620
0.586977 0.116727 0.050804
0.596733 0.116489 0.051219
0.606394 0.116250 0.051688
0.615565 0.115986 0.052216
0.624645 0.115718 0.052754
0.633213 0.115635 0.052972
0.641707 0.115579 0.053144
0.649771 0.115647 0.053355
0.657791 0.115727 0.053569
0.665440 0.116004 0.053759
0.673064 0.116294 0.053947
0.680506 0.116394 0.054423
0.687943 0.116488 0.054907
0.021564 0.076965 0.027653
0.029109 0.080155 0.028653
0.036663 0.083349 0.029643
0.044496 0.086648 0.030330
0.052388 0.089953 0.031000
0.061148 0.093355 0.031409
0.070018 0.096758 0.031797
0.079961 0.100164 0.031982
0.089985 0.103595 0.032127
0.100578 0.107202 0.031991
0.111326 0.110764 0.031845
0.122905 0.114083 0.031642
0.134573 0.117344 0.031475
0.146631 0.120354 0.031463
0.158765 0.123297 0.031407
0.171172 0.126002 0.031191
0.183591 0.128615 0.031087
0.196049 0.130948 0.031318
0.208516 0.133132 0.031585
0.221008 0.134938 0.031945
0.233469 0.136611 0.032354
0.245863 0.137990 0.032873
0.258219 0.139209 0.033414
0.270503 0.140123 0.033995
0.282764 0.140904 0.034558
0.294988 0.141461 0.035090
0.307167 0.141929 0.035860
0.319278 0.142265 0.036979
0.331400 0.142408 0.037920
0.343535 0.142303 0.038633
0.355665 0.142096 0.039332
0.367788 0.141775 0.040015
0.379898 0.141347 0.040811
0.391996 0.140814 0.041721
0.404058 0.140273 0.042570
0.416090 0.139726 0.043366
0.428056 0.139141 0.044059
0.439971 0.138526 0.044673
0.451795 0.137884 0.045411
0.463558 0.137225 0.046235
0.475204 0.136661 0.046918
0.486780 0.136156 0.047516
0.498217 0.135661 0.048101
0.509580 0.135172 0.048678
0.520823 0.134740 0.049441
0.532013 0.134335 0.050288
0.543037 0.133916 0.050918
0.553997 0.133492 0.051463
0.564733 0.133058 0.051992
0.575394 0.132622 0.052517
0.585685 0.132243 0.052916
0.595872 0.131880 0.053281
0.605650 0.131586 0.053589
0.615335 0.131308 0.053885
0.624489 0.131011 0.054366
0.633546 0.130711 0.054881
0.642110 0.130569 0.055103
0.650604 0.130450 0.055282
0.658611 0.130441 0.055479
0.666568 0.130443 0.055678
0.674198 0.130685 0.055882
0.681807 0.130943 0.056086
0.689226 0.131050 0.056394
0.696639 0.131152 0.056706
0.023887 0.084391 0.030357
0.031262 0.087694 0.031246
0.038652 0.091002 0.032132
0.046504 0.094484 0.032950
0.054410 0.097967 0.033743
0.063128 0.101462 0.034149
0.071961 0.104973 0.034520
0.081903 0.108650 0.034549
0.091942 0.112343 0.034579
0.102658 0.116153 0.034605
0.113528 0.119931 0.034572
0.125229 0.123536 0.034215
0.137037 0.127085 0.033913
0.149309 0.130385 0.033848
0.161660 0.133616 0.033727
0.174292 0.136602 0.033403
0.186932 0.139501 0.033245
0.199596 0.142137 0.033584
0.212270 0.144623 0.033922
0.224973 0.146728 0.034257
0.237660 0.148689 0.034615
0.250314 0.150332 0.035021
0.262917 0.151784 0.035527
0.275426 0.152869 0.036224
0.287911 0.153855 0.036812
0.300357 0.154676 0.037217
0.312740 0.155379 0.037899
0.325031 0.155912 0.038988
0.337346 0.156275 0.039912
0.349689 0.156420 0.040625
0.362020 0.156440 0.041310
0.374338 0.156317 0.041964
0.386651 0.156071 0.042822
0.398957 0.155703 0.043883
0.411199 0.155324 0.044716
0.423384 0.154937 0.045348
0.435523 0.154471 0.045991
0.447625 0.153944 0.046643
0.459596 0.153401 0.047448
0.471478 0.152845 0.048360
0.483246 0.152278 0.049096
0.494947 0.151702 0.049728
0.506489 0.151241 0.050311
0.517950 0.150840 0.050868
0.529278 0.150425 0.051588
0.540546 0.150004 0.052382
0.551657 0.149570 0.053024
0.562705 0.149130 0.053607
0.573483 0.148682 0.054134
0.584170 0.148231 0.054643
0.594483 0.147770 0.055154
0.604690 0.147307 0.055665
0.614488 0.146964 0.055891
0.624192 0.146650 0.056051
0.633335 0.146323 0.056490
0.642375 0.145993 0.056982
0.650937 0.145805 0.057204
0.659430 0.145637 0.057389
0.667391 0.145568 0.057578
0.675298 0.145509 0.057767
0.682907 0.145711 0.058007
0.690495 0.145930 0.058251
0.697888 0.146050 0.058399
0.705274 0.146167 0.058545
0.025793 0.092095 0.032760
0.033153 0.095484 0.033837
0.040527 0.098878 0.034906
0.048339 0.102416 0.035709
0.056216 0.105958 0.036488
0.065052 0.109570 0.036909
0.073995 0.113206 0.037294
0.083968 0.117064 0.037315
0.094048 0.120944 0.037335
0.104875 0.124982 0.037338
0.115849 0.128999 0.037284
0.127621 0.132904 0.036928
0.139528 0.136756 0.036592
0.152020 0.140379 0.036346
0.164560 0.143928 0.036121
0.177271 0.147213 0.035970
0.190032 0.150399 0.035898
0.202939 0.153287 0.036065
0.215847 0.156019 0.036223
0.228754 0.158352 0.036361
0.241641 0.160548 0.036640
0.254484 0.162444 0.037227
0.267295 0.164174 0.037795
0.280048 0.165590 0.038327
0.292744 0.166874 0.038876
0.305348 0.167939 0.039454
0.317923 0.168868 0.040147
0.330459 0.169597 0.041008
0.342993 0.170192 0.041804
0.355525 0.170612 0.042516
0.368060 0.170859 0.043209
0.380599 0.170910 0.043879
0.393100 0.170885 0.044720
0.405564 0.170784 0.045734
0.417972 0.170619 0.046537
0.430330 0.170397 0.047153
0.442624 0.170096 0.047883
0.454868 0.169734 0.048699
0.466972 0.169366 0.049464
0.478979 0.168992 0.050195
0.490888 0.168536 0.050952
0.502738 0.168031 0.051725
0.514405 0.167657 0.052357
0.525976 0.167350 0.052915
0.537393 0.166954 0.053532
0.548740 0.166517 0.054176
0.559918 0.166118 0.054872
0.571029 0.165733 0.055589
0.581852 0.165293 0.056138
0.592579 0.164835 0.056631
0.602930 0.164378 0.057138
0.613177 0.163922 0.057650
0.622983 0.163562 0.057894
0.632686 0.163224 0.058077
