Plugins/FilmEmulator/Content/LUTs/FE_Fuji_FP100C_64.cube
TITLE "FE_Fuji_FP100C_33"
LUT_3D_SIZE 64
0.0119323 0.0053222 0.0073772
0.0126267 0.0053804 0.0074094
0.0189378 0.0057961 0.0076186
0.0289693 0.0062010 0.0077832
0.0425089 0.0064529 0.0078563
0.0574619 0.0065649 0.0078485
0.0753114 0.0067627 0.0078935
0.0948328 0.0071390 0.0079350
0.1143234 0.0076048 0.0079746
0.1339046 0.0081000 0.0080278
0.1553472 0.0087248 0.0080454
0.1760103 0.0093786 0.0080580
0.1999661 0.0102163 0.0080539
0.2213848 0.0111661 0.0081787
0.2423950 0.0121829 0.0082994
0.2644248 0.0133126 0.0084037
0.2835551 0.0144542 0.0086453
0.3033643 0.0159109 0.0089112
0.3234544 0.0176475 0.0092319
0.3413771 0.0194150 0.0095869
0.3569313 0.0211088 0.0099730
0.3722136 0.0229410 0.0104241
0.3879361 0.0249488 0.0109321
0.4025295 0.0271696 0.0114189
0.4182283 0.0292065 0.0119741
0.4305261 0.0311264 0.0126762
0.4458676 0.0338606 0.0132707
0.4596171 0.0365054 0.0141245
0.4734638 0.0393998 0.0148842
0.4875776 0.0425080 0.0157005
0.4996080 0.0458438 0.0164329
0.5126021 0.0489840 0.0174045
0.5236270 0.0522766 0.0182944
0.5344792 0.0554857 0.0192423
0.5452254 0.0588711 0.0202952
0.5564758 0.0626648 0.0214080
0.5674652 0.0666315 0.0223239
0.5768179 0.0703056 0.0236179
0.5882168 0.0750778 0.0246507
0.5976687 0.0793654 0.0261607
0.6070980 0.0839411 0.0273901
0.6162415 0.0887539 0.0287704
0.6253765 0.0936574 0.0302171
0.6341789 0.0987914 0.0317404
0.6431853 0.1043225 0.0333364
0.6525679 0.1102723 0.0345243
0.6597332 0.1150733 0.0363258
0.6689202 0.1211478 0.0381931
0.6755596 0.1256089 0.0396587
0.6841837 0.1316873 0.0411429
0.6906095 0.1364747 0.0433291
0.6969863 0.1412553 0.0450011
0.7048985 0.1477353 0.0466767
0.7110660 0.1530566 0.0484373
0.7174383 0.1587211 0.0502544
0.7229769 0.1646711 0.0528508
0.7284791 0.1705698 0.0548687
0.7331824 0.1754325 0.0562310
0.7375073 0.1805429 0.0583941
0.7401534 0.1841755 0.0607698
0.7442225 0.1895660 0.0632478
0.7483529 0.1951603 0.0658138
0.7524580 0.2007389 0.0675471
0.7550793 0.2048199 0.0703126
0.0120880 0.0065031 0.0075629
0.0135087 0.0071007 0.0076812
0.0210015 0.0082927 0.0079447
0.0325167 0.0096346 0.0081303
0.0481025 0.0111322 0.0082217
0.0648992 0.0125157 0.0083217
0.0859133 0.0138856 0.0083476
0.1073456 0.0153177 0.0083577
0.1295930 0.0168491 0.0083483
0.1520253 0.0185621 0.0083086
0.1750322 0.0202586 0.0082343
0.1981902 0.0218663 0.0082154
0.2244752 0.0235866 0.0082334
0.2477815 0.0254482 0.0082748
0.2705255 0.0272342 0.0083480
0.2924231 0.0291284 0.0084871
0.3149036 0.0311784 0.0086871
0.3363251 0.0337348 0.0089593
0.3555136 0.0361825 0.0091981
0.3744679 0.0389026 0.0095836
0.3914257 0.0418257 0.0099855
0.4091481 0.0444531 0.0104610
0.4249366 0.0479505 0.0109064
0.4402063 0.0510837 0.0114431
0.4553629 0.0541453 0.0119779
0.4705732 0.0574069 0.0127219
0.4864710 0.0610477 0.0133712
0.5002300 0.0641596 0.0141382
0.5150494 0.0684451 0.0149155
0.5290490 0.0721694 0.0156123
0.5422364 0.0771960 0.0165473
0.5559079 0.0816548 0.0173821
0.5677070 0.0863201 0.0182899
0.5794781 0.0910963 0.0193247
0.5912172 0.0961089 0.0204162
0.6032088 0.1014651 0.0212862
0.6125646 0.1059432 0.0225977
0.6248314 0.1120226 0.0235969
0.6350062 0.1179649 0.0250945
0.6436879 0.1223912 0.0263858
0.6544980 0.1284152 0.0277351
0.6625075 0.1330825 0.0292398
0.6705108 0.1378489 0.0308238
0.6780554 0.1426616 0.0320075
0.6863256 0.1494532 0.0336729
0.6943699 0.1551254 0.0355086
0.7025504 0.1608880 0.0368803
0.7097598 0.1668033 0.0388968
0.7169474 0.1717601 0.0404553
0.7230943 0.1768125 0.0420855
0.7279919 0.1805531 0.0444763
0.7348290 0.1858957 0.0462052
0.7405668 0.1913921 0.0480060
0.7463502 0.1970401 0.0498684
0.7508387 0.2010712 0.0518692
0.7558340 0.2070128 0.0539115
0.7595108 0.2112707 0.0560809
0.7645919 0.2175440 0.0582650
0.7678977 0.2220214 0.0607487
0.7722595 0.2285215 0.0632703
0.7752758 0.2329012 0.0650015
0.7794670 0.2396007 0.0676850
0.7822993 0.2443770 0.0705291
0.7851979 0.2490380 0.0724455
0.0124678 0.0121884 0.0080957
0.0149375 0.0134786 0.0082130
0.0241364 0.0156932 0.0084429
0.0376109 0.0181577 0.0085838
0.0554848 0.0207781 0.0086013
0.0749216 0.0231898 0.0085537
0.0983218 0.0256906 0.0084875
0.1214570 0.0281287 0.0084084
0.1450201 0.0305766 0.0082886
0.1697804 0.0334856 0.0081177
0.1951255 0.0362996 0.0080150
0.2222000 0.0389050 0.0079288
0.2493183 0.0420288 0.0078366
0.2746597 0.0449700 0.0078211
0.3001707 0.0486095 0.0078898
0.3239248 0.0516590 0.0079651
0.3462122 0.0548637 0.0081964
0.3688592 0.0584155 0.0083359
0.3886935 0.0614904 0.0087046
0.4090049 0.0656300 0.0090009
0.4280662 0.0692706 0.0093181
0.4464699 0.0740922 0.0096632
0.4626728 0.0783966 0.0101469
0.4790193 0.0829564 0.0107650
0.4954708 0.0875999 0.0112975
0.5120426 0.0924899 0.0118885
0.5291947 0.0977856 0.0125324
0.5438609 0.1022065 0.0133252
0.5596833 0.1081950 0.0141312
0.5734132 0.1139354 0.0148263
0.5867113 0.1183434 0.0156869
0.5982093 0.1228574 0.0166419
0.6119002 0.1288662 0.0176183
0.6227964 0.1335807 0.0187716
0.6336796 0.1383842 0.0196960
0.6432079 0.1434560 0.0210261
0.6556162 0.1506197 0.0220062
0.6654179 0.1563242 0.0231656
0.6759052 0.1622459 0.0248342
0.6844490 0.1672013 0.0262970
0.6912913 0.1707820 0.0279171
0.6991681 0.1758380 0.0290521
0.7070718 0.1811826 0.0307348
0.7145075 0.1867127 0.0325064
0.7207068 0.1907321 0.0344979
0.7283276 0.1964207 0.0359092
0.7350666 0.2024250 0.0379947
0.7415491 0.2067053 0.0396292
0.7482862 0.2129021 0.0412538
0.7543889 0.2173716 0.0430114
0.7609655 0.2239475 0.0454156
0.7659146 0.2284647 0.0473049
0.7719346 0.2350672 0.0491794
0.7772609 0.2398259 0.0512223
0.7816178 0.2446233 0.0533585
0.7866525 0.2513972 0.0555024
0.7903098 0.2562371 0.0578550
0.7940627 0.2609861 0.0594835
0.7969405 0.2659822 0.0620999
0.7997905 0.2709347 0.0648107
0.8024575 0.2756940 0.0676333
0.8065178 0.2823983 0.0694616
0.8089424 0.2873384 0.0724617
0.8115871 0.2921305 0.0744736
0.0125327 0.0202873 0.0085619
0.0163354 0.0224822 0.0087193
0.0274243 0.0262225 0.0088758
0.0435915 0.0301444 0.0088950
0.0640612 0.0345839 0.0087741
0.0859275 0.0385698 0.0085624
0.1108343 0.0424884 0.0082500
0.1366591 0.0463558 0.0079000
0.1627005 0.0499017 0.0076540
0.1899179 0.0540220 0.0074208
0.2164794 0.0584145 0.0072635
0.2463521 0.0625254 0.0070469
0.2752919 0.0667812 0.0069167
0.3016896 0.0720703 0.0068263
0.3287750 0.0768173 0.0068216
0.3546360 0.0816084 0.0068480
0.3810038 0.0866267 0.0068499
0.4044300 0.0907937 0.0070203
0.4265986 0.0964079 0.0072036
0.4481272 0.1023109 0.0074738
0.4660923 0.1068337 0.0078660
0.4848339 0.1124271 0.0082832
0.5009859 0.1169288 0.0087631
0.5181113 0.1228607 0.0094211
0.5342789 0.1275954 0.0100574
0.5505512 0.1325038 0.0107695
0.5653334 0.1375252 0.0113503
0.5824496 0.1431483 0.0121764
0.5975668 0.1488247 0.0128787
0.6105933 0.1546212 0.0136975
0.6242750 0.1598334 0.0146307
0.6355823 0.1648656 0.0157275
0.6466078 0.1700354 0.0169068
0.6576115 0.1752882 0.0178343
0.6685880 0.1808462 0.0191719
0.6782231 0.1848518 0.0203932
0.6889392 0.1905915 0.0215692
0.6982288 0.1966192 0.0233341
0.7059076 0.2009435 0.0248907
0.7163922 0.2071314 0.0258909
0.7234255 0.2116416 0.0275983
0.7317888 0.2181023 0.0292765
0.7385826 0.2227338 0.0311723
0.7450365 0.2272928 0.0326150
0.7518957 0.2340483 0.0346217
0.7584686 0.2388363 0.0361917
0.7649313 0.2437497 0.0384945
0.7718909 0.2505859 0.0401300
0.7781956 0.2555338 0.0419124
0.7834746 0.2605021 0.0437481
0.7886932 0.2654275 0.0456527
0.7940657 0.2703841 0.0483862
0.7997884 0.2772277 0.0504129
0.8043287 0.2819312 0.0517914
0.8084655 0.2868998 0.0540388
0.8119269 0.2918684 0.0564303
0.8153602 0.2969235 0.0590187
0.8187960 0.3020657 0.0616970
0.8217041 0.3070032 0.0634790
0.8243952 0.3122646 0.0663360
0.8269069 0.3175649 0.0693029
0.8283554 0.3203790 0.0713620
0.8308291 0.3257747 0.0745013
0.8333705 0.3309508 0.0764725
0.0121243 0.0317041 0.0089425
0.0176950 0.0351354 0.0090589
0.0310713 0.0405622 0.0090590
0.0499278 0.0470136 0.0088638
0.0721482 0.0530778 0.0085509
0.0969387 0.0590971 0.0081382
0.1250637 0.0651741 0.0076215
0.1540086 0.0711973 0.0071496
0.1817026 0.0762742 0.0066985
0.2105091 0.0824505 0.0061515
0.2416265 0.0889974 0.0056699
0.2724392 0.0944751 0.0054364
0.3017512 0.1006358 0.0052282
0.3309269 0.1059341 0.0051552
0.3592620 0.1112153 0.0051076
0.3868163 0.1175777 0.0050113
0.4116891 0.1228436 0.0051083
0.4365264 0.1283242 0.0052760
0.4587472 0.1340070 0.0054269
0.4800624 0.1398518 0.0057011
0.4989959 0.1457805 0.0061238
0.5174163 0.1511402 0.0067149
0.5340259 0.1562803 0.0072829
0.5523713 0.1616681 0.0078734
0.5670004 0.1670243 0.0086141
0.5837846 0.1727193 0.0093937
0.5977458 0.1768589 0.0101530
0.6130033 0.1826804 0.0108802
0.6269155 0.1870580 0.0117994
0.6415860 0.1932536 0.0127064
0.6559138 0.1996240 0.0137131
0.6664132 0.2042287 0.0149881
0.6781428 0.2106011 0.0158678
0.6882893 0.2153380 0.0173369
0.6984873 0.2200698 0.0185532
0.7097589 0.2268138 0.0197010
0.7181290 0.2316868 0.0211526
0.7276728 0.2366070 0.0226851
0.7368616 0.2435120 0.0241962
0.7447835 0.2485646 0.0259225
0.7519154 0.2536644 0.0277438
0.7589341 0.2587411 0.0296937
0.7656780 0.2634599 0.0311693
0.7719241 0.2684157 0.0333340
0.7796025 0.2753175 0.0348379
0.7860538 0.2803108 0.0365244
0.7913848 0.2854666 0.0389929
0.7978770 0.2905580 0.0408052
0.8030139 0.2956312 0.0426899
0.8090667 0.3008598 0.0446217
0.8142166 0.3061104 0.0466404
0.8175047 0.3091764 0.0488880
0.8219456 0.3144476 0.0510994
0.8264012 0.3198088 0.0533847
0.8305240 0.3252661 0.0558682
0.8339831 0.3307795 0.0585086
0.8375939 0.3361214 0.0602410
0.8395846 0.3392011 0.0631530
0.8420083 0.3442649 0.0660993
0.8445033 0.3491177 0.0680592
0.8468289 0.3543244 0.0711790
0.8479600 0.3571073 0.0733462
0.8501497 0.3623648 0.0764146
0.8524762 0.3673458 0.0784145
0.0110139 0.0472822 0.0090475
0.0190761 0.0528967 0.0090417
0.0348597 0.0611658 0.0088155
0.0562034 0.0692241 0.0085168
0.0811337 0.0770516 0.0080701
0.1084317 0.0853140 0.0075029
0.1394629 0.0928384 0.0068385
0.1697429 0.0998515 0.0062190
0.2000961 0.1067031 0.0056196
0.2310158 0.1137001 0.0050358
0.2623474 0.1207091 0.0044523
0.2958455 0.1279184 0.0037669
0.3260967 0.1343256 0.0034584
0.3569779 0.1406929 0.0033106
0.3843714 0.1467963 0.0032354
0.4123708 0.1530807 0.0032327
0.4396998 0.1581873 0.0034167
0.4631270 0.1643165 0.0035511
0.4860085 0.1705702 0.0037890
0.5065877 0.1754326 0.0043223
0.5257353 0.1817448 0.0046876
0.5439306 0.1866237 0.0052712
0.5614433 0.1931457 0.0058294
0.5775936 0.1980953 0.0066020
0.5949194 0.2048179 0.0073426
0.6113210 0.2098597 0.0080310
0.6271321 0.2167213 0.0087199
0.6416983 0.2220008 0.0099097
0.6561562 0.2270401 0.0106441
0.6697574 0.2322361 0.0117752
0.6826095 0.2393516 0.0129067
0.6950579 0.2445869 0.0138752
0.7056375 0.2498219 0.0153823
0.7157720 0.2547435 0.0166311
0.7260150 0.2597606 0.0179372
0.7342970 0.2647606 0.0194593
0.7441049 0.2699668 0.0210217
0.7534235 0.2771267 0.0225645
0.7625991 0.2824403 0.0243111
0.7702997 0.2877352 0.0261701
0.7760373 0.2907755 0.0277144
0.7830266 0.2961882 0.0298077
0.7897551 0.3014659 0.0313551
0.7960739 0.3069496 0.0336587
0.8025441 0.3123209 0.0353718
0.8080251 0.3177020 0.0371656
0.8144885 0.3234816 0.0397128
0.8200395 0.3290454 0.0416175
0.8247368 0.3321924 0.0437206
0.8295782 0.3372569 0.0458175
0.8344355 0.3424069 0.0480080
0.8394989 0.3476528 0.0502682
0.8424801 0.3507437 0.0527332
0.8468025 0.3558173 0.0543738
0.8502686 0.3611244 0.0570584
0.8521859 0.3642598 0.0599498
0.8552883 0.3696379 0.0628328
0.8583923 0.3747863 0.0647451
0.8595071 0.3779845 0.0679257
0.8618450 0.3831799 0.0699680
0.8641165 0.3887084 0.0731921
0.8653281 0.3915996 0.0752543
0.8674399 0.3971071 0.0783835
0.8684486 0.4000454 0.0805542
0.0098585 0.0643654 0.0091538
0.0205581 0.0726679 0.0090402
0.0386016 0.0829288 0.0086474
0.0626364 0.0932207 0.0081058
0.0892817 0.1020859 0.0075572
0.1201315 0.1116665 0.0068932
0.1526828 0.1208224 0.0062046
0.1840443 0.1292652 0.0055106
0.2162765 0.1364643 0.0048777
0.2474680 0.1443902 0.0043286
0.2801579 0.1511818 0.0037573
0.3156250 0.1593827 0.0029691
0.3466367 0.1657574 0.0024995
0.3792929 0.1736482 0.0019359
0.4074509 0.1796726 0.0016062
0.4368417 0.1873768 0.0014588
0.4629361 0.1934470 0.0017310
0.4896491 0.2011628 0.0018273
0.5123109 0.2069910 0.0021221
0.5315199 0.2125719 0.0027807
0.5501360 0.2181059 0.0033455
0.5700448 0.2255818 0.0038410
0.5869631 0.2310991 0.0043562
0.6035951 0.2367023 0.0052295
0.6200864 0.2420386 0.0059282
0.6367371 0.2476247 0.0070310
0.6515689 0.2530262 0.0079666
0.6662427 0.2585342 0.0090386
0.6809884 0.2639846 0.0098270
0.6945031 0.2695270 0.0111009
0.7062346 0.2748605 0.0121069
0.7167368 0.2803718 0.0136693
0.7274663 0.2858443 0.0149123
0.7378465 0.2913929 0.0162523
0.7482722 0.2970023 0.0177487
0.7582463 0.3026707 0.0193291
0.7682542 0.3084450 0.0209950
0.7762887 0.3141516 0.0227892
0.7842286 0.3199529 0.0246746
0.7907284 0.3231625 0.0262551
0.7986534 0.3285706 0.0283950
0.8055401 0.3337385 0.0299892
0.8106788 0.3390803 0.0323929
0.8157145 0.3422531 0.0342950
0.8219767 0.3475828 0.0361251
0.8282794 0.3529294 0.0379895
0.8323210 0.3560857 0.0400675
0.8384376 0.3617783 0.0428544
0.8432991 0.3671873 0.0449993
0.8481019 0.3702827 0.0464791
0.8529232 0.3758178 0.0487569
0.8559016 0.3791015 0.0512489
0.8600103 0.3846529 0.0538811
0.8641254 0.3902879 0.0566051
0.8663557 0.3936411 0.0595546
0.8696283 0.3990012 0.0614183
0.8714988 0.4024079 0.0645540
0.8745945 0.4078745 0.0665440
0.8756270 0.4112293 0.0698683
0.8778214 0.4168828 0.0730585
0.8790661 0.4198950 0.0751605
0.8812475 0.4252836 0.0772054
0.8821146 0.4286631 0.0805619
0.8830758 0.4317385 0.0828199
0.0090255 0.0808435 0.0093616
0.0219191 0.0913637 0.0091619
0.0419732 0.1028524 0.0087637
0.0681587 0.1155083 0.0080749
0.0967977 0.1263489 0.0073830
0.1302298 0.1382705 0.0066140
0.1634323 0.1480277 0.0058845
0.1967164 0.1570717 0.0051185
0.2297654 0.1669318 0.0043896
0.2644778 0.1755055 0.0037626
0.2994759 0.1836607 0.0030479
0.3348461 0.1930861 0.0022525
0.3669778 0.2005490 0.0016810
0.3978854 0.2078561 0.0013080
0.4297199 0.2150627 0.0008348
0.4567980 0.2213959 0.0003615
0.4837668 0.2278185 0.0000932
0.5100671 0.2345079 0.0004736
0.5330629 0.2408161 0.0008513
0.5527830 0.2468492 0.0013840
0.5717229 0.2528440 0.0020379
0.5908815 0.2589470 0.0027624
0.6079964 0.2648226 0.0033782
0.6249870 0.2709179 0.0043541
0.6418824 0.2769798 0.0051564
0.6590267 0.2831036 0.0060514
0.6742480 0.2891604 0.0071124
0.6892557 0.2951338 0.0078943
0.7042271 0.3013819 0.0091403
0.7148237 0.3051010 0.0103111
0.7283407 0.3112375 0.0118522
0.7388504 0.3166368 0.0131431
0.7494246 0.3221484 0.0145530
0.7596547 0.3277362 0.0161001
0.7688211 0.3313838 0.0178723
0.7786019 0.3370762 0.0195977
0.7868542 0.3426581 0.0214452
0.7950755 0.3460949 0.0229090
0.8027664 0.3517619 0.0249923
0.8102330 0.3572461 0.0265194
0.8158335 0.3608387 0.0289490
0.8228002 0.3664191 0.0306445
0.8278403 0.3700614 0.0332930
0.8340780 0.3756021 0.0351482
0.8403686 0.3812178 0.0370386
0.8444124 0.3845639 0.0391578
0.8507862 0.3903203 0.0411793
0.8547665 0.3937547 0.0434678
0.8606357 0.3996119 0.0456857
0.8642879 0.4030501 0.0481402
0.8690203 0.4087926 0.0506030
0.8719054 0.4122728 0.0534163
0.8769462 0.4178811 0.0551399
0.8798378 0.4214459 0.0581087
0.8816723 0.4249411 0.0612032
0.8849064 0.4305393 0.0631531
0.8867096 0.4340900 0.0664267
0.8891766 0.4399316 0.0697004
0.8902163 0.4430098 0.0718504
0.8912067 0.4464385 0.0751090
0.8935605 0.4519891 0.0771833
0.8946280 0.4551412 0.0794155
0.8953221 0.4586375 0.0828813
0.8975046 0.4643106 0.0850680
0.0082450 0.0986549 0.0098527
0.0232878 0.1117577 0.0094995
0.0455332 0.1255178 0.0089365
0.0738264 0.1393384 0.0081272
0.1046054 0.1520960 0.0073674
0.1396844 0.1645720 0.0065519
0.1750813 0.1757274 0.0056805
0.2093042 0.1870848 0.0048117
0.2437680 0.1967626 0.0040677
0.2783919 0.2061433 0.0034957
0.3152255 0.2154608 0.0027937
0.3514540 0.2242810 0.0019838
0.3845640 0.2325549 0.0014727
0.4158370 0.2388921 0.0012058
0.4460410 0.2465613 0.0008764
0.4766163 0.2541428 0.0003889
0.5042779 0.2614084 0.0002219
0.5288572 0.2681978 0.0000000
0.5524942 0.2749196 0.0000000
0.5727016 0.2815644 0.0000813
0.5911859 0.2863463 0.0009582
0.6108209 0.2928979 0.0015024
0.6279411 0.2990776 0.0025186
0.6451501 0.3052063 0.0033394
0.6611092 0.3095191 0.0044394
0.6783825 0.3158163 0.0054807
0.6937953 0.3218275 0.0062889
0.7086182 0.3280014 0.0075805
0.7223338 0.3320546 0.0087155
0.7339478 0.3380598 0.0103597
0.7473478 0.3441329 0.0115907
0.7569074 0.3479644 0.0132030
0.7675428 0.3539444 0.0147585
0.7767855 0.3578474 0.0165621
0.7870601 0.3638428 0.0183061
0.7942876 0.3673369 0.0197464
0.8042471 0.3734513 0.0216710
0.8119438 0.3794434 0.0237871
0.8186703 0.3830437 0.0254822
0.8273137 0.3892900 0.0277672
0.8330778 0.3928362 0.0296471
0.8399664 0.3986148 0.0314403
0.8448647 0.4024136 0.0342143
0.8488488 0.4058519 0.0363095
0.8551463 0.4117431 0.0382970
0.8603126 0.4153911 0.0405047
0.8655536 0.4213221 0.0426984
0.8705096 0.4250212 0.0450954
0.8752770 0.4308696 0.0474603
0.8788689 0.4344949 0.0501660
0.8833559 0.4379154 0.0519781
0.8873783 0.4439319 0.0547755
0.8902271 0.4476198 0.0578046
0.8932989 0.4509951 0.0598280
0.8962531 0.4570905 0.0629312
0.8979725 0.4606970 0.0662751
0.8999251 0.4639681 0.0685137
0.9023588 0.4699387 0.0716809
0.9035233 0.4731242 0.0738426
0.9044452 0.4766857 0.0772294
0.9054317 0.4799036 0.0795029
0.9075928 0.4856435 0.0816806
0.9083315 0.4892690 0.0852264
0.9091668 0.4924878 0.0876113
0.0076499 0.1168132 0.0104195
0.0247822 0.1314045 0.0100526
0.0494711 0.1472618 0.0093164
0.0798874 0.1628688 0.0084262
0.1111664 0.1766418 0.0075791
0.1488008 0.1909236 0.0067018
0.1848287 0.2033693 0.0058513
0.2202814 0.2133285 0.0050215
0.2563833 0.2242549 0.0042940
0.2928598 0.2348142 0.0036391
0.3292044 0.2449869 0.0030288
0.3665246 0.2549360 0.0022562
0.4001167 0.2623507 0.0019804
0.4331228 0.2707532 0.0014349
0.4641499 0.2787667 0.0009816
0.4925339 0.2864932 0.0008693
0.5199365 0.2922583 0.0006997
0.5473695 0.2996458 0.0004387
0.5685393 0.3062033 0.0003861
0.5903196 0.3111117 0.0004707
0.6102958 0.3175429 0.0004956
0.6269919 0.3220143 0.0011081
0.6444440 0.3285820 0.0019174
0.6619148 0.3352674 0.0028630
0.6782154 0.3399987 0.0040710
0.6958753 0.3465661 0.0048344
0.7102946 0.3511219 0.0062880
0.7254270 0.3575447 0.0072815
0.7369552 0.3619122 0.0090886
0.7508898 0.3683691 0.0103162
0.7623976 0.3746982 0.0117917
0.7738763 0.3789878 0.0134917
0.7833513 0.3830658 0.0153285
0.7937983 0.3893409 0.0170949
0.8014064 0.3930424 0.0185507
0.8113427 0.3994229 0.0205236
0.8185459 0.4034697 0.0228246
0.8279456 0.4096695 0.0243492
0.8347136 0.4134510 0.0261498
0.8406255 0.4174202 0.0287766
0.8475397 0.4233819 0.0305986
0.8532885 0.4271098 0.0326230
0.8595219 0.4331141 0.0345551
0.8646247 0.4368472 0.0367098
0.8695709 0.4409272 0.0397923
0.8747643 0.4470255 0.0420246
0.8801116 0.4505032 0.0435604
0.8838818 0.4541715 0.0460833
0.8884649 0.4580117 0.0487902
0.8931674 0.4641898 0.0515279
0.8963921 0.4679894 0.0545106
0.8994347 0.4714134 0.0564948
0.9041881 0.4777930 0.0595106
0.9066285 0.4816342 0.0627951
0.9085654 0.4849828 0.0650021
0.9102323 0.4887024 0.0684490
0.9121884 0.4920094 0.0705679
0.9141149 0.4980670 0.0737956
0.9152290 0.5013433 0.0760401
0.9163374 0.5046431 0.0783292
0.9171718 0.5083272 0.0818610
0.9179986 0.5116296 0.0842157
0.9200296 0.5174842 0.0864992
0.9206229 0.5211087 0.0902532
0.0074471 0.1342462 0.0112180
0.0265207 0.1510989 0.0107945
0.0532420 0.1690504 0.0100110
0.0859247 0.1862929 0.0089357
0.1186678 0.2001245 0.0081877
0.1573990 0.2153260 0.0072625
0.1934655 0.2283948 0.0065099
0.2309086 0.2408026 0.0056079
0.2662258 0.2507790 0.0051386
0.3041742 0.2619807 0.0043263
0.3420014 0.2727062 0.0035696
0.3793570 0.2816056 0.0032215
0.4147356 0.2912543 0.0026237
0.4452277 0.2983045 0.0023411
0.4798577 0.3075101 0.0018521
0.5081283 0.3139335 0.0017074
0.5367743 0.3219944 0.0014555
0.5618389 0.3295618 0.0013661
0.5847437 0.3350334 0.0015002
0.6053062 0.3420028 0.0015857
0.6246982 0.3470017 0.0019074
0.6419516 0.3515272 0.0019829
0.6597903 0.3582151 0.0022709
0.6766538 0.3628440 0.0027628
0.6943399 0.3697372 0.0035361
0.7087678 0.3745495 0.0050077
0.7268033 0.3816345 0.0059545
0.7386453 0.3862709 0.0077816
0.7535748 0.3931477 0.0090256
0.7665597 0.3978021 0.0106337
0.7767448 0.4021005 0.0123966
0.7875710 0.4085762 0.0140906
0.7972857 0.4126382 0.0154518
0.8066860 0.4169729 0.0174812
0.8169653 0.4236150 0.0194949
0.8260014 0.4277356 0.0211176
0.8342168 0.4342912 0.0233698
0.8409343 0.4381541 0.0252151
0.8492640 0.4422387 0.0270837
0.8549206 0.4463661 0.0298507
0.8618538 0.4525435 0.0317355
0.8674318 0.4564089 0.0338499
0.8725132 0.4602487 0.0360432
0.8764696 0.4639965 0.0383512
0.8827497 0.4703519 0.0405711
0.8878886 0.4742810 0.0430292
0.8918620 0.4780768 0.0455928
0.8965939 0.4820697 0.0484082
0.9012347 0.4883759 0.0511961
0.9050020 0.4919390 0.0531349
0.9089836 0.4959679 0.0562268
0.9117406 0.4998927 0.0594602
0.9147586 0.5034601 0.0616090
0.9182658 0.5098906 0.0648886
0.9201335 0.5132519 0.0671556
0.9217808 0.5169562 0.0704569
0.9236786 0.5203125 0.0726591
0.9245607 0.5239850 0.0761372
0.9256041 0.5272881 0.0784679
0.9264858 0.5305772 0.0807950
0.9272363 0.5342974 0.0844308
0.9291792 0.5401620 0.0867529
0.9299228 0.5435250 0.0892445
0.9306868 0.5467300 0.0917938
0.0074373 0.1515722 0.0123216
0.0282746 0.1701051 0.0118170
0.0573564 0.1888119 0.0110926
0.0901323 0.2068195 0.0100978
0.1249463 0.2234136 0.0093012
0.1640214 0.2382017 0.0083239
0.2016908 0.2523743 0.0073949
0.2402871 0.2645408 0.0068293
0.2776124 0.2768489 0.0060409
0.3143850 0.2869769 0.0054439
0.3536648 0.2986806 0.0047093
0.3918364 0.3081440 0.0041745
0.4254442 0.3181155 0.0037005
0.4595200 0.3262416 0.0034167
0.4918510 0.3355701 0.0030941
0.5206847 0.3424827 0.0030405
0.5498565 0.3511690 0.0029099
0.5744861 0.3571022 0.0027494
0.5975443 0.3629570 0.0030097
0.6182802 0.3703682 0.0032231
0.6380847 0.3755050 0.0032804
0.6555117 0.3804736 0.0038233
0.6759750 0.3875649 0.0037630
0.6906520 0.3921816 0.0044378
0.7078657 0.3969289 0.0046847
0.7237431 0.4037850 0.0053085
0.7386823 0.4085284 0.0061467
0.7529640 0.4137469 0.0080790
0.7677122 0.4208658 0.0095154
0.7808375 0.4257146 0.0112292
0.7910038 0.4299373 0.0125339
0.8019185 0.4366905 0.0143216
0.8114488 0.4412151 0.0163881
0.8209139 0.4458005 0.0186145
0.8301755 0.4500807 0.0202586
0.8384993 0.4568174 0.0225536
0.8473004 0.4610839 0.0243769
0.8540525 0.4650995 0.0263167
0.8608558 0.4691537 0.0283202
0.8676246 0.4757874 0.0310117
0.8734351 0.4797911 0.0331571
0.8790138 0.4837992 0.0353766
0.8840786 0.4877917 0.0377137
0.8891639 0.4918254 0.0401348
0.8942935 0.4958996 0.0426318
0.8993132 0.5021989 0.0451488
0.9046386 0.5059215 0.0469598
0.9081430 0.5098613 0.0499206
0.9126556 0.5139644 0.0529545
0.9161177 0.5179765 0.0561212
0.9192528 0.5215479 0.0582365
0.9219403 0.5255353 0.0616016
0.9260053 0.5316318 0.0636991
0.9283493 0.5356122 0.0671143
0.9301713 0.5388877 0.0692940
0.9317158 0.5425813 0.0727226
0.9335279 0.5459057 0.0750124
0.9345806 0.5491556 0.0773635
0.9352626 0.5527982 0.0809644
0.9362146 0.5560663 0.0833778
0.9369725 0.5593317 0.0858413
0.9374472 0.5630345 0.0896859
0.9382018 0.5663526 0.0922758
0.9388353 0.5696786 0.0949192
0.0075551 0.1692470 0.0138264
0.0307557 0.1888530 0.0131788
0.0608412 0.2096491 0.0122439
0.0944295 0.2277575 0.0115483
0.1325344 0.2448363 0.0105744
0.1721343 0.2616460 0.0095614
0.2111820 0.2754401 0.0087571
0.2499516 0.2895027 0.0079291
0.2883890 0.3011851 0.0072856
0.3271953 0.3138937 0.0066065
0.3648574 0.3242318 0.0061367
0.4036472 0.3343144 0.0056852
0.4380287 0.3448613 0.0053334
0.4727843 0.3533340 0.0048127
0.5049501 0.3613412 0.0047533
0.5348998 0.3706511 0.0046640
0.5609615 0.3771935 0.0045076
0.5885290 0.3841209 0.0047251
0.6101364 0.3917824 0.0046033
0.6300884 0.3974040 0.0051103
0.6501433 0.4027973 0.0052598
0.6677511 0.4080834 0.0059712
0.6884860 0.4155494 0.0060169
0.7034144 0.4202080 0.0063925
0.7207091 0.4254852 0.0072391
0.7359210 0.4302262 0.0077161
0.7520884 0.4372126 0.0080340
0.7670143 0.4419000 0.0085656
0.7807330 0.4467058 0.0097194
0.7918311 0.4514921 0.0115920
