Plugins/FilmEmulator/Content/LUTs/FE_Fuji_CA_Maxima_64.cube
TITLE "FE_Fuji_CA_Maxima_33"
LUT_3D_SIZE 4
0.1083271 0.1025475 0.0091277
1.0000000 0.3220990 0.0565976
1.0000000 0.4831654 0.1389616
1.0000000 0.5469196 0.2005324
0.3004088 0.9747039 0.4635311
0.9075130 0.9825529 0.4405766
0.9809325 0.9909998 0.4392322
0.9923363 0.9915181 0.4887068
0.4588976 0.9987339 0.8450955
0.9442350 0.9941307 0.8219467
0.9854195 0.9979330 0.7968848
0.9898452 1.0000000 0.7606243
0.5823516 0.9952375 0.9541289
0.9625277 0.9912653 0.9434338
0.9913054 0.9930739 0.9350609
0.9958335 0.9941244 0.9227090
0.3707684 0.3102028 1.0000000
1.0000000 0.5346489 0.9748466
1.0000000 0.6281577 0.9627217
1.0000000 0.6730930 0.9538018
0.6706603 0.9716731 0.9885306
0.9724613 0.9783217 0.9827988
0.9955411 0.9812210 0.9815614
1.0000000 0.9821081 0.9797933
0.7956564 0.9900557 0.9914582
0.9787971 0.9910891 0.9886464
0.9936802 0.9922444 0.9884425
0.9969050 0.9926162 0.9881013
0.8625113 0.9913259 0.9924137
0.9830856 0.9926127 0.9907739
0.9940189 0.9934474 0.9906562
0.9967541 0.9937734 0.9905561
0.8336591 0.5712780 1.0000000
1.0000000 0.6858972 1.0000000
1.0000000 0.7381892 0.9986902
1.0000000 0.7749984 0.9960101
0.9081793 0.9805222 0.9925632
0.9866017 0.9851022 0.9913324
0.9960102 0.9865029 0.9912464
0.9987405 0.9871200 0.9911800
0.9408454 0.9906758 0.9929963
0.9885870 0.9924832 0.9924795
0.9951182 0.9931599 0.9925035
0.9971678 0.9934393 0.9925106
0.9572247 0.9920163 0.9931124
0.9902008 0.9934308 0.9928338
0.9953611 0.9939549 0.9928787
0.9971436 0.9941975 0.9928979
0.9767655 0.7496638 1.0000000
1.0000000 0.7945877 0.9987334
1.0000000 0.8087389 0.9974145
1.0000000 0.8428197 0.9953173
0.9676552 0.9860411 0.9927402
0.9922791 0.9883821 0.9924976
0.9968351 0.9890876 0.9925014
0.9986212 0.9894904 0.9925159
0.9757749 0.9919584 0.9932492
0.9927005 0.9931329 0.9931861
0.9961426 0.9935582 0.9932229
0.9975615 0.9937786 0.9932461
0.9806642 0.9929504 0.9934093
0.9933892 0.9938637 0.9933935
0.9962835 0.9942095 0.9934329
0.9975405 0.9943962 0.9934646
