Plugins/FilmEmulator/Content/LUTs/FE_Fuji_Provia_100F_64.cube
TITLE "FE_Fuji_Provia_100F_33"
LUT_3D_SIZE 8
0.0004983 0.0007599 0.0009118
0.0478859 0.0029085 0.0021783
0.1441431 0.0109849 0.0053056
0.2534255 0.0268158 0.0110492
0.3554586 0.0458254 0.0187980
0.4490290 0.0666996 0.0273354
0.5266198 0.0888132 0.0370273
0.5891512 0.1125810 0.0484109
0.0000000 0.0391207 0.0028814
0.1067116 0.0979281 0.0042197
0.2520318 0.1379997 0.0092643
0.3814705 0.1709040 0.0162459
0.4901868 0.2003609 0.0252867
0.5911534 0.2279021 0.0350378
0.6630697 0.2543752 0.0459135
0.7191346 0.2786373 0.0577714
0.0000000 0.1009814 0.0059812
0.1289650 0.1987652 0.0084888
0.2969347 0.2569062 0.0146675
0.4367006 0.2999592 0.0228917
0.5592575 0.3353475 0.0327359
0.6625135 0.3672274 0.0437668
0.7361583 0.3957914 0.0560526
0.7928209 0.4225635 0.0687028
0.0000000 0.1747823 0.0115024
0.1419659 0.2934630 0.0151735
0.3230735 0.3646046 0.0219018
0.4752457 0.4148982 0.0303416
0.6024178 0.4553116 0.0410370
0.7090490 0.4872546 0.0531992
0.7845951 0.5162914 0.0659484
0.8363142 0.5376468 0.0799856
0.0000000 0.2456040 0.0191292
0.1518616 0.3712235 0.0237766
0.3432343 0.4485467 0.0309436
0.4997569 0.5005783 0.0410875
0.6323816 0.5415462 0.0529138
0.7369934 0.5736734 0.0656064
0.8124571 0.5996566 0.0796615
0.8649040 0.6214202 0.0944327
0.0000000 0.3044244 0.0277231
0.1614023 0.4296967 0.0337906
0.3587688 0.5129426 0.0427011
0.5176983 0.5651056 0.0529142
0.6500865 0.6069634 0.0650268
0.7556899 0.6373942 0.0787541
0.8310946 0.6606678 0.0934171
0.8830277 0.6789905 0.1083624
0.0000000 0.3553264 0.0383320
0.1714281 0.4760235 0.0450082
0.3678106 0.5575237 0.0553247
0.5311124 0.6111910 0.0670138
0.6660401 0.6511006 0.0803704
0.7674178 0.6806796 0.0948267
0.8394616 0.7026731 0.1097259
0.8952106 0.7205288 0.1243882
0.0046240 0.3951829 0.0494922
0.1790671 0.5100026 0.0584176
0.3796104 0.5924031 0.0683797
0.5427299 0.6463831 0.0811624
0.6747676 0.6840869 0.0951707
0.7809492 0.7142909 0.1096355
0.8487698 0.7352163 0.1241641
0.9042250 0.7516188 0.1401390
0.0014761 0.0014086 0.0435574
0.0659209 0.0045411 0.0831311
0.1673083 0.0153937 0.1159404
0.2761669 0.0347090 0.1445969
0.3812087 0.0564111 0.1705277
0.4713449 0.0785125 0.1917742
0.5444035 0.1020503 0.2099561
0.6060784 0.1280676 0.2294756
0.0000000 0.0707155 0.1009970
0.1107432 0.1325463 0.1535400
0.2601190 0.1704792 0.1803268
0.3883558 0.2026708 0.2001277
0.5020924 0.2320104 0.2183447
0.5964133 0.2586018 0.2354673
0.6688437 0.2849573 0.2524340
0.7244186 0.3087101 0.2661562
0.0000000 0.1539912 0.1270539
0.1257542 0.2513825 0.1760192
0.2950037 0.3037791 0.2020713
0.4394695 0.3450457 0.2215020
0.5595607 0.3778220 0.2389628
0.6596248 0.4075669 0.2559862
0.7341037 0.4347418 0.2724672
0.7909352 0.4601236 0.2860817
0.0000000 0.2379114 0.1466977
0.1347111 0.3542581 0.1895781
0.3213900 0.4221661 0.2157372
0.4742844 0.4690332 0.2349900
0.6021394 0.5031195 0.2523137
0.7058596 0.5352005 0.2696023
0.7780061 0.5608740 0.2829687
0.8306029 0.5800900 0.2991970
0.0000000 0.3116301 0.1604790
0.1458039 0.4363372 0.1993751
0.3374481 0.5080719 0.2225768
0.4934574 0.5561860 0.2440696
0.6270019 0.5932338 0.2589781
0.7322215 0.6224670 0.2760888
0.8034437 0.6420188 0.2922659
0.8568631 0.6611254 0.3058631
0.0000000 0.3676885 0.1710858
0.1553574 0.4943675 0.2070234
0.3498215 0.5684403 0.2300634
0.5116211 0.6173459 0.2489792
0.6439433 0.6557870 0.2667728
0.7499750 0.6829372 0.2837962
0.8218983 0.7022364 0.2973444
0.8755180 0.7205217 0.3109635
0.0000000 0.4146054 0.1804518
0.1627868 0.5346485 0.2136346
0.3647541 0.6121517 0.2369797
0.5264089 0.6610906 0.2558698
0.6559744 0.6963109 0.2738758
0.7628076 0.7233972 0.2878882
0.8308045 0.7420290 0.3046469
0.8875056 0.7574654 0.3180937
0.0000000 0.4508004 0.1887946
0.1740459 0.5653229 0.2201269
0.3748521 0.6430807 0.2432384
0.5345985 0.6922917 0.2623980
0.6715614 0.7272901 0.2776309
0.7729390 0.7537905 0.2946913
0.8409770 0.7721744 0.3086379
0.8939558 0.7853461 0.3219101
0.0079357 0.0043960 0.1200322
0.0901338 0.0108550 0.1815309
0.1935890 0.0198071 0.2201334
0.2995527 0.0378394 0.2578660
0.4002603 0.0594640 0.2901117
0.4896891 0.0826694 0.3180071
0.5605793 0.1084746 0.3406842
0.6207806 0.1348654 0.3637276
0.0000000 0.0889623 0.2117835
0.1291875 0.1448236 0.2859847
0.2766959 0.1820684 0.3226888
0.4067859 0.2151261 0.3497635
0.5153098 0.2425017 0.3715703
0.6089774 0.2696637 0.3916385
0.6774901 0.2962577 0.4067839
0.7329348 0.3205933 0.4238786
0.0000000 0.1832481 0.2527872
0.1422773 0.2707854 0.3253723
0.3095241 0.3231075 0.3606194
0.4509940 0.3607907 0.3853116
0.5750709 0.3971542 0.4069217
0.6699091 0.4264394 0.4253891
0.7389306 0.4492657 0.4382729
0.7956309 0.4749602 0.4545839
0.0000000 0.2713299 0.2804583
0.1513573 0.3820419 0.3493530
0.3342925 0.4457816 0.3837966
0.4842598 0.4907132 0.4079497
0.6105039 0.5237793 0.4279523
0.7090507 0.5546607 0.4459833
0.7795277 0.5759111 0.4581965
0.8331545 0.5982364 0.4735791
0.0000000 0.3473904 0.3020443
0.1602731 0.4682150 0.3650548
0.3494322 0.5356820 0.3981333
0.5065886 0.5819807 0.4218552
0.6338831 0.6167980 0.4415508
0.7330273 0.6410509 0.4587303
0.8046290 0.6626104 0.4708378
0.8580147 0.6813803 0.4857687
0.0000000 0.4077589 0.3206674
0.1706417 0.5272280 0.3758947
0.3617270 0.5985653 0.4081230
0.5191724 0.6444618 0.4313580
0.6496987 0.6783170 0.4509208
0.7507180 0.7055047 0.4645482
0.8220271 0.7241388 0.4801947
0.8747954 0.7391661 0.4947816
0.0000000 0.4547896 0.3338397
0.1787329 0.5712762 0.3842493
0.3725193 0.6417958 0.4157876
0.5335853 0.6885961 0.4390442
0.6673622 0.7231101 0.4586983
0.7629063 0.7467623 0.4717979
0.8341491 0.7646829 0.4873614
0.8864611 0.7784086 0.4979805
0.0000000 0.4909426 0.3451273
0.1910814 0.6030254 0.3915501
0.3869041 0.6729062 0.4225605
0.5415756 0.7184744 0.4452078
0.6767946 0.7535962 0.4649854
0.7726338 0.7773638 0.4781262
0.8436021 0.7936721 0.4935530
0.8924998 0.8069817 0.5041010
0.0177793 0.0105053 0.2036266
0.1168469 0.0217051 0.2789595
0.2247458 0.0333243 0.3225833
0.3270648 0.0455520 0.3554738
0.4220874 0.0625243 0.3863080
0.5075293 0.0865916 0.4171232
0.5769407 0.1128329 0.4436013
0.6332245 0.1388129 0.4663147
0.0033432 0.1013521 0.3074521
0.1512673 0.1520571 0.3926630
0.2961130 0.1903400 0.4361226
0.4232073 0.2215008 0.4661130
0.5343629 0.2494980 0.4900632
0.6228120 0.2768455 0.5074338
0.6901270 0.3040579 0.5245379
0.7409618 0.3254893 0.5385737
0.0000000 0.2062631 0.3619639
0.1666578 0.2864657 0.4442579
0.3322161 0.3339859 0.4840197
0.4708837 0.3738554 0.5116984
0.5885587 0.4062140 0.5331839
0.6818287 0.4354359 0.5507498
0.7493578 0.4582154 0.5646328
0.8023098 0.4836950 0.5779321
0.0000000 0.2989267 0.3960975
0.1745046 0.4006140 0.4759197
0.3537520 0.4609752 0.5152623
0.4986249 0.5038166 0.5411531
0.6233379 0.5362092 0.5613031
0.7201260 0.5665141 0.5775174
0.7853769 0.5866787 0.5900316
0.8386065 0.6087416 0.5989037
0.0000000 0.3737788 0.4197779
0.1846570 0.4876493 0.4968424
0.3685910 0.5501809 0.5341310
0.5202962 0.5938855 0.5592364
0.6455834 0.6275156 0.5783406
0.7433209 0.6538148 0.5903471
0.8097318 0.6744457 0.6025839
0.8613261 0.6893308 0.6132982
0.0000000 0.4335901 0.4378504
0.1927619 0.5502487 0.5082092
0.3810540 0.6148090 0.5442528
0.5332348 0.6607695 0.5686505
0.6660737 0.6936205 0.5875003
0.7593534 0.7164449 0.6015500
0.8265722 0.7364005 0.6135927
0.8779703 0.7507292 0.6241715
0.0000000 0.4825399 0.4549640
0.2017823 0.5935710 0.5187429
0.3921200 0.6592820 0.5540003
0.5474772 0.7029281 0.5778430
0.6773597 0.7355134 0.5958323
0.7708057 0.7583053 0.6097690
0.8379174 0.7748049 0.6213953
0.8887413 0.7878249 0.6284686
0.0063763 0.5182508 0.4685481
0.2112545 0.6249048 0.5273005
0.4026833 0.6917366 0.5619878
0.5557652 0.7352487 0.5849580
0.6868010 0.7665244 0.6027265
0.7801524 0.7891113 0.6133215
0.8477296 0.8059925 0.6249284
0.8946166 0.8167471 0.6348982
0.0304975 0.0216433 0.2793256
0.1418197 0.0355719 0.3554372
0.2553484 0.0480479 0.3978642
0.3551725 0.0610411 0.4305294
0.4461595 0.0739756 0.4554983
0.5232692 0.0903037 0.4805574
0.5896454 0.1180836 0.5076228
0.6459011 0.1453445 0.5325112
0.0205599 0.1116148 0.3788287
0.1722269 0.1598459 0.4618551
0.3165336 0.1960099 0.5075848
0.4398460 0.2270685 0.5373275
0.5508173 0.2579554 0.5639028
0.6366612 0.2830551 0.5818036
0.6985072 0.3075548 0.5989990
0.7496445 0.3323284 0.6123617
0.0086933 0.2225540 0.4392490
0.1900371 0.2961532 0.5225726
0.3504190 0.3442057 0.5629193
0.4876426 0.3807604 0.5919017
0.6029662 0.4128048 0.6120518
0.6941239 0.4419863 0.6305825
0.7585260 0.4683476 0.6432040
0.8088182 0.4899702 0.6558217
0.0002236 0.3216570 0.4781998
0.1998226 0.4146654 0.5570502
0.3722282 0.4713209 0.5979884
0.5157734 0.5132467 0.6230457
0.6372952 0.5449083 0.6439398
0.7315662 0.5743266 0.6583521
0.7962857 0.5944659 0.6714267
0.8443706 0.6159922 0.6801911
0.0000000 0.3997259 0.5022314
0.2081669 0.5027282 0.5799986
0.3877271 0.5617887 0.6167072
0.5377977 0.6043818 0.6432683
0.6637585 0.6373625 0.6608394
0.7541139 0.6624187 0.6762724
0.8159075 0.6789347 0.6853469
0.8666323 0.6968305 0.6957932
0.0000000 0.4568536 0.5209775
0.2170987 0.5643395 0.5930064
0.4006513 0.6276549 0.6313913
0.5505025 0.6690971 0.6540047
0.6793932 0.7030931 0.6740377
0.7700143 0.7250944 0.6858098
0.8326292 0.7414874 0.6971700
0.8823695 0.7552906 0.7043101
0.0097517 0.5037892 0.5357767
0.2267880 0.6105221 0.6048335
0.4119314 0.6718872 0.6390882
0.5652142 0.7139759 0.6641099
0.6907687 0.7449945 0.6802360
0.7813418 0.7667257 0.6946718
0.8440332 0.7821264 0.7028212
0.8904976 0.7944614 0.7120723
0.0269712 0.5407740 0.5510011
0.2373133 0.6406640 0.6111616
0.4224603 0.7027690 0.6471429
0.5734846 0.7444753 0.6686889
0.7002716 0.7760590 0.6875910
0.7903450 0.7958680 0.6986822
0.8528195 0.8115776 0.7093241
0.8992599 0.8239207 0.7159382
0.0451608 0.0334464 0.3399363
0.1672992 0.0495982 0.4132802
0.2797172 0.0635822 0.4546004
0.3816422 0.0777856 0.4871330
0.4731938 0.0926347 0.5128100
0.5450941 0.1076409 0.5335392
0.6003758 0.1223434 0.5506552
0.6557431 0.1506625 0.5744038
0.0402015 0.1213472 0.4309191
0.1950420 0.1677804 0.5113823
0.3382009 0.2038734 0.5575041
0.4569836 0.2327230 0.5868195
0.5651256 0.2638344 0.6119062
0.6460067 0.2889309 0.6299448
0.7078784 0.3138517 0.6451539
0.7578005 0.3390462 0.6605402
0.0317477 0.2385836 0.4959752
0.2128791 0.3071582 0.5755529
0.3733869 0.3514708 0.6160164
0.5053170 0.3869373 0.6427764
0.6169722 0.4185737 0.6632590
0.7023671 0.4472431 0.6811841
0.7667004 0.4738003 0.6940478
0.8128804 0.4951465 0.7038853
0.0251739 0.3405906 0.5364446
0.2244028 0.4265220 0.6125211
0.3965587 0.4811569 0.6517843
0.5341291 0.5215163 0.6788768
0.6563942 0.5530453 0.6977980
0.7395402 0.5803450 0.7113544
0.8038594 0.6004326 0.7215765
0.8496152 0.6180030 0.7297006
0.0255512 0.4226988 0.5631191
0.2344345 0.5161540 0.6369529
0.4127387 0.5728528 0.6742383
0.5565791 0.6130626 0.6980225
0.6782959 0.6448802 0.7156429
0.7612953 0.6653298 0.7272174
0.8264893 0.6856652 0.7390944
0.8725553 0.7025605 0.7467229
0.0294597 0.4816515 0.5823948
0.2442025 0.5789246 0.6511658
0.4262144 0.6394599 0.6874467
0.5695651 0.6779740 0.7097379
0.6936336 0.7080182 0.7287799
0.7776800 0.7312741 0.7403880
0.8392855 0.7473452 0.7488690
0.8881168 0.7609992 0.7559763
0.0350390 0.5233316 0.5944442
0.2546757 0.6232451 0.6608855
0.4332415 0.6803777 0.6969150
0.5844815 0.7208265 0.7196325
0.7051939 0.7503273 0.7356491
0.7885804 0.7703319 0.7464879
0.8499517 0.7854099 0.7546548
0.8956062 0.7975203 0.7634614
0.0479239 0.5572357 0.6075958
0.2657840 0.6557503 0.6701335
0.4445028 0.7133595 0.7031157
0.5930260 0.7516983 0.7247130
0.7149297 0.7815500 0.7405497
0.7979090 0.8017665 0.7533808
0.8591293 0.8170601 0.7614689
0.9043550 0.8271567 0.7677214
0.0634493 0.0466096 0.3910989
0.1900442 0.0647567 0.4601702
0.3064282 0.0799960 0.5009038
0.4075942 0.0961534 0.5318800
0.4985491 0.1124241 0.5573068
0.5695952 0.1281755 0.5774891
0.6245115 0.1429184 0.5938364
0.6667324 0.1584549 0.6084387
0.0614118 0.1307362 0.4723627
0.2164309 0.1737660 0.5475157
0.3565229 0.2094910 0.5916145
0.4751813 0.2409932 0.6225068
0.5796131 0.2699159 0.6467848
0.6585172 0.2952150 0.6650642
0.7169151 0.3202275 0.6802757
0.7658081 0.3458571 0.6941077
0.0573680 0.2514617 0.5410998
0.2371275 0.3152630 0.6143811
0.3933489 0.3610183 0.6550183
0.5241961 0.3963969 0.6821493
0.6323249 0.4279252 0.7027239
0.7142853 0.4526236 0.7176586
0.7742069 0.4789226 0.7304145
0.8195907 0.5003920 0.7404895
0.0530579 0.3582214 0.5821152
0.2506148 0.4378566 0.6536731
0.4174097 0.4896396 0.6919371
0.5532431 0.5292830 0.7172026
0.6714113 0.5600230 0.7360129
0.7516147 0.5864418 0.7494254
0.8109989 0.6059080 0.7593539
0.8560357 0.6234898 0.7676275
0.0551678 0.4426015 0.6095416
0.2620057 0.5286041 0.6773299
0.4346154 0.5821537 0.7135305
0.5713202 0.6200626 0.7366720
0.6929287 0.6485310 0.7541402
0.7734488 0.6716326 0.7661551
0.8335021 0.6911223 0.7755702
0.8780057 0.7044349 0.7826829
0.0596415 0.5002409 0.6281610
0.2731934 0.5925816 0.6941343
0.4439187 0.6453779 0.7280933
0.5897212 0.6861801 0.7515949
0.7084067 0.7147230 0.7681032
0.7893646 0.7346530 0.7792146
0.8489205 0.7502837 0.7877041
0.8906296 0.7627291 0.7943196
0.0671275 0.5450953 0.6413222
0.2806505 0.6356469 0.7034643
0.4560183 0.6898986 0.7369813
0.5997975 0.7278591 0.7590689
0.7191553 0.7566861 0.7752384
0.8007586 0.7760313 0.7860509
0.8566391 0.7900793 0.7938951
0.9014969 0.8019513 0.8005219
0.0769561 0.5769188 0.6511625
0.2924641 0.6666300 0.7107460
0.4672282 0.7211003 0.7431745
0.6084428 0.7586784 0.7644279
0.7280661 0.7877253 0.7803312
0.8056690 0.8047319 0.7903630
0.8654814 0.8196943 0.7984937
0.9102370 0.8316678 0.8050414
0.0828998 0.0617349 0.4359913
0.2139988 0.0816570 0.5009658
0.3310415 0.0988615 0.5407498
0.4328820 0.1148977 0.5699745
0.5259240 0.1319015 0.5948485
0.5918308 0.1474757 0.6132119
0.6440301 0.1636267 0.6280664
0.6848534 0.1781860 0.6411226
0.0831163 0.1399198 0.5063212
0.2389446 0.1819221 0.5774143
0.3752915 0.2153149 0.6192884
0.4930285 0.2470359 0.6503079
0.5942917 0.2760650 0.6744176
0.6678376 0.3014449 0.6921484
0.7281277 0.3269452 0.7075592
0.7724003 0.3493492 0.7198105
0.0821730 0.2651065 0.5765387
0.2626697 0.3261232 0.6458282
0.4137749 0.3674367 0.6825295
0.5384432 0.4018075 0.7088369
0.6470470 0.4335104 0.7296459
0.7238607 0.4614982 0.7448200
0.7816012 0.4839363 0.7562631
0.8262483 0.5052869 0.7660001
0.0817135 0.3742446 0.6186984
0.2748177 0.4480899 0.6850075
0.4391047 0.4979291 0.7223657
0.5724804 0.5330248 0.7464677
0.6813002 0.5658174 0.7648401
0.7592423 0.5880037 0.7757193
0.8182733 0.6111336 0.7860910
0.8625689 0.6287093 0.7939953
0.0847463 0.4576074 0.6454758
0.2875642 0.5397297 0.7094264
0.4521302 0.5868685 0.7432845
0.5912694 0.6246539 0.7668434
0.7061817 0.6546934 0.7839261
0.7819049 0.6769897 0.7952441
0.8406660 0.6962349 0.8042690
0.8843467 0.7092388 0.8094578
0.0912233 0.5195032 0.6652558
0.2958286 0.6005934 0.7252039
0.4666179 0.6547125 0.7578680
0.6048412 0.6901895 0.7797664
0.7210813 0.7179196 0.7958285
0.7973640 0.7395660 0.8066159
0.8560146 0.7550263 0.8146973
0.8967949 0.7669563 0.8207849
0.0981296 0.5620177 0.6773890
0.3082543 0.6456218 0.7358513
0.4789814 0.6967603 0.7681457
0.6201939 0.7332913 0.7896388
0.7320257 0.7601346 0.8032868
0.8078870 0.7782574 0.8132415
0.8631991 0.7921314 0.8206881
0.9071760 0.8038003 0.8268430
0.1069485 0.5933934 0.6866747
0.3166337 0.6775097 0.7429164
0.4859815 0.7288957 0.7742176
0.6290084 0.7643563 0.7952409
0.7410741 0.7914093 0.8100925
0.8169461 0.8098611 0.8199350
0.8720891 0.8218601 0.8254922
0.9155500 0.8335522 0.8315256
