Plugins/FilmEmulator/Content/LUTs/FE_Fuji_3523XD_64.cube
TITLE "FE_Fuji_3523XD_33"
LUT_3D_SIZE 4
0.0035673 0.0684181 0.0923597
0.6366104 0.2554631 0.1187024
1.0000000 0.5330015 0.2142974
1.0000000 0.6846767 0.3191939
0.2792027 0.8964260 0.5994854
0.6499782 0.9115324 0.5649500
0.9231930 0.9549457 0.5851020
0.9699386 0.9757215 0.6315758
0.5048263 0.9888592 0.8261764
0.7529023 0.9900297 0.8072126
0.9405088 1.0000000 0.8016906
0.9710681 1.0000000 0.7966277
0.6369048 1.0000000 0.9119934
0.8079008 0.9995661 0.8987803
0.9566639 1.0000000 0.8948064
0.9799202 1.0000000 0.8912910
0.8755167 0.7901162 0.9975301
0.9787179 0.8508662 0.9879237
1.0000000 0.8944451 0.9814653
1.0000000 0.9194650 0.9780525
0.9280900 0.9789352 0.9958712
0.9792059 0.9871751 0.9934559
0.9922301 0.9912929 0.9921599
0.9956082 0.9928337 0.9911312
0.9521866 0.9938234 0.9981292
0.9867488 0.9967353 0.9968805
0.9948986 0.9981741 0.9964029
0.9968982 0.9986920 0.9959849
0.9620757 0.9966198 0.9990473
0.9898778 0.9983196 0.9982369
0.9961759 0.9991502 0.9979313
0.9977010 0.9994627 0.9976816
0.9868178 0.9692075 1.0000000
0.9941709 0.9741486 0.9995078
0.9968026 0.9753329 0.9992354
0.9979932 0.9769858 0.9989986
0.9922031 0.9957203 0.9989104
0.9960231 0.9968936 0.9986929
0.9971932 0.9972831 0.9985938
0.9977286 0.9974803 0.9985288
0.9948649 0.9985681 0.9991238
0.9973533 0.9990610 0.9990132
0.9981263 0.9992435 0.9989601
0.9984872 0.9993437 0.9989263
0.9958339 0.9991317 0.9992664
0.9978693 0.9994631 0.9991836
0.9985042 0.9995932 0.9991533
0.9987848 0.9996579 0.9991299
0.9959904 0.9919088 0.9991729
0.9969472 0.9922788 0.9990811
0.9974546 0.9923298 0.9990351
0.9977242 0.9921321 0.9990075
0.9974905 0.9984149 0.9991226
0.9980103 0.9985704 0.9990842
0.9982740 0.9986410 0.9990540
0.9984025 0.9986582 0.9990354
0.9982570 0.9994150 0.9992937
0.9986166 0.9994972 0.9992710
0.9987959 0.9995432 0.9992548
0.9988960 0.9995686 0.9992448
0.9985301 0.9996225 0.9993806
0.9988406 0.9996888 0.9993621
0.9989924 0.9997233 0.9993522
0.9990770 0.9997429 0.9993446
