Plugins/FilmEmulator/Content/LUTs/FE_Fuji_Velvia_50_64.cube
TITLE "FE_Fuji_Velvia_50_33"
LUT_3D_SIZE 4
0.0007301 0.0003419 0.0004653
0.2352704 0.0088886 0.0039133
0.5106133 0.0518320 0.0247032
0.7001632 0.1049409 0.0556161
0.0000000 0.1867768 0.0000000
0.4152289 0.3437337 0.0000000
0.7219529 0.4151701 0.0102102
0.9047868 0.4687325 0.0341369
0.0000000 0.4002887 0.0058021
0.4394521 0.5631399 0.0055556
0.7728268 0.6345290 0.0260326
0.9636493 0.6808541 0.0503537
0.0068707 0.5429676 0.0290519
0.4387204 0.6791792 0.0314523
0.7827738 0.7463387 0.0503328
0.9760039 0.7806724 0.0773550
0.0253823 0.0000000 0.3009096
0.2961623 0.0053058 0.3676434
0.5319905 0.0444707 0.4144740
0.7023122 0.1010876 0.4564568
0.0000000 0.2848298 0.4086615
0.3878633 0.3898576 0.4412320
0.6705108 0.4474823 0.4669703
0.8408096 0.4952137 0.4935008
0.0000000 0.5047520 0.4249095
0.4073178 0.6231180 0.4476478
0.7125252 0.6780772 0.4707386
0.8888566 0.7126567 0.4960994
0.0000000 0.6338960 0.4314299
0.4092330 0.7387673 0.4481227
0.7286932 0.7877204 0.4703386
0.9075575 0.8126246 0.4955790
0.0774084 0.0127708 0.5646391
0.3763687 0.0396931 0.6132110
0.5866134 0.0672041 0.6403024
0.7250000 0.0983670 0.6618282
0.0203025 0.3140866 0.6740928
0.4360091 0.3969619 0.6986988
0.6934099 0.4519174 0.7114779
0.8530691 0.4992416 0.7226522
0.0000000 0.5393297 0.7002754
0.4529316 0.6396808 0.7160183
0.7297637 0.6851001 0.7243791
0.8952939 0.7174604 0.7327197
0.0000000 0.6657781 0.7089362
0.4582011 0.7590336 0.7180271
0.7436818 0.7975162 0.7275922
0.9121289 0.8213730 0.7351825
0.1377608 0.0515785 0.6803333
0.4415273 0.0810040 0.7101541
0.6388777 0.1132020 0.7293380
0.7659912 0.1446366 0.7437019
0.1052852 0.3293640 0.7665633
0.4931965 0.4027897 0.7817657
0.7263198 0.4560752 0.7899861
0.8715489 0.5029705 0.7954590
0.0737386 0.5675582 0.7951971
0.5136219 0.6467860 0.8017629
0.7631814 0.6915071 0.8054153
0.9131516 0.7225182 0.8076274
0.0552303 0.6863977 0.8039920
0.5203359 0.7683707 0.8074850
0.7771553 0.8036321 0.8095809
0.9292063 0.8236519 0.8108454
