Plugins/FilmEmulator/Content/LUTs/FE_Fuji_C200_64.cube
TITLE "FE_Fuji_C200_33"
LUT_3D_SIZE 4
0.0004931 0.0006089 0.0004697
0.2446489 0.0059471 0.0033960
0.5747142 0.0179006 0.0102502
0.7605993 0.0331208 0.0201385
0.0125742 0.2989004 0.0107721
0.2867459 0.3225933 0.0171206
0.5999952 0.3490133 0.0264548
0.7720315 0.3768667 0.0408588
0.0392005 0.5987689 0.0372907
0.3539132 0.6167800 0.0471086
0.6391629 0.6357039 0.0571165
0.7833151 0.6448579 0.0690132
0.0759706 0.7623259 0.0728053
0.4073425 0.7686165 0.0872881
0.6681181 0.7754646 0.1007139
0.8035585 0.7823560 0.1119390
0.0063851 0.0065620 0.3009472
0.2782454 0.0147799 0.3135400
0.6096916 0.0254665 0.3335762
0.7772563 0.0440320 0.3457556
0.0254754 0.3132713 0.3614615
0.3289725 0.3382817 0.3798176
0.6243618 0.3657030 0.3896099
0.7808064 0.3946418 0.3995854
0.0586896 0.6064028 0.4153625
0.3892005 0.6246833 0.4249787
0.6624858 0.6337556 0.4345993
0.7994478 0.6528025 0.4446429
0.1046148 0.7684683 0.4490699
0.4440646 0.7748446 0.4683557
0.6895971 0.7816183 0.4782597
0.8113489 0.7884433 0.4882530
0.0183318 0.0198910 0.5892840
0.3138209 0.0316710 0.6017354
0.6293562 0.0456167 0.6136912
0.7840034 0.0611131 0.6251127
0.0438960 0.3301297 0.6394435
0.3620248 0.3562178 0.6398160
0.6470806 0.3844393 0.6495733
0.7889014 0.4038875 0.6590233
0.0840190 0.6154649 0.6649930
0.4248425 0.6337877 0.6740079
0.6732392 0.6428745 0.6741067
0.8070052 0.6617104 0.6832288
0.1324279 0.7677559 0.6868520
0.4688607 0.7742716 0.6953601
0.6998605 0.7883224 0.6957138
0.8185405 0.7949955 0.7042619
0.0342598 0.0369114 0.7498361
0.3543327 0.0510080 0.7587425
0.6495577 0.0681849 0.7602682
0.7904324 0.0846002 0.7686142
0.0653629 0.3478982 0.7780280
0.3963378 0.3749003 0.7783504
0.6690112 0.3938417 0.7854302
0.8039459 0.4237149 0.7859503
0.1108069 0.6248040 0.7902021
0.4489628 0.6431205 0.7969102
0.6938663 0.6521103 0.7969854
0.8142353 0.6707529 0.8036804
0.1671199 0.7748130 0.8062999
0.5056794 0.7812486 0.8062979
0.7197630 0.7879413 0.8125471
0.8255882 0.7946689 0.8126618
