Plugins/FilmEmulator/Content/LUTs/FE_Fuji_3513DI_64.cube
TITLE "FE_Fuji_3513DI_33"
LUT_3D_SIZE 4
0.0000000 0.0474503 0.2747737
0.5931234 0.1402340 0.2160684
1.0000000 0.3327864 0.2876507
1.0000000 0.4855538 0.3762939
0.3685277 0.9411530 0.3900426
0.6863725 0.9343194 0.3765641
0.9624193 0.9407495 0.4356454
1.0000000 0.9470195 0.5230373
0.5887958 1.0000000 0.6423677
0.7802913 1.0000000 0.6197095
0.9564607 1.0000000 0.6374275
0.9903458 1.0000000 0.6554645
0.6906428 1.0000000 0.7956606
0.8232224 1.0000000 0.7735072
0.9629104 1.0000000 0.7822880
0.9887565 1.0000000 0.7917559
0.8677844 0.6890953 0.9918391
1.0000000 0.7556640 0.9821294
1.0000000 0.7918911 0.9779361
1.0000000 0.8332049 0.9734753
0.9297455 0.9809307 0.9846707
0.9892803 0.9851735 0.9844109
1.0000000 0.9871090 0.9841697
1.0000000 0.9881690 0.9840115
0.9528222 0.9979117 0.9906782
0.9921660 0.9978553 0.9911905
0.9983169 0.9981102 0.9914905
0.9999294 0.9982477 0.9915534
0.9610131 1.0000000 0.9942402
0.9936574 0.9995070 0.9945769
0.9984235 0.9995475 0.9948460
0.9994954 0.9995612 0.9950401
0.9951252 0.9549941 1.0000000
1.0000000 0.9610068 1.0000000
1.0000000 0.9637076 1.0000000
1.0000000 0.9649546 1.0000000
0.9960883 0.9963028 0.9994909
0.9988726 0.9968336 0.9994206
0.9997754 0.9971282 0.9994037
1.0000000 0.9972038 0.9993710
0.9974722 0.9991997 0.9995411
0.9991169 0.9993449 0.9995397
0.9995993 0.9994077 0.9995376
0.9997888 0.9994280 0.9995409
0.9980915 0.9997011 0.9996445
0.9992913 0.9997564 0.9996541
0.9996496 0.9997841 0.9996698
0.9997815 0.9997954 0.9996670
0.9994196 0.9896613 1.0000000
1.0000000 0.9901984 1.0000000
1.0000000 0.9904541 1.0000000
1.0000000 0.9907050 1.0000000
0.9992629 0.9988322 0.9999346
0.9995877 0.9989246 0.9999259
0.9997433 0.9989756 0.9999212
0.9998280 0.9989839 0.9999192
0.9994948 0.9996834 0.9998978
0.9996848 0.9997110 0.9998987
0.9997740 0.9997260 0.9998993
0.9998205 0.9997294 0.9998995
0.9996069 0.9998612 0.9998999
0.9997481 0.9998742 0.9999031
0.9998134 0.9998811 0.9999052
0.9998471 0.9998833 0.9999062
