Plugins/FilmEmulator/Content/LUTs/FE_Fujifilm_Eterna_250D_8563_64.cube
# FilmEmulator LUT (resampled to 64)
LUT_3D_SIZE 4
0.000000 0.000671 0.003326
0.274852 0.065633 0.057282
0.490946 0.109680 0.074737
0.621033 0.123291 0.080780
0.000000 0.240112 0.098440
0.290700 0.285631 0.077359
0.576819 0.329966 0.124617
0.727173 0.330109 0.129130
0.019175 0.399048 0.183207
0.314246 0.502014 0.179165
0.609717 0.549008 0.156613
0.816691 0.594574 0.202993
0.095917 0.528717 0.318420
0.334107 0.620016 0.331136
0.625539 0.718862 0.274048
0.803986 0.752014 0.220398
0.000000 0.022075 0.124318
0.219150 0.061066 0.228455
0.485823 0.116662 0.239448
0.631836 0.135234 0.241241
0.000000 0.176459 0.172343
0.195399 0.276729 0.287693
0.557075 0.337400 0.322438
0.723887 0.339874 0.316050
0.000000 0.391740 0.291083
0.186621 0.535018 0.383716
0.575745 0.577336 0.365855
0.806919 0.618225 0.399584
0.043762 0.540985 0.390991
0.249064 0.645457 0.464542
0.589471 0.742123 0.450724
0.783020 0.772970 0.419027
0.000000 0.050100 0.247111
0.171099 0.091017 0.362206
0.439104 0.123481 0.404107
0.632914 0.138987 0.424734
0.000000 0.301914 0.384803
0.028575 0.265969 0.463048
0.485904 0.301329 0.507230
0.714488 0.334157 0.519490
0.000000 0.329878 0.329661
0.020315 0.410781 0.399290
0.566872 0.590358 0.573744
0.781298 0.627927 0.609521
0.000000 0.500061 0.420339
0.095221 0.579777 0.478780
0.548367 0.749678 0.607693
0.754761 0.782033 0.608500
0.000000 0.077637 0.392639
0.209229 0.110057 0.425741
0.387238 0.135274 0.465006
0.548615 0.143402 0.519623
0.000000 0.353546 0.488017
0.016951 0.258386 0.534007
0.452321 0.289605 0.587270
0.610016 0.290884 0.624023
0.000000 0.461131 0.508006
0.001075 0.499705 0.545970
0.443088 0.531819 0.623918
0.713288 0.587291 0.710551
0.000000 0.466797 0.436615
0.043864 0.492076 0.447846
0.474020 0.673258 0.624685
0.705780 0.751251 0.718079
