Plugins/FilmEmulator/Content/LUTs/FE_Fuji_Eterna_500_64.cube
TITLE "FE_Fuji_Eterna_500_33"
LUT_3D_SIZE 4
0.0037835 0.0027674 0.0036999
0.2204269 0.0110438 0.0082070
0.4699990 0.0281188 0.0176399
0.6125394 0.0492976 0.0300886
0.0167072 0.2733092 0.0166430
0.2495320 0.2954263 0.0236139
0.4801639 0.3281708 0.0352517
0.6123580 0.3450260 0.0513711
0.0437353 0.5212710 0.0412321
0.2957607 0.5397862 0.0506174
0.5023145 0.5490730 0.0602780
0.6220196 0.5666645 0.0744842
0.0788151 0.6543227 0.0700537
0.3299109 0.6680236 0.0808363
0.5271739 0.6747321 0.0931112
0.6343692 0.6816041 0.1033775
0.0109908 0.0101072 0.2830324
0.2503372 0.0206052 0.2946365
0.4918602 0.0317233 0.3051619
0.6216234 0.0504878 0.3162129
0.0335262 0.2773138 0.3285079
0.2848508 0.3002143 0.3461198
0.5006756 0.3250484 0.3555397
0.6212426 0.3511789 0.3651416
0.0665190 0.5175923 0.3698011
0.3247135 0.5365422 0.3791134
0.5223271 0.5551657 0.3886680
0.6309329 0.5639431 0.3981137
0.1028920 0.6590294 0.4010284
0.3602339 0.6655461 0.4103792
0.5377651 0.6724622 0.4199378
0.6430731 0.6794506 0.4296072
0.0278790 0.0259599 0.5366966
0.2816612 0.0377227 0.5390187
0.5074663 0.0521808 0.5509613
0.6277219 0.0674349 0.5527899
0.0545260 0.2839927 0.5649201
0.3121600 0.3074616 0.5749908
0.5198313 0.3326538 0.5851983
0.6294647 0.3501331 0.5856535
0.0898623 0.5263218 0.5907986
0.3444401 0.5353542 0.6002586
0.5322597 0.5540613 0.6006432
0.6390501 0.5628458 0.6101977
0.1286600 0.6579025 0.6130896
0.3804834 0.6645644 0.6130852
0.5570115 0.6714960 0.6224708
0.6510973 0.6785592 0.6226223
0.0479204 0.0435262 0.6788324
0.3152837 0.0581648 0.6888609
0.5238014 0.0751862 0.6904212
0.6411600 0.0901743 0.6915583
0.0765708 0.2832288 0.7001033
0.3409742 0.3067812 0.7086689
0.5295824 0.3320321 0.7092403
0.6371819 0.3584614 0.7178378
0.1168497 0.5254121 0.7218975
0.3740485 0.5446293 0.7221449
0.5513762 0.5533373 0.7222561
0.6467248 0.5711915 0.7303588
0.1603467 0.6571409 0.7325392
0.4113078 0.6638809 0.7325534
0.5654148 0.6708676 0.7401897
0.6587036 0.6851197 0.7404861
