Plugins/FilmEmulator/Content/LUTs/FE_Fuji_Natura_1600_64.cube
TITLE "FE_Fuji_Natura_1600_33"
LUT_3D_SIZE 4
0.0036603 0.0023497 0.0047951
0.2666288 0.0090119 0.0076371
0.6364433 0.0287999 0.0141693
0.8174645 0.0606407 0.0237790
0.0099182 0.2981907 0.0126372
0.2987980 0.3562976 0.0186174
0.6468604 0.4095770 0.0281317
0.8198590 0.4542532 0.0417202
0.0286072 0.6398128 0.0299157
0.3692131 0.6700576 0.0401625
0.6734155 0.6999004 0.0532921
0.8299858 0.7189217 0.0664601
0.0608728 0.8128410 0.0564044
0.4246440 0.8259751 0.0730764
0.7136203 0.8322821 0.0883917
0.8486205 0.8448383 0.1069167
0.0081471 0.0057482 0.3448795
0.3068662 0.0141819 0.3723773
0.6603249 0.0383689 0.4021083
0.8254882 0.0742258 0.4188408
0.0214943 0.3163088 0.4232128
0.3567576 0.3765257 0.4472696
0.6722810 0.4198844 0.4598648
0.8362308 0.4649127 0.4839428
0.0504068 0.6494742 0.4795390
0.4075082 0.6796204 0.4916661
0.7089249 0.7090315 0.5154315
0.8455056 0.7277692 0.5275108
0.0909176 0.8122333 0.5206264
0.4649933 0.8255265 0.5438786
0.7359642 0.8384073 0.5558407
0.8560296 0.8506212 0.5790600
0.0185434 0.0158859 0.6930708
0.3593923 0.0264033 0.7063123
0.6823854 0.0491873 0.7203817
0.8401968 0.0871851 0.7338427
0.0424463 0.3356931 0.7366289
0.4058727 0.3869309 0.7467202
0.7066158 0.4421237 0.7567520
0.8435192 0.4876728 0.7662834
0.0783390 0.6595853 0.7626413
0.4591086 0.6894364 0.7715644
0.7308241 0.7183900 0.7803855
0.8526535 0.7367530 0.7887391
0.1285107 0.8190315 0.7839444
0.5045438 0.8320344 0.7920721
0.7568429 0.8382194 0.7998091
0.8693129 0.8504554 0.8002404
0.0374503 0.0326550 0.8432287
0.4034236 0.0472409 0.8508896
0.7141708 0.0655959 0.8523684
0.8537338 0.1022368 0.8602220
0.0685368 0.3558993 0.8670298
0.4437240 0.4087212 0.8677635
0.7284300 0.4533010 0.8736963
0.8574172 0.4990167 0.8743410
0.1159289 0.6696809 0.8772025
0.4983958 0.6992099 0.8825604
0.7517862 0.7181937 0.8828214
0.8658915 0.7456115 0.8880607
0.1723853 0.8257206 0.8851144
0.5443506 0.8318838 0.8898913
0.7666147 0.8444372 0.8901433
0.8754364 0.8562813 0.8949451
