Plugins/FilmEmulator/Content/LUTs/FE_Ilfochrome_Micrographic_P_64.cube
TITLE "FE_Ilfochrome_Micrographic_P_33"
LUT_3D_SIZE 64
0.0070188 0.0084301 0.0096708
0.0080381 0.0085412 0.0097104
0.0116733 0.0088716 0.0098441
0.0177164 0.0093436 0.0102126
0.0262866 0.0098457 0.0105459
0.0368232 0.0103041 0.0108341
0.0487998 0.0106634 0.0110673
0.0608820 0.0109429 0.0112646
0.0734504 0.0111911 0.0114391
0.0863347 0.0114056 0.0116178
0.1007276 0.0115727 0.0117748
0.1150266 0.0116906 0.0119619
0.1295555 0.0117950 0.0121891
0.1430333 0.0119309 0.0124932
0.1582721 0.0119913 0.0127587
0.1760561 0.0120740 0.0130861
0.1925527 0.0121379 0.0134179
0.2106641 0.0121954 0.0138144
0.2307215 0.0122198 0.0142756
0.2503709 0.0121915 0.0147280
0.2686358 0.0121402 0.0151094
0.2869967 0.0121622 0.0155239
0.3054885 0.0121199 0.0159423
0.3237339 0.0122240 0.0164475
0.3393009 0.0123971 0.0169356
0.3553787 0.0126829 0.0174835
0.3710987 0.0130456 0.0181022
0.3873387 0.0135047 0.0187737
0.4009382 0.0139194 0.0193775
0.4147148 0.0143690 0.0200071
0.4283122 0.0148621 0.0206996
0.4419729 0.0154218 0.0214291
0.4548437 0.0160463 0.0222434
0.4657287 0.0168019 0.0229693
0.4779543 0.0173657 0.0238767
0.4882097 0.0180165 0.0246874
0.4982397 0.0187111 0.0255677
0.5082498 0.0194561 0.0265953
0.5184606 0.0202867 0.0276767
0.5279676 0.0211769 0.0288845
0.5376872 0.0221299 0.0301880
0.5470427 0.0231526 0.0315556
0.5537356 0.0239525 0.0325981
0.5627368 0.0250067 0.0340297
0.5692973 0.0258158 0.0351431
0.5757235 0.0266444 0.0362069
0.5844601 0.0278215 0.0376827
0.5906510 0.0287570 0.0388357
0.5963205 0.0297267 0.0399847
0.6022121 0.0308570 0.0411916
0.6083739 0.0321942 0.0424730
0.6132802 0.0336002 0.0438076
0.6182332 0.0350466 0.0451841
0.6233847 0.0366697 0.0466316
0.6267297 0.0377818 0.0476216
0.6314295 0.0395008 0.0491795
0.6361477 0.0412504 0.0507964
0.6398675 0.0429644 0.0520187
0.6433814 0.0441564 0.0535763
0.6468403 0.0459568 0.0548784
0.6490887 0.0472252 0.0565551
0.6520022 0.0490986 0.0579282
0.6543666 0.0504116 0.0596874
0.6557367 0.0517357 0.0609898
0.0064930 0.0100851 0.0103527
0.0073704 0.0102402 0.0104013
0.0109089 0.0107660 0.0106635
0.0169358 0.0114044 0.0110061
0.0254344 0.0120079 0.0112881
0.0361797 0.0125612 0.0115488
0.0482235 0.0129951 0.0117618
0.0603605 0.0133118 0.0119255
0.0729077 0.0135559 0.0120703
0.0856737 0.0136993 0.0121874
0.0999540 0.0138241 0.0123112
0.1141883 0.0138626 0.0124246
0.1286412 0.0139087 0.0125938
0.1431785 0.0138885 0.0128350
0.1582554 0.0138252 0.0130477
0.1757545 0.0136903 0.0132369
0.1919802 0.0135568 0.0134763
0.2097887 0.0133810 0.0137684
0.2294002 0.0131500 0.0141218
0.2487242 0.0129024 0.0144844
0.2666439 0.0126803 0.0148333
0.2873692 0.0123901 0.0152225
0.3031052 0.0121475 0.0155942
0.3211125 0.0121547 0.0159616
0.3367573 0.0123288 0.0164962
0.3527518 0.0125882 0.0170097
0.3684891 0.0129367 0.0175751
0.3847396 0.0133790 0.0182182
0.3982456 0.0137854 0.0187838
0.4145787 0.0141655 0.0194845
0.4281667 0.0146443 0.0201307
0.4418175 0.0151944 0.0208389
0.4522987 0.0158732 0.0216191
0.4655313 0.0165605 0.0224531
0.4755007 0.0171625 0.0231549
0.4880227 0.0177357 0.0239050
0.4983189 0.0186574 0.0249576
0.5083398 0.0193954 0.0258893
0.5185524 0.0202252 0.0269436
0.5280701 0.0211086 0.0280498
0.5353035 0.0218371 0.0292735
0.5449381 0.0228197 0.0303027
0.5538412 0.0238835 0.0316831
0.5605482 0.0246972 0.0330362
0.5690395 0.0254510 0.0340987
0.5757906 0.0266013 0.0355890
0.5823249 0.0274750 0.0366720
0.5888445 0.0283943 0.0377923
0.5960128 0.0293234 0.0389397
0.6017774 0.0303427 0.0401000
0.6084772 0.0321294 0.0414528
0.6128346 0.0330593 0.0426501
0.6166479 0.0345157 0.0440018
0.6217339 0.0360783 0.0454041
0.6268032 0.0377363 0.0468594
0.6315073 0.0394529 0.0483621
0.6346648 0.0406279 0.0494214
0.6393411 0.0423437 0.0510305
0.6434625 0.0441068 0.0526914
0.6457400 0.0453173 0.0538312
0.6491735 0.0471738 0.0556070
0.6514661 0.0484285 0.0568204
0.6538273 0.0497305 0.0585488
0.6558242 0.0516833 0.0599752
0.0055553 0.0129631 0.0113829
0.0062852 0.0131788 0.0115431
0.0098238 0.0139134 0.0119061
0.0158175 0.0148265 0.0122583
0.0245623 0.0157948 0.0125704
0.0353955 0.0166803 0.0128269
0.0476820 0.0174389 0.0130251
0.0606616 0.0180671 0.0131832
0.0735431 0.0185798 0.0133139
0.0866351 0.0190202 0.0134371
0.1012857 0.0194235 0.0135663
0.1170378 0.0197742 0.0136968
0.1320046 0.0200804 0.0138857
0.1470878 0.0203636 0.0141659
0.1627422 0.0206118 0.0144168
0.1791722 0.0208403 0.0146626
0.1976838 0.0208868 0.0149494
0.2161877 0.0210565 0.0153012
0.2341937 0.0212142 0.0156824
0.2541263 0.0213344 0.0161069
0.2753092 0.0214251 0.0165618
0.2940333 0.0213519 0.0169339
0.3131686 0.0214421 0.0173497
0.3315951 0.0215312 0.0177160
0.3472448 0.0214898 0.0182144
0.3633074 0.0216286 0.0186986
0.3790154 0.0217772 0.0191180
0.3948588 0.0217343 0.0196610
0.4082536 0.0219658 0.0201866
0.4216797 0.0219803 0.0208370
0.4349732 0.0222273 0.0214299
0.4483048 0.0222205 0.0218920
0.4607303 0.0225042 0.0225732
0.4707140 0.0226049 0.0232978
0.4828851 0.0229221 0.0239232
0.4924393 0.0230353 0.0245670
0.5022023 0.0234522 0.0255176
0.5114358 0.0235855 0.0262566
0.5211710 0.0240161 0.0272237
0.5299414 0.0241615 0.0279278
0.5390031 0.0246136 0.0289835
0.5475503 0.0247892 0.0301186
0.5534835 0.0250082 0.0310197
0.5617390 0.0254948 0.0322887
0.5677218 0.0257186 0.0332234
0.5737132 0.0262756 0.0345777
0.5820312 0.0270867 0.0356665
0.5889482 0.0283279 0.0368298
0.5945612 0.0293141 0.0382930
0.6003084 0.0303350 0.0394677
0.6064491 0.0316579 0.0406990
0.6117789 0.0330397 0.0419754
0.6167189 0.0344713 0.0432937
0.6218063 0.0360331 0.0446740
0.6262554 0.0371334 0.0459849
0.6300089 0.0388286 0.0470897
0.6347437 0.0405789 0.0485994
0.6388153 0.0417279 0.0500591
0.6423687 0.0434846 0.0516965
0.6458222 0.0452669 0.0529416
0.6480699 0.0465249 0.0545443
0.6515520 0.0483762 0.0558673
0.6538137 0.0496795 0.0575703
0.6552821 0.0509908 0.0588312
0.0040808 0.0173325 0.0128792
0.0047030 0.0175205 0.0130309
0.0082763 0.0185963 0.0134080
0.0142833 0.0198316 0.0137597
0.0233096 0.0213381 0.0141051
0.0342997 0.0226195 0.0143638
0.0474107 0.0237927 0.0145514
0.0602243 0.0248761 0.0147306
0.0741108 0.0257095 0.0148490
0.0875599 0.0264065 0.0149749
0.1026656 0.0272285 0.0150993
0.1188934 0.0278256 0.0152016
0.1342949 0.0283374 0.0153540
0.1498501 0.0290014 0.0156130
0.1658346 0.0294308 0.0158320
0.1825506 0.0298330 0.0160784
0.2015277 0.0302207 0.0163982
0.2205576 0.0308043 0.0167919
0.2412952 0.0311207 0.0171595
0.2618043 0.0314071 0.0175983
0.2809574 0.0319336 0.0181343
0.3031569 0.0321437 0.0185130
0.3227855 0.0323473 0.0189384
0.3389202 0.0325978 0.0194426
0.3579457 0.0328557 0.0198710
0.3747630 0.0335222 0.0204281
0.3908506 0.0338185 0.0209798
0.4047062 0.0341313 0.0215013
0.4209915 0.0344311 0.0221504
0.4349855 0.0347479 0.0227405
0.4489523 0.0354991 0.0234139
0.4628215 0.0358362 0.0240918
0.4755442 0.0362139 0.0246522
0.4860134 0.0366562 0.0254643
0.4984113 0.0370566 0.0261153
0.5084038 0.0375266 0.0270438
0.5183286 0.0379869 0.0278421
0.5280269 0.0384583 0.0286695
0.5384268 0.0394861 0.0297660
0.5476236 0.0400071 0.0308342
0.5568433 0.0405095 0.0316771
0.5638937 0.0410712 0.0329647
0.5720921 0.0416122 0.0342877
0.5804603 0.0421249 0.0352983
0.5868119 0.0426746 0.0363441
0.5927852 0.0432684 0.0377811
0.6007657 0.0438058 0.0388496
0.6068213 0.0443749 0.0399062
0.6119601 0.0449651 0.0410012
0.6171436 0.0455622 0.0421249
0.6223781 0.0461622 0.0432303
0.6267533 0.0467800 0.0443666
0.6307024 0.0474069 0.0455352
0.6346772 0.0480408 0.0467350
0.6375040 0.0486980 0.0479798
0.6410832 0.0493247 0.0488504
0.6445806 0.0499864 0.0501410
0.6470857 0.0506705 0.0515077
0.6505094 0.0513226 0.0524760
0.6527193 0.0520249 0.0539228
0.6544082 0.0527129 0.0549514
0.6566312 0.0534290 0.0564760
0.6583378 0.0541383 0.0575697
0.6584485 0.0541924 0.0585501
0.0022810 0.0226561 0.0144330
0.0027666 0.0228459 0.0145398
0.0063464 0.0242027 0.0149093
0.0123939 0.0259511 0.0152810
0.0217229 0.0279835 0.0156275
0.0328484 0.0298785 0.0159003
0.0468219 0.0317515 0.0161009
0.0600662 0.0332681 0.0162797
0.0744072 0.0346652 0.0164237
0.0891831 0.0359267 0.0165497
0.1048819 0.0371149 0.0166795
0.1205973 0.0382072 0.0168511
0.1365482 0.0392451 0.0171168
0.1525580 0.0402047 0.0173313
0.1690174 0.0411251 0.0175673
0.1880600 0.0420587 0.0177931
0.2057758 0.0429204 0.0180967
0.2275767 0.0438060 0.0183450
0.2466319 0.0446301 0.0187963
0.2677887 0.0454530 0.0192966
0.2903323 0.0462374 0.0197253
0.3106131 0.0469681 0.0201801
0.3312215 0.0476786 0.0206505
0.3507316 0.0483697 0.0211728
0.3677585 0.0490299 0.0216721
0.3847619 0.0496910 0.0222265
0.4015662 0.0503516 0.0228247
0.4187228 0.0509962 0.0233562
0.4323799 0.0511158 0.0240454
0.4497142 0.0517537 0.0246501
0.4637823 0.0524083 0.0253209
0.4754059 0.0530826 0.0260905
0.4887282 0.0537326 0.0266893
0.5021316 0.0544203 0.0275327
0.5124824 0.0551029 0.0282625
0.5252662 0.0558166 0.0292338
0.5355183 0.0565267 0.0300931
0.5455355 0.0572468 0.0309837
0.5551444 0.0573432 0.0320117
0.5646154 0.0580980 0.0331582
0.5741161 0.0588285 0.0340598
0.5813986 0.0596419 0.0354481
0.5898834 0.0604650 0.0368769
0.5964881 0.0612661 0.0379911
0.6051407 0.0620649 0.0390948
0.6106890 0.0621932 0.0405524
0.6169974 0.0630124 0.0417246
0.6252319 0.0638249 0.0428388
0.6305663 0.0646632 0.0440172
0.6359477 0.0655114 0.0452263
0.6413829 0.0663648 0.0464157
0.6452526 0.0664496 0.0475276
0.6493641 0.0673199 0.0487835
0.6523060 0.0682120 0.0500874
0.6564818 0.0691225 0.0514154
0.6602395 0.0700102 0.0523532
0.6631834 0.0701024 0.0536149
0.6658228 0.0710428 0.0550847
0.6694171 0.0719550 0.0561259
0.6711637 0.0729193 0.0576885
0.6735610 0.0738548 0.0587890
0.6745806 0.0739605 0.0602899
0.6769888 0.0749075 0.0614564
0.6777728 0.0759038 0.0631948
0.0001001 0.0291657 0.0159922
0.0005197 0.0291196 0.0160276
0.0040837 0.0308614 0.0163970
0.0101637 0.0331476 0.0167781
0.0195295 0.0358312 0.0171204
0.0314757 0.0385039 0.0173924
0.0453252 0.0410072 0.0175979
0.0595888 0.0432036 0.0177686
0.0743579 0.0448155 0.0178713
0.0895473 0.0466384 0.0180407
0.1056777 0.0483848 0.0182262
0.1218339 0.0500248 0.0185126
0.1383324 0.0515666 0.0187396
0.1561390 0.0526132 0.0188899
0.1731860 0.0540194 0.0192031
0.1910032 0.0553839 0.0194589
0.2112721 0.0568114 0.0198163
0.2314955 0.0581769 0.0201999
0.2533669 0.0589667 0.0204706
0.2752726 0.0602747 0.0209397
0.2956370 0.0614827 0.0213218
0.3196688 0.0627253 0.0215635
0.3406598 0.0632494 0.0219117
0.3579088 0.0643458 0.0225045
0.3784413 0.0654692 0.0229946
0.3960283 0.0665487 0.0235838
0.4134106 0.0676272 0.0242203
0.4306503 0.0679924 0.0248870
0.4452410 0.0690120 0.0255252
0.4603126 0.0700474 0.0262073
0.4748572 0.0710845 0.0269228
0.4892213 0.0713609 0.0276499
0.5029609 0.0724019 0.0284784
0.5168589 0.0734298 0.0291861
0.5275432 0.0744959 0.0301822
0.5376064 0.0747046 0.0309727
0.5508125 0.0757761 0.0318554
0.5611874 0.0768437 0.0328059
0.5717226 0.0779534 0.0339812
0.5808722 0.0781822 0.0351339
0.5883045 0.0792983 0.0364957
0.5982673 0.0804032 0.0375815
0.6070478 0.0815663 0.0391089
0.6131870 0.0817462 0.0402100
0.6220766 0.0829192 0.0417889
0.6285530 0.0840457 0.0430415
0.6343646 0.0842174 0.0441947
0.6409879 0.0853477 0.0454046
0.6484430 0.0865047 0.0466382
0.6540456 0.0876708 0.0479286
0.6589248 0.0878261 0.0490856
0.6636698 0.0889967 0.0503884
0.6667370 0.0901714 0.0517440
0.6702595 0.0903209 0.0529991
0.6746018 0.0915183 0.0544110
0.6784613 0.0927264 0.0558642
0.6804646 0.0928252 0.0567657
0.6842903 0.0940510 0.0583174
0.6880429 0.0952467 0.0594228
0.6890630 0.0953883 0.0609436
0.6915799 0.0965893 0.0621101
0.6934319 0.0978442 0.0638589
0.6951331 0.0979483 0.0649461
0.6959859 0.0992127 0.0667934
0.0000000 0.0361343 0.0174192
0.0000000 0.0359625 0.0174077
0.0016237 0.0381338 0.0177857
0.0077248 0.0410427 0.0181651
0.0174108 0.0441707 0.0184592
0.0294530 0.0476079 0.0187413
0.0441048 0.0509913 0.0189514
0.0588104 0.0539091 0.0191203
0.0739953 0.0560809 0.0192347
0.0895756 0.0585534 0.0194689
0.1061047 0.0609445 0.0197252
0.1226380 0.0626054 0.0199219
0.1409728 0.0648323 0.0201622
0.1580212 0.0668435 0.0204309
0.1753022 0.0681727 0.0207246
0.1954357 0.0702161 0.0210266
0.2141943 0.0721228 0.0214358
0.2370654 0.0734847 0.0218023
0.2572107 0.0753142 0.0222138
0.2796791 0.0771930 0.0225896
0.3033167 0.0782875 0.0229078
0.3250951 0.0800198 0.0233157
0.3469842 0.0817007 0.0236273
0.3676088 0.0825137 0.0240860
0.3859313 0.0840384 0.0245292
0.4070295 0.0856416 0.0249896
0.4245413 0.0862166 0.0253212
0.4397640 0.0876892 0.0261169
0.4578869 0.0892048 0.0267425
0.4728819 0.0897139 0.0274093
0.4878923 0.0911647 0.0281601
0.5032870 0.0926504 0.0289845
0.5168509 0.0931070 0.0298035
0.5283956 0.0944972 0.0305864
0.5415605 0.0949436 0.0315388
0.5525780 0.0963479 0.0324386
0.5636827 0.0977764 0.0334028
0.5736343 0.0981288 0.0343401
0.5844496 0.0996029 0.0355799
0.5948166 0.1010872 0.0368729
0.6041236 0.1014668 0.0382074
0.6144054 0.1029325 0.0393511
0.6213054 0.1044215 0.0409948
0.6297552 0.1047369 0.0421363
0.6368406 0.1062423 0.0438330
0.6448143 0.1065450 0.0450351
0.6515819 0.1080023 0.0463536
0.6584441 0.1094804 0.0476309
0.6635279 0.1097780 0.0492879
0.6693099 0.1112574 0.0506431
0.6742904 0.1114915 0.0518716
0.6797523 0.1129282 0.0528028
0.6842014 0.1144173 0.0542156
0.6877993 0.1146323 0.0555468
0.6923023 0.1161423 0.0570345
0.6954180 0.1163501 0.0584387
0.6983538 0.1178005 0.0595224
0.7023265 0.1193414 0.0611584
0.7053251 0.1195021 0.0621840
0.7072568 0.1210279 0.0639347
0.7089802 0.1211669 0.0650181
0.7109208 0.1227111 0.0668593
0.7120236 0.1228415 0.0680168
0.7135630 0.1243957 0.0699547
0.0000000 0.0438177 0.0187653
0.0000000 0.0434888 0.0187173
0.0000000 0.0460759 0.0190851
0.0052159 0.0492414 0.0194094
0.0150129 0.0535882 0.0197574
0.0272410 0.0573735 0.0199775
0.0420764 0.0616022 0.0201784
0.0577810 0.0654393 0.0203696
0.0725387 0.0681019 0.0205440
0.0892865 0.0714118 0.0208467
0.1061472 0.0737975 0.0210471
0.1244540 0.0768063 0.0212935
0.1420180 0.0795646 0.0215616
0.1593311 0.0814376 0.0218662
0.1788707 0.0841414 0.0221839
0.1974107 0.0858671 0.0225662
0.2187837 0.0885294 0.0230137
0.2401711 0.0910903 0.0234201
0.2631601 0.0927758 0.0237543
0.2863348 0.0952691 0.0241374
0.3106896 0.0968113 0.0244738
0.3331779 0.0990991 0.0247835
0.3552961 0.1003380 0.0251068
0.3770121 0.1025098 0.0254995
0.3958959 0.1045542 0.0260061
0.4139880 0.1054868 0.0264982
0.4326055 0.1075034 0.0271054
0.4508177 0.1083519 0.0275212
0.4664506 0.1102066 0.0280586
0.4849221 0.1110607 0.0287203
0.5004253 0.1129138 0.0293225
0.5156459 0.1135875 0.0299257
0.5274424 0.1153865 0.0308758
0.5421572 0.1172662 0.0316467
0.5529909 0.1178377 0.0326906
0.5670286 0.1197225 0.0335881
0.5777010 0.1202471 0.0345383
0.5886876 0.1220682 0.0355831
0.5990289 0.1226148 0.0368201
0.6097016 0.1244891 0.0381717
0.6192288 0.1250184 0.0395785
0.6298201 0.1268718 0.0407720
0.6369316 0.1287224 0.0424957
0.6455848 0.1291695 0.0436985
0.6528882 0.1310431 0.0454778
0.6589534 0.1314152 0.0467743
0.6680402 0.1332872 0.0481240
0.6742036 0.1336435 0.0493660
0.6803094 0.1355121 0.0512077
0.6853483 0.1358366 0.0525241
0.6913748 0.1376583 0.0539210
0.6960020 0.1379652 0.0552524
0.7006820 0.1397212 0.0562588
0.7043502 0.1400041 0.0576600
0.7090093 0.1418447 0.0592141
0.7120443 0.1436612 0.0608293
0.7152427 0.1438736 0.0618213
0.7193588 0.1457481 0.0635316
0.7213696 0.1459973 0.0651896
0.7244417 0.1478029 0.0664428
0.7254699 0.1480250 0.0681803
0.7282252 0.1498448 0.0695106
0.7293398 0.1500082 0.0707296
0.7309600 0.1518809 0.0727588
0.0000000 0.0520791 0.0200222
0.0000000 0.0516248 0.0199574
0.0000000 0.0540666 0.0202493
0.0024637 0.0583336 0.0206174
0.0125433 0.0630762 0.0209177
0.0247707 0.0682216 0.0211767
0.0404383 0.0728994 0.0213251
0.0558216 0.0774600 0.0215755
0.0716271 0.0809191 0.0218068
0.0887442 0.0849906 0.0220999
0.1060341 0.0887697 0.0223075
0.1247097 0.0916840 0.0225041
0.1426885 0.0951411 0.0228305
0.1619852 0.0977189 0.0231948
0.1802984 0.1009319 0.0236309
0.1991579 0.1031074 0.0239675
0.2209240 0.1064707 0.0244904
0.2450165 0.1088500 0.0248133
0.2662388 0.1119005 0.0252323
0.2894790 0.1138972 0.0254689
0.3147444 0.1170872 0.0258593
0.3407100 0.1190513 0.0261278
0.3639247 0.1219266 0.0265010
0.3825944 0.1232733 0.0269816
0.4051934 0.1260479 0.0274611
0.4238076 0.1272648 0.0278621
0.4429597 0.1298177 0.0285033
0.4616581 0.1309702 0.0289603
0.4776918 0.1333561 0.0297373
0.4934481 0.1343160 0.0303062
0.5095351 0.1366698 0.0309712
0.5251219 0.1375412 0.0313908
0.5405208 0.1398760 0.0321334
0.5548739 0.1407261 0.0329027
0.5668298 0.1429344 0.0337905
0.5805132 0.1436924 0.0344122
0.5922829 0.1459354 0.0354512
0.6027337 0.1466096 0.0364860
0.6141880 0.1489055 0.0378321
0.6242797 0.1496033 0.0391842
0.6340224 0.1502927 0.0406589
0.6423278 0.1524457 0.0419346
0.6512905 0.1531204 0.0436253
0.6587763 0.1552683 0.0449853
0.6676273 0.1559273 0.0467311
0.6747797 0.1580888 0.0481637
0.6831490 0.1586416 0.0494843
0.6903386 0.1608877 0.0513396
0.6957144 0.1613128 0.0526973
0.7018587 0.1634725 0.0541659
0.7070538 0.1638811 0.0555218
0.7127938 0.1660459 0.0570133
0.7165959 0.1663323 0.0579526
0.7213677 0.1684881 0.0595237
0.7251275 0.1688462 0.0610306
0.7282599 0.1709665 0.0627066
0.7315213 0.1712358 0.0637444
0.7357614 0.1734316 0.0655191
0.7377971 0.1737345 0.0672555
0.7409835 0.1758569 0.0685521
0.7420127 0.1761213 0.0703723
0.7437916 0.1763425 0.0716135
0.7460036 0.1784627 0.0730267
0.7466062 0.1787139 0.0749919
0.0000000 0.0605671 0.0211549
0.0000000 0.0600244 0.0210863
0.0000000 0.0631034 0.0214001
0.0000000 0.0675249 0.0217186
0.0095359 0.0736666 0.0220399
0.0226370 0.0793635 0.0222660
0.0379261 0.0855299 0.0225017
0.0543442 0.0904261 0.0227689
0.0705204 0.0945821 0.0229850
0.0880015 0.0994521 0.0232352
0.1055683 0.1030413 0.0234458
0.1246856 0.1075735 0.0237497
0.1444536 0.1109322 0.0240189
0.1628378 0.1149122 0.0244355
0.1812629 0.1176763 0.0248888
0.2027008 0.1217548 0.0252931
0.2248857 0.1246026 0.0256516
0.2473438 0.1285008 0.0260437
0.2714436 0.1312102 0.0263906
0.2956565 0.1350522 0.0267958
0.3212467 0.1375775 0.0270698
0.3446491 0.1397734 0.0274022
0.3682667 0.1432803 0.0278426
0.3908734 0.1452444 0.0282895
0.4109743 0.1483618 0.0287098
0.4331483 0.1501794 0.0292735
0.4528649 0.1532403 0.0297627
0.4687478 0.1545004 0.0303138
0.4885601 0.1575562 0.0308543
0.5047004 0.1587889 0.0314877
0.5204529 0.1599679 0.0321499
0.5371335 0.1628296 0.0328876
0.5521170 0.1639411 0.0336758
0.5646899 0.1665291 0.0343066
0.5791193 0.1675973 0.0352101
0.5911303 0.1701957 0.0359670
0.6051880 0.1712330 0.0369761
0.6159167 0.1720343 0.0378711
0.6277652 0.1746912 0.0388878
0.6381671 0.1754794 0.0399033
0.6464917 0.1780844 0.0415283
0.6565453 0.1789698 0.0432287
0.6668091 0.1816387 0.0445701
0.6733929 0.1823387 0.0464081
0.6835679 0.1850295 0.0478015
0.6898897 0.1856208 0.0492200
0.6961140 0.1862795 0.0511141
0.7058304 0.1889621 0.0525163
0.7113129 0.1894851 0.0539326
0.7176580 0.1920558 0.0554502
0.7229563 0.1925593 0.0568647
0.7289156 0.1951833 0.0584082
0.7326984 0.1956135 0.0599144
0.7365979 0.1959681 0.0609193
0.7402162 0.1985147 0.0626098
0.7437052 0.1989329 0.0642227
0.7481109 0.2015525 0.0659844
0.7502625 0.2018308 0.0671570
0.7535027 0.2022475 0.0689487
0.7568432 0.2047748 0.0702871
0.7578725 0.2050820 0.0721844
0.7608820 0.2076257 0.0736072
0.7619102 0.2079393 0.0756199
0.7637023 0.2104509 0.0771271
0.0000000 0.0700091 0.0222757
0.0000000 0.0693704 0.0222040
0.0000000 0.0717772 0.0224042
0.0000000 0.0774893 0.0227897
0.0068376 0.0840089 0.0230570
0.0199501 0.0905755 0.0233291
0.0359384 0.0979691 0.0236091
0.0527295 0.1037090 0.0238689
0.0692407 0.1095897 0.0240705
0.0870520 0.1143011 0.0243267
0.1049912 0.1196480 0.0245526
0.1244084 0.1238945 0.0249088
0.1445717 0.1279079 0.0252528
0.1633376 0.1326370 0.0257329
0.1839416 0.1361921 0.0261130
0.2038011 0.1407372 0.0265436
0.2263424 0.1441414 0.0268950
0.2515361 0.1476637 0.0272170
0.2737865 0.1520695 0.0275098
0.3011153 0.1554762 0.0278875
0.3244268 0.1598024 0.0282492
0.3518260 0.1628601 0.0285849
0.3755888 0.1653578 0.0288370
0.3993437 0.1695160 0.0293640
0.4193049 0.1715689 0.0299810
0.4393974 0.1752917 0.0304639
0.4590635 0.1771644 0.0309591
0.4793224 0.1808730 0.0314940
0.4955891 0.1824057 0.0321440
0.5154043 0.1841686 0.0327519
0.5323733 0.1876152 0.0334968
0.5486380 0.1890747 0.0342887
0.5640419 0.1903734 0.0348423
0.5768832 0.1935620 0.0358426
0.5917144 0.1948112 0.0365253
0.6039897 0.1980043 0.0376424
0.6155629 0.1990428 0.0385562
0.6265392 0.2000435 0.0395697
0.6386804 0.2032307 0.0406386
0.6495668 0.2042224 0.0417448
0.6608612 0.2074239 0.0430383
0.6712438 0.2083996 0.0443351
0.6806964 0.2093081 0.0456861
0.6887162 0.2124688 0.0471301
0.6956190 0.2132081 0.0485569
0.7057266 0.2165440 0.0500413
0.7120712 0.2173351 0.0520154
0.7186045 0.2180218 0.0534362
0.7277623 0.2213248 0.0549353
0.7331082 0.2219369 0.0564327
0.7398029 0.2251205 0.0579764
0.7447084 0.2256975 0.0594917
0.7485566 0.2262076 0.0610580
0.7524528 0.2291764 0.0622102
0.7563401 0.2296941 0.0638465
0.7598875 0.2301890 0.0655243
0.7645038 0.2333419 0.0673428
0.7666898 0.2336706 0.0685629
0.7713378 0.2368787 0.0705353
0.7728321 0.2371664 0.0718165
0.7745451 0.2375639 0.0737819
0.7770544 0.2405869 0.0752596
0.7787703 0.2409927 0.0773455
0.7807232 0.2440192 0.0789018
0.0000000 0.0798862 0.0233274
0.0000000 0.0791251 0.0232496
0.0000000 0.0813406 0.0234127
0.0000000 0.0878492 0.0238056
0.0039031 0.0953645 0.0241064
0.0170198 0.1028856 0.0244427
0.0331101 0.1114229 0.0247095
0.0509451 0.1183454 0.0248936
0.0678247 0.1240241 0.0250817
0.0859513 0.1307882 0.0253654
0.1054059 0.1360591 0.0256148
0.1254164 0.1424876 0.0260757
0.1446194 0.1468728 0.0263769
0.1653010 0.1513032 0.0268780
0.1847461 0.1567583 0.0273072
0.2068676 0.1608612 0.0276576
0.2303251 0.1666280 0.0280287
0.2535493 0.1703950 0.0282600
0.2787434 0.1742342 0.0285135
0.3040148 0.1797342 0.0288163
0.3307612 0.1834131 0.0291397
0.3554612 0.1866636 0.0295446
0.3837934 0.1922034 0.0299719
0.4042093 0.1946910 0.0303815
0.4288003 0.1997062 0.0309771
0.4487170 0.2020060 0.0314749
0.4688679 0.2042591 0.0319904
0.4896905 0.2087508 0.0325848
0.5063518 0.2105967 0.0332688
0.5231554 0.2124224 0.0340037
0.5441818 0.2168420 0.0344598
0.5608368 0.2186051 0.0352904
0.5734165 0.2200068 0.0362917
0.5898342 0.2240543 0.0369891
0.6020738 0.2253292 0.0377636
0.6177215 0.2296172 0.0390025
0.6295488 0.2308890 0.0400374
0.6407796 0.2320986 0.0411134
0.6534198 0.2362103 0.0422658
0.6645303 0.2374357 0.0435574
0.6749706 0.2385976 0.0449001
0.6869414 0.2427485 0.0463054
0.6941837 0.2436529 0.0477528
0.7035893 0.2447137 0.0491880
0.7121816 0.2485479 0.0501864
0.7212593 0.2495847 0.0516996
0.7278637 0.2503996 0.0531512
0.7361239 0.2542569 0.0541416
0.7422621 0.2550405 0.0556658
0.7492045 0.2589626 0.0572748
0.7566657 0.2598336 0.0587710
0.7602489 0.2604113 0.0603704
0.7657001 0.2642766 0.0620662
0.7696369 0.2648865 0.0637419
0.7737136 0.2654011 0.0648554
0.7788941 0.2693108 0.0666810
0.7822288 0.2698788 0.0684749
0.7844511 0.2702650 0.0697444
0.7893915 0.2742313 0.0717797
0.7909049 0.2745671 0.0731138
0.7926335 0.2750284 0.0751610
0.7953932 0.2787794 0.0766836
0.7971240 0.2792510 0.0788567
0.7976956 0.2795200 0.0803420
0.0000000 0.0912175 0.0244035
0.0000000 0.0902149 0.0243130
0.0000000 0.0920844 0.0244361
0.0000000 0.0984745 0.0248250
0.0003146 0.1081335 0.0252871
0.0138157 0.1169249 0.0255650
0.0307572 0.1257988 0.0257593
0.0481457 0.1349401 0.0259572
0.0661600 0.1418767 0.0261863
0.0846626 0.1482001 0.0264347
0.1045064 0.1560422 0.0267611
0.1248766 0.1618243 0.0271348
0.1446162 0.1688489 0.0275278
0.1658021 0.1740622 0.0280161
0.1854210 0.1785424 0.0284072
0.2081590 0.1853726 0.0286248
0.2317383 0.1901070 0.0289743
0.2581328 0.1950033 0.0291811
0.2814935 0.2013836 0.0295008
0.3100197 0.2061543 0.0297683
0.3374860 0.2105098 0.0301028
0.3635204 0.2169258 0.0305584
0.3883579 0.2205383 0.0308682
0.4130231 0.2239843 0.0312157
0.4348889 0.2296654 0.0319089
0.4588011 0.2328341 0.0323479
0.4794629 0.2355421 0.0329339
0.4974220 0.2406448 0.0336094
0.5180359 0.2432572 0.0342815
0.5353470 0.2453780 0.0347977
