Plugins/FilmEmulator/Content/LUTs/FE_Ilfochrome_Micrographic_P_64.cube
TITLE "FE_Ilfochrome_Micrographic_P_33"
LUT_3D_SIZE 4
0.0070188 0.0084301 0.0096708
0.2869967 0.0121622 0.0155239
0.5537356 0.0239525 0.0325981
0.6557367 0.0517357 0.0609898
0.0000000 0.2052244 0.0344346
0.3992670 0.4644364 0.0356181
0.8164551 0.5950879 0.0588888
0.9383204 0.6451995 0.0928145
0.0000000 0.3767323 0.0605673
0.3901674 0.7240565 0.0656550
0.8882459 0.9157336 0.0874085
1.0000000 0.9678490 0.1258743
0.0000000 0.4417702 0.0979453
0.3384649 0.7123381 0.1054903
0.8628361 0.9153453 0.1284907
1.0000000 0.9681050 0.1663212
0.0252374 0.0104638 0.1848092
0.3709112 0.0261321 0.2664354
0.6089787 0.0527820 0.3294196
0.6869770 0.0883719 0.3837044
0.0000000 0.2654694 0.4346809
0.4609827 0.5505365 0.5306314
0.8105331 0.6503100 0.5752683
0.9045658 0.6920533 0.6086002
0.0000000 0.4631297 0.5094177
0.4634291 0.8272120 0.5866413
0.8773170 0.9710421 0.6293458
0.9866583 1.0000000 0.6600540
0.0000000 0.5127450 0.5221185
0.4197019 0.8055733 0.5851558
0.8628728 0.9617472 0.6286098
0.9844657 0.9969149 0.6592044
0.0763398 0.0205620 0.3431078
0.4528136 0.0523602 0.4380211
0.6619104 0.0897121 0.4973166
0.7196366 0.1335679 0.5456365
0.0000000 0.3387031 0.6790121
0.5530932 0.5928512 0.7629069
0.8487438 0.6786953 0.7872264
0.9093342 0.7099512 0.8014784
0.0000000 0.5147970 0.7610785
0.5661695 0.8696875 0.8353026
0.9130038 0.9835612 0.8548641
0.9842164 1.0000000 0.8662864
0.0029501 0.5549401 0.7719275
0.5335425 0.8528821 0.8330081
0.8997691 0.9736385 0.8534397
0.9820451 0.9967549 0.8648677
0.1384694 0.0461024 0.4449922
0.5265790 0.0917008 0.5279847
0.7048690 0.1382886 0.5797796
0.7466104 0.1873136 0.6215687
0.0784645 0.4137553 0.7684289
0.6383486 0.6297868 0.8288179
0.8759363 0.7020211 0.8446097
0.9151957 0.7288931 0.8529503
0.0268177 0.5792921 0.8415879
0.6583362 0.9027568 0.9018254
0.9398239 0.9916090 0.9121717
0.9847148 1.0000000 0.9155024
0.0479264 0.5940085 0.8456900
0.6302162 0.8873925 0.8994762
0.9290808 0.9814001 0.9104658
0.9824787 0.9963129 0.9138376
