Plugins/FilmEmulator/Content/LUTs/FE_Ilfochrome_Micrographic_M_64.cube
TITLE "FE_Ilfochrome_Micrographic_M_33"
LUT_3D_SIZE 64
0.0047429 0.0057062 0.0065684
0.0050210 0.0057357 0.0065799
0.0063500 0.0058625 0.0066281
0.0091332 0.0060711 0.0067093
0.0130128 0.0063002 0.0068315
0.0186679 0.0065446 0.0069566
0.0270219 0.0067294 0.0070464
0.0378075 0.0068291 0.0071004
0.0499924 0.0067920 0.0071005
0.0627240 0.0066529 0.0070633
0.0774703 0.0064051 0.0070227
0.0934154 0.0060713 0.0069899
0.1111765 0.0056635 0.0069703
0.1307622 0.0051830 0.0069511
0.1517806 0.0046497 0.0069332
0.1737647 0.0040853 0.0069094
0.1988059 0.0034301 0.0068860
0.2241784 0.0027351 0.0068698
0.2491570 0.0020395 0.0068645
0.2768248 0.0012668 0.0068646
0.3067953 0.0004441 0.0068745
0.3335311 0.0000000 0.0069042
0.3579286 0.0000000 0.0070056
0.3797669 0.0000000 0.0071593
0.3984876 0.0000000 0.0073394
0.4162942 0.0000000 0.0075376
0.4336506 0.0000000 0.0077664
0.4475429 0.0000000 0.0079812
0.4633642 0.0000000 0.0082791
0.4762071 0.0000000 0.0085577
0.4882026 0.0000000 0.0088763
0.4999290 0.0000000 0.0092304
0.5099276 0.0000000 0.0096243
0.5175987 0.0000000 0.0100218
0.5248963 0.0000000 0.0105215
0.5325345 0.0000000 0.0109905
0.5388207 0.0000000 0.0114748
0.5435259 0.0002167 0.0120157
0.5479780 0.0008333 0.0125930
0.5522119 0.0015229 0.0132047
0.5554630 0.0022780 0.0138742
0.5579699 0.0028873 0.0143978
0.5611830 0.0037498 0.0151300
0.5634100 0.0044241 0.0157114
0.5664630 0.0053840 0.0165197
0.5687407 0.0061419 0.0171636
0.5709625 0.0069264 0.0178774
0.5731950 0.0077647 0.0188203
0.5763211 0.0088976 0.0196540
0.5786963 0.0097936 0.0205374
0.5811101 0.0107284 0.0214552
0.5835880 0.0117190 0.0224119
0.5851950 0.0124227 0.0233967
0.5877056 0.0134425 0.0242000
0.5902693 0.0145662 0.0253563
0.5928987 0.0157639 0.0265667
0.5945909 0.0165854 0.0274158
0.5971428 0.0178487 0.0287365
0.5999111 0.0192897 0.0301405
0.6018066 0.0203039 0.0311145
0.6044609 0.0218694 0.0325628
0.6062437 0.0229411 0.0335473
0.6091112 0.0247272 0.0351013
0.6110961 0.0259994 0.0361816
0.0046414 0.0059986 0.0066986
0.0049048 0.0060456 0.0067170
0.0061301 0.0061922 0.0067708
0.0087774 0.0064474 0.0068696
0.0125612 0.0067172 0.0069926
0.0181797 0.0069923 0.0071150
0.0262023 0.0072154 0.0072098
0.0369089 0.0073603 0.0072636
0.0487854 0.0073801 0.0072723
0.0622570 0.0073120 0.0072457
0.0769032 0.0071351 0.0071928
0.0927966 0.0068847 0.0071606
0.1104758 0.0065456 0.0071313
0.1299568 0.0061105 0.0070991
0.1508686 0.0056259 0.0070706
0.1726717 0.0050551 0.0070267
0.1973920 0.0043154 0.0069592
0.2224770 0.0035641 0.0069043
0.2470931 0.0028036 0.0068593
0.2742895 0.0019245 0.0068106
0.3037588 0.0009350 0.0067641
0.3306585 0.0000000 0.0067298
0.3544773 0.0000000 0.0067674
0.3767419 0.0000000 0.0068794
0.3956497 0.0000000 0.0070404
0.4132977 0.0000000 0.0072806
0.4308090 0.0000000 0.0074801
0.4474090 0.0000000 0.0076643
0.4608939 0.0000000 0.0079690
0.4736501 0.0000000 0.0082297
0.4859424 0.0000000 0.0085902
0.4975866 0.0000000 0.0089257
0.5081574 0.0000000 0.0092031
0.5157687 0.0000000 0.0096525
0.5249614 0.0000000 0.0101356
0.5310534 0.0000000 0.0105606
0.5372928 0.0000000 0.0110279
0.5424670 0.0000444 0.0116401
0.5468814 0.0006412 0.0121993
0.5514625 0.0012975 0.0126649
0.5547123 0.0020434 0.0132921
0.5576219 0.0026314 0.0139321
0.5604881 0.0034986 0.0146459
0.5634805 0.0043766 0.0152402
0.5657373 0.0051046 0.0159896
0.5683628 0.0058416 0.0166003
0.5710462 0.0068705 0.0172952
0.5732801 0.0077080 0.0182151
0.5755877 0.0085674 0.0189695
0.5779691 0.0094484 0.0197567
0.5803549 0.0103597 0.0206441
0.5828286 0.0113407 0.0215719
0.5853066 0.0123493 0.0225333
0.5877836 0.0133913 0.0235864
0.5897703 0.0141385 0.0246433
0.5921092 0.0153081 0.0255043
0.5946746 0.0165311 0.0267218
0.5972283 0.0177935 0.0280120
0.5990538 0.0187351 0.0289193
0.6018951 0.0202472 0.0303398
0.6036150 0.0213155 0.0317077
0.6063290 0.0228868 0.0327776
0.6082100 0.0240477 0.0337819
0.6103840 0.0253255 0.0352280
0.0040698 0.0076125 0.0073547
0.0043453 0.0076547 0.0073669
0.0054848 0.0078827 0.0074462
0.0081127 0.0082669 0.0075920
0.0119425 0.0086920 0.0077372
0.0175114 0.0091441 0.0078743
0.0258937 0.0095992 0.0079788
0.0368103 0.0099746 0.0080407
0.0488877 0.0102293 0.0080570
0.0627025 0.0103251 0.0080195
0.0776091 0.0103916 0.0079819
0.0938342 0.0103872 0.0079752
0.1118797 0.0102962 0.0079551
0.1317672 0.0101198 0.0079420
0.1530970 0.0098629 0.0079253
0.1752769 0.0094489 0.0078820
0.2005897 0.0090159 0.0078403
0.2262661 0.0085352 0.0078050
0.2545936 0.0078284 0.0077253
0.2827469 0.0072085 0.0076944
0.3093813 0.0066199 0.0077144
0.3410236 0.0057102 0.0076450
0.3657370 0.0051736 0.0077100
0.3856028 0.0048158 0.0078758
0.4075065 0.0042248 0.0079706
0.4253689 0.0039348 0.0081535
0.4428124 0.0035021 0.0083311
0.4566583 0.0033589 0.0085271
0.4723148 0.0029987 0.0087558
0.4849859 0.0029395 0.0090022
0.4967608 0.0027324 0.0092520
0.5081349 0.0027376 0.0095558
0.5165746 0.0026667 0.0098945
0.5252907 0.0027782 0.0101917
0.5321108 0.0027817 0.0106204
0.5392200 0.0029859 0.0109976
0.5446259 0.0030555 0.0113963
0.5489078 0.0031712 0.0118289
0.5527901 0.0035350 0.0123233
0.5562802 0.0036916 0.0128228
0.5584286 0.0039009 0.0133540
0.5605693 0.0043377 0.0138179
0.5626556 0.0045591 0.0144060
0.5640648 0.0048024 0.0148738
0.5662587 0.0052996 0.0155553
0.5681233 0.0058038 0.0161122
0.5703275 0.0065910 0.0168990
0.5728851 0.0073777 0.0175737
0.5751905 0.0082290 0.0183077
0.5775707 0.0091010 0.0190648
0.5799641 0.0099973 0.0198555
0.5824111 0.0109541 0.0207527
0.5848864 0.0119531 0.0216851
0.5873682 0.0129802 0.0226512
0.5895506 0.0140712 0.0237170
0.5921898 0.0152552 0.0248632
0.5941687 0.0160834 0.0259769
0.5964602 0.0173131 0.0268772
0.5991407 0.0186787 0.0281901
0.6012953 0.0197004 0.0294801
0.6037487 0.0212295 0.0305411
0.6054783 0.0223210 0.0319173
0.6082967 0.0239921 0.0330067
0.6102340 0.0252755 0.0344271
0.0030616 0.0103933 0.0083019
0.0033405 0.0104574 0.0083268
0.0043848 0.0107580 0.0084384
0.0071169 0.0113238 0.0085970
0.0109658 0.0120296 0.0087746
0.0167746 0.0127354 0.0089107
0.0253735 0.0134863 0.0090219
0.0366124 0.0142833 0.0091016
0.0490093 0.0148387 0.0091092
0.0633268 0.0152924 0.0090834
0.0786002 0.0156386 0.0090606
0.0953227 0.0160397 0.0090559
0.1138541 0.0162186 0.0090212
0.1342319 0.0163093 0.0089802
0.1582352 0.0162922 0.0089207
0.1813298 0.0162161 0.0089065
0.2077426 0.0162215 0.0088576
0.2343551 0.0159863 0.0088148
0.2604033 0.0157218 0.0088212
0.2891902 0.0153550 0.0087955
0.3205203 0.0148818 0.0087274
0.3502633 0.0146609 0.0087376
0.3755095 0.0143019 0.0088087
0.3996568 0.0139647 0.0089389
0.4192628 0.0137402 0.0091001
0.4377329 0.0135598 0.0092943
0.4562664 0.0133767 0.0095023
0.4731284 0.0132438 0.0097478
0.4874562 0.0134870 0.0100036
0.5002811 0.0134763 0.0102628
0.5151154 0.0134101 0.0105193
0.5243934 0.0135187 0.0108681
0.5354882 0.0135796 0.0112257
0.5442492 0.0137033 0.0115352
0.5514456 0.0139209 0.0120228
0.5572411 0.0141813 0.0124361
0.5642725 0.0144134 0.0128716
0.5688354 0.0147279 0.0133612
0.5725585 0.0150743 0.0138820
0.5763008 0.0154295 0.0144456
0.5781841 0.0158459 0.0150503
0.5805719 0.0162347 0.0155268
0.5828614 0.0166530 0.0161887
0.5844395 0.0170775 0.0167151
0.5863791 0.0175376 0.0174333
0.5880363 0.0180322 0.0180154
0.5895960 0.0185359 0.0186136
0.5911229 0.0190724 0.0194555
0.5930060 0.0195878 0.0201578
0.5946314 0.0201171 0.0208831
0.5962602 0.0206539 0.0216386
0.5978819 0.0212058 0.0224965
0.5991527 0.0217740 0.0233854
0.6008027 0.0223114 0.0240135
0.6024119 0.0228870 0.0249762
0.6041051 0.0235403 0.0260431
0.6054032 0.0242126 0.0271514
0.6070338 0.0248544 0.0279406
0.6086203 0.0255381 0.0291271
0.6099486 0.0262067 0.0299868
0.6105886 0.0262847 0.0311441
0.6117761 0.0269660 0.0320549
0.6131614 0.0276794 0.0333633
0.6143627 0.0283736 0.0342699
0.0017313 0.0142449 0.0093975
0.0019536 0.0141891 0.0094022
0.0029494 0.0146257 0.0095295
0.0056771 0.0154613 0.0097079
0.0096457 0.0164156 0.0098725
0.0154827 0.0174978 0.0100265
0.0241432 0.0186985 0.0101393
0.0361244 0.0199246 0.0101982
0.0488903 0.0209504 0.0102155
0.0637321 0.0219119 0.0102275
0.0794423 0.0227469 0.0102350
0.0979866 0.0235276 0.0102245
0.1173531 0.0241970 0.0101998
0.1386519 0.0247902 0.0101686
0.1615082 0.0253028 0.0101317
0.1851626 0.0253967 0.0100373
0.2122337 0.0257329 0.0099491
0.2396505 0.0259966 0.0098646
0.2700664 0.0261875 0.0098037
0.3001049 0.0263310 0.0097839
0.3328495 0.0264393 0.0097213
0.3636470 0.0265435 0.0097197
0.3900726 0.0267022 0.0098124
0.4121099 0.0269378 0.0100153
0.4359675 0.0271309 0.0101644
0.4553770 0.0274103 0.0103930
0.4742157 0.0271360 0.0106018
0.4890430 0.0275090 0.0109266
0.5066078 0.0278216 0.0111512
0.5201612 0.0282289 0.0114507
0.5335281 0.0286546 0.0117791
0.5456972 0.0291167 0.0121481
0.5574762 0.0296024 0.0125587
0.5650889 0.0301694 0.0129383
0.5737489 0.0300955 0.0134250
0.5799782 0.0307137 0.0138933
0.5861238 0.0313508 0.0144058
0.5924522 0.0319986 0.0149424
0.5965344 0.0327058 0.0155325
0.5997843 0.0334466 0.0161829
0.6019701 0.0335055 0.0168011
0.6046688 0.0342464 0.0173412
0.6068462 0.0350376 0.0180956
0.6091158 0.0358087 0.0186873
0.6109320 0.0366237 0.0195027
0.6131548 0.0374155 0.0201497
0.6140476 0.0374861 0.0207515
0.6157475 0.0383347 0.0216932
0.6174861 0.0391696 0.0224829
0.6192740 0.0400149 0.0232946
0.6202227 0.0400995 0.0240606
0.6220226 0.0409700 0.0250182
0.6238234 0.0418522 0.0260062
0.6256662 0.0427076 0.0267073
0.6274561 0.0436176 0.0277831
0.6283593 0.0437299 0.0288680
0.6297290 0.0446674 0.0300905
0.6314116 0.0455273 0.0309517
0.6330364 0.0464434 0.0322548
0.6335563 0.0465231 0.0330882
0.6350334 0.0474545 0.0344816
0.6362535 0.0483569 0.0354755
0.6374192 0.0493106 0.0369138
0.6380477 0.0493837 0.0377787
0.0000000 0.0198009 0.0106778
0.0000000 0.0196424 0.0106596
0.0008845 0.0202967 0.0108062
0.0036069 0.0215467 0.0109919
0.0077440 0.0227711 0.0111324
0.0136632 0.0244280 0.0112896
0.0227978 0.0263703 0.0114037
0.0352300 0.0283943 0.0114621
0.0484653 0.0298120 0.0114678
0.0639388 0.0314900 0.0114945
0.0801786 0.0330095 0.0115347
0.0994152 0.0345118 0.0115226
0.1194995 0.0358877 0.0115152
0.1413984 0.0367269 0.0114615
0.1650616 0.0379319 0.0114059
0.1923926 0.0391079 0.0113170
0.2208154 0.0401896 0.0112215
0.2492541 0.0406115 0.0111145
0.2774589 0.0414991 0.0110276
0.3085658 0.0423640 0.0109822
0.3420959 0.0425176 0.0108354
0.3738842 0.0432451 0.0107787
0.4021981 0.0439036 0.0107364
0.4291683 0.0445925 0.0108938
0.4498464 0.0445981 0.0110745
0.4736063 0.0452668 0.0112661
0.4909553 0.0459865 0.0115685
0.5093214 0.0467100 0.0118768
0.5268837 0.0466685 0.0120871
0.5409745 0.0474177 0.0124076
0.5548695 0.0481864 0.0127596
0.5675197 0.0489841 0.0131567
0.5789527 0.0489983 0.0135680
0.5868536 0.0498399 0.0139748
0.5966586 0.0507162 0.0145493
0.6022836 0.0507735 0.0150190
0.6086778 0.0517012 0.0155727
0.6143969 0.0526648 0.0161654
0.6177481 0.0527577 0.0167619
0.6220184 0.0537607 0.0174529
0.6251740 0.0547895 0.0181821
0.6280041 0.0558048 0.0187649
0.6293589 0.0559346 0.0195329
0.6316943 0.0570086 0.0203758
0.6336503 0.0580669 0.0210545
0.6350525 0.0581678 0.0216942
0.6368437 0.0592820 0.0226443
0.6386798 0.0603807 0.0234378
0.6395682 0.0605020 0.0242255
0.6414490 0.0616229 0.0251011
0.6433603 0.0627644 0.0260138
0.6442995 0.0629046 0.0269763
0.6462018 0.0640861 0.0280451
0.6481580 0.0652339 0.0287992
0.6490726 0.0653821 0.0298772
0.6505771 0.0666138 0.0311570
0.6514235 0.0667735 0.0323816
0.6532535 0.0679667 0.0333127
0.6546788 0.0692345 0.0347305
0.6555277 0.0693444 0.0356357
0.6568766 0.0706316 0.0371510
0.6584856 0.0718775 0.0382241
0.6587746 0.0720419 0.0396660
0.6603990 0.0732973 0.0407292
0.0000000 0.0262848 0.0118729
0.0000000 0.0260486 0.0118436
0.0000000 0.0268714 0.0119801
0.0013292 0.0282638 0.0121256
0.0054852 0.0302671 0.0123006
0.0117043 0.0326084 0.0124435
0.0207176 0.0348548 0.0125062
0.0339556 0.0378228 0.0125805
0.0476151 0.0399144 0.0125977
0.0636666 0.0423992 0.0126484
0.0815927 0.0447678 0.0126517
0.1001477 0.0463993 0.0126261
0.1208320 0.0485089 0.0126223
0.1455936 0.0506700 0.0125420
0.1701047 0.0519820 0.0124155
0.1958409 0.0538440 0.0123820
0.2250847 0.0557122 0.0122889
0.2543411 0.0567023 0.0121436
0.2871605 0.0584247 0.0120654
0.3190816 0.0592056 0.0119366
0.3544430 0.0607378 0.0117509
0.3875127 0.0621942 0.0116977
0.4163528 0.0626390 0.0116491
0.4444158 0.0639632 0.0117504
0.4658795 0.0642535 0.0118673
0.4872024 0.0654806 0.0120284
0.5087503 0.0666934 0.0121039
0.5270482 0.0669356 0.0124082
0.5433222 0.0681584 0.0126947
0.5607755 0.0694074 0.0129881
0.5743661 0.0695907 0.0133392
0.5875523 0.0708537 0.0137578
0.5975192 0.0710306 0.0142334
0.6076071 0.0722420 0.0146341
0.6158992 0.0735172 0.0152746
0.6236131 0.0736735 0.0157577
0.6302640 0.0749422 0.0163456
0.6352349 0.0751050 0.0169473
0.6396500 0.0763966 0.0176260
0.6440877 0.0777156 0.0183627
0.6463812 0.0778873 0.0191064
0.6487424 0.0792270 0.0199432
0.6506995 0.0793645 0.0205574
0.6531254 0.0807282 0.0214560
0.6551660 0.0820670 0.0221760
0.6562036 0.0822099 0.0228763
0.6584555 0.0836173 0.0238847
0.6593560 0.0837709 0.0246763
0.6612625 0.0851675 0.0255831
0.6622025 0.0853308 0.0264575
0.6642039 0.0867740 0.0274273
0.6661987 0.0882667 0.0285334
0.6671358 0.0884543 0.0296055
0.6691149 0.0899689 0.0307799
0.6701061 0.0901039 0.0315675
0.6716830 0.0916564 0.0329324
0.6725233 0.0918657 0.0342549
0.6744477 0.0933750 0.0352425
0.6748685 0.0935854 0.0366623
0.6767951 0.0951198 0.0377323
0.6782100 0.0967402 0.0393496
0.6788228 0.0968871 0.0403842
0.6801686 0.0985220 0.0420450
0.6807951 0.0986601 0.0430593
0.0000000 0.0335503 0.0129507
0.0000000 0.0332302 0.0129085
0.0000000 0.0338821 0.0130043
0.0000000 0.0360289 0.0131808
0.0030822 0.0382459 0.0132951
0.0093313 0.0412569 0.0134286
0.0187660 0.0443076 0.0135114
0.0317551 0.0481170 0.0135931
0.0463935 0.0516651 0.0136459
0.0630182 0.0544741 0.0136453
0.0814148 0.0577099 0.0136493
0.1004911 0.0600352 0.0136248
0.1235578 0.0631362 0.0135510
0.1470379 0.0652492 0.0134240
0.1723641 0.0680567 0.0133804
0.2013730 0.0700467 0.0131896
0.2317309 0.0727695 0.0130877
0.2624732 0.0753503 0.0129611
0.2921886 0.0768138 0.0129169
0.3297517 0.0793836 0.0126667
0.3612680 0.0806037 0.0126025
0.4001705 0.0829785 0.0124009
0.4299962 0.0839369 0.0124503
0.4554731 0.0858436 0.0125289
0.4813128 0.0865639 0.0125976
0.5034481 0.0883389 0.0126577
0.5248802 0.0889017 0.0128278
0.5447381 0.0906337 0.0129523
0.5606788 0.0910640 0.0132445
0.5758511 0.0927394 0.0134908
0.5902956 0.0931022 0.0137402
0.6039314 0.0947819 0.0140481
0.6168001 0.0951562 0.0145150
0.6272881 0.0968155 0.0149274
0.6348601 0.0971318 0.0155905
0.6423367 0.0987723 0.0161414
0.6507670 0.1004618 0.0167318
0.6558776 0.1007196 0.0173789
0.6604891 0.1023892 0.0180920
0.6640313 0.1026396 0.0188503
0.6674649 0.1043296 0.0196685
0.6688524 0.1045573 0.0205299
0.6719527 0.1062255 0.0212136
0.6729833 0.1064547 0.0221428
0.6755561 0.1081436 0.0228915
0.6766039 0.1083276 0.0236432
0.6785983 0.1100899 0.0247135
0.6798767 0.1102917 0.0255573
0.6818938 0.1120443 0.0265124
0.6828375 0.1122521 0.0274507
0.6849324 0.1140340 0.0284718
0.6858727 0.1142689 0.0295877
0.6879439 0.1160984 0.0307879
0.6888620 0.1163353 0.0319686
0.6906460 0.1181754 0.0328791
0.6915377 0.1184375 0.0342505
0.6935563 0.1203990 0.0357360
0.6940607 0.1205735 0.0367053
0.6960049 0.1225653 0.0382979
0.6968608 0.1227527 0.0393412
0.6983685 0.1247663 0.0410504
0.6989762 0.1249501 0.0421550
0.7004141 0.1269818 0.0439103
0.7007624 0.1271494 0.0449970
0.0000000 0.0410436 0.0138744
0.0000000 0.0406152 0.0138262
0.0000000 0.0417636 0.0139489
0.0000000 0.0439560 0.0140625
0.0004231 0.0472408 0.0142126
0.0067744 0.0504751 0.0143281
0.0165137 0.0550138 0.0144577
0.0299087 0.0592668 0.0144977
0.0448955 0.0638098 0.0145510
0.0630399 0.0676592 0.0145133
0.0809070 0.0716592 0.0144910
0.1019922 0.0749502 0.0144295
0.1241064 0.0788116 0.0143274
0.1481434 0.0816882 0.0142094
0.1766366 0.0856529 0.0140659
0.2037771 0.0882182 0.0139707
0.2348826 0.0918840 0.0138053
0.2659598 0.0942325 0.0136450
0.3008871 0.0978042 0.0134767
0.3347310 0.0999076 0.0133544
0.3724369 0.1032953 0.0131386
0.4068050 0.1050942 0.0131011
0.4391804 0.1080354 0.0130432
0.4692019 0.1093623 0.0129295
0.4919421 0.1103761 0.0130670
0.5187298 0.1129767 0.0131566
0.5408782 0.1138549 0.0132269
0.5580472 0.1161381 0.0135210
0.5778574 0.1169047 0.0136800
0.5935748 0.1191366 0.0139289
0.6084609 0.1197357 0.0142124
0.6225879 0.1219634 0.0145491
0.6359464 0.1224677 0.0147572
0.6448284 0.1245969 0.0152475
0.6546751 0.1250650 0.0157551
0.6613443 0.1253934 0.0161588
0.6685454 0.1275396 0.0167926
0.6753591 0.1279398 0.0174535
0.6801987 0.1300673 0.0181930
0.6828456 0.1303737 0.0190171
0.6868518 0.1324755 0.0198620
0.6888145 0.1327741 0.0207709
0.6920519 0.1348108 0.0214790
0.6930842 0.1350922 0.0224698
0.6957777 0.1371484 0.0232471
0.6968338 0.1373768 0.0240483
0.6989232 0.1395140 0.0251684
0.6998290 0.1397547 0.0260738
0.7011099 0.1400175 0.0270416
0.7032789 0.1421485 0.0280639
0.7042460 0.1424085 0.0291015
0.7064146 0.1445993 0.0303191
0.7073479 0.1448872 0.0315396
0.7090909 0.1470963 0.0328401
0.7100990 0.1473117 0.0337358
0.7122260 0.1495913 0.0352390
0.7130478 0.1499092 0.0367433
0.7135443 0.1501193 0.0377714
0.7155322 0.1524335 0.0394362
0.7160227 0.1526503 0.0405480
0.7179265 0.1549967 0.0423298
0.7182459 0.1552095 0.0435051
0.7200280 0.1576285 0.0453381
0.7203634 0.1578296 0.0464898
0.0000000 0.0497967 0.0147545
0.0000000 0.0492721 0.0147097
0.0000000 0.0500402 0.0147673
0.0000000 0.0532264 0.0149181
0.0000000 0.0566887 0.0150520
0.0040818 0.0613814 0.0152194
0.0136578 0.0660900 0.0153134
0.0278075 0.0715555 0.0153436
0.0431389 0.0771851 0.0153672
0.0618430 0.0820317 0.0152772
0.0801232 0.0870329 0.0152263
0.1017034 0.0912028 0.0151153
0.1243398 0.0960972 0.0150102
0.1511696 0.1001211 0.0148394
0.1778173 0.1036815 0.0147232
0.2088356 0.1085769 0.0145154
0.2406847 0.1119848 0.0143061
0.2732225 0.1164869 0.0141409
0.3046778 0.1193235 0.0140365
0.3443862 0.1239707 0.0137354
0.3827070 0.1268141 0.0134929
0.4181438 0.1292901 0.0134564
0.4515792 0.1330054 0.0132524
0.4824812 0.1349099 0.0132332
0.5068184 0.1380741 0.0133513
0.5298172 0.1393983 0.0134027
0.5535062 0.1425165 0.0134429
0.5740827 0.1437049 0.0137187
0.5912889 0.1446626 0.0139441
0.6107591 0.1476986 0.0141440
0.6260709 0.1485570 0.0144682
0.6407798 0.1513827 0.0146498
0.6544570 0.1521701 0.0150697
0.6623793 0.1527224 0.0156408
0.6738850 0.1554819 0.0159696
0.6806579 0.1560019 0.0166353
0.6882446 0.1586639 0.0171066
0.6943179 0.1591005 0.0176240
0.6980746 0.1594492 0.0182175
0.7032472 0.1620767 0.0188154
0.7061020 0.1624680 0.0197104
0.7095086 0.1651451 0.0206517
0.7110021 0.1654262 0.0214075
0.7126160 0.1657859 0.0224459
0.7151077 0.1684090 0.0232526
0.7166128 0.1687026 0.0240927
0.7189181 0.1714383 0.0252552
0.7198243 0.1717268 0.0262140
0.7221645 0.1744565 0.0272457
0.7235090 0.1747807 0.0282975
0.7244768 0.1750924 0.0293963
0.7268680 0.1779048 0.0306625
0.7273741 0.1782307 0.0319626
0.7298787 0.1813049 0.0333115
0.7308942 0.1815665 0.0342604
0.7317682 0.1819451 0.0358024
0.7341810 0.1851020 0.0374275
0.7346669 0.1853534 0.0385174
0.7370028 0.1885620 0.0402634
0.7374818 0.1888218 0.0414427
0.7381124 0.1892070 0.0432574
0.7400347 0.1923357 0.0445617
0.7405001 0.1927061 0.0464195
0.7408214 0.1929439 0.0476371
0.0000000 0.0586328 0.0154894
0.0000000 0.0586263 0.0154855
0.0000000 0.0593759 0.0155368
0.0000000 0.0624873 0.0156826
0.0000000 0.0672939 0.0158775
0.0011194 0.0722279 0.0160119
0.0110759 0.0780126 0.0161053
0.0254034 0.0855996 0.0161318
0.0411765 0.0914640 0.0160693
0.0603890 0.0985787 0.0159604
0.0790818 0.1035838 0.0158710
0.1011308 0.1087085 0.0157186
0.1262367 0.1151966 0.0155486
0.1516870 0.1198559 0.0154149
0.1789277 0.1243023 0.0152298
0.2106562 0.1305212 0.0149741
0.2431898 0.1348702 0.0147590
0.2765323 0.1408219 0.0145675
0.3129897 0.1448981 0.0142834
0.3486933 0.1485687 0.0140521
0.3887600 0.1544629 0.0137512
0.4304465 0.1581296 0.0134611
0.4651385 0.1632855 0.0133147
0.4930876 0.1655715 0.0133596
0.5212918 0.1677235 0.0132949
0.5462243 0.1720046 0.0132782
0.5695556 0.1737785 0.0135043
0.5908056 0.1753162 0.0136534
0.6099094 0.1792523 0.0138404
0.6255636 0.1804237 0.0141705
0.6460664 0.1844413 0.0142149
0.6598579 0.1854943 0.0146524
0.6710306 0.1863953 0.0151894
0.6837147 0.1900457 0.0154833
0.6920378 0.1907270 0.0159405
0.7011443 0.1915248 0.0166275
0.7091706 0.1950041 0.0171020
0.7154047 0.1955814 0.0176810
0.7192498 0.1960311 0.0183395
0.7247913 0.1994564 0.0189526
0.7277923 0.1998665 0.0196629
0.7315949 0.2032658 0.0203826
0.7331102 0.2036085 0.0211891
0.7348363 0.2039634 0.0220079
0.7375129 0.2071781 0.0228309
0.7390394 0.2075357 0.0237215
0.7398973 0.2079454 0.0249608
0.7423666 0.2111296 0.0259401
0.7432569 0.2114892 0.0270340
0.7457477 0.2147376 0.0281254
0.7467134 0.2151111 0.0292904
0.7476409 0.2155178 0.0306204
0.7501522 0.2188619 0.0319704
0.7510567 0.2192726 0.0333771
0.7520785 0.2195844 0.0343782
0.7545334 0.2230172 0.0360038
0.7549414 0.2234403 0.0376934
0.7558033 0.2237588 0.0388360
0.7581099 0.2272442 0.0406423
0.7584205 0.2276763 0.0425236
0.7607942 0.2310841 0.0438223
0.7610775 0.2313803 0.0451367
0.7615172 0.2318123 0.0470942
0.7634374 0.2352246 0.0484158
0.0000000 0.0703231 0.0163047
0.0000000 0.0694540 0.0162564
0.0000000 0.0701988 0.0163207
0.0000000 0.0738619 0.0164773
0.0000000 0.0797205 0.0166983
0.0000000 0.0855884 0.0168093
0.0075365 0.0924420 0.0168995
0.0226562 0.1018934 0.0168351
0.0388437 0.1090275 0.0167234
0.0587029 0.1163251 0.0165517
0.0778433 0.1238413 0.0164206
0.1004410 0.1301513 0.0162380
0.1260521 0.1364449 0.0160412
0.1523006 0.1438749 0.0158128
0.1829850 0.1499192 0.0155140
0.2155413 0.1556930 0.0152366
0.2460742 0.1626078 0.0150443
0.2836929 0.1681889 0.0146695
0.3220302 0.1755171 0.0142893
0.3590072 0.1802262 0.0140206
0.3996205 0.1849922 0.0136980
0.4379486 0.1915636 0.0134140
0.4736075 0.1953155 0.0132625
0.5072950 0.1986313 0.0130501
0.5332558 0.2036842 0.0129747
0.5619612 0.2064304 0.0130782
0.5860608 0.2086461 0.0131598
0.6056345 0.2131525 0.0133160
0.6276286 0.2150721 0.0133450
0.6437424 0.2165688 0.0136873
0.6615034 0.2209986 0.0139949
0.6760408 0.2223040 0.0142804
0.6904504 0.2236575 0.0147861
0.7034266 0.2277456 0.0151045
0.7118826 0.2286881 0.0158381
0.7213240 0.2296100 0.0163373
0.7294760 0.2334037 0.0168475
0.7358659 0.2341290 0.0174854
0.7398013 0.2346795 0.0181902
0.7453539 0.2382892 0.0188322
0.7484064 0.2387963 0.0196277
0.7499346 0.2391956 0.0204722
0.7536996 0.2427509 0.0212454
0.7554434 0.2431776 0.0221440
0.7565154 0.2435603 0.0230860
0.7593320 0.2470116 0.0236459
0.7607617 0.2474253 0.0246169
0.7616524 0.2478339 0.0257314
0.7643104 0.2513536 0.0264281
0.7652245 0.2517737 0.0276041
0.7661882 0.2522031 0.0288238
0.7687644 0.2559370 0.0301664
0.7696852 0.2564094 0.0316007
0.7705821 0.2568804 0.0330730
0.7732751 0.2605620 0.0340825
0.7741234 0.2610777 0.0357921
0.7745064 0.2615587 0.0375606
0.7770415 0.2653018 0.0387326
0.7773293 0.2657876 0.0406230
0.7780094 0.2663091 0.0425836
0.7804509 0.2701125 0.0439104
0.7807164 0.2704495 0.0452852
0.7808227 0.2709174 0.0473386
0.7831077 0.2747440 0.0486824
0.0000000 0.0806160 0.0169935
0.0000000 0.0806160 0.0169935
0.0000000 0.0813388 0.0170406
0.0000000 0.0854617 0.0172381
0.0000000 0.0912432 0.0173824
0.0000000 0.0990317 0.0175262
0.0044025 0.1072204 0.0175581
0.0192758 0.1165055 0.0174307
0.0363815 0.1266429 0.0172786
0.0567319 0.1352843 0.0170381
0.0777562 0.1429485 0.0168330
0.1011691 0.1521550 0.0166168
0.1256477 0.1591361 0.0163735
0.1546794 0.1664968 0.0160443
0.1837810 0.1751592 0.0157600
0.2170245 0.1821221 0.0154504
0.2514315 0.1886446 0.0150848
0.2866561 0.1970473 0.0147021
0.3251595 0.2032889 0.0143307
0.3627998 0.2089489 0.0140174
0.4050367 0.2173623 0.0135654
0.4490570 0.2231176 0.0131628
0.4858028 0.2276186 0.0128349
0.5204520 0.2316611 0.0125806
0.5471516 0.2375519 0.0124831
0.5725716 0.2404964 0.0126762
0.5971648 0.2432092 0.0127669
0.6216055 0.2487596 0.0126457
0.6441245 0.2511824 0.0128439
0.6606483 0.2530245 0.0132453
