Plugins/FilmEmulator/Content/LUTs/FE_Ilfochrome_Micrographic_M_64.cube
TITLE "FE_Ilfochrome_Micrographic_M_33"
LUT_3D_SIZE 8
0.0047429 0.0057062 0.0065684
0.0627240 0.0066529 0.0070633
0.2491570 0.0020395 0.0068645
0.4475429 0.0000000 0.0079812
0.5388207 0.0000000 0.0114748
0.5687407 0.0061419 0.0171636
0.5902693 0.0145662 0.0253563
0.6110961 0.0259994 0.0361816
0.0000000 0.0497967 0.0147545
0.0618430 0.0820317 0.0152772
0.3046778 0.1193235 0.0140365
0.5740827 0.1437049 0.0137187
0.6882446 0.1586639 0.0171066
0.7166128 0.1687026 0.0240927
0.7308942 0.1815665 0.0342604
0.7408214 0.1929439 0.0476371
0.0000000 0.1615482 0.0207612
0.0415387 0.2633438 0.0186107
0.3549487 0.4052961 0.0110017
0.7073598 0.5002975 0.0058323
0.8559555 0.5415362 0.0103090
0.8912349 0.5618958 0.0200621
0.9045045 0.5789313 0.0329321
0.9136534 0.5955358 0.0479138
0.0000000 0.2527517 0.0263582
0.0182390 0.3868445 0.0223322
0.3665519 0.6059043 0.0095100
0.7681561 0.7514632 0.0014430
0.9406394 0.8072347 0.0067086
0.9800177 0.8304098 0.0208014
0.9901159 0.8430421 0.0375730
0.9976766 0.8540568 0.0543043
0.0000000 0.2916331 0.0331765
0.0000000 0.4087140 0.0302311
0.3472103 0.6517574 0.0181399
0.7691307 0.8154755 0.0107145
0.9505110 0.8765200 0.0193586
0.9927568 0.8957524 0.0342598
1.0000000 0.9061713 0.0522912
1.0000000 0.9152663 0.0722502
0.0000000 0.3148490 0.0416847
0.0000000 0.4025307 0.0398103
0.3157559 0.6506013 0.0312623
0.7476721 0.8242744 0.0271916
0.9410777 0.8884727 0.0359318
0.9876480 0.9083418 0.0526243
0.9988336 0.9181973 0.0724607
1.0000000 0.9262277 0.0933282
0.0000000 0.3376088 0.0517416
0.0000000 0.3903625 0.0511295
0.2896100 0.6459206 0.0467162
0.7251995 0.8247315 0.0443654
0.9288777 0.8923846 0.0547799
0.9809970 0.9134739 0.0730853
0.9920879 0.9226604 0.0937832
1.0000000 0.9304009 0.1148404
0.0000000 0.3643191 0.0655077
0.0000000 0.3785757 0.0650318
0.2599248 0.6394560 0.0642666
0.7023767 0.8256238 0.0632862
0.9173368 0.8971619 0.0753004
0.9745808 0.9192583 0.0943429
0.9869483 0.9281282 0.1152483
0.9957472 0.9356492 0.1369749
0.0044203 0.0061015 0.0546006
0.0871389 0.0079187 0.0733259
0.3015617 0.0045575 0.0916703
0.4779875 0.0034552 0.1106897
0.5560089 0.0082482 0.1334338
0.5826248 0.0164690 0.1580746
0.6060428 0.0280986 0.1857642
0.6264349 0.0420433 0.2171733
0.0000000 0.0613356 0.1128308
0.0772683 0.1065238 0.1449874
0.3489978 0.1467239 0.1719507
0.5854869 0.1704783 0.1957405
0.6797762 0.1850049 0.2196016
0.7021900 0.1941817 0.2455628
0.7184733 0.2068587 0.2725251
0.7308317 0.2199922 0.3023590
0.0000000 0.1934076 0.1652592
0.0450067 0.3284338 0.2002785
0.3886473 0.4744030 0.2274277
0.6993740 0.5588043 0.2538906
0.8227199 0.5943093 0.2824734
0.8496710 0.6110892 0.3154218
0.8644701 0.6256099 0.3478797
0.8755117 0.6395301 0.3834701
0.0000000 0.2955170 0.1876286
0.0163794 0.4689178 0.2184032
0.3893146 0.6894835 0.2436610
0.7525816 0.8183899 0.2690949
0.8981006 0.8673263 0.2990479
0.9268187 0.8808561 0.3345188
0.9403070 0.8898826 0.3692963
0.9493455 0.8975792 0.4072813
0.0000000 0.3354832 0.1971250
0.0000000 0.4948784 0.2218056
0.3708982 0.7329020 0.2467022
0.7529933 0.8770920 0.2716296
0.9103795 0.9274422 0.3014924
0.9422456 0.9401941 0.3374001
0.9551122 0.9470714 0.3726332
0.9638205 0.9525886 0.4110702
0.0000000 0.3563654 0.2012305
0.0000000 0.4825503 0.2217839
0.3473427 0.7290956 0.2474317
0.7402249 0.8807222 0.2721932
0.9057334 0.9336906 0.3019110
0.9431399 0.9475951 0.3377644
0.9565227 0.9541482 0.3730327
0.9652636 0.9591914 0.4115092
0.0000000 0.3769245 0.2071054
0.0000000 0.4655866 0.2211872
0.3178421 0.7158772 0.2508033
0.7249341 0.8759896 0.2725051
0.9008246 0.9328113 0.3058998
0.9425452 0.9475213 0.3377794
0.9553651 0.9538856 0.3730533
0.9648764 0.9591393 0.4115177
0.0000000 0.4008963 0.2109910
0.0000000 0.4488158 0.2205061
0.2902892 0.7033603 0.2512300
0.7081316 0.8721389 0.2763576
0.8966408 0.9328446 0.3060337
0.9417070 0.9486441 0.3378650
0.9551873 0.9552083 0.3731416
0.9649088 0.9606131 0.4116245
0.0130780 0.0013903 0.1705363
0.1247984 0.0034107 0.2186431
0.3602253 0.0014181 0.2585005
0.5174443 0.0034453 0.2904573
0.5807387 0.0108750 0.3193366
0.6068983 0.0230858 0.3501704
0.6301244 0.0378528 0.3819307
0.6486901 0.0536469 0.4121871
0.0000000 0.0639458 0.3297408
0.1143168 0.1160271 0.4029672
0.4120885 0.1570990 0.4482839
0.6160985 0.1765863 0.4766867
0.6916487 0.1910421 0.4979373
0.7117692 0.2038686 0.5171705
0.7264802 0.2139000 0.5342571
0.7369680 0.2236942 0.5489158
0.0000000 0.2067696 0.4625653
0.0822258 0.3682272 0.5507086
0.4579766 0.5113752 0.6019527
0.7230678 0.5814002 0.6340442
0.8220012 0.6107593 0.6551780
0.8446851 0.6253200 0.6734001
0.8611225 0.6389207 0.6909842
0.8722994 0.6517733 0.7055814
0.0000000 0.3202906 0.5277817
0.0522703 0.5297195 0.6066256
0.4630430 0.7420211 0.6579253
0.7722798 0.8481635 0.6900102
0.8894311 0.8835804 0.7104372
0.9134168 0.8929619 0.7279923
0.9296376 0.9033077 0.7453235
0.9399077 0.9090471 0.7587662
0.0000000 0.3639936 0.5501366
0.0299358 0.5552205 0.6154508
0.4417621 0.7882535 0.6681461
0.7723995 0.9050580 0.6999800
0.9002193 0.9433510 0.7202734
0.9276067 0.9516479 0.7376803
0.9425867 0.9563857 0.7542339
0.9523053 0.9596254 0.7673849
0.0000000 0.3875749 0.5627003
0.0121274 0.5444975 0.6138806
0.4072925 0.7804037 0.6682244
0.7652873 0.9098328 0.7010627
0.8991778 0.9497796 0.7213712
0.9281720 0.9580605 0.7387344
0.9435790 0.9624122 0.7552283
0.9534740 0.9651802 0.7683082
0.0000000 0.4118686 0.5700902
0.0000000 0.5296854 0.6109405
0.3804659 0.7689415 0.6719614
0.7513936 0.9055758 0.7008808
0.8958058 0.9489034 0.7213511
0.9270790 0.9578099 0.7387324
0.9424225 0.9621456 0.7552249
0.9531838 0.9651530 0.7683139
0.0000000 0.4382995 0.5814255
0.0000000 0.5145258 0.6078315
0.3549500 0.7585701 0.6710994
0.7367199 0.9021404 0.7008692
0.8915850 0.9490780 0.7215352
0.9263008 0.9589896 0.7389577
0.9422400 0.9635846 0.7554768
0.9531658 0.9667261 0.7717754
0.0250358 0.0000000 0.2528359
0.1674446 0.0034786 0.3100524
0.4100693 0.0043275 0.3514562
0.5511143 0.0104499 0.3859781
0.6048822 0.0230442 0.4205781
0.6289614 0.0376037 0.4517110
0.6502185 0.0533192 0.4800380
0.6673810 0.0713484 0.5092251
0.0000000 0.0711316 0.4560374
0.1631719 0.1253076 0.5305350
0.4710673 0.1653977 0.5731464
0.6464458 0.1873053 0.5950437
0.7027959 0.1993164 0.6108811
0.7216569 0.2130956 0.6252136
0.7354921 0.2229737 0.6382784
0.7450895 0.2329482 0.6497383
0.0000000 0.2230318 0.6231064
0.1374798 0.3988147 0.7172883
0.5256469 0.5342671 0.7636315
0.7535203 0.5946609 0.7830226
0.8304339 0.6200660 0.7980755
0.8504509 0.6344548 0.8081219
0.8663166 0.6482278 0.8201118
0.8764096 0.6611503 0.8299899
0.0000000 0.3372766 0.6987810
0.1109634 0.5737807 0.7888020
0.5454876 0.7757264 0.8347852
0.8076069 0.8601207 0.8519652
0.8967054 0.8904500 0.8658886
0.9165838 0.8987091 0.8738611
0.9319776 0.9057302 0.8839403
0.9405941 0.9109987 0.8916848
0.0000000 0.3837417 0.7242802
0.0900005 0.6021162 0.7998842
0.5280557 0.8218191 0.8470034
0.8091031 0.9161572 0.8642591
0.9084589 0.9454982 0.8772591
0.9290149 0.9517103 0.8870617
0.9435232 0.9562157 0.8943878
0.9523520 0.9591269 0.9016574
0.0000000 0.4107153 0.7356709
0.0691643 0.5918745 0.7980354
0.4993936 0.8172664 0.8472408
0.7986736 0.9195946 0.8654093
0.9072394 0.9514065 0.8785340
0.9294094 0.9575793 0.8882716
0.9443906 0.9617022 0.8955038
0.9533526 0.9641220 0.9026711
0.0000000 0.4369202 0.7477220
0.0503667 0.5769942 0.7944389
0.4695292 0.8055891 0.8458015
0.7897291 0.9168826 0.8678316
0.9044361 0.9506650 0.8784871
0.9288689 0.9574822 0.8882719
0.9438852 0.9616147 0.8955047
0.9531020 0.9640738 0.9026706
0.0000000 0.4605844 0.7561401
0.0331233 0.5632624 0.7910563
0.4409272 0.7950608 0.8445732
0.7767649 0.9142295 0.8677827
0.9019815 0.9513606 0.8787256
0.9281486 0.9587720 0.8885676
0.9432649 0.9630268 0.8958228
0.9532688 0.9657094 0.9030074
0.0433907 0.0025438 0.3117765
0.2152084 0.0083422 0.3701085
0.4573458 0.0131405 0.4120310
0.5824500 0.0251994 0.4478677
0.6237973 0.0392216 0.4750457
0.6465765 0.0557864 0.5013149
0.6671762 0.0745314 0.5270139
0.6826116 0.0937068 0.5500786
0.0097228 0.0841217 0.5250093
0.2149990 0.1396385 0.5948363
0.5155087 0.1768267 0.6284153
0.6669533 0.1986965 0.6453151
0.7122734 0.2111268 0.6543239
0.7284017 0.2214178 0.6615437
0.7428910 0.2351942 0.6706896
0.7513485 0.2458391 0.6774529
0.0000000 0.2595724 0.7096640
0.2017069 0.4352756 0.7952003
0.5861423 0.5610850 0.8308960
0.7813815 0.6142416 0.8427498
0.8380803 0.6309597 0.8464938
0.8564432 0.6454369 0.8505864
0.8714355 0.6594985 0.8543652
0.8806674 0.6726432 0.8579155
0.0000000 0.3606471 0.7780176
0.1815258 0.6169629 0.8696750
0.6120079 0.7996497 0.9037577
0.8367729 0.8732227 0.9133836
0.9022273 0.8941514 0.9160063
0.9208468 0.9021988 0.9172941
0.9356534 0.9123449 0.9189752
0.9428694 0.9159664 0.9193757
0.0000000 0.4069192 0.8021148
0.1568842 0.6456862 0.8812019
0.5986041 0.8468734 0.9166386
0.8403654 0.9251177 0.9254093
0.9133296 0.9466946 0.9275594
0.9320219 0.9524978 0.9282366
0.9461978 0.9570063 0.9285799
0.9534763 0.9595917 0.9287084
0.0000000 0.4367803 0.8150073
0.1339193 0.6362861 0.8795935
0.5813205 0.8468310 0.9174612
0.8338935 0.9293268 0.9266262
0.9131743 0.9523897 0.9288255
0.9321998 0.9577809 0.9293904
0.9463990 0.9617766 0.9296141
0.9543300 0.9640090 0.9296376
0.0000000 0.4599303 0.8248681
0.1127357 0.6221080 0.8761981
0.5546744 0.8371695 0.9162194
0.8221321 0.9258631 0.9263078
0.9115676 0.9519885 0.9287990
0.9316216 0.9576718 0.9293886
0.9458848 0.9616548 0.9296072
0.9540785 0.9639592 0.9296360
0.0000000 0.4841284 0.8337820
0.0931107 0.6091148 0.8730566
0.5354886 0.8312582 0.9155902
0.8146976 0.9250957 0.9264316
0.9103273 0.9531225 0.9290969
0.9308491 0.9590359 0.9297168
0.9457827 0.9632137 0.9299507
0.9540100 0.9656175 0.9299986
0.0658683 0.0087207 0.3483965
0.2708698 0.0185407 0.4074227
0.5006877 0.0287289 0.4493961
0.6069424 0.0431238 0.4810700
0.6410549 0.0592989 0.5069925
0.6627322 0.0771246 0.5313758
0.6817276 0.0967667 0.5551368
0.6965044 0.1175757 0.5776018
0.0350209 0.1006496 0.5509751
0.2739906 0.1563830 0.6117975
0.5574120 0.1912786 0.6406127
0.6865809 0.2125482 0.6563085
0.7198670 0.2239450 0.6643627
0.7351607 0.2346006 0.6717195
0.7480179 0.2455197 0.6790606
0.7572613 0.2597196 0.6882703
0.0000000 0.3023387 0.7383833
0.2717541 0.4698155 0.8081020
0.6366949 0.5826636 0.8376345
0.8015312 0.6288893 0.8480772
0.8459290 0.6487724 0.8532722
0.8621728 0.6575846 0.8558054
0.8760550 0.6716437 0.8600139
0.8847337 0.6848523 0.8640783
0.0000000 0.4179202 0.8072134
0.2551076 0.6602405 0.8808050
0.6674786 0.8230330 0.9084716
0.8576280 0.8819877 0.9160095
0.9078999 0.9017907 0.9191114
0.9248031 0.9094180 0.9205889
0.9376824 0.9145448 0.9216781
0.9442323 0.9179837 0.9226356
0.0000000 0.4347360 0.8170018
0.2315598 0.6892451 0.8915911
0.6606193 0.8686813 0.9202976
0.8637223 0.9324851 0.9275073
0.9180157 0.9485542 0.9293483
0.9351311 0.9539044 0.9302248
0.9480652 0.9580573 0.9310414
0.9543324 0.9603542 0.9317258
0.0000000 0.4614012 0.8277922
0.2080641 0.6813612 0.8905473
0.6454397 0.8693231 0.9211209
0.8563086 0.9359651 0.9285871
0.9180583 0.9537770 0.9305020
0.9351701 0.9586139 0.9312589
0.9487672 0.9624275 0.9319707
0.9550695 0.9641974 0.9325372
0.0000000 0.4851204 0.8364603
0.1857823 0.6685375 0.8878279
0.6222165 0.8613681 0.9201770
0.8505042 0.9343105 0.9284431
0.9172574 0.9536036 0.9304944
0.9345897 0.9585029 0.9312565
0.9479727 0.9622269 0.9319573
0.9548442 0.9641536 0.9325359
0.0000000 0.5093245 0.8448728
0.1607956 0.6544560 0.8848361
0.6054552 0.8568331 0.9197944
0.8450665 0.9341606 0.9286249
0.9160333 0.9548306 0.9308124
0.9338080 0.9598361 0.9315787
0.9478935 0.9638786 0.9323207
0.9550648 0.9659777 0.9329249
0.0931034 0.0180845 0.3890658
0.3280489 0.0325277 0.4472604
0.5389434 0.0463427 0.4852265
0.6286731 0.0628220 0.5138350
0.6570617 0.0811434 0.5386214
0.6790277 0.1014223 0.5626583
0.6959506 0.1212378 0.5836797
0.7101855 0.1436873 0.6051961
0.0660820 0.1176823 0.5755110
0.3364722 0.1736583 0.6304891
0.5966364 0.2060946 0.6552187
0.7021682 0.2257534 0.6687786
0.7270774 0.2371849 0.6765352
0.7425462 0.2483679 0.6839117
0.7543733 0.2593697 0.6909667
0.7618004 0.2704447 0.6978991
0.0166526 0.3414989 0.7627898
0.3509176 0.5049461 0.8235179
0.6837130 0.6033495 0.8475670
0.8207681 0.6435156 0.8563219
0.8522691 0.6610417 0.8610329
0.8695376 0.6758908 0.8652499
0.8807358 0.6839293 0.8675459
0.8886448 0.6971982 0.8714641
0.0000000 0.4716269 0.8324040
0.3376819 0.7010635 0.8938583
0.7194004 0.8447512 0.9167134
0.8749132 0.8927311 0.9226058
0.9123478 0.9059955 0.9244313
0.9281249 0.9119209 0.9254721
0.9401717 0.9185427 0.9268053
0.9458299 0.9217593 0.9275898
0.0000000 0.4850010 0.8402184
0.3170192 0.7328365 0.9046931
0.7138883 0.8866160 0.9273031
0.8812352 0.9380236 0.9328423
0.9218514 0.9501211 0.9341143
0.9381916 0.9552510 0.9348886
0.9498126 0.9590406 0.9355440
0.9553339 0.9608846 0.9360015
0.0000000 0.4867921 0.8412221
0.2888681 0.7240810 0.9036638
0.6998087 0.8874367 0.9281017
0.8779888 0.9422376 0.9339206
0.9218230 0.9547939 0.9351532
0.9381140 0.9593924 0.9358059
0.9503731 0.9628308 0.9363556
0.9559844 0.9643798 0.9367437
0.0000000 0.5084518 0.8486683
0.2620137 0.7104942 0.9010814
0.6832758 0.8820117 0.9274932
0.8734992 0.9409871 0.9338146
0.9206036 0.9545010 0.9351353
0.9375365 0.9592507 0.9357965
0.9495772 0.9626281 0.9363414
0.9557675 0.9643677 0.9367494
0.0000804 0.5305991 0.8559331
0.2366479 0.6982183 0.8987863
0.6673118 0.8780571 0.9272178
0.8654916 0.9402038 0.9339533
0.9204139 0.9561084 0.9354986
0.9368029 0.9607145 0.9361470
0.9496412 0.9644072 0.9367288
0.9559980 0.9661655 0.9371340
0.1277827 0.0309122 0.4302845
0.3926092 0.0496661 0.4849745
0.5753179 0.0662164 0.5181233
0.6486410 0.0853492 0.5450298
0.6726983 0.1045260 0.5674807
0.6939483 0.1269625 0.5908697
0.7098126 0.1478205 0.6104458
0.7240518 0.1724008 0.6315213
0.1034948 0.1354448 0.5975933
0.4045342 0.1916308 0.6472074
0.6295513 0.2203576 0.6674814
0.7120661 0.2360161 0.6778414
0.7333993 0.2476035 0.6853796
0.7497157 0.2623777 0.6947585
0.7604390 0.2738385 0.7017437
0.7678978 0.2854550 0.7087275
0.0634232 0.3805039 0.7835495
0.4316157 0.5385367 0.8359852
0.7227460 0.6224128 0.8552608
0.8318566 0.6567466 0.8628545
0.8578845 0.6734077 0.8672441
0.8747854 0.6884061 0.8714173
0.8851020 0.6963961 0.8735545
0.8927861 0.7098408 0.8774418
0.0303431 0.5197407 0.8515689
0.4288208 0.7440975 0.9049625
0.7617090 0.8603449 0.9217818
0.8885201 0.8994734 0.9265056
0.9159974 0.9103111 0.9281114
0.9318845 0.9162818 0.9291145
0.9419733 0.9206876 0.9298606
0.9471895 0.9237922 0.9305950
0.0101893 0.5353241 0.8597474
0.4051751 0.7729030 0.9144782
0.7578965 0.9010484 0.9318439
0.8961318 0.9428005 0.9362013
0.9254829 0.9516593 0.9371641
0.9406744 0.9564649 0.9378704
0.9514032 0.9597588 0.9383004
0.9563046 0.9613082 0.9386759
0.0000000 0.5241219 0.8565904
0.3789762 0.7662550 0.9139615
0.7443925 0.9017410 0.9325716
0.8939084 0.9468077 0.9371898
0.9254482 0.9557974 0.9380860
0.9410394 0.9601923 0.9386810
0.9519762 0.9632367 0.9390448
0.9566746 0.9645326 0.9393710
0.0002115 0.5296780 0.8583648
0.3472482 0.7519677 0.9115372
0.7344935 0.8986427 0.9322461
0.8893504 0.9455490 0.9370842
0.9243039 0.9554951 0.9380628
0.9398758 0.9598855 0.9386578
0.9511857 0.9630582 0.9390358
0.9564558 0.9645127 0.9393752
0.0222628 0.5516955 0.8652247
0.3232664 0.7419450 0.9099139
0.7201302 0.8955116 0.9321008
0.8852063 0.9459982 0.9373475
0.9234967 0.9569299 0.9384125
0.9397507 0.9616068 0.9390424
0.9512420 0.9648062 0.9394180
0.9567166 0.9664361 0.9397873
