Plugins/FilmEmulator/Content/LUTs/FE_Ilfochrome_Micrographic_M_64.cube
TITLE "FE_Ilfochrome_Micrographic_M_33"
LUT_3D_SIZE 4
0.0047429 0.0057062 0.0065684
0.3335311 0.0000000 0.0069042
0.5611830 0.0037498 0.0151300
0.6110961 0.0259994 0.0361816
0.0000000 0.1953153 0.0224546
0.5124913 0.5404794 0.0058091
0.9272139 0.6741161 0.0136680
0.9545125 0.7139476 0.0483848
0.0000000 0.3076268 0.0387407
0.4873486 0.7243782 0.0229308
0.9837077 0.9020375 0.0407278
1.0000000 0.9243184 0.0865389
0.0000000 0.3643191 0.0655077
0.4131718 0.7137802 0.0623750
0.9665665 0.9150785 0.0878942
0.9957472 0.9356492 0.1369749
0.0168504 0.0002578 0.2038012
0.4410080 0.0020550 0.3054035
0.6068354 0.0230164 0.3790432
0.6549860 0.0587885 0.4494752
0.0000000 0.2557906 0.5657449
0.6030999 0.6605651 0.7111396
0.8724977 0.7473363 0.7553752
0.9052006 0.7738674 0.7862380
0.0000000 0.3874558 0.6375597
0.5947931 0.8526373 0.7551281
0.9224333 0.9557341 0.7966769
0.9531471 0.9643196 0.8274049
0.0000000 0.4466750 0.6600823
0.5426343 0.8356245 0.7539323
0.9205223 0.9573086 0.7970368
0.9529117 0.9664183 0.8278112
0.0578817 0.0064606 0.3366258
0.5358784 0.0275111 0.4489941
0.6505591 0.0642658 0.5133545
0.6914437 0.1085139 0.5671678
0.0000000 0.3421410 0.7650978
0.7192521 0.7125404 0.8752597
0.8846524 0.7672043 0.8849975
0.9126344 0.7937462 0.8918452
0.0000000 0.4455034 0.8211966
0.7245551 0.8949840 0.9230874
0.9292055 0.9565167 0.9293173
0.9549866 0.9638847 0.9307808
0.0000000 0.5005544 0.8413957
0.6890174 0.8853971 0.9223024
0.9275199 0.9580977 0.9297287
0.9547791 0.9658107 0.9312072
0.1277827 0.0309122 0.4302845
0.6096900 0.0726104 0.5278891
0.6870112 0.1190343 0.5828832
0.7240518 0.1724008 0.6315213
0.0496117 0.4475066 0.8181010
0.8014188 0.7518798 0.8917245
0.8972988 0.7941620 0.9001755
0.9190506 0.8121480 0.9045151
0.0002572 0.5293084 0.8582091
0.8181451 0.9241092 0.9347985
0.9362871 0.9585505 0.9383900
0.9568350 0.9643148 0.9393173
0.0222628 0.5516955 0.8652247
0.7944134 0.9188775 0.9346550
0.9344557 0.9601262 0.9388086
0.9567166 0.9664361 0.9397873
