Plugins/FilmEmulator/Content/LUTs/FE_Ilfochrome_Micrographic_P_64.cube
TITLE "FE_Ilfochrome_Micrographic_P_33"
LUT_3D_SIZE 8
0.0070188 0.0084301 0.0096708
0.0863347 0.0114056 0.0116178
0.2307215 0.0122198 0.0142756
0.3873387 0.0135047 0.0187737
0.4982397 0.0187111 0.0255677
0.5757235 0.0266444 0.0362069
0.6267297 0.0377818 0.0476216
0.6557367 0.0517357 0.0609898
0.0000000 0.0605671 0.0211549
0.0880015 0.0994521 0.0232352
0.2714436 0.1312102 0.0263906
0.4687478 0.1545004 0.0303138
0.6051880 0.1712330 0.0369761
0.6898897 0.1856208 0.0492200
0.7402162 0.1985147 0.0626098
0.7637023 0.2104509 0.0771271
0.0000000 0.1696865 0.0309407
0.0741986 0.2684177 0.0322631
0.2993543 0.3660190 0.0335872
0.5473575 0.4368497 0.0368391
0.7121544 0.4811338 0.0479140
0.8176732 0.5115799 0.0602575
0.8792908 0.5336396 0.0735199
0.9055910 0.5495687 0.0889523
0.0000000 0.2703592 0.0411676
0.0544651 0.3999795 0.0402711
0.3073152 0.5476109 0.0400824
0.5895311 0.6600224 0.0458553
0.7724667 0.7203478 0.0561754
0.8920208 0.7588209 0.0685290
0.9596846 0.7869990 0.0839794
0.9871836 0.8015988 0.1008966
0.0000000 0.3468138 0.0522334
0.0347527 0.4692316 0.0508327
0.2997462 0.6516787 0.0533295
0.5989248 0.7834038 0.0583456
0.7968962 0.8550060 0.0675145
0.9230339 0.8988730 0.0812556
0.9949187 0.9253594 0.0972194
1.0000000 0.9398972 0.1139745
0.0000000 0.3891100 0.0663902
0.0153771 0.4809734 0.0668343
0.2785027 0.6735683 0.0705654
0.5860522 0.8125498 0.0738708
0.7923310 0.8882809 0.0840977
0.9211384 0.9322217 0.0978958
0.9982506 0.9591668 0.1144087
1.0000000 0.9725284 0.1315754
0.0000000 0.4162946 0.0832151
0.0000000 0.4698512 0.0832757
0.2563253 0.6658904 0.0865989
0.5663573 0.8081943 0.0914929
0.7784790 0.8856296 0.1029218
0.9122120 0.9300032 0.1159906
0.9892015 0.9559220 0.1314970
1.0000000 0.9688050 0.1483857
0.0000000 0.4417702 0.0979453
0.0000000 0.4571000 0.0983027
0.2351026 0.6580436 0.1043509
0.5472322 0.8033662 0.1099675
0.7650675 0.8826366 0.1196135
0.9007998 0.9280510 0.1343280
0.9826931 0.9549173 0.1496399
1.0000000 0.9681050 0.1663212
0.0080163 0.0105001 0.0668570
0.1081089 0.0157083 0.0871689
0.2644744 0.0184994 0.1056387
0.4165628 0.0231053 0.1228954
0.5219097 0.0302086 0.1393298
0.5973537 0.0413477 0.1564375
0.6434919 0.0552097 0.1752719
0.6667489 0.0695424 0.1941609
0.0000000 0.0733790 0.1246251
0.1011429 0.1217114 0.1536789
0.2951818 0.1541407 0.1746967
0.4822525 0.1766010 0.1918874
0.6075104 0.1923601 0.2059749
0.6890330 0.2055979 0.2196638
0.7363101 0.2174914 0.2345896
0.7545997 0.2258217 0.2496659
0.0000000 0.1995607 0.1720402
0.0793658 0.3173224 0.1998817
0.3174596 0.4120166 0.2226668
0.5494551 0.4763476 0.2410274
0.7057589 0.5198780 0.2581747
0.8058718 0.5469736 0.2732131
0.8597648 0.5652649 0.2881992
0.8825749 0.5785212 0.3059543
0.0000000 0.3101078 0.1964639
0.0566218 0.4628548 0.2188775
0.3185446 0.6063983 0.2407524
0.5856804 0.7077026 0.2584227
0.7618018 0.7625186 0.2750580
0.8716267 0.7954730 0.2903173
0.9342411 0.8194196 0.3060266
0.9583877 0.8304713 0.3248069
0.0000000 0.3910169 0.2101370
0.0372755 0.5372824 0.2284108
0.3122810 0.7123610 0.2498898
0.5965254 0.8313199 0.2665524
0.7874456 0.8969755 0.2807999
0.9034202 0.9343717 0.2961718
0.9694909 0.9560531 0.3119696
0.9971293 0.9671088 0.3312811
0.0000000 0.4284791 0.2150689
0.0212144 0.5446547 0.2299390
0.2941651 0.7287062 0.2515326
0.5880650 0.8561757 0.2679265
0.7825820 0.9241736 0.2820449
0.9053860 0.9634165 0.2972824
0.9756316 0.9856515 0.3154614
1.0000000 0.9956134 0.3351259
0.0000000 0.4510066 0.2196018
0.0079419 0.5302074 0.2295675
0.2743071 0.7161031 0.2516712
0.5736092 0.8477345 0.2680741
0.7731484 0.9174162 0.2840053
0.8972950 0.9564559 0.2992746
0.9701608 0.9785830 0.3153330
1.0000000 0.9892791 0.3349109
0.0000000 0.4727646 0.2239829
0.0000000 0.5131150 0.2308871
0.2553059 0.7033525 0.2517519
0.5589091 0.8392033 0.2703784
0.7641953 0.9112800 0.2840506
0.8930835 0.9521044 0.2992313
0.9673941 0.9749056 0.3152616
1.0000000 0.9858359 0.3348046
0.0193840 0.0105980 0.1523406
0.1367626 0.0173073 0.1889572
0.3046378 0.0226099 0.2185492
0.4486953 0.0289389 0.2449049
0.5521294 0.0403312 0.2712905
0.6211634 0.0533815 0.2983801
0.6629301 0.0679814 0.3229590
0.6818556 0.0831639 0.3466695
0.0000000 0.0819711 0.2627331
0.1307779 0.1317466 0.3104878
0.3337066 0.1637205 0.3377607
0.5078960 0.1849937 0.3615690
0.6271858 0.2008763 0.3800089
0.7026809 0.2142304 0.3981230
0.7420531 0.2234702 0.4144816
0.7577825 0.2346000 0.4323850
0.0000000 0.2159404 0.3505022
0.1094544 0.3470410 0.4050354
0.3566757 0.4381026 0.4348374
0.5769686 0.5015008 0.4616856
0.7210028 0.5381890 0.4809185
0.8110451 0.5628058 0.5030715
0.8597468 0.5798915 0.5213561
0.8768530 0.5916529 0.5366485
0.0000000 0.3392168 0.4005024
0.0862060 0.5055827 0.4469980
0.3607550 0.6458110 0.4804456
0.6101021 0.7334797 0.5026691
0.7702634 0.7858935 0.5255705
0.8732758 0.8163389 0.5445361
0.9268568 0.8335935 0.5629928
0.9475349 0.8467276 0.5824368
0.0000000 0.4235882 0.4272123
0.0658105 0.5872621 0.4647050
0.3529102 0.7535143 0.4977427
0.6199020 0.8599363 0.5196868
0.7926987 0.9179769 0.5421178
0.9014063 0.9520679 0.5611818
0.9612311 0.9709880 0.5798750
0.9821490 0.9789531 0.5990906
0.0000000 0.4642508 0.4391932
0.0494489 0.5965751 0.4675106
0.3364790 0.7716646 0.5011044
0.6109438 0.8847036 0.5266667
0.7914952 0.9458164 0.5454448
0.9055984 0.9810492 0.5644119
0.9653209 0.9986538 0.5830038
0.9890445 1.0000000 0.6021580
0.0000000 0.4855134 0.4459271
0.0355402 0.5825926 0.4658464
0.3134618 0.7577538 0.5001998
0.5964735 0.8756269 0.5261148
0.7825736 0.9382417 0.5448880
0.8979313 0.9732565 0.5637847
0.9621382 0.9920833 0.5823469
0.9871408 0.9992881 0.6014102
0.0000000 0.5056174 0.4488068
0.0195831 0.5660877 0.4672876
0.2959072 0.7460532 0.4993303
0.5819064 0.8671627 0.5256315
0.7741261 0.9325014 0.5445215
0.8910052 0.9683293 0.5634562
0.9577020 0.9878657 0.5820045
0.9860302 0.9961743 0.6010709
0.0383207 0.0120445 0.2410866
0.1683042 0.0206632 0.2833325
0.3431117 0.0279188 0.3153354
0.4825472 0.0390868 0.3457938
0.5799116 0.0522685 0.3729487
0.6440641 0.0663674 0.3973704
0.6812983 0.0830527 0.4217640
0.6973134 0.1006232 0.4434837
0.0054746 0.0923693 0.3879810
0.1630008 0.1387040 0.4357851
0.3730250 0.1705841 0.4641118
0.5371104 0.1916657 0.4818605
0.6475462 0.2077523 0.4982148
0.7161572 0.2189102 0.5119111
0.7516699 0.2313894 0.5242025
0.7638369 0.2430566 0.5381863
0.0000000 0.2378415 0.5074596
0.1460630 0.3680088 0.5654492
0.4052257 0.4610578 0.5969518
0.6080920 0.5154715 0.6138893
0.7399954 0.5492996 0.6291816
0.8229063 0.5727227 0.6431332
0.8663311 0.5890463 0.6534563
0.8785450 0.6000338 0.6658229
0.0000000 0.3620802 0.5702480
0.1277412 0.5391740 0.6247340
0.4120917 0.6705848 0.6540788
0.6416374 0.7519062 0.6729231
0.7917771 0.7970597 0.6845357
0.8831372 0.8241006 0.6975644
0.9334903 0.8442535 0.7076016
0.9461473 0.8512849 0.7192777
0.0000000 0.4499539 0.6052867
0.1090775 0.6246855 0.6491436
0.4055795 0.7821069 0.6784989
0.6558558 0.8775078 0.6963711
0.8144133 0.9293975 0.7074825
0.9139050 0.9600924 0.7203077
0.9638906 0.9758241 0.7321021
0.9795005 0.9819359 0.7409507
0.0000000 0.4896284 0.6170692
0.0927723 0.6357521 0.6530297
0.3890830 0.8005627 0.6829642
0.6473081 0.9017313 0.7009524
0.8135295 0.9563913 0.7119365
0.9155688 0.9869430 0.7245353
0.9690416 1.0000000 0.7361625
0.9858108 1.0000000 0.7448184
0.0000000 0.5086507 0.6236733
0.0759763 0.6207189 0.6503793
0.3687944 0.7879034 0.6814421
0.6329147 0.8921180 0.6998801
0.8007870 0.9470239 0.7137562
0.9086374 0.9792990 0.7235813
0.9641182 0.9948916 0.7351411
0.9838109 1.0000000 0.7437289
0.0000000 0.5265863 0.6275275
0.0620520 0.6072184 0.6478664
0.3493261 0.7760781 0.6800181
0.6181782 0.8839772 0.6990641
0.7922336 0.9415210 0.7131782
0.9016411 0.9743220 0.7230455
0.9617451 0.9914185 0.7346760
0.9827724 0.9972543 0.7433009
0.0609113 0.0165063 0.3079456
0.2015526 0.0269372 0.3517391
0.3830360 0.0392409 0.3903203
0.5150031 0.0521301 0.4193992
0.6054925 0.0666755 0.4447858
0.6641951 0.0828557 0.4683521
0.6977118 0.1009314 0.4911428
0.7106197 0.1189539 0.5104482
0.0319197 0.1047369 0.4659891
0.1989481 0.1473353 0.5107203
0.4120575 0.1789267 0.5388276
0.5655432 0.1996745 0.5568788
0.6667974 0.2158861 0.5708655
0.7280924 0.2276405 0.5819335
0.7607875 0.2407265 0.5937961
0.7686089 0.2498534 0.6016766
0.0000000 0.2732900 0.6064941
0.1879073 0.3919156 0.6595910
0.4463269 0.4772005 0.6886165
0.6387631 0.5280536 0.7053782
0.7601128 0.5599256 0.7170440
0.8359789 0.5823554 0.7269816
0.8721279 0.5976343 0.7358902
0.8814813 0.6083804 0.7420812
0.0000000 0.3853547 0.6679148
0.1707059 0.5649905 0.7251223
0.4613519 0.6939904 0.7542891
0.6742971 0.7644278 0.7693582
0.8122054 0.8056680 0.7794480
0.8965204 0.8347384 0.7886997
0.9376081 0.8487309 0.7962258
0.9467243 0.8547857 0.8008447
0.0000000 0.4732975 0.7061683
0.1534778 0.6547345 0.7532455
0.4568057 0.8047925 0.7815065
0.6857997 0.8892010 0.7962039
0.8350896 0.9373921 0.8058140
0.9257220 0.9652463 0.8137754
0.9685894 0.9789057 0.8209168
0.9791955 0.9836124 0.8251820
0.0000000 0.5113252 0.7187993
0.1378678 0.6671371 0.7599111
0.4459613 0.8254915 0.7866883
0.6825316 0.9143128 0.8013881
0.8337370 0.9628212 0.8106871
0.9269466 0.9906431 0.8184049
0.9739926 1.0000000 0.8253368
0.9849862 1.0000000 0.8312081
0.0000000 0.5276867 0.7250062
0.1234277 0.6544116 0.7572917
0.4258882 0.8127855 0.7870991
0.6677092 0.9040409 0.7999586
0.8251445 0.9546819 0.8094918
0.9202292 0.9825351 0.8171770
0.9708025 0.9965721 0.8240702
0.9829915 0.9999297 0.8299009
0.0000000 0.5435892 0.7288970
0.1074640 0.6408911 0.7544994
0.4061516 0.8015991 0.7855112
0.6579698 0.8979696 0.8011344
0.8172256 0.9493752 0.8087953
0.9169626 0.9788133 0.8166157
0.9668452 0.9928426 0.8235377
0.9821240 0.9970511 0.8294078
0.0842182 0.0233339 0.3611040
0.2389831 0.0380969 0.4084513
0.4165962 0.0523987 0.4449537
0.5438579 0.0676146 0.4728526
0.6283939 0.0844004 0.4982362
0.6835026 0.1019159 0.5200903
0.7118158 0.1205617 0.5405936
0.7233390 0.1398596 0.5604451
0.0583448 0.1162373 0.5184926
0.2398783 0.1578586 0.5611584
0.4476336 0.1884671 0.5867262
0.5895678 0.2088988 0.6026663
0.6825943 0.2231412 0.6147164
0.7401887 0.2379693 0.6258464
0.7677682 0.2484422 0.6341943
0.7734241 0.2584703 0.6423135
0.0150089 0.3025791 0.6708370
0.2346369 0.4138979 0.7193084
0.4875546 0.4933090 0.7446060
0.6654910 0.5403883 0.7583493
0.7797036 0.5710120 0.7690147
0.8469274 0.5921594 0.7764521
0.8782159 0.6068497 0.7828042
0.8845367 0.6167740 0.7894884
0.0000000 0.4297336 0.7383474
0.2219818 0.5956596 0.7895231
0.5057436 0.7116467 0.8137339
0.7026769 0.7754120 0.8254716
0.8324412 0.8179054 0.8352877
0.9069644 0.8406476 0.8408504
0.9429331 0.8569123 0.8462469
0.9487002 0.8618924 0.8513530
0.0000000 0.4938163 0.7672002
0.2034464 0.6848853 0.8183741
0.5076507 0.8257455 0.8429226
0.7194321 0.9013505 0.8555940
0.8548092 0.9445518 0.8623437
0.9345956 0.9691486 0.8673425
0.9732131 0.9816251 0.8714547
0.9794900 0.9851346 0.8762502
0.0000000 0.5305013 0.7813581
0.1875108 0.6976986 0.8230969
0.4926324 0.8443196 0.8480451
0.7157673 0.9250611 0.8608377
0.8540715 0.9688874 0.8673197
0.9387510 0.9939565 0.8720850
0.9772660 1.0000000 0.8758842
0.9849300 1.0000000 0.8804147
0.0000000 0.5459045 0.7854154
0.1696655 0.6832108 0.8200167
0.4777327 0.8334782 0.8461890
0.7019353 0.9151617 0.8593048
0.8461791 0.9604594 0.8659285
0.9325703 0.9854840 0.8706589
0.9744734 0.9972382 0.8760157
0.9828389 0.9992949 0.8789084
0.0085862 0.5601060 0.7890458
0.1530463 0.6704840 0.8173216
0.4585507 0.8231536 0.8446360
0.6888108 0.9080084 0.8583152
0.8386257 0.9554606 0.8652087
0.9293184 0.9819539 0.8700858
0.9719383 0.9938971 0.8754575
0.9821086 0.9966492 0.8784187
0.1103103 0.0338471 0.4080812
0.2802871 0.0507546 0.4522775
0.4503525 0.0675247 0.4857893
0.5716598 0.0851081 0.5127863
0.6518229 0.1032534 0.5357198
0.6998651 0.1226060 0.5566835
0.7243310 0.1426679 0.5759947
0.7351857 0.1629195 0.5938744
0.0875669 0.1285392 0.5550110
0.2786645 0.1691731 0.5931832
0.4799480 0.1989745 0.6165339
0.6127063 0.2172720 0.6298243
0.7006232 0.2344382 0.6417879
0.7506392 0.2465225 0.6502310
0.7735956 0.2611574 0.6599122
0.7791421 0.2717979 0.6671204
0.0498090 0.3299643 0.7130188
0.2822410 0.4355038 0.7547950
0.5286162 0.5098653 0.7770138
0.6920011 0.5533351 0.7887909
0.7958438 0.5821621 0.7968103
0.8562974 0.6023411 0.8030326
0.8828332 0.6159941 0.8077803
0.8874484 0.6258199 0.8119235
0.0194306 0.4687819 0.7836282
0.2720770 0.6212994 0.8259404
0.5499737 0.7290123 0.8469073
0.7310897 0.7902906 0.8574954
0.8487247 0.8255635 0.8634698
0.9179087 0.8503908 0.8685292
0.9466783 0.8610815 0.8713454
0.9499537 0.8655142 0.8735996
0.0000000 0.5324260 0.8116298
0.2606071 0.7165163 0.8560750
0.5537182 0.8441776 0.8767099
0.7474641 0.9116228 0.8857081
0.8714540 0.9508677 0.8909696
0.9442782 0.9733708 0.8945802
0.9772335 0.9842863 0.8969721
0.9801794 0.9869168 0.8987898
0.0000000 0.5482106 0.8179675
0.2423744 0.7285435 0.8606352
0.5391282 0.8623161 0.8817636
0.7442540 0.9343203 0.8908383
0.8736714 0.9747219 0.8958758
0.9480680 0.9966053 0.8991704
0.9808713 1.0000000 0.9012299
0.9851882 1.0000000 0.9027572
0.0099182 0.5628319 0.8225211
0.2241076 0.7142109 0.8575820
0.5241915 0.8513850 0.8798303
0.7310621 0.9241961 0.8891706
0.8655079 0.9657129 0.8943229
0.9424465 0.9877781 0.8975978
0.9779539 0.9977200 0.8996625
0.9828869 0.9988333 0.9010981
0.0270655 0.5764390 0.8260006
0.2035908 0.7003688 0.8555346
0.5098179 0.8432114 0.8793317
0.7226248 0.9188106 0.8891656
0.8583534 0.9610335 0.8936238
0.9380839 0.9841637 0.8970274
0.9763875 0.9948442 0.8991421
0.9822208 0.9964418 0.9006419
0.1384694 0.0461024 0.4449922
0.3204249 0.0666472 0.4881168
0.4846460 0.0851958 0.5187941
0.5962988 0.1043103 0.5439159
0.6721979 0.1245532 0.5663314
0.7171404 0.1455295 0.5862786
0.7363827 0.1664272 0.6045950
0.7466104 0.1873136 0.6215687
0.1188180 0.1415142 0.5791579
0.3229669 0.1819730 0.6147740
0.5088766 0.2082537 0.6339687
0.6364883 0.2292068 0.6484555
0.7153431 0.2435659 0.6580490
0.7606224 0.2597950 0.6685663
0.7781925 0.2713527 0.6757060
0.7834637 0.2823545 0.6828761
0.0887843 0.3569078 0.7387969
0.3336776 0.4579416 0.7761860
0.5660658 0.5259594 0.7956656
0.7144967 0.5660035 0.8056903
0.8118982 0.5937819 0.8131120
0.8660779 0.6126221 0.8186219
0.8860747 0.6252838 0.8225332
0.8903112 0.6351881 0.8265104
0.0613979 0.5035923 0.8095223
0.3303350 0.6490672 0.8470376
0.5906371 0.7486198 0.8658420
0.7580674 0.8012517 0.8737124
0.8682281 0.8376404 0.8798374
0.9254040 0.8556237 0.8832281
0.9482712 0.8649027 0.8851624
0.9520997 0.8731806 0.8880762
0.0383437 0.5728306 0.8382529
0.3189062 0.7464391 0.8770708
0.5952176 0.8605299 0.8946053
0.7753906 0.9218618 0.9018483
0.8902212 0.9578906 0.9063981
0.9536577 0.9776218 0.9093214
0.9781430 0.9862068 0.9107640
0.9806191 0.9879991 0.9121963
0.0217614 0.5770426 0.8411971
0.2979569 0.7573942 0.8813465
0.5851920 0.8793408 0.8995879
0.7724315 0.9434239 0.9067478
0.8893353 0.9794397 0.9109937
0.9556615 0.9988544 0.9136338
0.9830530 1.0000000 0.9147974
0.9852716 1.0000000 0.9159418
0.0285964 0.5794322 0.8414881
0.2770302 0.7421661 0.8782205
0.5702243 0.8683184 0.8976253
0.7633144 0.9341509 0.9050795
0.8814913 0.9700235 0.9093178
0.9518311 0.9902564 0.9120129
0.9807639 0.9980983 0.9131100
0.9830847 0.9984883 0.9142603
0.0479264 0.5940085 0.8456900
0.2611581 0.7316427 0.8761048
0.5560187 0.8605700 0.8963968
0.7505440 0.9276109 0.9041524
0.8747457 0.9657031 0.9086648
0.9474213 0.9865905 0.9114222
0.9800208 0.9956856 0.9126443
0.9824787 0.9963129 0.9138376
