Plugins/FilmEmulator/Content/LUTs/FE_Kodachrome_64_64.cube
TITLE "FE_Kodachrome_64_33"
LUT_3D_SIZE 64
0.0023751 0.0011192 0.0009992
0.0031545 0.0011852 0.0009973
0.0050438 0.0012966 0.0009822
0.0078730 0.0013878 0.0009485
0.0115243 0.0014629 0.0009399
0.0160162 0.0015334 0.0009915
0.0209906 0.0015886 0.0010467
0.0262975 0.0016421 0.0011071
0.0321080 0.0017017 0.0011763
0.0380021 0.0017697 0.0012595
0.0443147 0.0018596 0.0013575
0.0513978 0.0019875 0.0014689
0.0583686 0.0020972 0.0015887
0.0655483 0.0022032 0.0017390
0.0730816 0.0023507 0.0019223
0.0807970 0.0025258 0.0021533
0.0892984 0.0027299 0.0023866
0.0977467 0.0029510 0.0026885
0.1059416 0.0031764 0.0030210
0.1147759 0.0034438 0.0034220
0.1233329 0.0037510 0.0038405
0.1325223 0.0041044 0.0041870
0.1424000 0.0045133 0.0045261
0.1516449 0.0049259 0.0049195
0.1613908 0.0053674 0.0053933
0.1715778 0.0058793 0.0059317
0.1807678 0.0063778 0.0064477
0.1904700 0.0070051 0.0071197
0.2005530 0.0076795 0.0076422
0.2107405 0.0083518 0.0082925
0.2192947 0.0089533 0.0089954
0.2297315 0.0096765 0.0096316
0.2384644 0.0103196 0.0103102
0.2473937 0.0109839 0.0110346
0.2564467 0.0117339 0.0118220
0.2639476 0.0124216 0.0126663
0.2734651 0.0133250 0.0134078
0.2831464 0.0143284 0.0143744
0.2910715 0.0151825 0.0151954
0.2989483 0.0160818 0.0162800
0.3070408 0.0170151 0.0172174
0.3150812 0.0179788 0.0182304
0.3230176 0.0189117 0.0193077
0.3311377 0.0198784 0.0201806
0.3391649 0.0209330 0.0212678
0.3460778 0.0220949 0.0223905
0.3536496 0.0229239 0.0232420
0.3621219 0.0242464 0.0243747
0.3686465 0.0252984 0.0252545
0.3752292 0.0264046 0.0264349
0.3839874 0.0279291 0.0274845
0.3906818 0.0291337 0.0285234
0.3974624 0.0303990 0.0299133
0.4041182 0.0316479 0.0310318
0.4107925 0.0328963 0.0321830
0.4175780 0.0341898 0.0333748
0.4244220 0.0355219 0.0346131
0.4312305 0.0368105 0.0355148
0.4381319 0.0381585 0.0368221
0.4451009 0.0395537 0.0381756
0.4496760 0.0405240 0.0395205
0.4566375 0.0419853 0.0409778
0.4637266 0.0434778 0.0420467
0.4684297 0.0445319 0.0435218
0.0029995 0.0020639 0.0011788
0.0041488 0.0023540 0.0011921
0.0067954 0.0027993 0.0011834
0.0107971 0.0032847 0.0011436
0.0157378 0.0037665 0.0011891
0.0217888 0.0042497 0.0012305
0.0281267 0.0046919 0.0012875
0.0350183 0.0051564 0.0013539
0.0423945 0.0056093 0.0014272
0.0498689 0.0061078 0.0015294
0.0576280 0.0065799 0.0016304
0.0660933 0.0070811 0.0017545
0.0745307 0.0076138 0.0019009
0.0833427 0.0082159 0.0020691
0.0922426 0.0087867 0.0022890
0.1014415 0.0094627 0.0025391
0.1113539 0.0101576 0.0028621
0.1211814 0.0108722 0.0031873
0.1303985 0.0114811 0.0036542
0.1401698 0.0120942 0.0040585
0.1498823 0.0128960 0.0045446
0.1593897 0.0133844 0.0048551
0.1699292 0.0141182 0.0052975
0.1800238 0.0149511 0.0057574
0.1906901 0.0158523 0.0062989
0.2012010 0.0165987 0.0069104
0.2108625 0.0174058 0.0074915
0.2206993 0.0182402 0.0081238
0.2314293 0.0193821 0.0088091
0.2416937 0.0202427 0.0095214
0.2500619 0.0208881 0.0101570
0.2605589 0.0217901 0.0108326
0.2697821 0.0228265 0.0117404
0.2792745 0.0239029 0.0125493
0.2881285 0.0247146 0.0132263
0.2980369 0.0260137 0.0141633
0.3058235 0.0270486 0.0151509
0.3150865 0.0280708 0.0159694
0.3239119 0.0295864 0.0168839
0.3319025 0.0307772 0.0180673
0.3401089 0.0319960 0.0190745
0.3481293 0.0331837 0.0201719
0.3562054 0.0344077 0.0213366
0.3644580 0.0356553 0.0222632
0.3724558 0.0369334 0.0233812
0.3805459 0.0382100 0.0245471
0.3872676 0.0395526 0.0254738
0.3952903 0.0409220 0.0266306
0.4011758 0.0418419 0.0275173
0.4079571 0.0433139 0.0288002
0.4160756 0.0447838 0.0298465
0.4220271 0.0458000 0.0308916
0.4289238 0.0473654 0.0320248
0.4348542 0.0484227 0.0331407
0.4418013 0.0500754 0.0343529
0.4479097 0.0511921 0.0355446
0.4549715 0.0529030 0.0368427
0.4611552 0.0540538 0.0381241
0.4674234 0.0552293 0.0394471
0.4747094 0.0570631 0.0408860
0.4809507 0.0583085 0.0423133
0.4858232 0.0595921 0.0433410
0.4922094 0.0608907 0.0448486
0.4981662 0.0629223 0.0460159
0.0043703 0.0054526 0.0014484
0.0061307 0.0060721 0.0014275
0.0100064 0.0071374 0.0013612
0.0153522 0.0081929 0.0014049
0.0221187 0.0093127 0.0014275
0.0295360 0.0103858 0.0014438
0.0376539 0.0113067 0.0014671
0.0460169 0.0121911 0.0014867
0.0547812 0.0130457 0.0015281
0.0634576 0.0138956 0.0015892
0.0725631 0.0148261 0.0016579
0.0815625 0.0156120 0.0017439
0.0911923 0.0166310 0.0019049
0.1007812 0.0174999 0.0020903
0.1108804 0.0186121 0.0023336
0.1215242 0.0195431 0.0026061
0.1313278 0.0205206 0.0029472
0.1416480 0.0214546 0.0033803
0.1516600 0.0224276 0.0038609
0.1622830 0.0234317 0.0043014
0.1720162 0.0242365 0.0048175
0.1827505 0.0253055 0.0051578
0.1936120 0.0261787 0.0056591
0.2044502 0.0274713 0.0061808
0.2152383 0.0284768 0.0067785
0.2269376 0.0298771 0.0073469
0.2370492 0.0309839 0.0079814
0.2473338 0.0321557 0.0088091
0.2579101 0.0333086 0.0093970
0.2685862 0.0344529 0.0101708
0.2793128 0.0356223 0.0108529
0.2887741 0.0368877 0.0117720
0.2981456 0.0381222 0.0125864
0.3077131 0.0393821 0.0134530
0.3172288 0.0406936 0.0143959
0.3261752 0.0415558 0.0151663
0.3343013 0.0429635 0.0162349
0.3439967 0.0443627 0.0171126
0.3523400 0.0458452 0.0180639
0.3597899 0.0468807 0.0193163
0.3682223 0.0484248 0.0203949
0.3757825 0.0494857 0.0215554
0.3842317 0.0511297 0.0228058
0.3919964 0.0522121 0.0237166
0.3994775 0.0533227 0.0248744
0.4079790 0.0550435 0.0261189
0.4141537 0.0562175 0.0270332
0.4216572 0.0574121 0.0282214
0.4287461 0.0592680 0.0292059
0.4364017 0.0605032 0.0301879
0.4425100 0.0618356 0.0316036
0.4487325 0.0631656 0.0327144
0.4550231 0.0645246 0.0338615
0.4622385 0.0666330 0.0351002
0.4685668 0.0680768 0.0363273
0.4749818 0.0695517 0.0375943
0.4814439 0.0710602 0.0389132
0.4879778 0.0726053 0.0402769
0.4946241 0.0742016 0.0416866
0.5013462 0.0757978 0.0426804
0.5079554 0.0774700 0.0441847
0.5131111 0.0792122 0.0457557
0.5187570 0.0800865 0.0472840
0.5254012 0.0818165 0.0484127
0.0056449 0.0111767 0.0015232
0.0080814 0.0121695 0.0014693
0.0130795 0.0139360 0.0014980
0.0199326 0.0156641 0.0014961
0.0280519 0.0173069 0.0014760
0.0368093 0.0188168 0.0014623
0.0462126 0.0200734 0.0014511
0.0559236 0.0214689 0.0014687
0.0655516 0.0228310 0.0015076
0.0751445 0.0239438 0.0015692
0.0853434 0.0253650 0.0016118
0.0959600 0.0265562 0.0017097
0.1062942 0.0277484 0.0018537
0.1171668 0.0292944 0.0020452
0.1278478 0.0305307 0.0022234
0.1385138 0.0318197 0.0025249
0.1489747 0.0330747 0.0028053
0.1600454 0.0343571 0.0032278
0.1717803 0.0356874 0.0037529
0.1819590 0.0370366 0.0043233
0.1937923 0.0383169 0.0047555
0.2050405 0.0396086 0.0051315
0.2155195 0.0409759 0.0057007
0.2259186 0.0419336 0.0062961
0.2373945 0.0433227 0.0068326
0.2491147 0.0447865 0.0075731
0.2591276 0.0458043 0.0082679
0.2714592 0.0473010 0.0089913
0.2803138 0.0483641 0.0097948
0.2916112 0.0499132 0.0104664
0.3021876 0.0510153 0.0113684
0.3121231 0.0526580 0.0121760
0.3212670 0.0537867 0.0130402
0.3313585 0.0555020 0.0139673
0.3406121 0.0566982 0.0149658
0.3500239 0.0578850 0.0157893
0.3577745 0.0591582 0.0169162
0.3679691 0.0610225 0.0178440
0.3758593 0.0623707 0.0191156
0.3836997 0.0637147 0.0201836
0.3933335 0.0650644 0.0213007
0.4012164 0.0664853 0.0225407
0.4076294 0.0679653 0.0238645
0.4157837 0.0693962 0.0247846
0.4236690 0.0708971 0.0260162
0.4317116 0.0724337 0.0273022
0.4382536 0.0740023 0.0282377
0.4461766 0.0756171 0.0294981
0.4527191 0.0772579 0.0304946
0.4607934 0.0789139 0.0315505
0.4672506 0.0806791 0.0330527
0.4738288 0.0824379 0.0342269
0.4804790 0.0842354 0.0354395
0.4870580 0.0860752 0.0366936
0.4926365 0.0870340 0.0379398
0.4993815 0.0889355 0.0392774
0.5061582 0.0908647 0.0406681
0.5129686 0.0928045 0.0421027
0.5187966 0.0937705 0.0430469
0.5257276 0.0957740 0.0445658
0.5325742 0.0978243 0.0461441
0.5367617 0.0989242 0.0477273
0.5437714 0.1009715 0.0488665
0.5504748 0.1030077 0.0505689
0.0065667 0.0185913 0.0014796
0.0096001 0.0200473 0.0015038
0.0156725 0.0223584 0.0014859
0.0238736 0.0250208 0.0014211
0.0334192 0.0272883 0.0013458
0.0435268 0.0293919 0.0013027
0.0540317 0.0313650 0.0012706
0.0646579 0.0328967 0.0012856
0.0757361 0.0346522 0.0013050
0.0865047 0.0363424 0.0013603
0.0975207 0.0380118 0.0014235
0.1084979 0.0396743 0.0015605
0.1193834 0.0409618 0.0017795
0.1307481 0.0426197 0.0019546
0.1418132 0.0438817 0.0022226
0.1531951 0.0455771 0.0025702
0.1649426 0.0468455 0.0029406
0.1757471 0.0485830 0.0034209
0.1877864 0.0498788 0.0039087
0.1998266 0.0516064 0.0042962
0.2107447 0.0528064 0.0045853
0.2221301 0.0540570 0.0050265
0.2332705 0.0558366 0.0054307
0.2457397 0.0571618 0.0060479
0.2557795 0.0585136 0.0067922
0.2675251 0.0598555 0.0074496
0.2802753 0.0618589 0.0083104
0.2910763 0.0632297 0.0089445
0.3020334 0.0646642 0.0097744
0.3115745 0.0661389 0.0106956
0.3227326 0.0675953 0.0114714
0.3324381 0.0690942 0.0123265
0.3420776 0.0706274 0.0132422
0.3519306 0.0722076 0.0142238
0.3616866 0.0738335 0.0152819
0.3716144 0.0754495 0.0161488
0.3797987 0.0771648 0.0173450
0.3896835 0.0788558 0.0183124
0.3979956 0.0806524 0.0196663
0.4079200 0.0824222 0.0207721
0.4154309 0.0833967 0.0219829
0.4237145 0.0852587 0.0232948
0.4321800 0.0871083 0.0243063
0.4390469 0.0890538 0.0256148
0.4472958 0.0909815 0.0269136
0.4547202 0.0919652 0.0278928
0.4614879 0.0939536 0.0291929
0.4697619 0.0959195 0.0301709
0.4754687 0.0970155 0.0315369
0.4838445 0.0990560 0.0326528
0.4904897 0.1010814 0.0338266
0.4961081 0.1021871 0.0354189
0.5028567 0.1042346 0.0366794
0.5095267 0.1063255 0.0379829
0.5168237 0.1074143 0.0392706
0.5236800 0.1095706 0.0406648
0.5278955 0.1106826 0.0416099
0.5345925 0.1126724 0.0430768
0.5403870 0.1137320 0.0445491
0.5471921 0.1157784 0.0461204
0.5528947 0.1168707 0.0477009
0.5580814 0.1189400 0.0488451
0.5639006 0.1200614 0.0505083
0.5706288 0.1221679 0.0516870
0.0072204 0.0273906 0.0014461
0.0107277 0.0293034 0.0014290
0.0178875 0.0323974 0.0013501
0.0272929 0.0352562 0.0012416
0.0379510 0.0382518 0.0011433
0.0491410 0.0406582 0.0010786
0.0605800 0.0428513 0.0010542
0.0725533 0.0452784 0.0010083
0.0838868 0.0471606 0.0010528
0.0952701 0.0489712 0.0011511
0.1071520 0.0511848 0.0012280
0.1186033 0.0529262 0.0014433
0.1302895 0.0546150 0.0016310
0.1420182 0.0563026 0.0019036
0.1537838 0.0580013 0.0022787
0.1669500 0.0602676 0.0026279
0.1783953 0.0619779 0.0031372
0.1905615 0.0636558 0.0035447
0.2021942 0.0653145 0.0039620
0.2144327 0.0669647 0.0043234
0.2259609 0.0686412 0.0047934
0.2380383 0.0703329 0.0052185
0.2506716 0.0720688 0.0057347
0.2623916 0.0738272 0.0063361
0.2746736 0.0755782 0.0068484
0.2847295 0.0766400 0.0076190
0.2975039 0.0784325 0.0082237
0.3088673 0.0802467 0.0088822
0.3203796 0.0821410 0.0097630
0.3304436 0.0840275 0.0105464
0.3421677 0.0859526 0.0113575
0.3514661 0.0871012 0.0124941
0.3615412 0.0890579 0.0134657
0.3718547 0.0909989 0.0142684
0.3820153 0.0930376 0.0153806
0.3913937 0.0941922 0.0165658
0.4016277 0.0962399 0.0175264
0.4101866 0.0983229 0.0185669
0.4177830 0.0994917 0.0199969
0.4279520 0.1015371 0.0211529
0.4356620 0.1026893 0.0224473
0.4441141 0.1048245 0.0238215
0.4527560 0.1069375 0.0248749
0.4587521 0.1081302 0.0261851
0.4670721 0.1102341 0.0275374
0.4745878 0.1112730 0.0285382
0.4812630 0.1133146 0.0298756
0.4885654 0.1143708 0.0308698
0.4952019 0.1164756 0.0323320
0.5025688 0.1175704 0.0334654
0.5091653 0.1196841 0.0346761
0.5148847 0.1208260 0.0359056
0.5216270 0.1230023 0.0371936
0.5289230 0.1241614 0.0384797
0.5356745 0.1263999 0.0398519
0.5415026 0.1276070 0.0412473
0.5473310 0.1288261 0.0426909
0.5525623 0.1311684 0.0442320
0.5585371 0.1324468 0.0457673
0.5645750 0.1337913 0.0473636
0.5716809 0.1363014 0.0484923
0.5759908 0.1377039 0.0501961
0.5820929 0.1390330 0.0513411
0.5891130 0.1417139 0.0531459
0.0076774 0.0370054 0.0013253
0.0114685 0.0389917 0.0012873
0.0196133 0.0429508 0.0011504
0.0300998 0.0465888 0.0009986
0.0418588 0.0499658 0.0008684
0.0541949 0.0530389 0.0007808
0.0667161 0.0558440 0.0007309
0.0789986 0.0584047 0.0007038
0.0918003 0.0609154 0.0007550
0.1041066 0.0632939 0.0008746
0.1158346 0.0655583 0.0010368
0.1289142 0.0678510 0.0011927
0.1409881 0.0694368 0.0014947
0.1535067 0.0716739 0.0018710
0.1660786 0.0738822 0.0022679
0.1784986 0.0761055 0.0027780
0.1906388 0.0782549 0.0031902
0.2035076 0.0804131 0.0035785
0.2152158 0.0817503 0.0039841
0.2281032 0.0838587 0.0043421
0.2401874 0.0859997 0.0049077
0.2528240 0.0881511 0.0054450
0.2653890 0.0894447 0.0059310
0.2776154 0.0916378 0.0066189
0.2904307 0.0938188 0.0071907
0.3008908 0.0951443 0.0080555
0.3141187 0.0972591 0.0087056
0.3250964 0.0985016 0.0094567
0.3370372 0.1005942 0.0100262
0.3492130 0.1027824 0.0108442
0.3586161 0.1040563 0.0117835
0.3691121 0.1062383 0.0125168
0.3803607 0.1073779 0.0132932
0.3907748 0.1094708 0.0143972
0.3984115 0.1106310 0.0153460
0.4087535 0.1127776 0.0165713
0.4182092 0.1139626 0.0175878
0.4267555 0.1161029 0.0186760
0.4344779 0.1173930 0.0201748
0.4447703 0.1195988 0.0213818
0.4526045 0.1208662 0.0227479
0.4611135 0.1231530 0.0241775
0.4689126 0.1243674 0.0252202
0.4766561 0.1256396 0.0265602
0.4834193 0.1279818 0.0279847
0.4911497 0.1292089 0.0289890
0.4997801 0.1316856 0.0303492
0.5056908 0.1330243 0.0314052
0.5116717 0.1343809 0.0325217
0.5203058 0.1370260 0.0341223
0.5261775 0.1384305 0.0353633
0.5321193 0.1398484 0.0366413
0.5397579 0.1412700 0.0379351
0.5467633 0.1439893 0.0393110
0.5527494 0.1454706 0.0407116
0.5588031 0.1469682 0.0421664
0.5659993 0.1498148 0.0436926
0.5704011 0.1513684 0.0452636
0.5765839 0.1529270 0.0468651
0.5828478 0.1544238 0.0479538
0.5901082 0.1574194 0.0496838
0.5945341 0.1590536 0.0514545
0.6008027 0.1606070 0.0526351
0.6068177 0.1622553 0.0544582
0.0080146 0.0476925 0.0011385
0.0118962 0.0499789 0.0010739
0.0210132 0.0544550 0.0009058
0.0325070 0.0589436 0.0007161
0.0454438 0.0631533 0.0005520
0.0587389 0.0663282 0.0004357
0.0722930 0.0697894 0.0003366
0.0855251 0.0729989 0.0003544
0.0985867 0.0760391 0.0004401
0.1113385 0.0782357 0.0006008
0.1245456 0.0810568 0.0007479
0.1375499 0.0838435 0.0010078
0.1502566 0.0858393 0.0014274
0.1634040 0.0885045 0.0018295
0.1765754 0.0910912 0.0022310
0.1890612 0.0928672 0.0027836
0.2017179 0.0953371 0.0031690
0.2145937 0.0969158 0.0034665
0.2286629 0.0994335 0.0039227
0.2400729 0.1009696 0.0044271
0.2539342 0.1032784 0.0049579
0.2653883 0.1055505 0.0056180
0.2782775 0.1070484 0.0063518
0.2907784 0.1093147 0.0069563
0.3031739 0.1107311 0.0076366
0.3156786 0.1121326 0.0083392
0.3274471 0.1144165 0.0090789
0.3386986 0.1158077 0.0099078
0.3508190 0.1181452 0.0107579
0.3625078 0.1194875 0.0114630
0.3729166 0.1217900 0.0122139
0.3846112 0.1232221 0.0132662
0.3942895 0.1245760 0.0141619
0.4050862 0.1269857 0.0150710
0.4148263 0.1284373 0.0160526
0.4229103 0.1298916 0.0171073
0.4336104 0.1325123 0.0181645
0.4416530 0.1339310 0.0190135
0.4514880 0.1354460 0.0202125
0.4604117 0.1381756 0.0215031
0.4685191 0.1397447 0.0229253
0.4763983 0.1413283 0.0244200
0.4844805 0.1428229 0.0254470
0.4935302 0.1456752 0.0268265
0.4995916 0.1472804 0.0283084
0.5076071 0.1488017 0.0293112
0.5154624 0.1504077 0.0307182
0.5226125 0.1533070 0.0318061
0.5305154 0.1548949 0.0329609
0.5365308 0.1565842 0.0346385
0.5425509 0.1582068 0.0359233
0.5497680 0.1612614 0.0372510
0.5576094 0.1629262 0.0385926
0.5636685 0.1646113 0.0400010
0.5697960 0.1663140 0.0414547
0.5759927 0.1680352 0.0429633
0.5821907 0.1697736 0.0445181
0.5897224 0.1729680 0.0455806
0.5942596 0.1747437 0.0472480
0.6005560 0.1764916 0.0489499
0.6067278 0.1782569 0.0507053
0.6130415 0.1799475 0.0518910
0.6175610 0.1817506 0.0537466
0.6237338 0.1834729 0.0549857
0.0082201 0.0596521 0.0008853
0.0120917 0.0621552 0.0008114
0.0221352 0.0668918 0.0006331
0.0348123 0.0721831 0.0003796
0.0486098 0.0770252 0.0001527
0.0629250 0.0807925 0.0000524
0.0768722 0.0847687 0.0000000
0.0912262 0.0877687 0.0000536
0.1049635 0.0911146 0.0001484
0.1184131 0.0935842 0.0003257
0.1313827 0.0966397 0.0005994
0.1454327 0.0989526 0.0009135
0.1590723 0.1019265 0.0013090
0.1712723 0.1040092 0.0018862
0.1848960 0.1068310 0.0022774
0.1978789 0.1087320 0.0026958
0.2116982 0.1106012 0.0030902
0.2254940 0.1133250 0.0035705
0.2380831 0.1150797 0.0040842
0.2503556 0.1177216 0.0046589
0.2640933 0.1195206 0.0053321
0.2769631 0.1212253 0.0059141
0.2894142 0.1239796 0.0065210
0.3016509 0.1257822 0.0074136
0.3144690 0.1275087 0.0081299
0.3281496 0.1303380 0.0088510
0.3396690 0.1319725 0.0094829
0.3512989 0.1336864 0.0103822
0.3638864 0.1365735 0.0113024
0.3759770 0.1382476 0.0120689
0.3859524 0.1398988 0.0129217
0.3980828 0.1415890 0.0137964
0.4089943 0.1445092 0.0147157
0.4193025 0.1462095 0.0157129
0.4293133 0.1479171 0.0167632
0.4376188 0.1496235 0.0178977
0.4476530 0.1513634 0.0190789
0.4568935 0.1543507 0.0199556
0.4669876 0.1561358 0.0212675
0.4752106 0.1578385 0.0223184
0.4835168 0.1596558 0.0238284
0.4916751 0.1613765 0.0249214
0.4999681 0.1630874 0.0259383
0.5093173 0.1662611 0.0269689
0.5155255 0.1680969 0.0284796
0.5237427 0.1698473 0.0295017
0.5318381 0.1715935 0.0305578
0.5379409 0.1733969 0.0320939
0.5459760 0.1751503 0.0333019
0.5521461 0.1769160 0.0345758
0.5581852 0.1787903 0.0363643
0.5654893 0.1821227 0.0377255
0.5734615 0.1839590 0.0391104
0.5796089 0.1858101 0.0405646
0.5858244 0.1876809 0.0420706
0.5921875 0.1894737 0.0430801
0.5983579 0.1912211 0.0446701
0.6045970 0.1929834 0.0463074
0.6090716 0.1947633 0.0480303
0.6153709 0.1965594 0.0497834
0.6216230 0.1982698 0.0509639
0.6278602 0.2000962 0.0528085
0.6324246 0.2018355 0.0540624
0.6385133 0.2036905 0.0559839
0.0083433 0.0709204 0.0006776
0.0120521 0.0734793 0.0005959
0.0229488 0.0788660 0.0003655
0.0363898 0.0847974 0.0001026
0.0510068 0.0895341 0.0000000
0.0663491 0.0944958 0.0000000
0.0808085 0.0981796 0.0000000
0.0952918 0.1015188 0.0000000
0.1096545 0.1053834 0.0000000
0.1236665 0.1083410 0.0002483
0.1377271 0.1111338 0.0005637
0.1518464 0.1147660 0.0009460
0.1656232 0.1173880 0.0014842
0.1794538 0.1198282 0.0019108
0.1937509 0.1231741 0.0022371
0.2073155 0.1254252 0.0026528
0.2204207 0.1275751 0.0030651
0.2342129 0.1297539 0.0035558
0.2478443 0.1330085 0.0040973
0.2614703 0.1351789 0.0047821
0.2741724 0.1372974 0.0055601
0.2874711 0.1393461 0.0062054
0.3003161 0.1425541 0.0068672
0.3147728 0.1446229 0.0075662
0.3261946 0.1465939 0.0083773
0.3395003 0.1486159 0.0092168
0.3512771 0.1505968 0.0101439
0.3641165 0.1538137 0.0108294
0.3762836 0.1557426 0.0116097
0.3886279 0.1577737 0.0127199
0.3988604 0.1596847 0.0136580
0.4113080 0.1616432 0.0146070
0.4215710 0.1635721 0.0156353
0.4321242 0.1655174 0.0167111
0.4433657 0.1687530 0.0174670
0.4518329 0.1706643 0.0187038
0.4620761 0.1726127 0.0199707
0.4704900 0.1744582 0.0209693
0.4807644 0.1764556 0.0224273
0.4891357 0.1783392 0.0235535
0.4976794 0.1802258 0.0246634
0.5060044 0.1820973 0.0257005
0.5143697 0.1840840 0.0271864
0.5227942 0.1859826 0.0282803
0.5309246 0.1877191 0.0293233
0.5373057 0.1894573 0.0304255
0.5454293 0.1912204 0.0315342
0.5516031 0.1929988 0.0327646
0.5597658 0.1947064 0.0335553
0.5659454 0.1965176 0.0348678
0.5720628 0.1983443 0.0362214
0.5800624 0.2001947 0.0375884
0.5862496 0.2020526 0.0390247
0.5923873 0.2039263 0.0405053
0.5985501 0.2057567 0.0420386
0.6047602 0.2075726 0.0436242
0.6109665 0.2094034 0.0452579
0.6172416 0.2112493 0.0469415
0.6217195 0.2131084 0.0487152
0.6281409 0.2148775 0.0498860
0.6343426 0.2167709 0.0517259
0.6406991 0.2185685 0.0529609
0.6451821 0.2204858 0.0548986
0.6512960 0.2224222 0.0568713
0.0084228 0.0826277 0.0004952
0.0117505 0.0851991 0.0003943
0.0235394 0.0914009 0.0001124
0.0376627 0.0973618 0.0000000
0.0533159 0.1036920 0.0000000
0.0688580 0.1085135 0.0000000
0.0846146 0.1128455 0.0000000
0.1001622 0.1176982 0.0000000
0.1148967 0.1212999 0.0000000
0.1295774 0.1246699 0.0001283
0.1433505 0.1278214 0.0005734
0.1575805 0.1309095 0.0010941
0.1723671 0.1349262 0.0014444
0.1867524 0.1376673 0.0017947
0.2010983 0.1402654 0.0020817
0.2150812 0.1428816 0.0026045
0.2285827 0.1453838 0.0031258
0.2427892 0.1479039 0.0037142
0.2568178 0.1516516 0.0043619
0.2709091 0.1540620 0.0049417
0.2839780 0.1564990 0.0058029
0.2976572 0.1588352 0.0065057
0.3118779 0.1611325 0.0072311
0.3249179 0.1633738 0.0080378
0.3385606 0.1655360 0.0086590
0.3502805 0.1677281 0.0096060
0.3643144 0.1698946 0.0103199
0.3774256 0.1735316 0.0113244
0.3878529 0.1756270 0.0122202
0.4005311 0.1777889 0.0131327
0.4129638 0.1799494 0.0141010
0.4235961 0.1819291 0.0151479
0.4339695 0.1839116 0.0162527
0.4446306 0.1859123 0.0174184
0.4550492 0.1878112 0.0182930
0.4656154 0.1898334 0.0195812
0.4740199 0.1917274 0.0205995
0.4843927 0.1937927 0.0220864
0.4928718 0.1957234 0.0232326
0.5012358 0.1977576 0.0247671
0.5098650 0.1996712 0.0258292
0.5182078 0.2015358 0.0269335
0.5266503 0.2033775 0.0280474
0.5350852 0.2052079 0.0291031
0.5433075 0.2070480 0.0301951
0.5497448 0.2088838 0.0313487
0.5579454 0.2107639 0.0325689
0.5641644 0.2126440 0.0338756
0.5723320 0.2145555 0.0351930
0.5786411 0.2163549 0.0360788
0.5848007 0.2182788 0.0374964
0.5918708 0.2186668 0.0389470
0.5981818 0.2205013 0.0399111
0.6043626 0.2224765 0.0414483
0.6107001 0.2243560 0.0424754
0.6170179 0.2263665 0.0441027
0.6233321 0.2283937 0.0457793
0.6297148 0.2304391 0.0475130
0.6362606 0.2323841 0.0486752
0.6408091 0.2344552 0.0505337
0.6471172 0.2365528 0.0524229
0.6535900 0.2385448 0.0536822
0.6570491 0.2389237 0.0556676
0.6633574 0.2409314 0.0569878
0.0083008 0.0959601 0.0001976
0.0113639 0.0977146 0.0001365
0.0239630 0.1056285 0.0000000
0.0391582 0.1124604 0.0000000
0.0553249 0.1186065 0.0000000
0.0717333 0.1240255 0.0000000
0.0876692 0.1287855 0.0000000
0.1035538 0.1332112 0.0000000
0.1188580 0.1372360 0.0000000
0.1343777 0.1422033 0.0001181
0.1496483 0.1457579 0.0004835
0.1644849 0.1491735 0.0010068
0.1794220 0.1523009 0.0013209
0.1932008 0.1551822 0.0016326
0.2078961 0.1581769 0.0021461
0.2222976 0.1610520 0.0026711
0.2375698 0.1639436 0.0032562
0.2507938 0.1665824 0.0038072
0.2645329 0.1693250 0.0045968
0.2788908 0.1718423 0.0052505
0.2922566 0.1742766 0.0059733
0.3061858 0.1767063 0.0067170
0.3206705 0.1791410 0.0075091
0.3339337 0.1815108 0.0083931
0.3478122 0.1837884 0.0090714
0.3597057 0.1860958 0.0101082
0.3739674 0.1883730 0.0108872
0.3864959 0.1905930 0.0117595
0.3989813 0.1929287 0.0130020
0.4097512 0.1950498 0.0140293
0.4222775 0.1971909 0.0150712
0.4331340 0.1991770 0.0158532
0.4436368 0.2012807 0.0170409
0.4544283 0.2034045 0.0182986
0.4649785 0.2054102 0.0192318
0.4756595 0.2075629 0.0206507
0.4841441 0.2095659 0.0217710
0.4946312 0.2117483 0.0233567
0.5032189 0.2137445 0.0244578
0.5117745 0.2157418 0.0255370
0.5205006 0.2177671 0.0266503
0.5289770 0.2197949 0.0277788
0.5375881 0.2218127 0.0288456
0.5461730 0.2238436 0.0299465
0.5545413 0.2258853 0.0310853
0.5601000 0.2263018 0.0323835
0.5684303 0.2283764 0.0336744
0.5747498 0.2304430 0.0350376
0.5830491 0.2325482 0.0364124
0.5894652 0.2345284 0.0373353
0.5975756 0.2366627 0.0387866
0.6039658 0.2388571 0.0403088
0.6104250 0.2409484 0.0413176
0.6156428 0.2413709 0.0429578
0.6221126 0.2434819 0.0440285
0.6285565 0.2457367 0.0457271
0.6350963 0.2478843 0.0468577
0.6417067 0.2500519 0.0480217
0.6482893 0.2523674 0.0498614
0.6518974 0.2526560 0.0511262
0.6584292 0.2548606 0.0523806
0.6649290 0.2572129 0.0543411
0.6696887 0.2594400 0.0556746
0.6760344 0.2618389 0.0577307
0.0081132 0.1093258 0.0000000
0.0106884 0.1108857 0.0000000
0.0241400 0.1197258 0.0000000
0.0399883 0.1272828 0.0000000
0.0570726 0.1340918 0.0000000
0.0743062 0.1400826 0.0000000
0.0909577 0.1452181 0.0000000
0.1074706 0.1500521 0.0000000
0.1233057 0.1544147 0.0000000
0.1382408 0.1582990 0.0001699
0.1539648 0.1620744 0.0005403
0.1693251 0.1655391 0.0008349
0.1846220 0.1689016 0.0012346
0.1999236 0.1720979 0.0016010
0.2150672 0.1752436 0.0021106
0.2298534 0.1783002 0.0027121
0.2440314 0.1812289 0.0034401
0.2589989 0.1840314 0.0040255
0.2730100 0.1868411 0.0049073
0.2860842 0.1894455 0.0056486
0.3014222 0.1921413 0.0063817
0.3139067 0.1946614 0.0072386
0.3287373 0.1971696 0.0078618
0.3422337 0.1997104 0.0088196
0.3563563 0.2021525 0.0095648
0.3704539 0.2046980 0.0106456
0.3822179 0.2056230 0.0116140
0.3949266 0.2079838 0.0125670
0.4076795 0.2103556 0.0135699
0.4186317 0.2126694 0.0146533
