Plugins/FilmEmulator/Content/LUTs/FE_Kodak_5248_64.cube
TITLE "FE_Kodak_5248_33"
LUT_3D_SIZE 64
0.0007104 0.0015219 0.0003690
0.0012748 0.0015189 0.0003675
0.0034775 0.0015138 0.0003782
0.0076181 0.0014439 0.0004532
0.0143926 0.0013670 0.0005740
0.0225654 0.0013824 0.0007274
0.0325225 0.0014439 0.0008941
0.0437278 0.0015356 0.0010995
0.0580258 0.0016325 0.0013133
0.0708894 0.0017560 0.0016050
0.0861310 0.0018872 0.0019423
0.1047835 0.0020145 0.0022837
0.1232601 0.0021751 0.0026789
0.1421671 0.0023232 0.0031415
0.1633469 0.0025414 0.0035821
0.1851185 0.0026991 0.0040857
0.2073079 0.0029252 0.0045108
0.2249378 0.0031978 0.0052179
0.2431281 0.0034303 0.0058191
0.2619517 0.0036797 0.0064895
0.2816967 0.0039599 0.0072140
0.3029287 0.0041698 0.0077377
0.3259000 0.0045052 0.0085975
0.3416943 0.0047427 0.0095493
0.3575938 0.0051308 0.0102388
0.3829676 0.0054159 0.0109711
0.4006279 0.0057164 0.0117579
0.4185386 0.0060324 0.0130419
0.4367268 0.0063669 0.0139694
0.4551128 0.0067188 0.0149553
0.4736859 0.0070890 0.0154761
0.4922075 0.0074783 0.0165670
0.5107732 0.0078887 0.0177337
0.5196825 0.0083214 0.0189859
0.5385915 0.0085466 0.0196330
0.5569738 0.0090654 0.0210003
0.5656800 0.0096422 0.0224675
0.5833689 0.0099439 0.0232305
0.5914370 0.0105764 0.0248508
0.6086601 0.0109069 0.0256931
0.6169447 0.0112463 0.0274382
0.6248336 0.0119632 0.0282906
0.6415511 0.0123222 0.0291482
0.6492296 0.0130745 0.0309618
0.6570101 0.0134672 0.0319059
0.6719247 0.0138709 0.0328712
0.6790813 0.0142873 0.0338722
0.6861292 0.0147138 0.0359560
0.6927998 0.0156130 0.0370642
0.6997145 0.0160813 0.0381047
0.7136283 0.0165419 0.0391643
0.7202898 0.0170063 0.0402606
0.7268578 0.0174834 0.0413865
0.7336326 0.0179737 0.0425425
0.7403015 0.0184776 0.0437294
0.7468632 0.0189953 0.0449482
0.7533169 0.0195274 0.0461997
0.7596610 0.0200742 0.0474846
0.7658944 0.0206361 0.0488036
0.7720170 0.0212134 0.0501507
0.7780274 0.0218071 0.0515299
0.7839250 0.0224184 0.0529452
0.7897099 0.0230465 0.0543975
0.7954625 0.0236918 0.0558875
0.0006908 0.0027652 0.0003723
0.0012168 0.0027600 0.0003708
0.0032804 0.0027507 0.0003766
0.0071278 0.0027420 0.0004313
0.0134277 0.0027900 0.0005312
0.0210705 0.0027833 0.0006691
0.0303999 0.0027778 0.0008281
0.0425872 0.0027734 0.0009842
0.0546517 0.0028263 0.0011902
0.0694391 0.0028228 0.0014411
0.0846687 0.0028199 0.0017160
0.0999704 0.0028176 0.0020162
0.1176248 0.0028730 0.0023685
0.1409868 0.0028712 0.0027743
0.1626179 0.0028701 0.0031482
0.1847562 0.0028692 0.0035853
0.2014682 0.0029264 0.0040880
0.2252440 0.0031258 0.0045124
0.2434239 0.0033525 0.0052182
0.2622631 0.0035962 0.0058196
0.2820446 0.0038607 0.0064900
0.3029909 0.0041713 0.0072149
0.3181696 0.0043912 0.0080156
0.3417936 0.0047451 0.0086002
0.3579704 0.0049952 0.0095523
0.3741891 0.0054175 0.0102424
0.4006983 0.0057184 0.0109747
0.4186456 0.0060355 0.0117617
0.4367985 0.0063691 0.0130461
0.4551848 0.0067210 0.0139738
0.4737221 0.0070902 0.0149599
0.4922802 0.0074808 0.0154809
0.5011868 0.0078913 0.0165761
0.5200925 0.0081036 0.0177364
0.5386276 0.0085480 0.0189842
0.5474622 0.0090684 0.0196454
0.5661358 0.0093508 0.0210048
0.5834041 0.0099456 0.0224673
0.5918859 0.0102569 0.0232357
0.5999063 0.0109091 0.0248564
0.6170120 0.0112500 0.0256989
0.6248642 0.0119650 0.0274568
0.6415809 0.0123242 0.0282898
0.6496338 0.0126945 0.0291541
0.6570398 0.0134692 0.0309683
0.6719537 0.0138730 0.0319060
0.6791099 0.0142894 0.0328784
0.6861857 0.0147182 0.0338796
0.6931506 0.0151575 0.0359639
0.6997399 0.0160835 0.0370724
0.7065802 0.0165453 0.0381124
0.7203143 0.0170086 0.0391717
0.7268820 0.0174858 0.0402682
0.7336563 0.0179762 0.0413940
0.7403247 0.0184801 0.0425501
0.7468863 0.0189980 0.0437373
0.7533396 0.0195301 0.0449563
0.7596833 0.0200769 0.0462079
0.7659162 0.0206390 0.0474930
0.7720382 0.0212163 0.0488123
0.7780484 0.0218101 0.0501597
0.7839455 0.0224215 0.0515391
0.7897302 0.0230496 0.0529546
0.7894718 0.0236971 0.0544195
0.0006597 0.0073449 0.0003778
0.0011408 0.0073302 0.0003900
0.0031318 0.0073017 0.0004313
0.0068059 0.0072783 0.0004896
0.0128391 0.0072579 0.0005679
0.0201593 0.0072424 0.0006536
0.0290954 0.0072268 0.0008044
0.0407743 0.0072127 0.0009754
0.0523965 0.0072009 0.0011783
0.0665307 0.0073867 0.0014205
0.0811712 0.0073767 0.0016851
0.0958983 0.0073679 0.0019799
0.1130104 0.0073594 0.0023261
0.1355811 0.0073509 0.0027251
0.1565187 0.0073445 0.0030924
0.1779874 0.0073383 0.0035180
0.1943745 0.0073327 0.0040101
0.2178489 0.0075286 0.0044239
0.2362260 0.0075227 0.0050934
0.2553408 0.0075182 0.0056745
0.2754823 0.0075138 0.0063216
0.2969290 0.0075095 0.0070280
0.3125133 0.0075068 0.0075340
0.3367393 0.0075028 0.0083615
0.3534190 0.0075002 0.0089628
0.3701407 0.0077009 0.0099469
0.3879885 0.0076983 0.0106523
0.4157347 0.0076958 0.0114044
0.4345538 0.0076932 0.0122121
0.4535889 0.0076907 0.0130764
0.4727867 0.0076883 0.0139949
0.4823371 0.0076858 0.0149742
0.5015607 0.0076833 0.0160174
0.5201653 0.0081063 0.0165747
0.5387000 0.0085509 0.0177419
0.5478855 0.0087929 0.0189875
0.5661714 0.0093524 0.0203136
0.5749124 0.0096453 0.0210094
0.5919210 0.0102586 0.0224724
0.6003524 0.0105796 0.0232409
0.6170463 0.0112519 0.0248562
0.6252993 0.0116037 0.0257046
0.6331002 0.0123265 0.0274625
0.6496634 0.0126964 0.0282956
0.6574399 0.0130777 0.0291603
0.6643820 0.0138757 0.0309751
0.6791385 0.0142915 0.0319130
0.6862140 0.0147204 0.0328856
0.6932064 0.0151620 0.0338871
0.7000862 0.0156144 0.0359718
0.7069070 0.0160825 0.0370643
0.7133619 0.0170121 0.0381196
0.7269062 0.0174882 0.0391792
0.7336803 0.0179786 0.0402755
0.7403483 0.0184826 0.0414015
0.7469093 0.0190006 0.0425578
0.7533624 0.0195328 0.0437451
0.7597054 0.0200797 0.0449644
0.7659383 0.0206417 0.0462162
0.7720598 0.0212192 0.0475015
0.7780691 0.0218131 0.0488210
0.7839659 0.0224246 0.0501686
0.7837026 0.0230547 0.0515599
0.7894918 0.0237003 0.0529760
0.0006260 0.0144836 0.0004187
0.0010839 0.0144514 0.0004522
0.0029402 0.0143943 0.0005119
0.0063492 0.0143477 0.0005868
0.0124288 0.0143059 0.0006749
0.0188177 0.0142773 0.0007679
0.0281880 0.0142500 0.0008672
0.0381031 0.0142273 0.0009856
0.0508155 0.0142045 0.0011348
0.0646282 0.0141816 0.0013545
0.0788717 0.0141591 0.0016535
0.0932196 0.0141411 0.0019354
0.1099046 0.0141231 0.0022738
0.1271917 0.0141062 0.0026660
0.1524005 0.0140903 0.0030247
0.1682647 0.0140754 0.0035531
0.1894643 0.0140642 0.0039182
0.2124419 0.0144771 0.0044672
0.2305138 0.0144666 0.0049603
0.2493066 0.0144560 0.0055262
0.2691326 0.0144456 0.0061565
0.2828816 0.0144362 0.0068542
0.3056159 0.0144260 0.0076076
0.3295817 0.0144185 0.0081531
0.3460487 0.0144094 0.0090503
0.3629501 0.0144028 0.0096995
0.3806508 0.0143963 0.0103874
0.4082070 0.0143891 0.0111210
0.4268880 0.0143802 0.0123261
0.4454727 0.0148088 0.0132043
0.4549843 0.0148030 0.0141352
0.4741732 0.0147990 0.0146161
0.4933707 0.0147925 0.0156346
0.5126123 0.0147859 0.0167231
0.5318407 0.0147794 0.0178864
0.5414323 0.0147762 0.0184976
0.5605329 0.0147696 0.0197781
0.5696822 0.0147664 0.0204466
0.5875044 0.0147600 0.0218510
0.5963402 0.0147568 0.0225883
0.6138344 0.0147504 0.0241370
0.6221268 0.0151929 0.0249609
0.6306705 0.0151870 0.0266749
0.6476235 0.0151828 0.0275342
0.6557621 0.0151797 0.0283637
0.6633970 0.0151744 0.0301038
0.6709795 0.0151713 0.0310091
0.6859154 0.0151674 0.0319340
0.6932343 0.0151642 0.0328929
0.7001414 0.0156191 0.0338945
0.7069343 0.0160849 0.0359796
0.7136777 0.0165466 0.0370717
0.7203388 0.0170109 0.0381114
0.7266232 0.0179824 0.0391952
0.7403717 0.0184853 0.0402828
0.7469321 0.0190032 0.0414089
0.7533850 0.0195355 0.0425654
0.7597277 0.0200825 0.0437530
0.7659600 0.0206446 0.0449724
0.7720813 0.0212221 0.0462245
0.7718080 0.0218179 0.0475207
0.7778216 0.0224295 0.0488408
0.7839659 0.0224246 0.0501686
0.7897502 0.0230528 0.0515483
0.0006245 0.0228665 0.0004921
0.0010215 0.0228197 0.0005344
0.0028750 0.0227252 0.0006158
0.0062091 0.0226534 0.0006957
0.0116632 0.0225918 0.0007904
0.0184075 0.0225440 0.0008948
0.0275772 0.0224999 0.0010178
0.0372857 0.0224647 0.0011448
0.0497410 0.0224306 0.0012898
0.0632934 0.0224007 0.0014444
0.0747659 0.0223763 0.0016182
0.0913744 0.0223452 0.0018866
0.1077635 0.0223159 0.0022164
0.1247553 0.0222882 0.0026002
0.1442546 0.0222608 0.0030463
0.1651759 0.0222374 0.0034618
0.1860452 0.0222150 0.0039452
0.2030289 0.0221983 0.0043514
0.2268281 0.0221797 0.0048146
0.2453812 0.0221586 0.0055617
0.2647279 0.0227685 0.0061986
0.2783619 0.0227569 0.0066611
0.3008757 0.0227396 0.0073963
0.3165473 0.0227243 0.0082107
0.3409723 0.0227111 0.0087992
0.3577207 0.0226959 0.0097656
0.3753094 0.0226846 0.0104582
0.4027191 0.0226716 0.0111968
0.4213560 0.0226604 0.0119899
0.4402453 0.0226492 0.0128386
0.4497319 0.0226398 0.0137501
0.4688467 0.0226287 0.0147089
0.4880220 0.0226178 0.0157338
0.5072571 0.0226068 0.0168292
0.5168793 0.0226013 0.0174047
0.5360972 0.0225904 0.0186147
0.5552312 0.0225794 0.0199033
0.5640538 0.0232121 0.0205844
0.5819321 0.0232010 0.0219981
0.5908012 0.0231955 0.0227403
0.6083723 0.0231844 0.0242992
0.6170633 0.0231788 0.0251175
0.6256840 0.0231733 0.0259628
0.6426981 0.0231623 0.0277066
0.6508869 0.0231571 0.0285412
0.6586009 0.0231520 0.0294007
0.6662059 0.0231435 0.0312028
0.6812518 0.0231368 0.0321333
0.6886281 0.0231316 0.0330980
0.6959129 0.0231265 0.0340908
0.7031037 0.0231214 0.0351125
0.7101976 0.0231163 0.0361640
0.7171685 0.0231079 0.0382830
0.7237800 0.0237554 0.0393555
0.7308821 0.0237503 0.0404401
0.7378702 0.0237451 0.0415536
0.7515212 0.0237381 0.0426869
0.7514988 0.0237348 0.0438699
0.7581356 0.0237296 0.0450741
0.7646531 0.0237244 0.0463102
0.7710501 0.0237192 0.0475787
0.7773259 0.0237140 0.0488805
0.7834800 0.0237088 0.0502093
0.7895122 0.0237035 0.0515691
0.0006373 0.0332361 0.0006039
0.0009875 0.0321318 0.0006350
0.0027417 0.0320014 0.0007304
0.0061047 0.0318999 0.0008133
0.0114679 0.0318140 0.0009221
0.0181004 0.0317459 0.0010508
0.0261121 0.0316895 0.0011813
0.0366778 0.0316394 0.0012991
0.0489398 0.0315921 0.0014543
0.0602257 0.0315532 0.0016289
0.0735858 0.0315139 0.0018383
0.0899735 0.0314785 0.0020236
0.1061495 0.0314418 0.0023015
0.1229463 0.0314121 0.0025318
0.1422039 0.0313729 0.0029661
0.1626631 0.0323618 0.0033688
0.1832782 0.0323284 0.0038393
0.2000660 0.0323035 0.0042346
0.2235841 0.0322704 0.0048419
0.2419764 0.0322447 0.0053944
0.2614084 0.0322192 0.0060096
0.2749009 0.0321966 0.0066961
0.2972430 0.0321713 0.0074351
0.3128367 0.0321545 0.0079701
0.3370759 0.0321295 0.0088453
0.3537641 0.0321129 0.0094811
0.3712648 0.0320962 0.0101565
0.3893171 0.0320742 0.0112580
0.4077389 0.0320577 0.0120555
0.4264490 0.0320412 0.0129088
0.4453976 0.0320247 0.0138219
0.4644780 0.0320084 0.0147857
0.4836679 0.0319974 0.0152885
0.5028945 0.0319812 0.0163532
0.5124809 0.0319678 0.0174953
0.5313024 0.0329921 0.0187206
0.5504985 0.0329808 0.0193551
0.5596511 0.0329671 0.0206926
0.5776054 0.0329561 0.0213866
0.5864636 0.0329425 0.0228597
0.6041263 0.0329315 0.0236249
0.6128149 0.0329179 0.0252491
0.6214706 0.0329097 0.0260987
0.6385937 0.0328987 0.0269700
0.6467910 0.0328858 0.0286904
0.6545458 0.0328784 0.0295542
0.6622224 0.0328708 0.0304434
0.6773290 0.0328558 0.0323007
0.6847524 0.0328484 0.0332703
0.6920859 0.0328408 0.0342681
0.6993264 0.0328333 0.0352950
0.7064716 0.0328257 0.0363518
0.7135192 0.0328182 0.0374392
0.7204695 0.0328110 0.0384731
0.7275994 0.0327992 0.0406328
0.7346407 0.0327918 0.0417514
0.7412495 0.0338508 0.0429199
0.7480653 0.0338432 0.0440991
0.7547629 0.0338355 0.0453094
0.7613415 0.0338279 0.0465516
0.7677999 0.0338203 0.0478265
0.7741592 0.0338173 0.0478156
0.7803749 0.0338096 0.0491236
0.7864690 0.0338019 0.0504587
0.0006713 0.0458127 0.0007279
0.0009563 0.0442751 0.0007536
0.0026235 0.0441009 0.0008586
0.0057902 0.0439646 0.0009515
0.0112855 0.0438406 0.0010850
0.0178150 0.0437504 0.0012191
0.0257048 0.0436768 0.0013467
0.0361080 0.0436044 0.0015070
0.0481874 0.0435394 0.0016869
0.0593062 0.0434835 0.0019109
0.0723738 0.0448843 0.0021046
0.0885137 0.0448336 0.0023166
0.1044664 0.0447883 0.0025482
0.1210290 0.0447459 0.0028010
0.1400606 0.0447035 0.0030788
0.1605126 0.0446693 0.0032782
0.1809091 0.0446229 0.0037334
0.1975062 0.0445813 0.0042555
0.2208257 0.0445428 0.0046927
0.2390559 0.0445070 0.0052281
0.2517604 0.0444755 0.0058257
0.2717157 0.0444399 0.0064899
0.2938963 0.0444043 0.0072148
0.3093557 0.0443733 0.0080093
0.3334817 0.0443456 0.0085835
0.3500473 0.0443148 0.0095277
0.3674636 0.0442913 0.0102064
0.3854737 0.0442680 0.0109299
0.4038284 0.0442446 0.0117042
0.4224818 0.0442213 0.0125329
0.4413844 0.0441980 0.0134197
0.4604297 0.0441749 0.0143621
0.4795606 0.0441520 0.0153631
0.4987765 0.0441291 0.0164330
0.5083619 0.0441104 0.0175806
0.5276350 0.0440947 0.0181771
0.5468125 0.0440718 0.0194399
0.5555596 0.0455213 0.0207936
0.5735492 0.0455055 0.0214909
0.5824287 0.0454867 0.0229710
0.6001421 0.0454709 0.0237399
0.6088942 0.0454594 0.0245397
0.6175464 0.0454404 0.0262255
0.6347390 0.0454247 0.0271009
0.6429731 0.0454069 0.0288294
0.6507646 0.0453963 0.0296974
0.6584799 0.0453858 0.0305908
0.6736971 0.0453713 0.0315035
0.6811346 0.0453542 0.0334310
0.6885126 0.0453436 0.0344335
0.6957989 0.0453331 0.0354652
0.7029908 0.0453225 0.0365269
0.7100867 0.0453119 0.0376194
0.7170859 0.0453018 0.0386581
0.7242920 0.0452915 0.0397241
0.7313860 0.0452812 0.0408185
0.7383658 0.0452709 0.0419420
0.7452303 0.0452606 0.0430954
0.7519774 0.0452503 0.0442791
0.7586058 0.0452399 0.0454942
0.7651147 0.0452296 0.0467413
0.7712010 0.0467238 0.0480445
0.7774738 0.0467131 0.0493584
0.7836251 0.0467024 0.0506997
0.0007316 0.0593990 0.0008704
0.0009272 0.0593478 0.0008880
0.0025848 0.0591224 0.0009824
0.0057043 0.0589336 0.0011217
0.0111206 0.0587806 0.0012286
0.0175552 0.0586579 0.0013958
0.0253309 0.0585566 0.0015617
0.0355873 0.0584605 0.0017475
0.0458265 0.0583856 0.0019229
0.0584707 0.0583034 0.0021859
0.0714734 0.0582382 0.0024061
0.0874293 0.0581731 0.0026444
0.0998514 0.0581212 0.0029071
0.1196063 0.0580686 0.0030945
0.1384455 0.0580135 0.0034025
0.1586997 0.0579684 0.0036304
0.1789297 0.0579172 0.0040034
0.1954278 0.0578812 0.0042728
0.2127621 0.0578458 0.0045602
0.2304841 0.0577902 0.0052504
0.2492751 0.0577438 0.0058492
0.2690995 0.0576976 0.0065161
0.2911465 0.0576511 0.0072439
0.3065515 0.0576205 0.0077653
0.3305250 0.0575746 0.0086180
0.3466705 0.0594453 0.0092423
0.3639739 0.0594039 0.0102525
0.3819114 0.0593723 0.0109793
0.4002020 0.0593408 0.0117571
0.4188006 0.0593093 0.0125895
0.4376583 0.0592779 0.0134803
0.4566692 0.0592466 0.0144269
0.4757769 0.0592155 0.0154323
0.4949803 0.0591846 0.0165069
0.5046003 0.0591690 0.0170716
0.5238416 0.0591380 0.0182588
0.5430353 0.0591071 0.0195272
0.5522476 0.0590919 0.0201895
0.5702286 0.0590617 0.0215765
0.5791602 0.0590466 0.0223047
0.5880101 0.0590221 0.0238399
0.6056526 0.0590014 0.0246372
0.6143296 0.0589769 0.0263296
0.6315774 0.0589562 0.0272084
0.6398708 0.0589416 0.0280911
0.6476620 0.0589193 0.0298149
0.6554080 0.0589056 0.0307117
0.6706910 0.0588865 0.0316280
0.6781918 0.0588728 0.0325779
0.6855770 0.0588506 0.0345692
0.6929001 0.0588368 0.0356048
0.7001301 0.0588230 0.0366706
0.7072646 0.0588092 0.0377672
0.7139538 0.0607352 0.0388289
0.7212074 0.0607214 0.0398996
0.7283499 0.0607075 0.0409986
0.7353789 0.0606937 0.0421269
0.7422935 0.0606797 0.0432851
0.7490911 0.0606659 0.0444739
0.7557704 0.0606520 0.0456941
0.7623311 0.0606381 0.0469465
0.7687714 0.0606242 0.0482317
0.7750906 0.0606103 0.0495505
0.7812886 0.0605964 0.0508968
0.0007950 0.0768068 0.0010165
0.0009019 0.0743568 0.0010151
0.0024842 0.0740782 0.0011324
0.0056294 0.0762488 0.0012696
0.0105277 0.0760497 0.0014475
0.0167009 0.0758977 0.0016183
0.0250034 0.0757698 0.0017589
0.0351289 0.0756417 0.0019981
0.0452413 0.0755460 0.0021986
0.0577394 0.0754523 0.0024194
0.0705902 0.0753694 0.0026590
0.0835131 0.0752943 0.0029224
0.0986498 0.0752195 0.0032118
0.1181942 0.0751517 0.0034200
0.1368404 0.0750800 0.0037708
0.1568982 0.0750219 0.0040233
0.1769623 0.0749676 0.0042930
0.1932967 0.0749097 0.0047349
0.2104826 0.0748617 0.0050874
0.2281162 0.0748145 0.0054661
0.2467997 0.0747675 0.0058730
0.2665220 0.0747206 0.0063099
0.2884347 0.0746603 0.0070232
0.3037230 0.0746085 0.0077967
0.3276064 0.0745615 0.0083557
0.3440229 0.0745099 0.0092749
0.3612970 0.0744703 0.0099399
0.3791775 0.0744307 0.0106446
0.3974177 0.0743912 0.0113989
0.4159371 0.0743398 0.0126339
0.4347584 0.0743004 0.0135277
0.4537411 0.0742614 0.0144776
0.4728652 0.0742343 0.0149701
0.4920577 0.0741955 0.0160129
0.5016391 0.0741642 0.0171315
0.5208824 0.0741255 0.0183228
0.5401235 0.0740985 0.0189440
0.5493079 0.0740676 0.0202601
0.5673467 0.0740416 0.0209398
0.5762568 0.0740110 0.0223826
0.5851576 0.0739921 0.0231375
0.6028020 0.0739545 0.0247231
0.6115347 0.0739356 0.0255554
0.6287953 0.0738979 0.0273030
0.6371142 0.0738795 0.0281887
0.6445696 0.0762651 0.0290522
0.6523160 0.0762365 0.0308335
0.6676641 0.0762118 0.0317532
0.6751993 0.0761941 0.0327068
0.6826481 0.0761764 0.0336882
0.6900075 0.0761586 0.0346982
0.6972470 0.0761301 0.0368152
0.7044200 0.0761123 0.0379160
0.7114981 0.0760953 0.0389627
0.7187887 0.0760780 0.0400368
0.7259686 0.0760607 0.0411396
0.7330359 0.0760434 0.0422716
0.7399892 0.0760261 0.0434336
0.7468262 0.0760088 0.0446264
0.7535454 0.0759914 0.0458506
0.7601459 0.0759740 0.0471070
0.7666265 0.0759567 0.0483964
0.7729865 0.0759394 0.0497196
0.7792251 0.0759221 0.0510703
0.0008776 0.0918887 0.0012009
0.0008777 0.0918988 0.0011725
0.0024564 0.0915542 0.0013118
0.0053740 0.0912840 0.0014586
0.0104284 0.0910470 0.0016284
0.0165439 0.0908659 0.0018274
0.0247687 0.0907101 0.0020087
0.0348019 0.0905586 0.0022818
0.0448238 0.0904455 0.0025098
0.0572127 0.0903354 0.0027570
0.0699537 0.0902373 0.0030294
0.0827789 0.0901617 0.0032249
0.0977943 0.0900723 0.0035492
0.1171879 0.0899912 0.0037858
0.1356970 0.0899062 0.0041740
0.1556144 0.0898372 0.0044533
0.1755453 0.0897726 0.0047517
0.1917936 0.0897148 0.0051054
0.2088775 0.0896576 0.0054854
0.2264122 0.0896017 0.0058936
0.2449972 0.0895457 0.0063321
0.2646227 0.0894900 0.0068031
0.2864983 0.0894482 0.0070434
0.3017558 0.0894011 0.0075504
0.3255205 0.0893307 0.0083797
0.3419157 0.0892838 0.0089822
0.3591051 0.0892222 0.0099684
0.3769380 0.0891752 0.0106751
0.3951358 0.0891281 0.0114316
0.4136544 0.0890812 0.0122411
0.4320656 0.0916567 0.0131135
0.4510205 0.0916085 0.0140409
0.4700890 0.0915610 0.0150197
0.4892698 0.0915134 0.0160659
0.4988485 0.0914752 0.0171882
0.5181289 0.0914421 0.0177715
0.5277069 0.0914039 0.0190112
0.5465344 0.0913569 0.0203269
0.5645933 0.0913249 0.0210088
0.5735157 0.0912876 0.0224563
0.5824311 0.0912646 0.0232137
0.6001095 0.0912184 0.0248044
0.6088613 0.0911953 0.0256393
0.6175486 0.0911722 0.0265017
0.6345077 0.0911268 0.0282811
0.6423777 0.0911057 0.0291329
0.6501749 0.0910846 0.0300097
0.6655380 0.0910425 0.0318412
0.6730968 0.0910215 0.0327974
0.6805704 0.0910004 0.0337814
0.6879552 0.0909794 0.0347942
0.6952482 0.0909583 0.0358364
0.7024475 0.0909372 0.0369088
0.7095258 0.0909043 0.0390700
0.7168455 0.0908838 0.0401470
0.7240554 0.0908634 0.0412527
0.7311529 0.0908429 0.0423877
0.7381371 0.0908224 0.0435528
0.7450052 0.0908018 0.0447486
0.7517560 0.0907813 0.0459761
0.7583886 0.0907607 0.0472358
0.7649015 0.0907401 0.0485286
0.7712938 0.0907196 0.0498553
0.7775651 0.0906991 0.0512094
0.0009598 0.1090908 0.0013982
0.0009424 0.1091111 0.0013588
0.0023664 0.1087471 0.0015141
0.0053238 0.1084205 0.0016885
0.0103312 0.1081399 0.0018993
0.0163917 0.1079385 0.0020868
0.0236270 0.1077690 0.0022944
0.0332145 0.1076077 0.0025221
0.0444269 0.1074635 0.0027696
0.0567115 0.1073345 0.0030423
0.0693478 0.1072196 0.0033428
0.0820700 0.1071302 0.0035635
0.0969680 0.1070247 0.0039285
0.1162162 0.1069296 0.0041902
0.1346085 0.1068458 0.0044704
0.1543916 0.1067647 0.0047694
0.1741913 0.1066856 0.0051232
0.1903405 0.1066177 0.0055044
0.2073255 0.1065506 0.0059139
0.2247641 0.1064847 0.0063539
0.2432532 0.1064190 0.0068265
0.2627857 0.1063545 0.0073195
0.2845648 0.1063053 0.0075749
0.2997599 0.1062500 0.0081200
0.3234683 0.1061841 0.0087020
0.3398425 0.1061458 0.0090073
0.3570152 0.1060903 0.0096545
0.3748017 0.1060348 0.0103420
0.3929236 0.1059628 0.0114634
0.4114058 0.1059076 0.0122751
0.4301668 0.1058524 0.0131438
0.4491017 0.1057974 0.0140733
0.4681557 0.1057428 0.0150544
0.4873638 0.1057048 0.0155662
0.4969406 0.1056611 0.0166540
0.5161844 0.1056067 0.0178125
0.5257644 0.1055631 0.0190550
0.5442377 0.1086771 0.0197102
0.5532363 0.1086332 0.0210719
0.5712445 0.1085955 0.0217784
0.5801361 0.1085517 0.0232779
0.5978770 0.1085140 0.0240569
0.6066101 0.1084702 0.0257101
0.6153144 0.1084431 0.0265748
0.6323115 0.1083896 0.0283590
0.6402009 0.1083648 0.0292131
0.6480187 0.1083401 0.0300922
0.6557614 0.1083153 0.0309972
0.6710078 0.1082658 0.0328874
0.6785053 0.1082411 0.0338740
0.6859149 0.1082163 0.0348895
0.6932337 0.1081915 0.0359344
0.7004594 0.1081668 0.0370097
0.7075895 0.1081420 0.0381161
0.7149377 0.1081178 0.0391677
0.7221523 0.1080799 0.0413650
0.7292797 0.1080558 0.0425030
0.7362942 0.1080317 0.0436711
0.7431931 0.1080076 0.0448702
0.7499753 0.1079834 0.0461008
0.7566394 0.1079593 0.0473638
0.7631842 0.1079351 0.0486599
0.7696303 0.1079247 0.0486490
0.7759332 0.1079005 0.0499787
0.0010425 0.1300516 0.0016177
0.0010440 0.1263023 0.0016169
0.0023470 0.1259462 0.0017521
0.0050897 0.1256001 0.0019135
0.0102475 0.1252624 0.0021681
0.0162596 0.1250329 0.0023821
0.0234377 0.1248403 0.0026165
0.0329506 0.1246573 0.0028722
0.0440772 0.1244928 0.0031540
0.0562767 0.1243632 0.0033558
0.0688215 0.1242308 0.0036962
0.0814542 0.1241285 0.0039429
0.0962622 0.1240262 0.0042060
0.1153723 0.1238994 0.0046361
0.1336474 0.1238017 0.0049625
0.1533082 0.1237054 0.0053301
0.1678782 0.1236275 0.0057266
0.1890560 0.1235373 0.0061511
0.2059779 0.1234805 0.0063735
0.2233323 0.1234052 0.0068476
0.2417393 0.1233312 0.0073421
0.2608813 0.1269274 0.0078728
0.2825592 0.1268696 0.0081474
0.2976891 0.1268046 0.0087333
0.3133278 0.1267595 0.0090398
0.3376209 0.1266820 0.0096872
0.3547723 0.1266366 0.0100253
0.3725090 0.1265716 0.0107360
0.3906558 0.1265260 0.0111073
0.4091000 0.1264610 0.0118940
0.4278293 0.1263961 0.0127359
0.4467388 0.1263314 0.0136369
0.4657734 0.1262670 0.0145943
0.4753053 0.1262157 0.0156150
0.4945071 0.1261518 0.0167021
0.5137500 0.1260877 0.0178639
0.5233685 0.1260556 0.0184743
0.5422139 0.1259923 0.0197576
0.5512182 0.1259421 0.0211226
0.5692423 0.1258988 0.0218307
0.5781435 0.1258489 0.0233337
0.5959080 0.1258056 0.0241145
0.6046892 0.1257744 0.0249267
0.6133735 0.1257245 0.0266384
0.6304356 0.1256815 0.0275274
0.6383091 0.1256350 0.0292828
0.6461443 0.1256066 0.0301640
0.6539055 0.1255784 0.0310711
0.6692200 0.1255386 0.0319977
0.6767092 0.1254933 0.0339545
0.6841403 0.1254649 0.0349723
0.6914812 0.1254367 0.0360197
0.6987295 0.1254084 0.0370974
0.7058830 0.1253800 0.0382064
0.7132559 0.1253524 0.0392603
0.7205203 0.1253248 0.0403424
0.7276732 0.1252972 0.0414533
0.7347136 0.1252696 0.0425936
0.7416389 0.1252419 0.0437641
0.7484475 0.1252144 0.0449656
0.7551384 0.1251867 0.0461987
0.7617104 0.1251591 0.0474643
0.7681623 0.1251314 0.0487631
0.7744932 0.1251038 0.0500958
0.0011403 0.1502180 0.0018778
0.0011421 0.1458895 0.0018768
0.0022637 0.1455539 0.0019930
0.0050482 0.1451475 0.0021844
0.0097526 0.1448031 0.0023966
0.0155758 0.1445410 0.0026305
0.0232524 0.1443081 0.0028863
0.0326921 0.1441006 0.0031684
0.0437345 0.1439138 0.0034803
0.0558434 0.1437655 0.0037107
0.0683058 0.1436355 0.0039574
0.0808409 0.1434987 0.0043626
0.0955475 0.1433826 0.0046536
0.1145439 0.1432571 0.0049801
0.1327036 0.1431439 0.0053486
0.1522474 0.1430344 0.0057446
0.1667346 0.1429460 0.0061718
0.1877977 0.1428434 0.0066291
0.2046329 0.1427788 0.0068688
0.2219047 0.1426945 0.0073648
0.2402279 0.1426105 0.0078933
0.2596234 0.1425485 0.0081689
0.2738176 0.1424767 0.0087564
0.2962898 0.1423907 0.0093837
0.3118857 0.1423406 0.0097128
0.3361193 0.1422551 0.0104022
0.3532333 0.1422048 0.0107621
0.3709692 0.1421542 0.0111342
0.3890503 0.1420822 0.0119228
0.4075028 0.1420317 0.0123347
