Plugins/FilmEmulator/Content/LUTs/FE_Kodak_16mm_64.cube
# FilmEmulator LUT (resampled to 64)
LUT_3D_SIZE 8
0.031006 0.031006 0.019897
0.068966 0.030731 0.020495
0.117445 0.028809 0.023163
0.183315 0.026646 0.029376
0.272395 0.024881 0.034795
0.362737 0.026459 0.035806
0.452851 0.026459 0.047446
0.530731 0.024597 0.053619
0.030836 0.068089 0.021559
0.072197 0.067061 0.021725
0.136970 0.064380 0.028903
0.226504 0.062412 0.034196
0.326305 0.062607 0.036004
0.425534 0.062118 0.048590
0.523960 0.060451 0.056503
0.593157 0.059309 0.068290
0.035291 0.111101 0.021737
0.080568 0.117662 0.021262
0.165194 0.130569 0.021416
0.276422 0.136207 0.034724
0.382568 0.137457 0.048134
0.488789 0.136488 0.058750
0.583863 0.129963 0.071615
0.654419 0.128496 0.081892
0.042298 0.166094 0.023280
0.097805 0.190361 0.019832
0.197386 0.214378 0.024059
0.323004 0.242018 0.038470
0.437862 0.253605 0.046855
0.546825 0.253716 0.060817
0.638881 0.248493 0.082910
0.713941 0.251225 0.092447
0.059801 0.238163 0.020006
0.125633 0.271925 0.020179
0.237614 0.320359 0.023876
0.376339 0.357338 0.044923
0.492343 0.372836 0.056623
0.603731 0.377228 0.075164
0.700534 0.374785 0.094707
0.771977 0.377228 0.105068
0.088841 0.319728 0.021938
0.155991 0.370061 0.023592
0.282957 0.430663 0.032136
0.418919 0.470838 0.046758
0.546640 0.493550 0.069364
0.653101 0.497770 0.081416
0.750297 0.493757 0.092783
0.797477 0.502895 0.093676
0.115034 0.407410 0.028368
0.188706 0.468276 0.025805
0.329112 0.536318 0.038694
0.469815 0.579036 0.055052
0.591769 0.607505 0.073363
0.697939 0.617133 0.084999
0.791426 0.614034 0.097412
0.833557 0.623941 0.097752
0.142670 0.480316 0.027771
0.215720 0.552194 0.033508
0.362649 0.622489 0.042093
0.502786 0.666980 0.062631
0.624451 0.700283 0.078143
0.730312 0.705514 0.088806
0.810464 0.704786 0.100861
0.847351 0.712799 0.100861
0.032471 0.035915 0.068625
0.074858 0.034405 0.071481
0.130753 0.031847 0.079851
0.202780 0.031379 0.086296
0.298820 0.029555 0.093606
0.391158 0.030073 0.090457
0.484230 0.029855 0.102409
0.564248 0.028325 0.107252
0.033093 0.074441 0.076883
0.081133 0.076473 0.077812
0.159091 0.078762 0.092908
0.261356 0.074098 0.101012
0.362772 0.071040 0.099425
0.464083 0.067749 0.108071
0.559849 0.064921 0.112749
0.634976 0.064271 0.124360
0.042192 0.125057 0.079006
0.092519 0.142163 0.084610
0.190839 0.158368 0.090572
0.307236 0.165318 0.096733
0.417069 0.164971 0.099959
0.521744 0.161515 0.104322
0.615905 0.157249 0.118362
0.691578 0.157397 0.129925
0.059228 0.194626 0.084907
0.117259 0.228329 0.083078
0.224363 0.257474 0.085477
0.358000 0.284070 0.089984
0.466983 0.286758 0.096816
0.573722 0.286354 0.107657
0.663372 0.283808 0.119766
0.741784 0.287704 0.125687
0.084726 0.275854 0.084211
0.147500 0.322811 0.083644
0.268524 0.372403 0.084677
0.401079 0.402284 0.090593
0.519899 0.415973 0.100849
0.627210 0.413016 0.118236
0.721108 0.408396 0.130842
0.788153 0.414551 0.132730
0.111588 0.366321 0.090047
0.187381 0.424699 0.084863
0.307858 0.485395 0.085660
0.447280 0.514079 0.091794
0.571331 0.533469 0.112489
0.676272 0.536603 0.120973
0.771737 0.531825 0.132439
0.817193 0.542553 0.133585
0.148377 0.459793 0.095068
0.223033 0.531487 0.097687
0.352681 0.597706 0.092245
0.494392 0.633379 0.102182
0.616963 0.659312 0.116130
0.720407 0.667138 0.125702
0.810704 0.658536 0.137262
0.850393 0.669216 0.138717
0.177412 0.550223 0.122982
0.256012 0.623609 0.124254
0.405029 0.706125 0.113507
0.541844 0.742455 0.119940
0.668746 0.769008 0.130624
0.762067 0.763251 0.133406
0.821924 0.755784 0.142024
0.861616 0.768311 0.144117
0.035788 0.043683 0.134857
0.077056 0.049008 0.153517
0.144249 0.049340 0.175905
0.224537 0.050298 0.190183
0.328840 0.047530 0.204987
0.429972 0.048778 0.206628
0.529414 0.045864 0.225460
0.607645 0.047202 0.233477
0.042556 0.092164 0.169530
0.085775 0.099813 0.186939
0.173483 0.106454 0.218875
0.282690 0.106097 0.242858
0.396108 0.100826 0.244713
0.504419 0.093720 0.257607
0.605088 0.092077 0.259292
0.683762 0.092901 0.276241
0.055098 0.155136 0.187315
0.108908 0.177133 0.206130
0.216563 0.201475 0.225106
0.327419 0.218088 0.255637
0.457833 0.212369 0.259893
0.572858 0.210065 0.260533
0.674846 0.209321 0.273832
0.751721 0.209795 0.286171
0.078813 0.232888 0.202921
0.136992 0.273875 0.218953
0.248310 0.305605 0.247521
0.382696 0.335620 0.265921
0.512276 0.341304 0.263600
0.631883 0.344728 0.260947
0.731621 0.346428 0.263556
0.813656 0.347816 0.269758
0.107667 0.322388 0.213736
0.173897 0.374889 0.228858
0.295656 0.430708 0.249482
0.436099 0.458022 0.256676
0.568260 0.472551 0.255773
0.691836 0.476423 0.265878
0.793700 0.475411 0.262571
0.852205 0.477121 0.263193
0.140417 0.415753 0.225574
0.215889 0.482028 0.239652
0.338657 0.547576 0.255800
0.491992 0.582961 0.255948
0.628696 0.600101 0.261071
0.744546 0.609107 0.258088
0.826829 0.602107 0.255866
0.868803 0.612733 0.261004
0.176191 0.511333 0.242608
0.259600 0.588501 0.267543
0.388304 0.663821 0.262469
0.548859 0.714395 0.263325
0.686960 0.738053 0.265872
0.784795 0.749112 0.265096
0.847838 0.734862 0.260393
0.886964 0.748449 0.264010
0.206804 0.597456 0.292345
0.294044 0.676493 0.301532
0.425849 0.755665 0.293729
0.589571 0.812307 0.304953
0.725894 0.839406 0.303373
0.804209 0.844341 0.303263
0.863733 0.840232 0.290781
0.903063 0.847844 0.297537
0.041547 0.057064 0.220215
0.081660 0.063806 0.246109
0.146130 0.064965 0.281583
0.231556 0.067279 0.310042
0.338778 0.066507 0.330349
0.442037 0.066197 0.333660
0.538859 0.062513 0.346644
0.623954 0.061702 0.358826
0.048333 0.109478 0.276443
0.087810 0.120486 0.305732
0.171162 0.126230 0.343687
0.282864 0.128191 0.372489
0.401499 0.124439 0.384224
0.514116 0.118856 0.393191
0.619325 0.118577 0.401676
0.697973 0.120467 0.413901
0.066210 0.174841 0.298577
0.116662 0.204059 0.337766
0.219052 0.232782 0.357362
0.335527 0.251060 0.389295
0.459470 0.246282 0.411046
0.579460 0.242614 0.408151
0.685300 0.241909 0.418438
0.762174 0.245812 0.433170
0.090156 0.263635 0.322525
0.145968 0.307972 0.353744
0.261139 0.342557 0.380240
0.394289 0.375997 0.409160
0.510290 0.387136 0.430003
0.640127 0.381042 0.425683
0.746476 0.381791 0.421766
0.836117 0.381790 0.430146
0.117824 0.355903 0.340205
0.186888 0.408180 0.363985
0.297056 0.455926 0.396440
0.440181 0.484284 0.424234
0.563989 0.506831 0.440728
0.693800 0.510682 0.429455
0.806746 0.506968 0.422196
0.862876 0.509133 0.426286
0.153618 0.448464 0.354529
0.234209 0.515324 0.387179
0.336865 0.568370 0.402681
0.495266 0.617578 0.419680
0.631540 0.632819 0.428303
0.753327 0.641698 0.422787
0.837465 0.638813 0.421170
0.881387 0.647682 0.426769
0.193242 0.543580 0.380517
0.274351 0.616225 0.409159
0.378799 0.682971 0.404971
0.547983 0.747232 0.428147
0.689765 0.769447 0.430165
0.788632 0.776866 0.428375
0.858597 0.768545 0.424585
0.898144 0.776836 0.428932
0.215493 0.619528 0.425284
0.300624 0.699389 0.435577
0.402295 0.766692 0.422929
0.573904 0.837170 0.456938
0.715972 0.853887 0.461818
0.800115 0.855303 0.454791
0.866428 0.853201 0.450397
0.904436 0.856271 0.455736
0.044037 0.069057 0.310783
0.083287 0.075321 0.340454
0.146091 0.076632 0.378242
0.227406 0.082841 0.411816
0.335375 0.082854 0.438082
0.448873 0.081465 0.449527
0.550757 0.081298 0.461551
0.630951 0.084154 0.477556
0.049433 0.127099 0.373394
0.089566 0.138793 0.413500
0.167263 0.144861 0.458247
0.274761 0.148898 0.493578
0.396929 0.149720 0.515101
0.510354 0.146615 0.524234
0.617134 0.142588 0.528081
0.693664 0.145606 0.537266
0.073669 0.199298 0.417543
0.119900 0.228781 0.456506
0.200803 0.255787 0.491877
0.325254 0.271482 0.524959
0.455261 0.275462 0.547985
0.571649 0.272713 0.544863
0.672600 0.269561 0.545996
0.748937 0.271965 0.557292
0.091049 0.290615 0.435493
0.149439 0.332029 0.475737
0.246278 0.367233 0.511140
0.393589 0.401189 0.531454
0.512309 0.419239 0.549746
0.623858 0.407899 0.557913
0.728672 0.401750 0.554814
0.814875 0.399510 0.555907
0.125749 0.380325 0.463132
0.186921 0.440622 0.485308
0.287946 0.478840 0.533822
0.441608 0.511608 0.549496
0.559959 0.536523 0.573382
0.669790 0.537063 0.572190
0.782438 0.522818 0.555035
0.853296 0.524404 0.552949
0.156252 0.478599 0.471762
0.240334 0.538997 0.518282
0.326182 0.587402 0.539138
0.478587 0.633000 0.555528
0.611601 0.648509 0.573990
0.722936 0.656645 0.572818
0.824300 0.651953 0.547814
0.869309 0.659420 0.552372
0.198765 0.565384 0.503852
0.279043 0.637500 0.537496
0.368128 0.699668 0.532939
0.522632 0.757241 0.562689
0.667638 0.785414 0.568578
0.777393 0.785665 0.558797
0.843916 0.771900 0.546131
0.883351 0.781436 0.550152
0.216483 0.632023 0.542323
0.301750 0.715632 0.553318
0.388901 0.787739 0.543426
0.544572 0.845123 0.579132
0.692962 0.858734 0.592447
0.787703 0.859172 0.579016
0.854759 0.854812 0.568880
0.893489 0.858111 0.573548
0.044037 0.082550 0.398158
0.081362 0.092854 0.437089
0.143604 0.094019 0.481442
0.224198 0.100543 0.517539
0.332202 0.101023 0.545139
0.445873 0.101890 0.563976
0.545726 0.101766 0.578801
0.633732 0.104183 0.588458
0.051106 0.143349 0.474044
0.089106 0.158917 0.521025
0.161664 0.168062 0.572973
0.271603 0.176790 0.609376
0.390267 0.177361 0.630799
0.504416 0.177387 0.646042
0.610388 0.174906 0.648849
0.685621 0.174876 0.653480
0.076991 0.219297 0.532818
0.118194 0.257252 0.571668
0.191597 0.278819 0.611902
0.317285 0.297990 0.652346
0.442045 0.302264 0.665098
0.564642 0.300692 0.671433
0.664694 0.298483 0.668981
0.737400 0.299907 0.676045
0.089972 0.318157 0.544901
0.154285 0.358574 0.597825
0.234447 0.391863 0.629467
0.371556 0.418114 0.666161
0.500112 0.428989 0.674639
0.616951 0.432503 0.686234
0.715808 0.426299 0.682681
0.797221 0.423679 0.678815
0.128778 0.405027 0.576166
0.192852 0.461312 0.607415
0.280020 0.496789 0.650236
0.420734 0.533702 0.673557
0.557828 0.555608 0.685597
0.663371 0.561759 0.695270
0.761526 0.543425 0.686337
0.841232 0.541692 0.678235
0.162461 0.500029 0.593043
0.243687 0.559563 0.637059
0.322549 0.604738 0.659160
0.466117 0.656214 0.687832
0.604613 0.672106 0.698868
0.705716 0.682122 0.713199
0.811819 0.671318 0.686713
0.858772 0.671454 0.680837
0.202757 0.584079 0.619738
0.281152 0.654954 0.650982
0.359019 0.717620 0.651476
0.507090 0.773868 0.694689
0.646830 0.797160 0.702311
0.762948 0.797992 0.696823
0.832034 0.782110 0.677268
0.873620 0.789520 0.672484
0.214861 0.642011 0.642552
0.293623 0.723252 0.661969
0.372275 0.796183 0.649667
0.517367 0.849908 0.699506
0.664366 0.861970 0.714011
0.778280 0.864565 0.705604
0.843393 0.857164 0.683921
0.881936 0.860142 0.686292
0.044037 0.099191 0.495732
0.078530 0.107439 0.536091
0.136164 0.109736 0.591619
0.222958 0.121971 0.634527
0.330279 0.126160 0.658749
0.443302 0.127468 0.677441
0.542824 0.129125 0.692785
0.623653 0.132646 0.704956
0.045538 0.163596 0.577850
0.091681 0.178278 0.631395
0.158104 0.190872 0.688844
0.268078 0.204360 0.725943
0.383839 0.207240 0.744453
0.497175 0.211607 0.766582
0.603053 0.208230 0.773597
0.677511 0.210047 0.776624
0.078786 0.242438 0.647231
0.114362 0.285564 0.675450
0.184723 0.308340 0.724544
0.313859 0.330301 0.777196
0.436495 0.334501 0.792461
0.556967 0.336189 0.801577
0.656719 0.332654 0.794778
0.727654 0.335636 0.793953
0.093791 0.345678 0.660690
0.155953 0.384089 0.705797
0.220205 0.416719 0.740258
0.365793 0.444183 0.790868
0.489715 0.456484 0.802480
0.604913 0.459556 0.811318
0.701901 0.453746 0.803977
0.780540 0.449119 0.788277
0.130321 0.431988 0.676989
0.194246 0.480947 0.722565
0.271697 0.510864 0.761358
0.402500 0.556354 0.793636
0.533847 0.575490 0.811872
0.645425 0.574410 0.816035
0.743950 0.566883 0.806259
0.819565 0.561878 0.791091
0.165855 0.515927 0.700228
0.241583 0.569294 0.748338
0.309207 0.612480 0.764581
0.444655 0.670387 0.803635
0.579748 0.694180 0.818072
0.694856 0.699366 0.819778
0.788940 0.685077 0.804029
0.844616 0.679493 0.796391
0.199365 0.595105 0.730214
0.274083 0.661474 0.748716
0.341200 0.724896 0.740502
0.477792 0.779326 0.800529
0.618294 0.806979 0.822657
0.730685 0.807313 0.823749
0.807482 0.789446 0.816047
0.857219 0.789691 0.795893
0.210650 0.647701 0.741555
0.284099 0.724837 0.744734
0.349771 0.793679 0.733354
0.473131 0.842492 0.801392
0.622404 0.861346 0.832138
0.739856 0.867406 0.833304
0.823616 0.857561 0.808583
0.862553 0.858861 0.807931
0.039337 0.110107 0.581757
0.069873 0.124869 0.626896
0.132155 0.129316 0.691615
0.215593 0.143306 0.735447
0.327166 0.145595 0.760071
0.437130 0.148695 0.777470
0.542162 0.154680 0.803061
0.624359 0.155975 0.810150
0.054552 0.180599 0.677425
0.095195 0.198549 0.729779
0.149565 0.216426 0.782465
0.262834 0.233666 0.829983
0.380032 0.239121 0.847100
0.496203 0.241684 0.864562
0.601921 0.240188 0.869177
0.673754 0.241054 0.870462
0.077244 0.271297 0.729723
0.111114 0.311788 0.766300
0.174178 0.330247 0.804383
0.303860 0.355135 0.863328
0.427975 0.364170 0.880394
0.543148 0.367921 0.888349
0.643946 0.363097 0.885185
0.712481 0.364223 0.882752
0.097451 0.363521 0.754530
0.149630 0.403436 0.777017
0.209490 0.431049 0.813953
0.344608 0.460785 0.876472
0.465546 0.479055 0.888292
0.575220 0.485464 0.893408
0.670218 0.481156 0.891542
0.747362 0.475015 0.884587
0.122249 0.450684 0.755244
0.191625 0.491671 0.799725
0.256656 0.517302 0.842589
0.367797 0.558529 0.877495
0.493960 0.588919 0.890240
0.604137 0.591929 0.897707
0.701933 0.588044 0.893588
0.778625 0.581573 0.885328
0.159881 0.525060 0.778093
0.231613 0.567406 0.827610
0.286476 0.607582 0.845996
0.388645 0.657542 0.877566
0.523234 0.688586 0.891849
0.647263 0.704256 0.894992
0.752573 0.691073 0.885790
0.812583 0.686933 0.880096
0.189470 0.591387 0.796832
0.255592 0.647312 0.830585
0.308418 0.716688 0.813329
0.401424 0.748120 0.860742
0.555225 0.796909 0.887138
0.681768 0.810075 0.891749
0.790470 0.795229 0.879991
0.842695 0.791862 0.876308
0.196259 0.634460 0.795746
0.260219 0.688821 0.823242
0.316332 0.769649 0.803759
0.392927 0.798523 0.836949
0.560560 0.854047 0.883706
0.701220 0.866477 0.890538
0.809300 0.859859 0.878052
0.853180 0.859070 0.873657
