Plugins/FilmEmulator/Content/LUTs/FE_Kodak_Portra_400_64.cube
TITLE "FE_Kodak_Portra_400_33"
LUT_3D_SIZE 8
0.0006557 0.0025025 0.0009060
0.0851953 0.0030324 0.0013915
0.2931571 0.0056072 0.0035243
0.5022789 0.0098204 0.0068282
0.6500236 0.0149296 0.0108398
0.7554681 0.0209674 0.0157951
0.8218707 0.0272134 0.0211411
0.8671525 0.0339759 0.0271376
0.0004932 0.0854645 0.0014590
0.0557683 0.0931402 0.0034530
0.2034382 0.1022577 0.0063878
0.3903964 0.1086659 0.0101182
0.5557005 0.1198233 0.0141274
0.6733336 0.1276385 0.0188938
0.7622783 0.1358808 0.0252422
0.8239870 0.1447652 0.0310594
0.0011991 0.2099209 0.0037657
0.0554276 0.2204988 0.0066988
0.1952447 0.2254212 0.0106097
0.3642008 0.2310386 0.0148044
0.5294891 0.2442937 0.0197978
0.6511779 0.2506586 0.0253729
0.7447826 0.2573149 0.0312120
0.8108482 0.2643542 0.0368099
0.0026341 0.3331667 0.0073120
0.0593567 0.3393269 0.0111025
0.1880619 0.3465320 0.0154894
0.3524623 0.3542773 0.0198669
0.5184367 0.3621103 0.0254629
0.6407696 0.3702767 0.0313233
0.7360647 0.3785378 0.0384897
0.7945171 0.3778005 0.0435239
0.0045307 0.4356574 0.0116070
0.0652225 0.4429588 0.0161885
0.1949854 0.4512212 0.0207594
0.3644573 0.4496000 0.0266031
0.5159724 0.4582682 0.0327200
0.6382660 0.4672317 0.0385825
0.7226182 0.4661980 0.0454479
0.7925141 0.4754493 0.0513663
0.0070589 0.5240461 0.0169108
0.0730468 0.5218746 0.0216742
0.2058395 0.5304456 0.0266584
0.3636590 0.5391352 0.0327885
0.5013059 0.5380471 0.0386531
0.6245068 0.5470417 0.0455442
0.7235733 0.5459889 0.0535917
0.7825316 0.5552921 0.0605151
0.0099734 0.5924793 0.0226308
0.0779423 0.5906768 0.0278289
0.2082481 0.5990574 0.0342202
0.3685414 0.5979296 0.0403348
0.5046223 0.6066743 0.0475142
0.6293272 0.6058639 0.0536765
0.7128261 0.6148221 0.0606109
0.7858230 0.6140495 0.0683687
0.0134113 0.6488189 0.0290519
0.0883617 0.6473737 0.0342650
0.2218173 0.6554866 0.0403978
0.3731185 0.6544400 0.0475758
0.5096444 0.6626174 0.0559815
0.6341443 0.6618563 0.0631816
0.7188169 0.6611258 0.0712479
0.7781851 0.6697049 0.0771701
0.0019038 0.0063951 0.1057618
0.1055654 0.0107995 0.1146255
0.3116581 0.0159000 0.1288369
0.5175902 0.0216074 0.1392110
0.6541731 0.0281924 0.1447682
0.7615971 0.0353076 0.1561376
0.8280209 0.0425325 0.1681999
0.8731191 0.0493221 0.1809699
0.0027516 0.1005817 0.1163743
0.0795698 0.1073340 0.1256454
0.2496197 0.1147747 0.1355859
0.4345057 0.1270478 0.1462375
0.5853985 0.1357354 0.1575498
0.7109401 0.1450366 0.1635131
0.7808562 0.1547772 0.1759105
0.8392480 0.1596982 0.1890090
0.0045361 0.2169424 0.1216044
0.0790952 0.2298689 0.1312479
0.2288081 0.2364436 0.1415375
0.4099803 0.2432493 0.1525083
0.5606608 0.2579337 0.1642223
0.6776885 0.2654925 0.1703523
0.7659771 0.2730262 0.1831232
0.8273972 0.2807097 0.1966385
0.0070199 0.3368376 0.1267923
0.0838266 0.3447671 0.1367716
0.2305416 0.3531701 0.1474280
0.3972894 0.3617949 0.1587789
0.5497493 0.3705671 0.1708451
0.6680757 0.3796813 0.1771739
0.7596328 0.3791240 0.1903029
0.8127119 0.3881536 0.2042233
0.0095325 0.4415268 0.1371153
0.0868210 0.4405585 0.1423475
0.2274193 0.4497008 0.1533686
0.3928451 0.4590009 0.1650963
0.5452727 0.4683910 0.1775502
0.6660319 0.4680131 0.1840340
0.7444433 0.4774997 0.1976009
0.8100847 0.4870076 0.2119267
0.0132469 0.5216719 0.1426300
0.0957708 0.5306281 0.1536652
0.2381172 0.5300578 0.1594291
0.3924886 0.5394589 0.1715350
0.5470387 0.5388132 0.1843339
0.6515858 0.5485640 0.1910559
0.7459567 0.5479707 0.2049720
0.8009675 0.5577269 0.2122631
0.0166136 0.5915943 0.1482972
0.1022035 0.5905353 0.1596597
0.2396078 0.5996251 0.1717789
0.3959956 0.5991891 0.1780937
0.5488471 0.6083506 0.1913220
0.6551245 0.6080037 0.1981936
0.7350957 0.6171643 0.2125525
0.8035207 0.6168344 0.2199949
0.0210487 0.6490206 0.1541162
0.1090221 0.6480713 0.1658465
0.2534274 0.6565965 0.1783446
0.3995357 0.6562030 0.1848516
0.5390826 0.6556300 0.1984211
0.6586779 0.6644361 0.2055351
0.7398384 0.6639158 0.2202416
0.7958052 0.6726665 0.2279319
0.0068316 0.0175806 0.2797288
0.1219840 0.0238117 0.2892280
0.3300645 0.0298816 0.2988105
0.5289536 0.0360611 0.3085193
0.6689025 0.0434436 0.3281474
0.7649544 0.0504160 0.3383085
0.8316402 0.0584502 0.3486293
0.8683559 0.0677278 0.3488967
0.0079710 0.1172446 0.2918376
0.1036003 0.1251878 0.3012137
0.2730599 0.1337881 0.3107753
0.4663074 0.1429390 0.3205111
0.6164255 0.1526491 0.3304142
0.7246780 0.1629199 0.3404773
0.7920596 0.1737703 0.3506944
0.8478483 0.1793314 0.3609915
0.0104911 0.2408450 0.3024510
0.0991528 0.2475313 0.3119657
0.2656758 0.2547164 0.3216581
0.4432485 0.2621458 0.3315170
0.5960956 0.2697598 0.3415337
0.6939546 0.2857858 0.3517696
0.7790663 0.2938686 0.3620832
0.8286037 0.3021179 0.3725653
0.0139746 0.3496430 0.3032596
0.1056318 0.3580214 0.3127899
0.2570281 0.3668236 0.3224956
0.4320258 0.3758150 0.3323674
0.5850996 0.3849500 0.3423965
0.6861022 0.3942221 0.3525762
0.7627527 0.3938942 0.3628322
0.8245904 0.4032606 0.3733229
0.0170957 0.4457759 0.3133616
0.1095168 0.4548907 0.3230706
0.2654526 0.4643432 0.3329494
0.4296364 0.4638948 0.3429212
0.5674207 0.4735499 0.3531085
0.6841434 0.4832472 0.3634395
0.7611622 0.4829009 0.3738696
0.8137441 0.4926677 0.3845118
0.0213295 0.5260239 0.3235214
0.1151715 0.5353004 0.3334021
0.2650734 0.5448717 0.3434449
0.4293146 0.5444218 0.3535731
0.5672537 0.5541203 0.3639110
0.6718915 0.5537595 0.3743475
0.7607838 0.5636883 0.3744158
0.8146850 0.5633624 0.3849953
0.0267528 0.5960951 0.3239666
0.1217240 0.6051704 0.3338558
0.2795104 0.6046399 0.3438397
0.4325193 0.6042227 0.3539737
0.5706562 0.6135855 0.3643169
0.6749613 0.6132384 0.3747586
0.7518950 0.6225744 0.3854117
0.8072706 0.6222622 0.3961146
0.0320105 0.6532303 0.3341846
0.1305840 0.6525697 0.3441696
0.2823478 0.6612737 0.3543730
0.4361734 0.6608821 0.3646539
0.5765117 0.6605225 0.3750998
0.6784294 0.6692835 0.3857569
0.7564526 0.6689735 0.3964638
0.8096304 0.6778643 0.3965330
0.0141284 0.0319506 0.4439221
0.1466995 0.0384638 0.4554509
0.3411588 0.0463940 0.4558186
0.5431834 0.0538117 0.4673447
0.6713486 0.0600881 0.4788509
0.7670906 0.0695404 0.4904824
0.8343030 0.0775674 0.4907051
0.8716761 0.0863834 0.5022815
0.0152549 0.1374583 0.4468490
0.1255973 0.1465869 0.4581713
0.3078053 0.1564193 0.4695544
0.4932282 0.1668562 0.4809906
0.6289900 0.1723263 0.4810642
0.7353958 0.1837388 0.4925506
0.8022715 0.1895934 0.5039799
0.8545770 0.2021038 0.5041277
0.0183965 0.2531496 0.4594281
0.1221201 0.2681220 0.4708119
0.2899765 0.2759130 0.4708845
0.4736642 0.2837394 0.4822528
0.6107898 0.2917603 0.4936689
0.7214075 0.3001261 0.4937438
0.7908154 0.3084635 0.5051749
0.8382881 0.3169482 0.5166081
0.0232431 0.3648078 0.4603896
0.1310992 0.3734376 0.4717023
0.2953403 0.3824212 0.4830700
0.4644732 0.3918083 0.4831438
0.6020987 0.4011089 0.4945603
0.7029041 0.4007608 0.5059174
0.7754505 0.4101851 0.5173497
0.8344891 0.4199091 0.5174230
0.0269803 0.4621312 0.4723701
0.1358096 0.4713813 0.4837336
0.2928758 0.4710846 0.4837317
0.4620788 0.4807045 0.4951486
0.5999494 0.4903983 0.5065797
0.7006609 0.4902692 0.5065798
0.7736428 0.5000274 0.5180112
0.8253389 0.4996964 0.5293587
0.0317460 0.5428300 0.4729542
0.1433956 0.5420720 0.4842464
0.2924664 0.5516610 0.4956630
0.4633506 0.5514449 0.4956630
0.5860538 0.5611352 0.5070947
0.7022411 0.5607560 0.5184529
0.7747213 0.5706717 0.5185263
0.8263128 0.5703457 0.5298732
0.0379558 0.6023990 0.4846940
0.1513603 0.6116897 0.4847616
0.3078086 0.6111976 0.4961052
0.4649911 0.6204678 0.5075372
0.5894191 0.6203301 0.5075375
0.6917277 0.6199841 0.5188954
0.7661858 0.6292580 0.5303155
0.8190033 0.6291689 0.5303150
0.0428402 0.6593428 0.4851338
0.1542785 0.6587208 0.4964741
0.3121978 0.6584691 0.4964728
0.4703376 0.6671916 0.5079044
0.5952210 0.6668503 0.5192623
0.6948244 0.6757393 0.5193356
0.7702715 0.6754314 0.5306814
0.8227676 0.6751381 0.5420039
0.0255729 0.0478941 0.5689498
0.1696613 0.0554555 0.5803897
0.3727708 0.0619323 0.5806078
0.5467165 0.0716496 0.5919759
0.6879333 0.0798961 0.5921934
0.7710313 0.0889228 0.6033955
0.8385707 0.0954495 0.6035371
0.8751537 0.1060026 0.6146361
0.0261785 0.1557771 0.5713594
0.1522012 0.1659710 0.5826358
0.3315254 0.1768979 0.5938408
0.5068545 0.1826620 0.5939131
0.6547402 0.1946356 0.6050296
0.7461159 0.2008974 0.6051010
0.8097665 0.2138197 0.6161156
0.8614573 0.2205511 0.6161857
0.0301929 0.2747021 0.5838063
0.1499061 0.2824330 0.5838726
0.3294778 0.2903093 0.5949981
0.4892425 0.2986096 0.5950711
0.6258038 0.3068812 0.6061070
0.7344201 0.3152970 0.6170422
0.8012962 0.3240757 0.6171134
0.8468803 0.3327052 0.6279364
0.0344067 0.3811670 0.5846791
0.1529867 0.3900286 0.5957923
0.3213461 0.3994114 0.5958627
0.4804956 0.4087424 0.6068906
0.6192436 0.4085855 0.6068910
0.7161325 0.4180544 0.6178178
0.7862437 0.4278125 0.6178877
0.8433545 0.4373512 0.6287016
0.0399056 0.4795316 0.5964399
0.1592122 0.4790460 0.5964342
0.3191440 0.4886220 0.6074553
0.4797345 0.4884230 0.6074554
0.6171401 0.4981279 0.6183766
0.7139723 0.5081111 0.6184464
0.7862017 0.5077621 0.6291856
0.8343627 0.5177795 0.6292542
0.0446981 0.5502400 0.5969376
0.1680952 0.5497747 0.5969324
0.3334912 0.5593401 0.6079495
0.4789587 0.5691947 0.6080206
0.6185037 0.5688007 0.6188663
0.7155653 0.5784279 0.6296707
0.7762465 0.5783358 0.6296705
0.8355611 0.5879253 0.6403524
0.0532385 0.6097892 0.5973652
0.1690057 0.6188687 0.6083751
0.3362359 0.6186057 0.6083741
0.4826516 0.6278276 0.6192865
0.6067457 0.6276906 0.6192868
0.7070400 0.6273469 0.6300174
0.7787402 0.6367300 0.6300862
0.8297455 0.6364211 0.6406947
0.0600549 0.6660139 0.6087310
0.1808006 0.6656606 0.6087270
0.3412273 0.6652176 0.6195648
0.4880354 0.6740820 0.6196346
0.6124824 0.6737438 0.6303617
0.7100607 0.6825396 0.6304307
0.7829652 0.6822350 0.6410353
0.8238030 0.6821681 0.6410350
0.0376499 0.0663989 0.6664165
0.1883303 0.0739852 0.6666116
0.3898161 0.0823819 0.6769274
0.5665800 0.0916959 0.6771245
0.6941246 0.0983213 0.6872084
0.7758593 0.1092386 0.6874012
0.8423231 0.1170881 0.6875290
0.8790823 0.1253293 0.6974370
0.0401758 0.1763923 0.6682727
0.1741698 0.1878406 0.6784917
0.3706466 0.1938260 0.6785567
0.5331097 0.2065032 0.6786885
0.6664413 0.2128789 0.6886830
0.7543702 0.2265216 0.6888119
0.8177896 0.2333797 0.6986357
0.8600704 0.2405660 0.6986986
0.0440401 0.2980181 0.6694071
0.1726980 0.3060109 0.6795443
0.3543358 0.3144903 0.6796100
0.5179360 0.3229809 0.6895902
0.6524402 0.3317428 0.6896550
0.7445101 0.3404042 0.6994643
0.8096036 0.3494066 0.6995271
0.8545534 0.3493208 0.6995266
0.0478938 0.3982874 0.6802015
0.1771963 0.4075784 0.6802622
0.3481930 0.4168972 0.6902298
0.5129548 0.4167055 0.6902304
0.6334085 0.4264221 0.6902947
0.7283497 0.4359379 0.7000924
0.7963991 0.4457561 0.7001548
0.8440659 0.4454300 0.7097017
0.0557780 0.4876246 0.6807829
0.1845928 0.4972984 0.6808435
0.3473738 0.4968041 0.6907378
0.5101653 0.5067169 0.6908018
0.6332716 0.5063348 0.7005287
0.7279631 0.5163178 0.7005914
0.7963580 0.5260763 0.7101917
0.8439226 0.5259802 0.7101914
0.0623440 0.5583326 0.6812346
0.1949654 0.5677314 0.6911830
0.3623407 0.5674776 0.6911828
0.5114182 0.5772924 0.6912472
0.6346040 0.5769176 0.7009664
0.7291639 0.5867307 0.7010293
0.7881244 0.5864090 0.7105606
0.8360605 0.5961941 0.7106217
0.0664591 0.6176187 0.6816229
0.1969940 0.6266488 0.6915651
0.3651989 0.6264071 0.6915649
0.5151305 0.6355153 0.7013410
0.6378359 0.6353792 0.7013416
0.7212306 0.6350557 0.7108675
0.7905314 0.6443385 0.7109285
0.8392894 0.6442500 0.7109282
0.0748583 0.6732847 0.6918840
0.2102983 0.6729519 0.6918813
0.3704050 0.6725322 0.7015889
0.5205276 0.6812991 0.7016516
0.6282946 0.6811877 0.7016522
0.7258145 0.6808678 0.7111723
0.7835912 0.6895939 0.7112333
0.8338475 0.6893078 0.7205670
0.0530486 0.0851985 0.7340861
0.2211508 0.0913643 0.7341996
0.4102378 0.1014640 0.7432413
0.5899328 0.1087936 0.7433569
0.7009491 0.1166135 0.7434719
0.7924931 0.1291551 0.7523077
0.8468907 0.1381962 0.7524186
0.8826286 0.1477815 0.7525294
0.0548120 0.1997028 0.7355440
0.1991107 0.2058788 0.7355995
0.3945507 0.2189272 0.7445541
0.5608497 0.2257244 0.7446125
0.6775726 0.2325446 0.7533125
0.7636350 0.2471529 0.7534253
0.8250302 0.2546934 0.7534819
0.8661748 0.2622230 0.7619795
0.0576800 0.3138683 0.7364272
0.1992486 0.3221357 0.7453038
0.3816320 0.3307887 0.7453614
0.5474305 0.3395866 0.7454196
0.6656743 0.3483379 0.7541012
0.7553526 0.3574269 0.7541572
0.8186386 0.3664249 0.7626387
0.8619391 0.3663365 0.7626384
0.0661464 0.4161416 0.7458755
0.2046521 0.4255970 0.7459300
0.3768416 0.4253472 0.7459304
0.5273833 0.4348069 0.7546003
0.6613778 0.4445684 0.7546564
0.7412436 0.4444588 0.7546569
0.8072199 0.4540872 0.7631264
0.8516877 0.4640071 0.7631800
0.0694886 0.4960051 0.7463270
0.2142796 0.5057053 0.7463812
0.3744954 0.5153446 0.7550405
0.5266463 0.5151634 0.7550415
0.6464664 0.5251247 0.7550974
0.7411953 0.5247594 0.7635034
0.8069078 0.5347901 0.7635576
0.8525944 0.5346940 0.7635573
0.0775528 0.5666705 0.7467224
0.2151167 0.5762994 0.7467771
0.3774048 0.5758347 0.7553723
0.5278867 0.5856041 0.7554289
0.6500314 0.5852312 0.7638273
0.7423519 0.5949909 0.7638818
0.7989888 0.5948995 0.7638819
0.8453094 0.6043972 0.7721326
0.0870939 0.6255985 0.7470616
0.2281600 0.6345508 0.7557035
0.3949506 0.6343298 0.7557040
0.5311855 0.6435743 0.7557600
0.6532158 0.6432213 0.7641509
0.7343370 0.6431183 0.7641513
0.8013138 0.6523125 0.7642050
0.8483976 0.6520090 0.7723954
0.0935208 0.6719607 0.7473425
0.2319161 0.6803903 0.7559779
0.4000848 0.6801838 0.7559785
0.5370461 0.6886563 0.7644182
0.6438453 0.6885462 0.7644190
0.7387857 0.6884346 0.7644194
0.7949127 0.6968479 0.7726570
0.8429776 0.6967662 0.7726571
0.0709377 0.1049029 0.7846888
0.2467315 0.1123602 0.7847888
0.4477552 0.1202651 0.7925723
0.5975411 0.1287527 0.7926722
0.7207448 0.1377512 0.7927713
0.7989439 0.1472965 0.7928699
0.8438731 0.1572893 0.8004501
0.8869554 0.1679565 0.8005455
0.0748645 0.2185619 0.7858025
0.2272170 0.2252078 0.7858520
0.4206089 0.2391529 0.7936080
0.5725719 0.2464780 0.7936593
0.6877483 0.2539818 0.7937102
0.7738795 0.2614720 0.8012217
0.8332186 0.2693033 0.8012705
0.8717046 0.2855237 0.8013675
0.0751247 0.3303064 0.7865185
0.2289446 0.3387024 0.7942047
0.4093910 0.3475562 0.7942551
0.5613055 0.3565903 0.7943056
0.6782922 0.3655484 0.8018008
0.7658863 0.3748405 0.8018492
0.8186659 0.3747527 0.8018492
0.8609596 0.3841754 0.8018970
0.0813812 0.4346424 0.7870727
0.2364041 0.4340285 0.7946954
0.4044988 0.4437147 0.7947454
0.5564354 0.4535055 0.7947955
0.6759117 0.4531272 0.8022298
0.7522011 0.4630278 0.8022776
0.8158484 0.4729629 0.8023252
0.8600086 0.4726320 0.8095534
0.0902081 0.5147242 0.7950858
0.2358946 0.5143685 0.7950851
0.4036355 0.5242401 0.7951349
0.5581421 0.5238229 0.8025603
0.6754003 0.5338214 0.8026088
0.7518209 0.5438346 0.8026570
0.8170440 0.5434865 0.8098762
0.8517826 0.5535061 0.8099225
0.0953725 0.5851566 0.7954275
0.2480160 0.5848092 0.7954268
0.4071304 0.5843658 0.8028441
0.5594186 0.5940815 0.8028930
0.6644088 0.5939569 0.8028939
0.7544913 0.6036547 0.8029422
0.8094387 0.6033365 0.8101535
0.8537058 0.6129947 0.8101997
0.1079136 0.6337118 0.7956710
0.2504541 0.6428186 0.7957191
0.4103039 0.6423990 0.8031285
0.5472510 0.6515555 0.8031770
0.6675440 0.6514214 0.8031782
0.7470535 0.6511030 0.8103834
0.8116800 0.6602045 0.8104296
0.8484313 0.6601346 0.8104296
0.1157393 0.6795844 0.7959133
0.2663053 0.6879300 0.8033631
0.4155072 0.6877584 0.8033642
0.5548019 0.6876183 0.8033656
0.6728941 0.6959984 0.8106120
0.7513642 0.6959035 0.8106126
0.8065575 0.6958233 0.8106128
0.8514841 0.7043228 0.8106586
