Plugins/FilmEmulator/Content/LUTs/FE_Kodak_Portra_800_64.cube
TITLE "FE_Kodak_Portra_800_33"
LUT_3D_SIZE 8
0.0029386 0.0030807 0.0031560
0.0727331 0.0036016 0.0035922
0.1956587 0.0061795 0.0058784
0.3222870 0.0099753 0.0096254
0.4287826 0.0147362 0.0137497
0.5324337 0.0199777 0.0193361
0.6006662 0.0261793 0.0244289
0.6654862 0.0330470 0.0308384
0.0033541 0.0899878 0.0043171
0.0757198 0.0999077 0.0067314
0.1898180 0.1071201 0.0105576
0.3151624 0.1148008 0.0148964
0.4331019 0.1229749 0.0200135
0.5259239 0.1316603 0.0260266
0.6062741 0.1408719 0.0314532
0.6606668 0.1505962 0.0379468
0.0057381 0.2144599 0.0075755
0.0779907 0.2207469 0.0112871
0.1950310 0.2273717 0.0159183
0.3227264 0.2412121 0.0213935
0.4304681 0.2483421 0.0267752
0.5233510 0.2556261 0.0335322
0.6039211 0.2630581 0.0403701
0.6690283 0.2706363 0.0468037
0.0094734 0.3280876 0.0127957
0.0839142 0.3363681 0.0168608
0.2009991 0.3449591 0.0226114
0.3212909 0.3537179 0.0283138
0.4404095 0.3536565 0.0353855
0.5334721 0.3625571 0.0410478
0.6024197 0.3715613 0.0493566
0.6676256 0.3806558 0.0552013
0.0136888 0.4283015 0.0184496
0.0904436 0.4279780 0.0237836
0.2074968 0.4374218 0.0297792
0.3303615 0.4469753 0.0358913
0.4392464 0.4469133 0.0431269
0.5322897 0.4565533 0.0499750
0.6126158 0.4565102 0.0579091
0.6666651 0.4662196 0.0647256
0.0197212 0.5062273 0.0259808
0.0937226 0.5158017 0.0301457
0.2143286 0.5156511 0.0376277
0.3397747 0.5254032 0.0436203
0.4498191 0.5253397 0.0504696
0.5429940 0.5351209 0.0585532
0.6117067 0.5350838 0.0677851
0.6762818 0.5350461 0.0755954
0.0253738 0.5748100 0.0328155
0.1011360 0.5745695 0.0379831
0.2214462 0.5841480 0.0456560
0.3391570 0.5840650 0.0528223
0.4490098 0.5936641 0.0612681
0.5422905 0.5936151 0.0683532
0.6110215 0.5935788 0.0762246
0.6755380 0.6031381 0.0851730
0.0325627 0.6320394 0.0412970
0.1049246 0.6318446 0.0460242
0.2288994 0.6317102 0.0532196
0.3489059 0.6408916 0.0617145
0.4599858 0.6408328 0.0688400
0.5416989 0.6407925 0.0767591
0.6214747 0.6499156 0.0857601
0.6750115 0.6498870 0.0956088
0.0060449 0.0046675 0.1014766
0.0916724 0.0081575 0.1107830
0.2165101 0.0123205 0.1205470
0.3416442 0.0171473 0.1307713
0.4507989 0.0232876 0.1416804
0.5432956 0.0294186 0.1478186
0.6223577 0.0370648 0.1596029
0.6754336 0.0431604 0.1717335
0.0076300 0.1036517 0.1215138
0.0924178 0.1109776 0.1303289
0.2189344 0.1188769 0.1399921
0.3354896 0.1272962 0.1452195
0.4447131 0.1362383 0.1559749
0.5376898 0.1457191 0.1674158
0.6175134 0.1556616 0.1735684
0.6712496 0.1608277 0.1858449
0.0102493 0.2277573 0.1297720
0.0989489 0.2343645 0.1389631
0.2170980 0.2412930 0.1489930
0.3434839 0.2484027 0.1597421
0.4537884 0.2556761 0.1654304
0.5469736 0.2631030 0.1772115
0.6153911 0.2706817 0.1896786
0.6795611 0.2784006 0.1962488
0.0149333 0.3366738 0.1415871
0.1023048 0.3451025 0.1515525
0.2236776 0.3538140 0.1623901
0.3419516 0.3626826 0.1681265
0.4522212 0.3626241 0.1798282
0.5453879 0.3716148 0.1861062
0.6138706 0.3807096 0.1990588
0.6781573 0.3898941 0.2058760
0.0206756 0.4378619 0.1537448
0.1101569 0.4375690 0.1587757
0.2307429 0.4470774 0.1700564
0.3513980 0.4469924 0.1818361
0.4625904 0.4566174 0.1881487
0.5441821 0.4663138 0.2012008
0.6239369 0.4662686 0.2078249
0.6771868 0.4760323 0.2148808
0.0265809 0.5160588 0.1606332
0.1141412 0.5157987 0.1716655
0.2381410 0.5255041 0.1775989
0.3610707 0.5254179 0.1897919
0.4616198 0.5351902 0.1963316
0.5549443 0.5351389 0.2095660
0.6230108 0.5449104 0.2166544
0.6764305 0.5448778 0.2236852
0.0340695 0.5845067 0.1733954
0.1182976 0.5842889 0.1790577
0.2376264 0.5841613 0.1912681
0.3602875 0.5937372 0.1978065
0.4725189 0.5936745 0.2110937
0.5542162 0.5936308 0.2179619
0.6223145 0.6031886 0.2252666
0.6859920 0.6031516 0.2399717
0.0401440 0.6320308 0.1803948
0.1226886 0.6318430 0.1862694
0.2453549 0.6409809 0.1990947
0.3704094 0.6409011 0.2055999
0.4717852 0.6500101 0.2195407
0.5534851 0.6499692 0.2266159
0.6327520 0.6499280 0.2338666
0.6853492 0.6589578 0.2492526
0.0144550 0.0099672 0.2521563
0.1107886 0.0147222 0.2623810
0.2392543 0.0199662 0.2726022
0.3615377 0.0261741 0.2829844
0.4730214 0.0330476 0.2933547
0.5540757 0.0400020 0.3036493
0.6328214 0.0465631 0.3138216
0.6851313 0.0540252 0.3241951
0.0171412 0.1150143 0.2794852
0.1123161 0.1230904 0.2879135
0.2346027 0.1317465 0.2969266
0.3561567 0.1409467 0.3062074
0.4676824 0.1506623 0.3156970
0.5608584 0.1556824 0.3250498
0.6285192 0.1661681 0.3256106
0.6813519 0.1772285 0.3354996
0.0200333 0.2416082 0.2949312
0.1202184 0.2485576 0.3034070
0.2409084 0.2557856 0.3123891
0.3644914 0.2631884 0.3125119
0.4653260 0.2707539 0.3217933
0.5585124 0.2784649 0.3312403
0.6264142 0.2862705 0.3408617
0.6896432 0.2942106 0.3506241
0.0236087 0.3453494 0.2988360
0.1242532 0.3539262 0.3074202
0.2480758 0.3627561 0.3164681
0.3630291 0.3717228 0.3257672
0.4753726 0.3807938 0.3352429
0.5570570 0.3807518 0.3445776
0.6250271 0.3899369 0.3543914
0.6883696 0.3992069 0.3643370
0.0278343 0.4474708 0.3110668
0.1285722 0.4472004 0.3195790
0.2556764 0.4567616 0.3288236
0.3727355 0.4566827 0.3379892
0.4742787 0.4663654 0.3476624
0.5674040 0.4761102 0.3574876
0.6349809 0.4760711 0.3671331
0.6874065 0.4858592 0.3673931
0.0356351 0.5258657 0.3226006
0.1331300 0.5256287 0.3313611
0.2550382 0.5255049 0.3404726
0.3718289 0.5352560 0.3501357
0.4850867 0.5351908 0.3596243
0.5665514 0.5449548 0.3598493
0.6341722 0.5449160 0.3695235
0.6866627 0.5546650 0.3796740
0.0419613 0.5844848 0.3337521
0.1379392 0.5842755 0.3427169
0.2630589 0.5938150 0.3523213
0.3819681 0.5937371 0.3521312
0.4842202 0.6032751 0.3620025
0.5658258 0.6032317 0.3716863
0.6334840 0.6031941 0.3814982
0.6960537 0.6126786 0.3917685
0.0512797 0.6412600 0.3450986
0.1483835 0.6410815 0.3446834
0.2714297 0.6409743 0.3539925
0.3812778 0.6500688 0.3638566
0.4836085 0.6500155 0.3735298
0.5767264 0.6499686 0.3833289
0.6436806 0.6589918 0.3936181
0.6955208 0.6589620 0.3935348
0.0267878 0.0171476 0.3926688
0.1336502 0.0232803 0.4051679
0.2551790 0.0294130 0.4071418
0.3822214 0.0356750 0.4191560
0.4838998 0.0431641 0.4313317
0.5649922 0.0501940 0.4327326
0.6431097 0.0581427 0.4446268
0.6947364 0.0648721 0.4562526
0.0308930 0.1274794 0.4125419
0.1359739 0.1363422 0.4230359
0.2595788 0.1457978 0.4339249
0.3773326 0.1557310 0.4449802
0.4791960 0.1608878 0.4451944
0.5721390 0.1716544 0.4563811
0.6393382 0.1772464 0.4566485
0.6913519 0.1888920 0.4679427
0.0346765 0.2487257 0.4305529
0.1400464 0.2558672 0.4408268
0.2665283 0.2632438 0.4408847
0.3861189 0.2707949 0.4516036
0.4886361 0.2785017 0.4624269
0.5700550 0.2863027 0.4626707
0.6373771 0.2942436 0.4735890
0.6896415 0.3023222 0.4845580
0.0374487 0.3630813 0.4461179
0.1446495 0.3628584 0.4455421
0.2653050 0.3717927 0.4561983
0.3846209 0.3808510 0.4669868
0.4870365 0.3900183 0.4671953
0.5686076 0.3899758 0.4777427
0.6360064 0.3992463 0.4887031
0.6983516 0.4085954 0.4889661
0.0422413 0.4474073 0.4493404
0.1495950 0.4568730 0.4597628
0.2732543 0.4664994 0.4704809
0.3945547 0.4664196 0.4702711
0.4976254 0.4761578 0.4811614
0.5790069 0.4761118 0.4810378
0.6458308 0.4858940 0.4920066
0.6975185 0.4858613 0.5026383
0.0456693 0.5258313 0.4628439
0.1548138 0.5354403 0.4626823
0.2816409 0.5353245 0.4730431
0.3936266 0.5450616 0.4839067
0.4967610 0.5450024 0.4837478
0.5780475 0.5547384 0.4947035
0.6450412 0.5546993 0.5053194
0.6967797 0.5546664 0.5052313
0.0535319 0.5941091 0.4653573
0.1603163 0.5939162 0.4755413
0.2810565 0.5938106 0.4859565
0.4039944 0.6033273 0.4861181
0.4960258 0.6032774 0.4966894
0.5773163 0.6127548 0.4969386
0.6443520 0.6127176 0.5075558
0.6961497 0.6126867 0.5182123
0.0602663 0.6412416 0.4778295
0.1659734 0.6502301 0.4777543
0.2896884 0.6501309 0.4881742
0.4034083 0.6500652 0.4986961
0.5069758 0.6590688 0.4989100
0.5881462 0.6590284 0.5095103
0.6544622 0.6589934 0.5201476
0.7053736 0.6679344 0.5204335
0.0422051 0.0261843 0.5128128
0.1548112 0.0330485 0.5146176
0.2810416 0.0400036 0.5270538
0.4034722 0.0465676 0.5284046
0.4949028 0.0540336 0.5405546
0.5872785 0.0625575 0.5419350
0.6533682 0.0697663 0.5536849
0.7041482 0.0777533 0.5547347
0.0448439 0.1411206 0.5305014
0.1579039 0.1507674 0.5414608
0.2863599 0.1557602 0.5415407
0.3991092 0.1662362 0.5528157
0.5022801 0.1772887 0.5534047
0.5834479 0.1830247 0.5643275
0.6498833 0.1949644 0.5649661
0.7011569 0.2011506 0.5758655
0.0501890 0.2634797 0.5379299
0.1626282 0.2709315 0.5485180
0.2844642 0.2786019 0.5593045
0.4080888 0.2863786 0.5594615
0.5001739 0.2943110 0.5703309
0.5813817 0.3023801 0.5705728
0.6480579 0.3105839 0.5708322
0.6994725 0.3189200 0.5816907
0.0540993 0.3720708 0.5534023
0.1678862 0.3810135 0.5532726
0.2925633 0.3809125 0.5636715
0.4066698 0.3900672 0.5638447
0.5103937 0.3993203 0.5746729
0.5914621 0.3992767 0.5745513
0.6468181 0.4086331 0.5853854
0.6983185 0.4180617 0.5856596
0.0584013 0.4570487 0.5566609
0.1735636 0.4665939 0.5672077
0.2915605 0.4762891 0.5673150
0.4056164 0.4762166 0.5777285
0.5092845 0.4859789 0.5779355
0.5903931 0.4859333 0.5883532
0.6564455 0.4957322 0.5886106
0.7073128 0.4956995 0.5989892
0.0630553 0.5356107 0.5702045
0.1795295 0.5354194 0.5697452
0.3002987 0.5451276 0.5804411
0.4160181 0.5450546 0.5802512
0.5084291 0.5547836 0.5909967
0.5895518 0.5547379 0.5908764
0.6556663 0.5644441 0.6015776
0.7065875 0.5644112 0.6014928
0.0681488 0.5940740 0.5723654
0.1856618 0.6034889 0.5828645
0.3093945 0.6033909 0.5826086
0.4153076 0.6033276 0.5929442
0.5193805 0.6127923 0.5931519
0.5888351 0.6127551 0.6034782
0.6549853 0.6221589 0.6037354
0.7059682 0.6221281 0.6139911
0.0736457 0.6503725 0.5850921
0.1921026 0.6502110 0.5846701
0.3088782 0.6501250 0.5949251
0.4259229 0.6591156 0.5950989
0.5187680 0.6590692 0.6053758
0.5995728 0.6590280 0.6052568
0.6544172 0.6679686 0.6055315
0.7054447 0.6679398 0.6157715
0.0581918 0.0356941 0.6010538
0.1725605 0.0431730 0.6024736
0.2991172 0.0502020 0.6140892
0.4139803 0.0581533 0.6153619
0.5177358 0.0648848 0.6265668
0.5980868 0.0750095 0.6278906
0.6635137 0.0806074 0.6285107
0.7134918 0.0897348 0.6396324
0.0618737 0.1558980 0.6160929
0.1763151 0.1609918 0.6262752
0.3049788 0.1717359 0.6267224
0.4213525 0.1773143 0.6370487
0.5138034 0.1889544 0.6376188
0.5946503 0.1949855 0.6378542
0.6603192 0.2074995 0.6484779
0.7107641 0.2139092 0.6487392
0.0664955 0.2710607 0.6326603
0.1815560 0.2786738 0.6325883
0.3032120 0.2864341 0.6326897
0.4193019 0.2943512 0.6429420
0.5235101 0.3024106 0.6431370
0.5927330 0.3106158 0.6533437
0.6586345 0.3189466 0.6535847
0.7092158 0.3274059 0.6538421
0.0716467 0.3811643 0.6371211
0.1873018 0.3902239 0.6370624
0.3117454 0.3901287 0.6468599
0.4292335 0.3993685 0.6470214
0.5220421 0.4087074 0.6571457
0.6027335 0.4086633 0.6570332
0.6574033 0.4180923 0.6572887
0.7080911 0.4275884 0.6673231
0.0773044 0.4667467 0.6401810
0.1934968 0.4763761 0.6501414
0.3207248 0.4762746 0.6499010
0.4281620 0.4860305 0.6599573
0.5210569 0.4859779 0.6598293
0.6016641 0.4957705 0.6600529
0.6670149 0.4957312 0.6697028
0.7169088 0.5055460 0.6699552
0.0801654 0.5453820 0.6528817
0.1999965 0.5452136 0.6525018
0.3198755 0.5548995 0.6526172
0.4387531 0.5548275 0.6622871
0.5318746 0.5547753 0.6621593
0.6008387 0.5644819 0.6721101
0.6662387 0.5644425 0.6720159
0.7161968 0.5741824 0.6722698
0.0865520 0.6036293 0.6548905
0.2067402 0.6034737 0.6545272
0.3293082 0.6129038 0.6644624
0.4380219 0.6128405 0.6643038
0.5311397 0.6127911 0.6738632
0.6113578 0.6221887 0.6740848
0.6655672 0.6221575 0.6740066
0.7155890 0.6314823 0.6837994
0.0934429 0.6503375 0.6565595
0.2136815 0.6592524 0.6663445
0.3287655 0.6591735 0.6661404
0.4374211 0.6591148 0.6756432
0.5303943 0.6680370 0.6758493
0.6107622 0.6679965 0.6757397
0.6650158 0.6679679 0.6851801
0.7150754 0.6768041 0.6854300
0.0767860 0.0465956 0.6739543
0.1990020 0.0540494 0.6749372
0.3179818 0.0625731 0.6760746
0.4361506 0.0697825 0.6864159
0.5288436 0.0777715 0.6872907
0.6089114 0.0866035 0.6881795
0.6735161 0.0929913 0.6980633
0.7131162 0.1033858 0.6989807
0.0818087 0.1663932 0.6860019
0.2034486 0.1773944 0.6862964
0.3246171 0.1831073 0.6957614
0.4324299 0.1950380 0.6962555
0.5253019 0.2012156 0.6964566
0.6057628 0.2075214 0.7058520
0.6705933 0.2205065 0.7063883
0.7201840 0.2272117 0.7066270
0.0844463 0.2866291 0.6918156
0.2021191 0.2944772 0.7010534
0.3329150 0.3025044 0.7011448
0.4419468 0.3106888 0.7013090
0.5350067 0.3190107 0.7105995
0.6038568 0.3274662 0.7108192
0.6690449 0.3274322 0.7107313
0.7187757 0.3360122 0.7199146
0.0909137 0.3903545 0.7047954
0.2084439 0.3995190 0.7047856
0.3317268 0.3994291 0.7045796
0.4406251 0.4087555 0.7137823
0.5336552 0.4181667 0.7139708
0.6138865 0.4181220 0.7138687
0.6678402 0.4276185 0.7229921
0.7176650 0.4371746 0.7232203
0.0941916 0.4765137 0.7075719
0.2151829 0.4861819 0.7075633
0.3410204 0.4860878 0.7163514
0.4510492 0.4958605 0.7165115
0.5443203 0.4958077 0.7163955
0.6128355 0.5056171 0.7254572
0.6772991 0.5055770 0.7253719
0.7168539 0.5154007 0.7256142
0.1015781 0.5453436 0.7097102
0.2222988 0.5549782 0.7186664
0.3402527 0.5548910 0.7184804
0.4501960 0.5645698 0.7186397
0.5434694 0.5645187 0.7273320
0.6120080 0.5742524 0.7275469
0.6765338 0.5742131 0.7274622
0.7257106 0.5741802 0.7273915
0.1053665 0.6035988 0.7115553
0.2296623 0.6129782 0.7204798
0.3499849 0.6128950 0.7202944
0.4610266 0.6222724 0.7204553
0.5427264 0.6222299 0.7291276
0.6225424 0.6221865 0.7290288
0.6758727 0.6315105 0.7292571
0.7251155 0.6314797 0.7377978
0.1136177 0.6593629 0.7222670
0.2292316 0.6592439 0.7219993
0.3494248 0.6591654 0.7218145
0.4604192 0.6680754 0.7307172
0.5537246 0.6680293 0.7306049
0.6219531 0.6679944 0.7305205
0.6753299 0.6768310 0.7393289
0.7246121 0.6768019 0.7392603
0.0970858 0.0581890 0.7220236
0.2208038 0.0649076 0.7313845
0.3482026 0.0723651 0.7321017
0.4587431 0.0806279 0.7328731
0.5400567 0.0897581 0.7422048
0.6196369 0.0998232 0.7429985
0.6731056 0.1070698 0.7435207
0.7223831 0.1147642 0.7523459
0.0995410 0.1774679 0.7403648
0.2259422 0.1890587 0.7406549
0.3449098 0.1950691 0.7407714
0.4552454 0.2075731 0.7495840
0.5484194 0.2139741 0.7497600
0.6167588 0.2205294 0.7499629
0.6808130 0.2272312 0.7501657
0.7200280 0.2411114 0.7588396
0.1068752 0.2945759 0.7452511
0.2245847 0.3025729 0.7452693
0.3535939 0.3107356 0.7536423
0.4534090 0.3190523 0.7538016
0.5465740 0.3274972 0.7539738
0.6260820 0.3360666 0.7541592
0.6791894 0.3447632 0.7624517
0.7281309 0.3447337 0.7623873
0.1105608 0.3996354 0.7486370
0.2314989 0.4088933 0.7568600
0.3523688 0.4088095 0.7566907
0.4636506 0.4182080 0.7568351
0.5452267 0.4276921 0.7570187
0.6249285 0.4276479 0.7649504
0.6781036 0.4372044 0.7651557
0.7270428 0.4468135 0.7653608
0.1145039 0.4863038 0.7511533
0.2389093 0.4861654 0.7590477
0.3619346 0.4959169 0.7591541
0.4626721 0.4958575 0.7590369
0.5558645 0.5056538 0.7671795
0.6238790 0.5154645 0.7673715
0.6772323 0.5154310 0.7673081
0.7262478 0.5252420 0.7675129
0.1233341 0.5550921 0.7611973
0.2465748 0.5549613 0.7609543
0.3611441 0.5646257 0.7610730
0.4734456 0.5645610 0.7688763
0.5550066 0.5742881 0.7690567
0.6231772 0.5742491 0.7689805
0.6866586 0.5839310 0.7691737
0.7256564 0.5839054 0.7768675
0.1278314 0.6130877 0.7628306
0.2460319 0.6129687 0.7626014
0.3711622 0.6223263 0.7706014
0.4727023 0.6222704 0.7704878
0.5542661 0.6315815 0.7706674
0.6334798 0.6315384 0.7705790
0.6861256 0.6315080 0.7782276
0.7343404 0.6407394 0.7784277
0.1325257 0.6593408 0.7641854
0.2539426 0.6681956 0.7642308
0.3705866 0.6681251 0.7719386
0.4720831 0.6680728 0.7718256
0.5652170 0.6768910 0.7719927
0.6329057 0.6768574 0.7795956
0.6855824 0.6768285 0.7795345
0.7339461 0.6767990 0.7794733
