Plugins/FilmEmulator/Content/LUTs/FE_Kodak_Vision2_500T_5218_64.cube
# FilmEmulator LUT (resampled to 64)
LUT_3D_SIZE 8
0.002380 0.001587 0.001587
0.087420 0.009574 0.000793
0.170676 0.013537 0.003256
0.249542 0.017923 0.007647
0.328482 0.020508 0.009460
0.406995 0.022095 0.009460
0.484336 0.025578 0.009460
0.553467 0.027618 0.009460
0.000000 0.079664 0.058363
0.061539 0.093041 0.029329
0.177208 0.107456 0.009849
0.290359 0.115286 0.008667
0.383956 0.111297 0.008667
0.471794 0.098785 0.008667
0.555021 0.087237 0.007904
0.629259 0.079886 0.007904
0.000000 0.142923 0.102203
0.022777 0.161395 0.075044
0.127338 0.191674 0.030037
0.300690 0.223487 0.009833
0.433772 0.233550 0.009492
0.535731 0.225116 0.009573
0.626799 0.204791 0.010367
0.707057 0.177403 0.010476
0.000000 0.197344 0.134770
0.006316 0.212491 0.114280
0.055323 0.245001 0.071727
0.231581 0.297573 0.023430
0.446172 0.337569 0.013964
0.584004 0.343310 0.016582
0.689720 0.329915 0.017917
0.783552 0.306013 0.018468
0.000000 0.251779 0.163195
0.001787 0.264521 0.147996
0.019957 0.293965 0.121360
0.127912 0.348143 0.063547
0.391556 0.419252 0.024046
0.610766 0.452199 0.021301
0.742062 0.449308 0.019941
0.846418 0.435778 0.016912
0.000000 0.315312 0.196320
0.000453 0.327903 0.183277
0.007096 0.356517 0.172427
0.053265 0.406514 0.130599
0.278876 0.494669 0.058083
0.594028 0.569579 0.026793
0.790440 0.584398 0.017365
0.908329 0.573046 0.009573
0.000000 0.407994 0.255232
0.000000 0.425276 0.249364
0.003483 0.461712 0.256833
0.041572 0.524189 0.238813
0.259590 0.632500 0.175862
0.596975 0.724002 0.110779
0.829284 0.751336 0.074007
0.963039 0.734244 0.039830
0.000000 0.544312 0.357269
0.000000 0.578805 0.373688
0.008432 0.631610 0.394087
0.133610 0.732910 0.399340
0.431427 0.835275 0.387887
0.672010 0.885520 0.347164
0.848947 0.913234 0.308476
0.976257 0.919861 0.267517
0.002720 0.009234 0.060503
0.093380 0.011929 0.061781
0.186110 0.014304 0.069658
0.271179 0.018694 0.075049
0.352122 0.021524 0.074810
0.432343 0.024332 0.071942
0.510919 0.027611 0.068567
0.579655 0.030422 0.065839
0.000000 0.084623 0.124882
0.072356 0.096175 0.104361
0.209117 0.115875 0.092272
0.327086 0.124945 0.087022
0.421702 0.118702 0.077605
0.505701 0.104197 0.069623
0.582137 0.091623 0.064767
0.652079 0.085020 0.061583
0.000000 0.158669 0.164766
0.031474 0.176346 0.147748
0.172789 0.215833 0.121216
0.357586 0.250262 0.101360
0.483992 0.254160 0.083808
0.576951 0.235388 0.068288
0.654561 0.204706 0.061559
0.722557 0.172872 0.059378
0.000000 0.223582 0.200632
0.007684 0.238827 0.191122
0.081142 0.277228 0.164020
0.299048 0.337307 0.124469
0.508789 0.370681 0.098589
0.632871 0.363455 0.076135
0.724368 0.337021 0.063622
0.799574 0.299157 0.059480
0.000000 0.285417 0.238611
0.001787 0.299507 0.233098
0.024441 0.329735 0.216504
0.166598 0.391547 0.170432
0.451924 0.463105 0.122492
0.661489 0.485552 0.084717
0.781900 0.473459 0.059448
0.871134 0.448737 0.048927
0.000000 0.354514 0.280405
0.000453 0.370154 0.277025
0.007898 0.397390 0.271795
0.065581 0.451609 0.240623
0.326337 0.548244 0.181687
0.644903 0.614843 0.126071
0.830828 0.622452 0.085092
0.932590 0.601972 0.048675
0.000000 0.455429 0.348767
0.000000 0.479665 0.353933
0.004240 0.508679 0.353789
0.054403 0.569731 0.336530
0.296914 0.678161 0.301699
0.625703 0.758300 0.250772
0.848855 0.782817 0.205146
0.972128 0.767237 0.142356
0.000000 0.599174 0.459189
0.000000 0.632523 0.472666
0.017076 0.668347 0.463794
0.157786 0.764402 0.470597
0.430031 0.845850 0.463927
0.661866 0.891776 0.439142
0.844384 0.920489 0.417642
0.975734 0.930367 0.399950
0.001587 0.016654 0.115662
0.091025 0.014240 0.122987
0.195235 0.012731 0.134879
0.288681 0.017591 0.150989
0.372980 0.021528 0.156276
0.452622 0.025821 0.157151
0.531222 0.030017 0.156897
0.602409 0.032462 0.155552
0.000000 0.088580 0.186439
0.063783 0.096855 0.183166
0.212342 0.116077 0.183980
0.345597 0.129101 0.192443
0.448432 0.127037 0.185637
0.531746 0.113257 0.169968
0.606148 0.099221 0.160048
0.675254 0.091748 0.155301
0.000000 0.169545 0.234677
0.027944 0.184606 0.229259
0.180661 0.226664 0.226230
0.377916 0.267251 0.231020
0.512451 0.273720 0.218065
0.606521 0.250094 0.184424
0.678904 0.211418 0.160281
0.741957 0.174405 0.152237
0.000000 0.239843 0.262328
0.007283 0.255177 0.258838
0.092918 0.297148 0.257327
0.327847 0.362392 0.256833
0.537294 0.396151 0.245967
0.663068 0.384363 0.204878
0.749011 0.347059 0.161365
0.815000 0.295363 0.143860
0.000000 0.305824 0.296301
0.001553 0.322199 0.297638
0.028018 0.356064 0.298989
0.185999 0.422735 0.287672
0.479823 0.494235 0.269014
0.690479 0.515602 0.226479
0.807626 0.497589 0.164533
0.888465 0.459854 0.118181
0.000000 0.378253 0.342848
0.000453 0.399944 0.348744
0.007905 0.431609 0.355145
0.071881 0.487368 0.341390
0.350469 0.585288 0.318226
0.670976 0.647700 0.282286
0.851152 0.654432 0.228006
0.947620 0.629414 0.150004
0.000000 0.480740 0.414971
0.000000 0.512638 0.430097
0.004781 0.544718 0.434668
0.057849 0.602449 0.423048
0.309287 0.707310 0.413053
0.640519 0.780841 0.388919
0.858815 0.804389 0.357497
0.977859 0.795135 0.300356
0.000000 0.619084 0.522491
0.000453 0.653605 0.538514
0.022664 0.691526 0.530089
0.160509 0.782407 0.540225
0.423081 0.854470 0.537014
0.658555 0.898264 0.519938
0.844595 0.926455 0.507956
0.977853 0.937387 0.504250
0.000793 0.021860 0.167507
0.081591 0.016685 0.181206
0.194619 0.011841 0.190486
0.292955 0.013973 0.215788
0.388185 0.020329 0.235331
0.473166 0.026679 0.242122
0.549614 0.031669 0.244640
0.620034 0.034698 0.246303
0.000000 0.089980 0.235588
0.053086 0.096514 0.246502
0.198675 0.109812 0.256087
0.341854 0.120286 0.275276
0.460148 0.125425 0.288412
0.552733 0.119447 0.280642
0.626710 0.106965 0.264758
0.694437 0.098654 0.256067
0.000000 0.171909 0.288520
0.021913 0.186395 0.295821
0.165292 0.224774 0.308551
0.372320 0.267134 0.326907
0.521697 0.281531 0.337715
0.627471 0.263991 0.318380
0.699861 0.221562 0.283095
0.759848 0.180086 0.260112
0.000000 0.246295 0.321644
0.004798 0.261103 0.323521
0.089978 0.302260 0.337195
0.335572 0.372598 0.358998
0.545911 0.411689 0.373118
0.680471 0.404676 0.351731
0.768166 0.362539 0.302061
0.829244 0.299616 0.257517
0.000000 0.315517 0.350092
0.001229 0.333038 0.352712
0.029650 0.368779 0.366427
0.201481 0.441991 0.384281
0.493303 0.515399 0.396859
0.703803 0.540915 0.381952
0.823429 0.523098 0.331556
0.899713 0.475689 0.258711
0.000000 0.391620 0.391947
0.000453 0.417230 0.402645
0.007339 0.452818 0.419751
0.078026 0.514559 0.427560
0.366154 0.612271 0.433696
0.682795 0.670425 0.425749
0.859634 0.679092 0.396915
0.953065 0.653626 0.332231
0.000000 0.496275 0.465388
0.000000 0.531243 0.486248
0.004888 0.567430 0.499235
0.062128 0.629706 0.500768
0.320453 0.731211 0.507329
0.649643 0.796404 0.499269
0.863377 0.818250 0.484607
0.978629 0.813909 0.456521
0.000000 0.630158 0.572501
0.000453 0.662952 0.589778
0.023525 0.703180 0.589007
0.162448 0.796070 0.607085
0.423512 0.864982 0.609247
0.661432 0.906132 0.598541
0.846669 0.932278 0.591944
0.978751 0.943621 0.595220
0.000566 0.028063 0.212481
0.066579 0.021172 0.235561
0.184976 0.015292 0.243237
0.287229 0.013250 0.263901
0.387547 0.018758 0.293365
0.486141 0.028045 0.314819
0.569781 0.034472 0.323026
0.640268 0.037306 0.325466
0.000000 0.088504 0.278805
0.044614 0.094726 0.299000
0.183377 0.104015 0.314835
0.326877 0.106948 0.332886
0.450594 0.110309 0.356823
0.560809 0.114495 0.370935
0.647417 0.111578 0.364945
0.715205 0.104118 0.348906
0.000000 0.169407 0.333000
0.021138 0.185348 0.348881
0.155795 0.219247 0.372460
0.355252 0.253031 0.394010
0.510856 0.267237 0.416207
0.634715 0.261112 0.422527
0.718607 0.226953 0.401190
0.778800 0.186984 0.365976
0.000000 0.245444 0.369908
0.004077 0.261518 0.380461
0.082789 0.300052 0.408049
0.326013 0.368323 0.438954
0.542670 0.409392 0.461366
0.688137 0.412967 0.464994
0.783753 0.377442 0.436823
0.843837 0.310019 0.384679
0.000000 0.319866 0.406704
0.000453 0.338224 0.413519
0.026288 0.371814 0.435293
0.208289 0.448795 0.468734
0.505005 0.527333 0.496082
0.710210 0.558476 0.503542
0.833748 0.546528 0.480511
0.910703 0.497276 0.424293
0.000000 0.399134 0.445337
0.000000 0.427348 0.456804
0.005672 0.462506 0.478635
0.087352 0.529958 0.504210
0.391109 0.632642 0.533443
0.692434 0.688067 0.543971
0.863179 0.699383 0.534625
0.957058 0.676420 0.496245
0.000000 0.508414 0.513661
0.000000 0.544695 0.536665
0.005242 0.581987 0.556665
0.073531 0.651091 0.574272
0.349070 0.754315 0.597646
0.661224 0.810416 0.599732
0.865749 0.830211 0.594423
0.979047 0.828465 0.580491
0.000000 0.644776 0.620453
0.000453 0.674145 0.636834
0.025028 0.715513 0.644096
0.173782 0.811186 0.672826
0.443155 0.880359 0.685324
0.669775 0.917927 0.681925
0.850152 0.940702 0.679185
0.980530 0.950779 0.683402
0.000000 0.033029 0.254652
0.051479 0.025465 0.283801
0.170706 0.021852 0.296299
0.279333 0.016652 0.309855
0.380243 0.018354 0.336462
0.483842 0.027388 0.366651
0.581664 0.036965 0.389456
0.661604 0.041557 0.399767
0.000000 0.084486 0.318658
0.036055 0.088762 0.342009
0.165318 0.095858 0.363830
0.310787 0.094180 0.381106
0.434592 0.091325 0.403997
0.550442 0.095965 0.429359
0.653894 0.103312 0.444065
0.734407 0.105827 0.442068
0.000000 0.163693 0.376088
0.019002 0.178787 0.396040
0.142252 0.206900 0.424063
0.333665 0.231909 0.449113
0.490248 0.238181 0.471746
0.621544 0.231235 0.489982
0.722370 0.209912 0.490981
0.796666 0.192515 0.475236
0.000000 0.240436 0.412707
0.004644 0.257236 0.429635
0.077542 0.292202 0.463371
0.306186 0.352979 0.504123
0.526998 0.388846 0.528876
0.681508 0.396806 0.544266
0.790242 0.373543 0.539745
0.857459 0.320695 0.511567
0.000000 0.318336 0.455495
0.000324 0.338992 0.470262
0.019561 0.369845 0.499357
0.190175 0.443611 0.547329
0.499731 0.524366 0.579236
0.709578 0.559331 0.594348
0.839679 0.557820 0.593040
0.920041 0.517299 0.565766
0.000000 0.402669 0.501291
0.000000 0.433664 0.516655
0.003338 0.467494 0.541841
0.090335 0.535809 0.580015
0.412149 0.641452 0.622309
0.703081 0.697578 0.642606
0.865596 0.713823 0.646589
0.961028 0.698916 0.629898
0.000000 0.515023 0.566506
0.000000 0.551307 0.588182
0.007586 0.590484 0.613454
0.099946 0.668797 0.646897
0.396703 0.770141 0.681646
0.683212 0.820506 0.694381
0.869814 0.841686 0.699008
0.979266 0.844157 0.696359
0.000000 0.658897 0.669739
0.001618 0.684725 0.684520
0.040610 0.736580 0.704036
0.223770 0.835447 0.741671
0.493681 0.897363 0.760579
0.692318 0.931151 0.766641
0.858843 0.951469 0.769300
0.982805 0.959760 0.774336
0.000000 0.035492 0.295502
0.043247 0.027758 0.325316
0.161004 0.026258 0.345668
0.275659 0.021075 0.357144
0.377963 0.019390 0.377338
0.480655 0.025691 0.406516
0.577980 0.035832 0.435282
0.667899 0.042947 0.458727
0.000000 0.078925 0.353922
0.029110 0.079902 0.375924
0.149341 0.084742 0.402597
0.298600 0.082196 0.422791
0.424892 0.075423 0.444096
0.539861 0.074671 0.469657
0.643254 0.079333 0.492165
0.734807 0.092673 0.507330
0.000000 0.154158 0.414371
0.015542 0.164648 0.433483
0.123985 0.183998 0.461603
0.311807 0.200979 0.490044
0.472756 0.197203 0.512765
0.603446 0.180037 0.532270
0.708504 0.163755 0.544473
0.798559 0.176336 0.550052
0.000000 0.236398 0.457433
0.004265 0.250654 0.476281
0.070879 0.278135 0.508130
0.286230 0.328261 0.552791
0.510866 0.356881 0.583189
0.668033 0.357465 0.600732
0.780537 0.335562 0.606587
0.860602 0.304884 0.598830
0.000000 0.316242 0.501915
0.000324 0.335533 0.520532
0.016144 0.361818 0.550931
0.170795 0.427813 0.605241
0.484110 0.508168 0.648424
0.702969 0.542667 0.665412
0.837370 0.545620 0.674860
0.924950 0.512011 0.666218
0.000000 0.408512 0.555406
0.000000 0.437276 0.572575
0.002236 0.468572 0.599997
0.083439 0.532128 0.648184
0.409898 0.637552 0.706304
0.707713 0.695171 0.727267
0.867662 0.715950 0.739033
0.966216 0.708379 0.737809
0.000000 0.523911 0.623055
0.000194 0.556051 0.643140
0.012095 0.597215 0.673878
0.128703 0.679783 0.720387
0.441043 0.775718 0.765228
0.713563 0.824097 0.784323
0.882259 0.850807 0.799193
0.983420 0.858763 0.807149
0.000000 0.669617 0.725760
0.004690 0.691860 0.738043
0.072967 0.760894 0.772203
0.303248 0.857112 0.813499
0.569088 0.909398 0.834335
0.745787 0.940788 0.849645
0.886949 0.961245 0.862436
0.988743 0.969909 0.872262
0.000000 0.036285 0.334381
0.038548 0.027945 0.361803
0.154785 0.027618 0.388751
0.275172 0.024104 0.402718
0.380942 0.021528 0.418570
0.481545 0.025011 0.443233
0.572401 0.031895 0.469670
0.649719 0.035492 0.489532
0.000000 0.072645 0.384757
0.024181 0.070760 0.404578
0.136747 0.074375 0.435352
0.290442 0.073343 0.461532
0.421442 0.066771 0.482602
0.534276 0.059976 0.504404
0.632252 0.055311 0.526004
0.712925 0.061863 0.541888
0.000000 0.136688 0.443948
0.013266 0.141025 0.459359
0.112085 0.151897 0.486663
0.295783 0.159602 0.518401
0.459338 0.145918 0.542670
0.588460 0.121400 0.562881
0.694440 0.110860 0.580710
0.779105 0.134134 0.591766
0.000000 0.229492 0.502206
0.004515 0.237922 0.517028
0.070052 0.255596 0.543865
0.276958 0.289770 0.587033
0.499499 0.303545 0.621384
0.656695 0.291593 0.641673
0.768508 0.274047 0.652998
0.846981 0.261012 0.651821
0.000000 0.315521 0.549718
0.000324 0.330469 0.567762
0.019886 0.352118 0.597830
0.180504 0.410212 0.654173
0.486883 0.479847 0.703787
0.703715 0.509824 0.726039
0.834857 0.514352 0.740613
0.918483 0.479466 0.735980
0.000000 0.415213 0.608551
0.000000 0.436607 0.623666
0.003042 0.463495 0.652362
0.091160 0.526203 0.710264
0.419750 0.628034 0.779765
0.716602 0.684254 0.804413
0.870724 0.708390 0.822708
0.966605 0.706395 0.829546
0.000000 0.538496 0.682408
0.000453 0.563524 0.700672
0.016952 0.602187 0.734341
0.152295 0.686035 0.793395
0.468727 0.775419 0.853812
0.737645 0.825524 0.878925
0.895514 0.857233 0.895767
0.986499 0.871321 0.911512
0.000000 0.670380 0.772766
0.006300 0.694153 0.791740
0.099866 0.775251 0.842085
0.369333 0.871190 0.890346
0.635468 0.917873 0.914028
0.802490 0.948142 0.935146
0.919172 0.968445 0.951577
0.994446 0.978699 0.962952
