Plugins/FilmEmulator/Content/LUTs/FE_Kodak_5247_II_64.cube
TITLE "FE_Kodak_5247_II_33"
LUT_3D_SIZE 64
0.0006755 0.0003828 0.0006033
0.0027574 0.0003680 0.0005962
0.0077857 0.0004179 0.0006501
0.0153129 0.0005707 0.0008171
0.0256717 0.0007550 0.0010424
0.0365195 0.0009747 0.0012890
0.0471168 0.0012328 0.0015424
0.0606048 0.0015058 0.0018777
0.0734003 0.0018099 0.0022114
0.0862760 0.0021285 0.0025569
0.1008702 0.0025364 0.0029798
0.1145278 0.0029403 0.0033881
0.1261965 0.0034477 0.0038816
0.1424770 0.0039159 0.0043260
0.1564096 0.0044703 0.0048421
0.1670111 0.0051081 0.0052817
0.1826038 0.0056457 0.0059180
0.1946981 0.0062554 0.0064692
0.2069001 0.0069306 0.0070777
0.2196750 0.0076784 0.0077432
0.2330099 0.0085214 0.0084692
0.2417281 0.0094696 0.0089963
0.2559004 0.0101596 0.0098254
0.2654373 0.0108993 0.0104264
0.2801655 0.0121264 0.0113973
0.2901620 0.0130342 0.0120938
0.3002797 0.0140093 0.0128325
0.3106050 0.0150565 0.0136159
0.3211317 0.0161811 0.0144466
0.3318634 0.0173710 0.0153250
0.3369263 0.0186282 0.0157933
0.3479924 0.0192905 0.0167257
0.3587753 0.0206847 0.0177291
0.3697121 0.0221781 0.0187918
0.3752351 0.0229640 0.0193465
0.3863933 0.0246034 0.0205042
0.3920286 0.0254498 0.0211213
0.4030780 0.0272291 0.0224109
0.4085653 0.0281639 0.0230845
0.4136743 0.0301282 0.0237996
0.4251732 0.0311601 0.0252266
0.4307531 0.0322264 0.0259831
0.4359455 0.0344599 0.0267859
0.4476147 0.0356168 0.0284365
0.4532707 0.0368112 0.0293624
0.4587259 0.0380444 0.0303178
0.4641932 0.0393176 0.0313035
0.4692611 0.0419884 0.0323492
0.4806530 0.0433892 0.0344515
0.4861546 0.0448345 0.0355677
0.4916621 0.0463261 0.0367189
0.4971732 0.0478653 0.0379062
0.5026891 0.0494457 0.0391211
0.5082072 0.0510759 0.0403545
0.5136044 0.0527575 0.0416255
0.5189398 0.0544919 0.0429352
0.5242728 0.0562804 0.0442845
0.5296024 0.0581247 0.0456745
0.5349268 0.0600263 0.0471064
0.5402448 0.0619865 0.0485814
0.5398119 0.0640110 0.0501085
0.5455558 0.0640072 0.0501004
0.5508580 0.0660899 0.0516649
0.5561453 0.0682626 0.0532765
0.0006334 0.0015575 0.0006265
0.0026944 0.0018676 0.0006249
0.0074455 0.0021955 0.0007227
0.0147877 0.0026129 0.0009135
0.0241037 0.0030351 0.0011363
0.0345038 0.0034463 0.0014125
0.0460824 0.0039136 0.0016912
0.0577689 0.0044676 0.0020204
0.0701557 0.0051053 0.0023843
0.0827250 0.0056425 0.0027574
0.0969373 0.0064691 0.0031336
0.1103268 0.0071676 0.0035636
0.1250708 0.0079412 0.0040756
0.1380294 0.0085176 0.0045361
0.1517572 0.0094660 0.0050811
0.1663892 0.0101554 0.0055319
0.1777167 0.0112854 0.0062031
0.1897800 0.0121231 0.0067810
0.2019750 0.0130312 0.0074127
0.2147631 0.0140066 0.0081030
0.2281479 0.0150541 0.0088528
0.2418442 0.0161780 0.0093935
0.2509956 0.0173692 0.0102611
0.2604095 0.0186269 0.0108886
0.2753246 0.0199733 0.0115518
0.2855780 0.0206826 0.0122455
0.2956187 0.0221761 0.0129927
0.3062304 0.0229623 0.0137720
0.3167008 0.0246019 0.0146111
0.3273830 0.0263233 0.0154982
0.3384960 0.0272278 0.0164128
0.3437844 0.0281642 0.0173840
0.3545455 0.0301272 0.0179104
0.3658293 0.0311590 0.0189655
0.3713167 0.0322271 0.0200854
0.3824641 0.0344590 0.0206922
0.3880610 0.0356178 0.0219395
0.3994962 0.0368100 0.0225948
0.4049508 0.0380453 0.0239548
0.4160035 0.0406303 0.0246913
0.4215540 0.0419869 0.0254317
0.4271042 0.0433896 0.0269587
0.4326982 0.0448348 0.0277656
0.4443691 0.0463236 0.0286404
0.4500165 0.0478627 0.0295727
0.4554658 0.0494433 0.0305346
0.4609028 0.0510769 0.0325275
0.4663762 0.0527588 0.0335830
0.4777859 0.0544900 0.0346659
0.4832863 0.0562787 0.0357886
0.4887931 0.0581230 0.0369466
0.4943042 0.0600246 0.0381409
0.4998190 0.0619849 0.0393631
0.5053365 0.0640055 0.0406038
0.5107338 0.0660882 0.0418824
0.5164801 0.0660884 0.0431619
0.5218094 0.0682613 0.0445186
0.5271333 0.0705148 0.0459164
0.5324526 0.0728376 0.0473564
0.5377663 0.0752318 0.0488396
0.5430734 0.0776991 0.0503672
0.5430486 0.0777040 0.0519027
0.5483474 0.0802462 0.0535217
0.5536619 0.0828601 0.0535605
0.0005865 0.0046729 0.0006485
0.0027733 0.0053148 0.0006949
0.0073430 0.0058635 0.0008107
0.0146832 0.0064866 0.0010079
0.0239090 0.0071804 0.0012480
0.0342418 0.0079507 0.0015021
0.0444374 0.0088308 0.0018065
0.0558790 0.0094725 0.0021570
0.0679712 0.0105246 0.0024896
0.0825695 0.0112888 0.0028802
0.0943634 0.0121264 0.0033512
0.1075694 0.0130338 0.0038188
0.1221503 0.0140079 0.0042497
0.1348342 0.0150550 0.0047348
0.1484922 0.0161796 0.0053015
0.1628572 0.0173687 0.0057719
0.1742301 0.0186276 0.0064744
0.1861154 0.0199752 0.0070772
0.1984100 0.0206845 0.0077286
0.2110433 0.0221785 0.0084476
0.2242900 0.0237768 0.0089631
0.2381332 0.0246031 0.0097798
0.2472297 0.0263250 0.0103775
0.2568608 0.0272312 0.0113240
0.2716604 0.0291307 0.0120127
0.2818362 0.0301293 0.0127334
0.2921553 0.0311613 0.0134970
0.3023545 0.0333297 0.0143191
0.3131188 0.0344619 0.0151766
0.3241023 0.0356185 0.0160764
0.3351825 0.0368105 0.0165481
0.3400846 0.0393192 0.0175428
0.3511516 0.0406334 0.0185763
0.3624120 0.0419874 0.0191204
0.3678827 0.0433902 0.0202491
0.3793594 0.0448352 0.0214528
0.3849598 0.0463267 0.0220976
0.3963603 0.0478628 0.0227575
0.4018012 0.0494461 0.0241270
0.4132240 0.0510731 0.0248464
0.4187425 0.0527577 0.0263389
0.4243062 0.0544920 0.0271275
0.4359215 0.0562769 0.0279343
0.4415456 0.0581210 0.0288192
0.4471617 0.0600265 0.0307028
0.4526036 0.0619870 0.0317005
0.4580594 0.0640080 0.0327298
0.4694381 0.0660869 0.0337860
0.4749219 0.0682597 0.0348815
0.4808275 0.0682600 0.0359792
0.4863243 0.0705135 0.0371438
0.4918258 0.0728364 0.0383448
0.4973317 0.0752307 0.0395740
0.5028410 0.0776979 0.0408218
0.5086482 0.0776979 0.0420700
0.5139774 0.0802402 0.0433938
0.5193052 0.0828593 0.0447577
0.5246309 0.0855568 0.0461628
0.5299522 0.0883351 0.0476102
0.5356852 0.0883353 0.0490573
0.5409951 0.0911959 0.0505914
0.5405555 0.0941385 0.0521797
0.5462735 0.0941385 0.0537592
0.5515721 0.0971444 0.0553319
0.0006252 0.0099303 0.0007275
0.0028322 0.0106051 0.0008296
0.0073473 0.0113468 0.0009686
0.0147409 0.0126141 0.0011105
0.0239592 0.0135439 0.0013386
0.0333160 0.0145489 0.0016194
0.0446016 0.0156288 0.0019168
0.0560685 0.0167916 0.0022965
0.0684027 0.0173844 0.0026455
0.0807830 0.0186406 0.0030700
0.0923558 0.0199870 0.0034833
0.1081708 0.0214277 0.0039738
0.1198153 0.0221861 0.0044187
0.1322997 0.0237853 0.0049301
0.1459633 0.0246106 0.0055143
0.1601439 0.0263306 0.0060032
0.1716061 0.0272363 0.0067358
0.1874438 0.0291358 0.0073610
0.1998137 0.0301342 0.0080382
0.2083145 0.0311662 0.0085263
0.2214343 0.0333348 0.0093119
0.2351550 0.0344668 0.0101599
0.2444794 0.0356237 0.0107706
0.2588067 0.0380493 0.0114260
0.2687624 0.0393223 0.0121117
0.2788738 0.0406365 0.0128381
0.2891122 0.0419956 0.0140058
0.2996181 0.0433932 0.0144230
0.3103295 0.0448384 0.0152866
0.3212583 0.0463296 0.0161928
0.3322666 0.0478683 0.0171476
0.3375123 0.0494517 0.0181614
0.3485596 0.0510787 0.0186935
0.3597618 0.0527599 0.0197937
0.3652368 0.0544942 0.0203765
0.3766798 0.0562823 0.0215876
0.3822657 0.0581264 0.0222363
0.3936150 0.0600277 0.0235708
0.3990641 0.0619879 0.0242781
0.4104378 0.0640083 0.0257328
0.4159667 0.0660909 0.0265036
0.4215143 0.0682635 0.0272973
0.4330771 0.0705167 0.0289790
0.4390934 0.0705167 0.0298954
0.4447196 0.0728398 0.0308680
0.4501477 0.0752343 0.0318715
0.4555902 0.0777018 0.0329067
0.4669510 0.0802394 0.0339690
0.4728185 0.0802446 0.0361474
0.4783047 0.0828637 0.0373173
0.4837987 0.0855617 0.0385238
0.4892980 0.0883401 0.0397585
0.4952200 0.0883401 0.0409752
0.5007285 0.0912008 0.0422656
0.5061188 0.0941380 0.0435952
0.5114517 0.0971442 0.0449648
0.5171978 0.0971442 0.0463348
0.5225280 0.1002373 0.0477870
0.5278792 0.1034127 0.0478215
0.5336145 0.1034127 0.0492748
0.5389302 0.1066847 0.0508150
0.5384929 0.1100558 0.0524097
0.5442142 0.1100557 0.0539959
0.5495159 0.1135142 0.0555752
0.0007121 0.0169939 0.0008591
0.0029153 0.0181476 0.0009740
0.0076287 0.0194078 0.0011291
0.0149307 0.0200608 0.0013105
0.0234533 0.0214863 0.0014877
0.0336730 0.0222306 0.0017371
0.0437557 0.0238244 0.0020713
0.0550272 0.0254921 0.0024354
0.0671488 0.0263605 0.0028068
0.0793302 0.0281962 0.0031838
0.0933497 0.0291568 0.0036081
0.1065991 0.0301525 0.0041188
0.1179303 0.0322504 0.0045840
0.1337958 0.0333478 0.0051160
0.1439404 0.0344811 0.0057234
0.1581771 0.0356344 0.0062248
0.1693146 0.0380625 0.0067979
0.1852204 0.0393345 0.0076420
0.1974946 0.0406460 0.0081046
0.2103748 0.0420022 0.0088475
0.2192013 0.0434051 0.0096552
0.2328411 0.0448472 0.0102338
0.2420841 0.0463415 0.0111672
0.2566237 0.0478772 0.0118355
0.2665249 0.0494575 0.0125455
0.2765837 0.0510875 0.0132977
0.2867894 0.0527690 0.0140945
0.2972266 0.0545031 0.0149385
0.3078896 0.0562913 0.0158304
0.3187720 0.0581350 0.0167641
0.3297556 0.0600325 0.0172556
0.3406528 0.0619924 0.0182724
0.3459657 0.0640168 0.0193516
0.3571483 0.0660951 0.0199181
0.3625798 0.0682717 0.0210932
0.3740003 0.0705205 0.0217237
0.3799308 0.0705241 0.0230114
0.3912673 0.0728423 0.0236984
0.3966751 0.0752409 0.0251238
0.4080400 0.0777032 0.0258727
0.4135511 0.0802452 0.0266480
0.4194682 0.0802494 0.0282213
0.4310376 0.0828633 0.0291105
0.4366374 0.0855611 0.0300581
0.4422560 0.0883396 0.0310357
0.4480889 0.0883396 0.0320157
0.4535012 0.0912063 0.0341031
0.4648539 0.0941380 0.0352027
0.4703309 0.0971443 0.0363427
0.4762291 0.0971443 0.0374850
0.4817238 0.1002373 0.0386964
0.4872247 0.1034191 0.0399362
0.4931450 0.1034189 0.0411581
0.4986558 0.1066910 0.0424538
0.5040479 0.1100556 0.0437888
0.5097948 0.1100556 0.0451244
0.5151274 0.1135145 0.0465402
0.5204585 0.1170696 0.0479985
0.5262001 0.1170695 0.0494570
0.5315236 0.1207226 0.0510027
0.5372795 0.1207153 0.0509944
0.5425901 0.1244679 0.0525860
0.5421534 0.1283296 0.0542336
0.5478702 0.1283291 0.0557706
0.0008344 0.0257914 0.0010214
0.0030222 0.0265744 0.0011469
0.0077313 0.0283544 0.0013061
0.0146665 0.0292762 0.0015055
0.0237713 0.0312775 0.0016903
0.0330941 0.0323229 0.0019166
0.0430849 0.0334097 0.0021847
0.0542783 0.0345301 0.0025147
0.0661482 0.0368752 0.0029049
0.0782736 0.0381024 0.0033756
0.0921240 0.0393680 0.0038361
0.1052272 0.0406761 0.0042645
0.1196440 0.0420265 0.0047406
0.1323112 0.0434245 0.0052997
0.1458415 0.0448675 0.0059275
0.1562569 0.0478989 0.0064566
0.1714906 0.0494745 0.0070493
0.1832923 0.0511039 0.0076977
0.1954537 0.0527848 0.0084055
0.2082339 0.0545182 0.0091735
0.2170098 0.0563066 0.0097253
0.2305359 0.0581500 0.0106105
0.2400247 0.0581485 0.0112379
0.2544807 0.0600456 0.0119104
0.2643091 0.0620091 0.0129944
0.2743133 0.0640296 0.0137732
0.2844661 0.0661120 0.0145982
0.2948475 0.0682844 0.0154722
0.3054730 0.0705333 0.0159307
0.3163004 0.0728555 0.0168704
0.3275742 0.0728537 0.0178486
0.3384271 0.0752474 0.0189001
0.3437361 0.0777147 0.0194574
0.3548563 0.0802562 0.0206021
0.3602899 0.0828751 0.0212088
0.3720433 0.0828736 0.0224624
0.3835139 0.0855655 0.0231332
0.3888798 0.0883488 0.0245253
0.3942970 0.0912095 0.0252611
0.4060376 0.0912030 0.0259903
0.4115183 0.0941452 0.0275505
0.4170482 0.0971511 0.0283748
0.4290052 0.0971445 0.0292422
0.4346012 0.1002375 0.0301937
0.4401918 0.1034255 0.0321651
0.4460185 0.1034255 0.0331797
0.4573373 0.1066915 0.0342503
0.4627993 0.1100562 0.0353603
0.4686839 0.1100562 0.0364726
0.4741671 0.1135152 0.0376524
0.4796592 0.1170702 0.0388691
0.4855710 0.1170702 0.0400785
0.4910762 0.1207230 0.0413414
0.4969996 0.1207228 0.0426048
0.5023912 0.1244757 0.0439444
0.5077239 0.1283300 0.0453246
0.5134707 0.1283299 0.0467051
0.5188192 0.1321271 0.0481667
0.5245619 0.1321270 0.0496301
0.5299033 0.1360210 0.0511791
0.5352398 0.1400130 0.0527743
0.5409657 0.1400128 0.0543710
0.5405699 0.1441047 0.0544169
0.5462894 0.1441040 0.0559588
0.0009717 0.0360983 0.0012043
0.0031394 0.0371766 0.0013250
0.0078627 0.0383208 0.0015239
0.0149660 0.0395317 0.0017072
0.0234716 0.0408057 0.0019339
0.0336700 0.0421297 0.0021548
0.0437620 0.0449573 0.0023632
0.0551182 0.0464306 0.0026579
0.0672527 0.0479577 0.0030762
0.0795720 0.0495277 0.0034859
0.0910622 0.0511526 0.0039680
0.1040301 0.0528260 0.0044110
0.1183025 0.0545522 0.0049083
0.1308473 0.0563374 0.0054897
0.1442509 0.0581785 0.0061399
0.1547810 0.0600787 0.0066905
0.1698970 0.0620327 0.0073045
0.1818483 0.0620293 0.0079690
0.1939347 0.0640491 0.0087017
0.2066391 0.0661306 0.0094943
0.2199389 0.0682981 0.0100633
0.2288071 0.0705556 0.0109814
0.2427825 0.0728731 0.0116390
0.2523125 0.0752670 0.0123376
0.2624136 0.0752648 0.0130656
0.2723649 0.0777316 0.0138488
0.2824659 0.0802734 0.0146785
0.2928004 0.0828918 0.0155574
0.3037110 0.0828896 0.0164646
0.3145024 0.0855864 0.0174354
0.3253987 0.0883587 0.0179467
0.3362136 0.0912184 0.0190039
0.3418557 0.0912225 0.0201077
0.3529679 0.0941534 0.0206962
0.3642325 0.0971583 0.0219261
0.3701166 0.0971573 0.0225646
0.3815436 0.1002491 0.0239186
0.3869236 0.1034306 0.0246363
0.3927254 0.1034299 0.0253523
0.4040305 0.1067011 0.0268702
0.4095265 0.1100655 0.0276746
0.4154476 0.1100646 0.0284769
0.4269629 0.1135232 0.0303075
0.4325519 0.1170784 0.0312929
0.4385665 0.1170779 0.0322805
0.4439807 0.1207315 0.0333285
0.4552885 0.1244770 0.0344037
0.4611566 0.1244768 0.0354868
0.4666265 0.1283312 0.0366357
0.4725183 0.1283311 0.0377869
0.4779994 0.1321363 0.0402267
0.4839096 0.1321360 0.0414572
0.4894297 0.1360300 0.0427604
0.4949548 0.1400221 0.0441030
0.5007595 0.1400218 0.0454477
0.5061333 0.1441056 0.0454790
0.5118804 0.1441054 0.0468640
0.5172293 0.1482985 0.0483304
0.5229727 0.1482983 0.0497985
0.5283155 0.1525938 0.0513525
0.5340503 0.1525936 0.0529082
0.5393820 0.1569927 0.0545547
0.5393587 0.1570012 0.0561094
0.5446848 0.1615051 0.0577453
0.0011228 0.0469479 0.0013927
0.0032719 0.0483535 0.0015442
0.0080105 0.0498200 0.0017264
0.0152967 0.0513704 0.0019526
0.0239105 0.0529988 0.0021742
0.0332553 0.0546945 0.0023810
0.0432898 0.0564565 0.0026773
0.0545330 0.0582755 0.0029462
0.0665556 0.0601565 0.0032552
0.0787564 0.0621038 0.0036887
0.0901447 0.0641147 0.0041006
0.1031336 0.0641037 0.0046765
0.1172963 0.0661768 0.0052191
0.1297557 0.0683419 0.0056763
0.1430604 0.0705915 0.0063485
0.1572204 0.0729071 0.0069255
0.1685239 0.0752995 0.0075625
0.1803977 0.0752952 0.0082504
0.1924038 0.0777612 0.0090067
0.2050412 0.0802973 0.0095468
0.2182471 0.0829145 0.0104160
0.2270814 0.0856120 0.0110421
0.2412813 0.0856032 0.0116926
0.2507534 0.0883860 0.0127572
0.2604966 0.0912461 0.0135221
0.2707239 0.0912434 0.0143193
0.2807870 0.0941799 0.0151768
0.2910861 0.0971852 0.0160829
0.3016336 0.1002715 0.0165549
0.3127363 0.1002686 0.0175150
0.3235821 0.1034489 0.0185468
0.3343877 0.1067139 0.0190902
0.3400142 0.1067186 0.0201989
0.3510784 0.1100819 0.0213864
0.3623354 0.1135332 0.0220254
0.3681842 0.1135383 0.0233306
0.3796076 0.1170853 0.0240266
0.3853656 0.1170844 0.0247253
0.3965908 0.1207363 0.0262064
0.4020512 0.1244888 0.0269914
0.4079353 0.1244877 0.0277743
0.4193877 0.1283410 0.0294845
0.4253508 0.1283407 0.0304165
0.4309500 0.1321379 0.0314042
0.4365693 0.1360319 0.0324231
0.4423845 0.1360318 0.0334456
0.4536751 0.1400240 0.0356160
0.4595391 0.1400238 0.0367361
0.4650223 0.1441160 0.0379228
0.4709112 0.1441157 0.0391131
0.4764151 0.1483091 0.0403643
0.4823232 0.1483086 0.0415989
0.4878418 0.1526041 0.0429064
0.4937627 0.1526037 0.0442158
0.4991694 0.1570032 0.0456025
0.5049158 0.1570029 0.0469911
0.5102651 0.1615075 0.0484613
0.5160120 0.1615072 0.0499332
0.5213836 0.1661085 0.0499674
0.5271248 0.1661083 0.0514830
0.5324640 0.1708263 0.0530872
0.5381936 0.1708260 0.0546929
0.5435327 0.1755129 0.0562883
0.5435095 0.1755222 0.0578898
0.0012893 0.0588957 0.0015949
0.0034164 0.0606472 0.0017474
0.0081739 0.0624716 0.0019728
0.0156601 0.0643905 0.0021932
0.0243776 0.0664055 0.0023997
0.0339339 0.0663517 0.0026944
0.0441651 0.0684898 0.0029644
0.0540352 0.0707166 0.0031941
0.0659527 0.0730149 0.0035291
0.0780595 0.0753863 0.0038088
0.0918054 0.0778390 0.0043469
0.1049944 0.0778215 0.0048276
0.1162895 0.0803592 0.0053969
0.1286547 0.0829687 0.0058697
0.1418629 0.0856617 0.0065676
0.1561369 0.0856491 0.0071639
0.1673765 0.0884253 0.0078228
0.1789462 0.0912841 0.0085421
0.1908910 0.0942141 0.0090566
0.2037018 0.0942089 0.0098724
0.2168606 0.0972073 0.0104639
0.2256403 0.1003055 0.0114181
0.2397758 0.1002950 0.0120904
0.2492264 0.1034758 0.0128156
0.2589318 0.1067471 0.0135838
0.2691187 0.1067439 0.0143846
0.2844310 0.1100997 0.0152431
0.2948124 0.1135572 0.0161531
0.3002416 0.1135618 0.0170934
0.3109644 0.1171153 0.0181006
0.3221523 0.1171055 0.0186141
0.3329125 0.1207571 0.0197099
0.3438593 0.1245083 0.0208691
0.3495866 0.1245068 0.0214638
0.3607997 0.1283596 0.0227528
0.3666588 0.1283582 0.0234150
0.3780772 0.1321463 0.0241126
0.3834309 0.1360476 0.0255613
0.3950492 0.1360377 0.0262991
0.4005178 0.1400294 0.0270857
0.4063718 0.1400358 0.0286842
0.4178483 0.1441187 0.0295863
0.4238050 0.1441182 0.0305214
0.4293984 0.1483113 0.0315124
0.4353767 0.1483196 0.0335375
0.4466512 0.1526064 0.0346180
0.4524968 0.1526062 0.0357077
0.4579645 0.1570057 0.0368622
0.4634442 0.1615104 0.0380528
0.4693300 0.1615101 0.0392470
0.4748314 0.1661208 0.0405024
0.4807373 0.1661203 0.0417411
0.4862541 0.1708383 0.0430529
0.4921738 0.1708378 0.0443666
0.4979770 0.1708375 0.0457189
0.5033367 0.1755253 0.0471498
0.5090837 0.1755251 0.0485835
0.5144501 0.1802452 0.0500996
0.5201952 0.1802449 0.0516190
0.5255566 0.1850660 0.0532254
0.5313190 0.1850554 0.0532168
0.5366707 0.1899778 0.0548704
0.5423963 0.1899769 0.0564246
0.5419943 0.1950125 0.0580765
0.0014603 0.0737903 0.0018037
0.0035733 0.0735968 0.0019513
0.0083530 0.0758342 0.0022141
0.0160553 0.0781758 0.0024186
0.0241436 0.0806497 0.0027165
0.0336128 0.0805817 0.0029843
0.0437531 0.0831555 0.0032141
0.0551026 0.0858177 0.0035503
0.0672392 0.0885623 0.0038308
0.0796427 0.0885284 0.0041423
0.0911304 0.0913706 0.0044843
0.1040819 0.0942930 0.0049898
0.1154546 0.0942819 0.0055757
0.1277439 0.0972769 0.0060641
0.1408731 0.1003644 0.0067937
0.1550638 0.1003495 0.0074104
0.1662417 0.1035285 0.0080917
0.1777633 0.1067923 0.0085813
0.1898816 0.1067863 0.0093567
0.2023790 0.1101484 0.0102087
0.2154736 0.1135982 0.0108202
0.2245097 0.1135945 0.0114598
0.2382836 0.1171468 0.0125012
0.2476931 0.1207989 0.0132509
0.2576686 0.1207951 0.0140321
0.2726470 0.1245381 0.0148698
0.2830876 0.1245344 0.0157455
0.2934393 0.1283872 0.0166787
0.3040515 0.1321752 0.0171673
0.3095803 0.1321803 0.0181657
0.3203788 0.1360724 0.0192346
0.3314896 0.1360615 0.0197800
0.3424272 0.1400516 0.0209424
0.3481425 0.1400498 0.0215393
0.3593489 0.1441398 0.0228319
0.3651970 0.1441382 0.0234963
0.3765742 0.1483293 0.0249041
0.3819407 0.1526246 0.0256499
0.3935194 0.1526219 0.0271607
0.3989801 0.1570210 0.0279726
0.4048483 0.1570196 0.0287833
0.4163108 0.1615138 0.0296885
0.4222362 0.1615226 0.0315994
0.4278235 0.1661335 0.0326245
0.4338208 0.1661328 0.0336529
0.4450855 0.1708414 0.0347371
0.4509268 0.1708409 0.0358304
0.4564017 0.1755288 0.0369878
0.4622724 0.1755284 0.0381497
0.4677777 0.1802487 0.0393791
0.4736723 0.1802483 0.0406039
0.4795763 0.1802477 0.0418454
0.4851089 0.1850687 0.0431589
0.4910275 0.1850680 0.0444757
0.4964497 0.1899907 0.0458685
0.5021949 0.1899903 0.0472649
0.5075611 0.1950159 0.0487415
0.5133083 0.1950155 0.0502216
0.5186732 0.2001437 0.0517864
0.5244160 0.2001433 0.0533546
0.5301546 0.2001429 0.0549679
0.5355091 0.2053735 0.0565703
0.5412596 0.2053619 0.0565612
0.5408575 0.2107079 0.0582169
0.0016676 0.0866565 0.0020608
0.0037368 0.0892620 0.0022384
0.0085758 0.0890499 0.0024394
0.0159248 0.0917789 0.0027354
0.0246866 0.0946239 0.0030053
0.0342978 0.0975604 0.0032350
0.0446941 0.0974993 0.0035692
0.0546773 0.1005554 0.0038511
0.0667262 0.1036985 0.0041670
0.0790419 0.1036592 0.0045058
0.0904513 0.1069099 0.0048777
0.1034795 0.1068755 0.0051502
0.1146312 0.1102337 0.0057602
0.1301222 0.1136701 0.0062633
0.1400976 0.1136614 0.0068187
0.1540013 0.1172109 0.0076651
0.1651286 0.1208539 0.0081289
0.1807744 0.1208376 0.0088662
0.1886290 0.1245968 0.0096756
0.2013369 0.1245828 0.0102460
0.2143658 0.1284339 0.0111783
0.2277133 0.1322208 0.0118471
0.2371193 0.1322165 0.0125464
0.2465087 0.1361090 0.0132983
0.2615413 0.1360949 0.0140796
0.2713964 0.1400853 0.0149224
0.2818066 0.1400812 0.0158011
0.2921427 0.1441710 0.0167369
0.3027080 0.1483619 0.0177228
0.3082225 0.1483675 0.0187531
0.3190137 0.1526527 0.0193016
0.3300790 0.1526488 0.0204187
0.3410128 0.1570377 0.0210153
0.3466956 0.1570441 0.0222478
0.3579007 0.1615377 0.0229112
0.3637166 0.1615445 0.0242679
0.3750953 0.1661441 0.0249904
0.3808030 0.1661515 0.0264679
0.3920138 0.1708589 0.0272547
0.3978449 0.1708573 0.0280451
0.4033378 0.1755445 0.0288821
0.4151453 0.1755427 0.0307106
0.4207212 0.1802630 0.0317064
0.4266896 0.1802621 0.0327067
0.4323106 0.1850834 0.0337654
0.4439566 0.1850720 0.0348232
0.4497946 0.1850716 0.0359192
0.4552473 0.1900052 0.0382500
0.4611152 0.1900048 0.0394502
0.4666186 0.1950305 0.0407104
0.4725115 0.1950298 0.0419551
0.4780344 0.2001579 0.0432718
0.4839448 0.2001573 0.0445920
0.4894821 0.2053885 0.0459882
0.4952836 0.2053880 0.0473880
0.5010284 0.2053877 0.0488286
0.5064191 0.2107118 0.0488604
0.5121665 0.2107113 0.0503438
0.5175319 0.2161505 0.0519123
0.5232753 0.2161501 0.0534841
0.5290148 0.2161496 0.0551012
0.5343705 0.2216921 0.0567072
0.5400994 0.2216909 0.0583107
0.5397264 0.2272453 0.0583569
0.0018619 0.1014952 0.0023092
0.0039144 0.1044922 0.0024657
0.0088048 0.1042542 0.0026936
0.0163535 0.1073688 0.0029510
0.0244921 0.1106390 0.0032554
0.0340791 0.1105488 0.0035898
0.0443475 0.1139474 0.0038715
0.0558478 0.1174500 0.0041881
0.0663164 0.1174055 0.0045285
0.0784468 0.1210239 0.0049010
0.0899139 0.1209851 0.0051748
0.1027169 0.1247135 0.0056268
0.1167942 0.1285363 0.0059496
0.1293882 0.1285147 0.0064646
0.1425426 0.1322976 0.0070515
0.1531735 0.1322886 0.0076930
0.1681677 0.1361679 0.0083982
0.1798266 0.1361601 0.0091594
0.1918155 0.1401486 0.0099931
0.2000675 0.1442394 0.0105935
0.2133209 0.1442236 0.0112175
0.2266048 0.1484130 0.0122369
0.2359779 0.1484081 0.0129590
0.2453357 0.1527022 0.0137353
0.2603198 0.1526864 0.0145420
0.2701445 0.1570840 0.0154121
0.2805239 0.1570792 0.0163173
0.2908311 0.1615813 0.0172788
0.3017168 0.1615677 0.0177692
0.3124847 0.1661755 0.0188150
0.3179727 0.1661820 0.0199079
0.3286916 0.1708890 0.0204898
0.3399338 0.1708845 0.0216745
0.3452823 0.1755721 0.0223246
0.3568055 0.1755678 0.0236429
0.3622862 0.1802875 0.0243506
0.3739924 0.1802834 0.0257862
0.3793593 0.1851043 0.0265569
0.3909289 0.1850912 0.0273228
0.3967317 0.1850992 0.0289349
0.4022233 0.1900219 0.0298488
0.4140436 0.1900095 0.0307866
0.4196148 0.1950351 0.0317849
0.4255786 0.1950342 0.0327876
0.4369924 0.2001619 0.0349150
0.4428090 0.2001614 0.0360138
0.4482684 0.2053931 0.0371765
0.4541185 0.2053925 0.0383441
0.4599838 0.2053920 0.0395471
0.4654846 0.2107276 0.0408103
0.4713753 0.2107267 0.0420580
0.4768967 0.2161659 0.0433779
0.4828058 0.2161651 0.0447011
0.4887218 0.2161643 0.0460631
0.4941426 0.2217077 0.0475037
0.4998866 0.2217074 0.0489477
0.5052587 0.2272615 0.0504739
0.5110059 0.2272613 0.0520041
0.5167769 0.2272487 0.0519957
0.5221593 0.2327134 0.0536111
0.5278999 0.2327129 0.0552318
0.5332751 0.2382709 0.0568393
0.5390055 0.2382696 0.0584462
0.5447277 0.2382684 0.0600962
0.0020988 0.1185041 0.0026075
0.0039965 0.1182864 0.0027202
0.0090401 0.1216988 0.0029755
0.0167740 0.1252716 0.0032769
0.0250825 0.1251445 0.0036116
0.0348282 0.1289095 0.0038930
0.0440698 0.1288373 0.0042074
0.0555049 0.1325756 0.0045513
0.0659129 0.1325260 0.0049210
0.0779846 0.1363748 0.0051992
0.0917150 0.1403285 0.0056519
0.1021313 0.1402964 0.0059717
0.1161440 0.1443529 0.0063140
0.1286764 0.1443294 0.0068722
0.1417796 0.1484989 0.0072863
0.1523627 0.1484889 0.0079491
0.1672917 0.1527681 0.0086775
0.1789018 0.1527592 0.0094616
0.1908561 0.1571462 0.0100283
0.2036648 0.1571373 0.0109308
0.2122646 0.1616401 0.0115870
0.2257878 0.1616234 0.0122691
0.2348568 0.1662322 0.0130045
0.2493803 0.1662240 0.0141714
0.2591020 0.1709401 0.0150195
0.2692214 0.1709259 0.0154525
0.2792722 0.1756111 0.0163739
0.2898729 0.1756056 0.0173236
0.3004028 0.1803228 0.0183428
0.3114795 0.1803172 0.0194050
