Plugins/FilmEmulator/Content/LUTs/FE_Kodak_Vericolor_III_64.cube
TITLE "FE_Kodak_Vericolor_III_33"
LUT_3D_SIZE 8
0.0027970 0.0026869 0.0021846
0.0728757 0.0041796 0.0023848
0.2130867 0.0087157 0.0039270
0.3621057 0.0159279 0.0065057
0.4933217 0.0259301 0.0098214
0.5903259 0.0373508 0.0141661
0.6738392 0.0513718 0.0186317
0.7331573 0.0654531 0.0238836
0.0026561 0.0888989 0.0027089
0.0696295 0.1036778 0.0043451
0.2037216 0.1215935 0.0070213
0.3446196 0.1381284 0.0105407
0.4685097 0.1566758 0.0151364
0.5789108 0.1774346 0.0198638
0.6566983 0.1943715 0.0253773
0.7189308 0.2189901 0.0316334
0.0041275 0.2450770 0.0047602
0.0737818 0.2640625 0.0076118
0.2088007 0.2853273 0.0114624
0.3428167 0.3002112 0.0159194
0.4673301 0.3158040 0.0208945
0.5682820 0.3405347 0.0267202
0.6567736 0.3573971 0.0332655
0.7199100 0.3747593 0.0398941
0.0067135 0.4004460 0.0081974
0.0797857 0.4165496 0.0119841
0.2104189 0.4341701 0.0166512
0.3539202 0.4524206 0.0218936
0.4698958 0.4613903 0.0269993
0.5714296 0.4801945 0.0336118
0.6502995 0.4991251 0.0417778
0.7144861 0.5083766 0.0499735
0.0103209 0.5348414 0.0129161
0.0869209 0.5422571 0.0168025
0.2199976 0.5603389 0.0220892
0.3580616 0.5690463 0.0282464
0.4745142 0.5779732 0.0351278
0.5765285 0.5870664 0.0420776
0.6550902 0.6057588 0.0503699
0.7188941 0.6148138 0.0580840
0.0143954 0.6301951 0.0180850
0.0951027 0.6375219 0.0230215
0.2238202 0.6546898 0.0295070
0.3630747 0.6628678 0.0366851
0.4800588 0.6711599 0.0439268
0.5821257 0.6795508 0.0525258
0.6606871 0.6879376 0.0605578
0.7153789 0.6962613 0.0697537
0.0196046 0.7096966 0.0248465
0.1007068 0.7165404 0.0307786
0.2354470 0.7238478 0.0368987
0.3688550 0.7312987 0.0441801
0.4864920 0.7387300 0.0528259
0.5788352 0.7383055 0.0608526
0.6576375 0.7457539 0.0700896
0.7213148 0.7530861 0.0806265
0.0250273 0.7645919 0.0320850
0.1109334 0.7706792 0.0384481
0.2404258 0.7770661 0.0460142
0.3756535 0.7764829 0.0549558
0.4836929 0.7830898 0.0633425
0.5857975 0.7895750 0.0729314
0.6640441 0.7960010 0.0810096
0.7189556 0.7957445 0.0898466
0.0048017 0.0034175 0.1030534
0.0939619 0.0051371 0.1074785
0.2449582 0.0085261 0.1162790
0.3843074 0.0156244 0.1259788
0.5071663 0.0246027 0.1359852
0.6031009 0.0367895 0.1465326
0.6857724 0.0489137 0.1523133
0.7437505 0.0624459 0.1633366
0.0060486 0.0866861 0.1178871
0.0875409 0.1015445 0.1265448
0.2268325 0.1194474 0.1358259
0.3753598 0.1359836 0.1456065
0.4915241 0.1545804 0.1509255
0.5915192 0.1753159 0.1615777
0.6683202 0.1922670 0.1726771
0.7296996 0.2105331 0.1786329
0.0084860 0.2404808 0.1335556
0.0925250 0.2600398 0.1430122
0.2316853 0.2816696 0.1481151
0.3731288 0.2967888 0.1584121
0.4902178 0.3125879 0.1692083
0.5907987 0.3374942 0.1750597
0.6681973 0.3545352 0.1867681
0.7301285 0.3720631 0.1929735
0.0114716 0.3952539 0.1447284
0.0997598 0.4120301 0.1547567
0.2331696 0.4301072 0.1653730
0.3749269 0.4487446 0.1709890
0.4927585 0.4579274 0.1823510
0.5939285 0.4769557 0.1944409
0.6714673 0.4863968 0.2007098
0.7246819 0.5057142 0.2072745
0.0153390 0.5300721 0.1613657
0.1048425 0.5380484 0.1666865
0.2433150 0.5565550 0.1779136
0.3789825 0.5655995 0.1896316
0.4972332 0.5748461 0.1957735
0.5887669 0.5841676 0.2084107
0.6662642 0.6031368 0.2151650
0.7289245 0.6123880 0.2219365
0.0201161 0.6261491 0.1732983
0.1148349 0.6338826 0.1847107
0.2472387 0.6515178 0.1908358
0.3838729 0.6599855 0.2032140
0.4923543 0.6685612 0.2096946
0.5941499 0.6771470 0.2230013
0.6716554 0.6857294 0.2297364
0.7253756 0.6942458 0.2365112
0.0255662 0.7064862 0.1858259
0.1214533 0.7136194 0.1978952
0.2595710 0.7212310 0.2042212
0.3896671 0.7289002 0.2172580
0.4991733 0.7285647 0.2239223
0.5907555 0.7363119 0.2306757
0.6685713 0.7438954 0.2442561
0.7311112 0.7514051 0.2513269
0.0314723 0.7619752 0.2050538
0.1288296 0.7683315 0.2115164
0.2647612 0.7749652 0.2181705
0.3964508 0.7745342 0.2314861
0.5059994 0.7813117 0.2382866
0.5975309 0.7879846 0.2452320
0.6749145 0.7945291 0.2523196
0.7287643 0.7943153 0.2665974
0.0113989 0.0063347 0.2832769
0.1134212 0.0089691 0.2924299
0.2649727 0.0126843 0.3018451
0.4136755 0.0165960 0.3110827
0.5287398 0.0244366 0.3210985
0.6239262 0.0365514 0.3313923
0.6958296 0.0486051 0.3412583
0.7523795 0.0642600 0.3512605
0.0130872 0.0858995 0.3036276
0.1085499 0.1008267 0.3123210
0.2496386 0.1186846 0.3212615
0.3955741 0.1351753 0.3301919
0.5132231 0.1536805 0.3392683
0.6126530 0.1743543 0.3484790
0.6877111 0.1912711 0.3576214
0.7389705 0.2094876 0.3668812
0.0163493 0.2387519 0.3255474
0.1148920 0.2585460 0.3342320
0.2548259 0.2801783 0.3431265
0.3932480 0.2953316 0.3519790
0.5118795 0.3111911 0.3523280
0.6019846 0.3360683 0.3615105
0.6784217 0.3531331 0.3706081
0.7393534 0.3706315 0.3798073
0.0203481 0.3930895 0.3373707
0.1197578 0.4102174 0.3460508
0.2563433 0.4284032 0.3549210
0.3949986 0.4470597 0.3639226
0.5144181 0.4562997 0.3728404
0.6050409 0.4754150 0.3820612
0.6815998 0.4849156 0.3822369
0.7339858 0.5042319 0.3916174
0.0246830 0.5280073 0.3484930
0.1258112 0.5362360 0.3571293
0.2671343 0.5548887 0.3661318
0.3990517 0.5640391 0.3750638
0.5085769 0.5733268 0.3841010
0.6099097 0.5826874 0.3932875
0.6764734 0.6017108 0.4027734
0.7381361 0.6109748 0.4121291
0.0302258 0.6242576 0.3677255
0.1327841 0.6322762 0.3765917
0.2712778 0.6500357 0.3769265
0.4039952 0.6586112 0.3859716
0.5139204 0.6672049 0.3951726
0.6051707 0.6758945 0.4044643
0.6818958 0.6844938 0.4138340
0.7346279 0.6930277 0.4232790
0.0344478 0.7049381 0.3783463
0.1402695 0.7122524 0.3873284
0.2761948 0.7199447 0.3965109
0.4098963 0.7276890 0.4057953
0.5201895 0.7354511 0.4059728
0.6118210 0.7351698 0.4151378
0.6788229 0.7428455 0.4245890
0.7402096 0.7503745 0.4341017
0.0408743 0.7607351 0.3886893
0.1486654 0.7671846 0.3978335
0.2896051 0.7738698 0.4071065
0.4167584 0.7735064 0.4162645
0.5274718 0.7803468 0.4164426
0.6084813 0.7870622 0.4258991
0.6850656 0.7936264 0.4354161
0.7378793 0.7934515 0.4447768
0.0214950 0.0108477 0.4504457
0.1323981 0.0144866 0.4614810
0.2854471 0.0190135 0.4629920
0.4289975 0.0243631 0.4739716
0.5475110 0.0292181 0.4846121
0.6344183 0.0364099 0.4858924
0.7053003 0.0484183 0.4971996
0.7608164 0.0640298 0.4988730
0.0231865 0.0854028 0.4721325
0.1298915 0.1003896 0.4730104
0.2735934 0.1182069 0.4835836
0.4156647 0.1346550 0.4940045
0.5344715 0.1531300 0.4948204
0.6232634 0.1737604 0.5052796
0.6973208 0.1906309 0.5155298
0.7477059 0.2088393 0.5161527
0.0272466 0.2376591 0.4884993
0.1326756 0.2576719 0.4889790
0.2790727 0.2792853 0.4991567
0.4132575 0.2944361 0.5091642
0.5228761 0.3102944 0.5095536
0.6226172 0.3351023 0.5197904
0.6881832 0.3521717 0.5298141
0.7480807 0.3697032 0.5302145
0.0316435 0.3916907 0.5021384
0.1430779 0.4090657 0.5024232
0.2806842 0.4273040 0.5124138
0.4150393 0.4459818 0.5224239
0.5253707 0.4553081 0.5226024
0.6156846 0.4744154 0.5326196
0.6914250 0.4839134 0.5328065
0.7428282 0.5032266 0.5428120
0.0370874 0.5265597 0.5147598
0.1501670 0.5350404 0.5148398
0.2837955 0.5538021 0.5248279
0.4191621 0.5629569 0.5346078
0.5297953 0.5723081 0.5347867
0.6205080 0.5817052 0.5445677
0.6863446 0.6007994 0.5449770
0.7468571 0.6100698 0.5547341
0.0421910 0.6230032 0.5265338
0.1583257 0.6312066 0.5266233
0.2962600 0.6489989 0.5366008
0.4241450 0.6576707 0.5367719
0.5351264 0.6662744 0.5465418
0.6158140 0.6750042 0.5562946
0.6916797 0.6836679 0.5564870
0.7434244 0.6922132 0.5662076
0.0480456 0.7038707 0.5284903
0.1614744 0.7113328 0.5382017
0.3013476 0.7190709 0.5479394
0.4300956 0.7269052 0.5481136
0.5311355 0.7346580 0.5578549
0.6223602 0.7344236 0.5578251
0.6886563 0.7421125 0.5675370
0.7488865 0.7496548 0.5772024
0.0549070 0.7598217 0.5396272
0.1709124 0.7663805 0.5493174
0.3068647 0.7731757 0.5494725
0.4370558 0.7728117 0.5589768
0.5384041 0.7796463 0.5686740
0.6289138 0.7863952 0.5688613
0.6947982 0.7929958 0.5785192
0.7465738 0.7928609 0.5784989
0.0350505 0.0165996 0.5871382
0.1550814 0.0211371 0.5884054
0.3072930 0.0271219 0.5992096
0.4454543 0.0325768 0.6002187
0.5644302 0.0390575 0.6012301
0.6510836 0.0466326 0.6115739
0.7132168 0.0536982 0.6123688
0.7689691 0.0638398 0.6226057
0.0360201 0.0850479 0.5966255
0.1548139 0.1000343 0.6068801
0.2988192 0.1178483 0.6078261
0.4358670 0.1342682 0.6178905
0.5452627 0.1527137 0.6186699
0.6336087 0.1732977 0.6286528
0.7067381 0.1901688 0.6292331
0.7561571 0.2083037 0.6389155
0.0394091 0.2368630 0.6125191
0.1580609 0.2569483 0.6129943
0.3044613 0.2785782 0.6227778
0.4333839 0.2937829 0.6231357
0.5439271 0.3095677 0.6326623
0.6329293 0.3344258 0.6332321
0.6977577 0.3514769 0.6426667
0.7564921 0.3689924 0.6430384
0.0457621 0.3906855 0.6163492
0.1645298 0.4081704 0.6258612
0.3060166 0.4264930 0.6262022
0.4351909 0.4451941 0.6356929
0.5463674 0.4545159 0.6358598
0.6260690 0.4736494 0.6452669
0.7009443 0.4831449 0.6454400
0.7513549 0.5024558 0.6547438
0.0516642 0.5255291 0.6283928
0.1725300 0.5341099 0.6375939
0.3092227 0.5529755 0.6379337
0.4393706 0.5621659 0.6471024
0.5405564 0.5715516 0.6472707
0.6308432 0.5809519 0.6563519
0.6959496 0.6000552 0.6567267
0.7552960 0.6093305 0.6657004
0.0566225 0.6220567 0.6395060
0.1756413 0.6304201 0.6396055
0.3136474 0.6482618 0.6489419
0.4444171 0.6569425 0.6490998
0.5458739 0.6655830 0.6581573
0.6359451 0.6743456 0.6583310
0.7011957 0.6829932 0.6672884
0.7519056 0.6916005 0.6674683
0.0644147 0.7029745 0.6503025
0.1851635 0.7106070 0.6504101
0.3189066 0.7184145 0.6594300
0.4504386 0.7262604 0.6595894
0.5520604 0.7340721 0.6597602
0.6326762 0.7338141 0.6684990
0.6981868 0.7415607 0.6686759
0.7572488 0.7491131 0.6774992
0.0708739 0.7591045 0.6517124
0.1956921 0.7657458 0.6606798
0.3334526 0.7725814 0.6608249
0.4474963 0.7722626 0.6695395
0.5592835 0.7791283 0.6697044
0.6391588 0.7858682 0.6785109
0.7042242 0.7925208 0.6786843
0.7549874 0.7923855 0.6786660
0.0496265 0.0244059 0.6801417
0.1813488 0.0291936 0.6809809
0.3305106 0.0363364 0.6906123
0.4624332 0.0418984 0.6913143
0.5716573 0.0499939 0.7005961
0.6583349 0.0574882 0.7012922
0.7203100 0.0637552 0.7018093
0.7758188 0.0706445 0.7105608
0.0501516 0.0847756 0.6866879
0.1776252 0.0997742 0.6959507
0.3250205 0.1175625 0.6967974
0.4561903 0.1339620 0.7058001
0.5660504 0.1523714 0.7064888
0.6532751 0.1729511 0.7071840
0.7159181 0.1897775 0.7158521
0.7642952 0.2079231 0.7163652
0.0548412 0.2362165 0.7009512
0.1813004 0.2563840 0.7013875
0.3220511 0.2780386 0.7101104
0.4536812 0.2932255 0.7104260
0.5647258 0.3089913 0.7188492
0.6430509 0.3338526 0.7193498
0.7070616 0.3509438 0.7196784
0.7646544 0.3683897 0.7279485
0.0613551 0.3897938 0.7125507
0.1885270 0.4074461 0.7128154
0.3236567 0.4258277 0.7131214
0.4555079 0.4445215 0.7214936
0.5569955 0.4538718 0.7216421
0.6459465 0.4729663 0.7298753
0.7102297 0.4824929 0.7300279
0.7596004 0.5018637 0.7303542
0.0667158 0.5246803 0.7150283
0.1910031 0.5334525 0.7151198
0.3358484 0.5522643 0.7234420
0.4596864 0.5615511 0.7235820
0.5613812 0.5708775 0.7316077
0.6409484 0.5803732 0.7317600
0.7052855 0.5994834 0.7320874
0.7634541 0.6087623 0.7399667
0.0730362 0.6212508 0.7247974
0.2009036 0.6297106 0.7248923
0.3404381 0.6476589 0.7251958
0.4648239 0.6563199 0.7331865
0.5666147 0.6650221 0.7333333
0.6460323 0.6737655 0.7411904
0.7104402 0.6824743 0.7413441
0.7601393 0.6910892 0.7415003
0.0800313 0.7023358 0.7263808
0.2112265 0.7099789 0.7343096
0.3459325 0.7178774 0.7344403
0.4608213 0.7257848 0.7345849
0.5626663 0.7335553 0.7424136
0.6427610 0.7333452 0.7423932
0.7075212 0.7410518 0.7500795
0.7654930 0.7486602 0.7502296
0.0879541 0.7584972 0.7354259
0.2156505 0.7652667 0.7355288
0.3519167 0.7720922 0.7433211
0.4674978 0.7789419 0.7434618
0.5698650 0.7787148 0.7434368
0.6491683 0.7854631 0.7511001
0.7134154 0.7921243 0.7512493
0.7632836 0.7919883 0.7512338
0.0678785 0.0326478 0.7536487
0.2046707 0.0390536 0.7543843
0.3548778 0.0465946 0.7551398
0.4795198 0.0536162 0.7629417
0.5897298 0.0594627 0.7633810
0.6658916 0.0682442 0.7639813
0.7357045 0.0755790 0.7714427
0.7818041 0.0836015 0.7718778
0.0671325 0.0845317 0.7579542
0.2030543 0.0995572 0.7586511
0.3523105 0.1173018 0.7665085
0.4766029 0.1337119 0.7670997
0.5765015 0.1521075 0.7676967
0.6631058 0.1726235 0.7752334
0.7248567 0.1894614 0.7756723
0.7722149 0.2075837 0.7761126
0.0706184 0.2425602 0.7631317
0.2005056 0.2558916 0.7704036
0.3491743 0.2775715 0.7708122
0.4740756 0.2927696 0.7710866
0.5747064 0.3167850 0.7783901
0.6529718 0.3333892 0.7786699
0.7248151 0.3504374 0.7789490
0.7725654 0.3679034 0.7859366
0.0762493 0.3891397 0.7729026
0.2082911 0.4068734 0.7731379
0.3508492 0.4252512 0.7734017
0.4759153 0.4439717 0.7805015
0.5775912 0.4533185 0.7806289
0.6557909 0.4725032 0.7809092
0.7192735 0.4819668 0.7877069
0.7676274 0.5013360 0.7879845
0.0828362 0.5239875 0.7750307
0.2176576 0.5327631 0.7819074
0.3542980 0.5517093 0.7821662
0.4700621 0.5610304 0.7822885
0.5718557 0.5703595 0.7890500
0.6603992 0.5798246 0.7891775
0.7231024 0.5989405 0.7894558
0.7715206 0.6082564 0.7960641
0.0905673 0.6205941 0.7833127
0.2208945 0.6384539 0.7835514
0.3590102 0.6471439 0.7836633
0.4753284 0.6558408 0.7903913
0.5771132 0.6645483 0.7905164
0.6558757 0.6733525 0.7906477
0.7194802 0.6820126 0.7972291
0.7682832 0.6906334 0.7973611
0.0991246 0.7017493 0.7846635
0.2322631 0.7094842 0.7913393
0.3646467 0.7174192 0.7914532
0.4815428 0.7253341 0.7915762
0.5834065 0.7331124 0.7981303
0.6621673 0.7329016 0.7981132
0.7165786 0.7406899 0.7982451
0.7657154 0.7483312 0.7983767
0.1052721 0.7580056 0.7922812
0.2370051 0.7648342 0.7923738
0.3706986 0.7717379 0.7924867
0.4883126 0.7785515 0.7990152
0.5804474 0.7783464 0.7989965
0.6589718 0.7851454 0.7991234
0.7223997 0.7917721 0.8055057
0.7714183 0.7916350 0.8054928
0.0862019 0.0420037 0.8021814
0.2305463 0.0500276 0.8028066
0.3805024 0.0574761 0.8033161
0.4975879 0.0637003 0.8098480
0.5976490 0.0705831 0.8102250
0.6825368 0.0808324 0.8107331
0.7423301 0.0893478 0.8111103
0.7879767 0.0954370 0.8173214
0.0863240 0.0843364 0.8048999
0.2239238 0.0993749 0.8055068
0.3711422 0.1171050 0.8122335
0.4970761 0.1334914 0.8127388
0.5968263 0.1518606 0.8132486
0.6726843 0.1724008 0.8137625
0.7335864 0.1891842 0.8200402
0.7795786 0.2135682 0.8205414
0.0907481 0.2420850 0.8093356
0.2280804 0.2554707 0.8155514
0.3679291 0.2771819 0.8159044
0.4946519 0.2923668 0.8161386
0.5850625 0.3163902 0.8223479
0.6720772 0.3329534 0.8225837
0.7335458 0.3500199 0.8228227
0.7803530 0.3675322 0.8230631
0.0944691 0.3885476 0.8176752
0.2291355 0.4063656 0.8178822
0.3696453 0.4247701 0.8181095
0.4864058 0.4435169 0.8241386
0.5879803 0.4528613 0.8242467
0.6655081 0.4720423 0.8244847
0.7277184 0.4912845 0.8303513
0.7755642 0.5008718 0.8304627
0.1025184 0.5233600 0.8194856
0.2391234 0.5322347 0.8253250
0.3731778 0.5512182 0.8255468
0.4907890 0.5605407 0.8256508
0.5924015 0.5699316 0.8257588
0.6700542 0.5793710 0.8314695
0.7318666 0.5984923 0.8317047
0.7717074 0.6079031 0.8318191
0.1083301 0.6200274 0.8265104
0.2425879 0.6379610 0.8267170
0.3779599 0.6466880 0.8268144
0.4961335 0.6553894 0.8324912
0.5876077 0.6641314 0.8325987
0.6655917 0.6729410 0.8327098
0.7282796 0.6816597 0.8328223
0.7762675 0.6902320 0.8383535
0.1187419 0.7012411 0.8276533
0.2547019 0.7090940 0.8277369
0.3836830 0.7170134 0.8333860
0.5023684 0.7249343 0.8334901
0.5938167 0.7327937 0.8335993
0.6717591 0.7325828 0.8335848
0.7254677 0.7403288 0.8390960
0.7737611 0.7479761 0.8392067
0.1259374 0.7576048 0.8285466
0.2597908 0.7644481 0.8341594
0.3898664 0.7713844 0.8342570
0.5091093 0.7782481 0.8343602
0.6010226 0.7779989 0.8397248
0.6686462 0.7848278 0.8398333
0.7311430 0.7915026 0.8399416
0.7792959 0.7913647 0.8399305
