Plugins/FilmEmulator/Content/LUTs/FE_Kodak_5293_64.cube
TITLE "FE_Kodak_5293_33"
LUT_3D_SIZE 64
0.0007620 0.0004238 0.0006158
0.0027045 0.0004234 0.0006102
0.0069545 0.0004356 0.0006446
0.0135010 0.0005534 0.0007599
0.0225571 0.0007045 0.0009120
0.0330977 0.0008963 0.0010787
0.0435834 0.0011116 0.0012506
0.0567997 0.0013368 0.0014821
0.0691954 0.0015963 0.0017126
0.0811779 0.0019179 0.0019496
0.0949062 0.0021964 0.0022217
0.1074208 0.0025270 0.0024793
0.1211773 0.0029166 0.0027757
0.1330613 0.0032819 0.0030383
0.1459098 0.0037099 0.0033414
0.1597494 0.0041937 0.0036804
0.1705893 0.0047725 0.0039596
0.1822285 0.0052642 0.0042796
0.1988175 0.0058070 0.0047479
0.2071622 0.0064096 0.0050055
0.2205542 0.0070782 0.0054252
0.2345928 0.0075628 0.0058927
0.2436235 0.0083502 0.0062328
0.2583446 0.0089192 0.0067696
0.2682888 0.0095256 0.0071681
0.2781783 0.0105118 0.0076078
0.2880295 0.0112255 0.0080696
0.2980936 0.0119886 0.0085592
0.3083607 0.0128097 0.0090785
0.3188293 0.0136866 0.0096396
0.3298293 0.0141482 0.0102514
0.3402814 0.0151157 0.0109086
0.3508181 0.0161485 0.0116075
0.3557905 0.0172582 0.0119809
0.3669041 0.0178473 0.0127403
0.3719745 0.0190814 0.0131532
0.3833061 0.0197318 0.0140075
0.3883906 0.0210943 0.0144685
0.3994387 0.0218121 0.0154074
0.4044424 0.0233157 0.0159140
0.4156455 0.0241178 0.0169456
0.4210890 0.0249506 0.0174915
0.4261654 0.0266998 0.0180661
0.4316483 0.0276199 0.0186675
0.4430618 0.0285728 0.0199176
0.4483413 0.0295559 0.0205798
0.4536342 0.0305720 0.0212637
0.4585440 0.0327053 0.0219837
0.4638616 0.0338214 0.0227133
0.4691931 0.0349634 0.0234666
0.4802747 0.0361451 0.0250319
0.4856301 0.0373632 0.0258611
0.4909904 0.0386211 0.0267176
0.4963547 0.0399199 0.0276018
0.5016400 0.0412608 0.0285146
0.5068859 0.0426452 0.0294569
0.5121322 0.0440743 0.0304297
0.5173773 0.0455495 0.0314337
0.5226204 0.0470720 0.0324699
0.5222338 0.0486119 0.0324895
0.5274811 0.0502028 0.0335592
0.5327243 0.0518435 0.0346631
0.5379619 0.0535353 0.0357903
0.5435786 0.0535382 0.0369059
0.0007159 0.0017652 0.0006322
0.0029809 0.0020737 0.0006381
0.0072386 0.0023770 0.0007262
0.0134388 0.0027433 0.0008724
0.0218449 0.0031706 0.0010311
0.0322194 0.0035847 0.0011994
0.0438828 0.0040531 0.0014027
0.0556137 0.0044568 0.0016396
0.0678110 0.0050806 0.0019044
0.0798493 0.0056052 0.0021671
0.0933951 0.0061860 0.0024155
0.1059019 0.0068325 0.0026990
0.1168377 0.0073008 0.0029515
0.1316335 0.0080627 0.0032341
0.1446675 0.0086141 0.0035585
0.1548230 0.0095082 0.0039184
0.1697252 0.0101553 0.0042236
0.1815088 0.0108461 0.0045651
0.1938503 0.0115834 0.0049341
0.2068336 0.0123756 0.0053358
0.2204636 0.0132242 0.0057956
0.2294871 0.0141294 0.0061264
0.2438835 0.0146067 0.0066501
0.2534439 0.0156054 0.0070295
0.2632552 0.0166716 0.0074563
0.2733077 0.0178272 0.0079090
0.2886126 0.0184367 0.0086293
0.2986745 0.0197127 0.0091529
0.3092949 0.0203830 0.0094249
0.3141521 0.0217915 0.0100257
0.3250584 0.0225327 0.0106620
0.3357662 0.0232987 0.0113384
0.3462350 0.0249294 0.0117017
0.3514932 0.0257915 0.0124456
0.3625374 0.0266827 0.0132377
0.3733921 0.0285511 0.0136717
0.3788340 0.0295355 0.0145618
0.3899525 0.0305509 0.0150294
0.3952513 0.0316025 0.0160070
0.4006025 0.0326872 0.0165230
0.4117953 0.0338026 0.0170527
0.4168213 0.0361233 0.0181712
0.4222742 0.0373409 0.0187759
0.4336547 0.0385978 0.0193974
0.4391684 0.0398961 0.0200423
0.4444149 0.0412391 0.0213862
0.4497034 0.0426231 0.0220963
0.4550049 0.0440516 0.0228294
0.4603189 0.0455262 0.0235865
0.4713983 0.0470477 0.0243645
0.4771345 0.0470504 0.0251558
0.4824934 0.0485925 0.0259888
0.4878577 0.0501830 0.0268491
0.4932272 0.0518231 0.0277373
0.4985181 0.0535145 0.0286542
0.5037704 0.0552583 0.0296007
0.5090236 0.0570562 0.0305777
0.5142764 0.0589094 0.0315861
0.5199145 0.0589127 0.0326072
0.5251635 0.0608230 0.0336807
0.5247488 0.0627926 0.0347936
0.5299946 0.0648215 0.0359249
0.5352401 0.0668892 0.0370667
0.5408877 0.0668884 0.0370612
0.0007684 0.0054301 0.0006644
0.0033100 0.0059819 0.0007360
0.0075765 0.0063879 0.0008408
0.0142225 0.0070526 0.0009776
0.0224447 0.0077876 0.0011426
0.0321001 0.0083204 0.0013444
0.0437062 0.0091848 0.0015677
0.0554061 0.0098105 0.0018109
0.0676634 0.0104786 0.0020571
0.0797822 0.0111920 0.0023413
0.0909061 0.0119544 0.0026109
0.1032548 0.0127745 0.0028547
0.1168115 0.0136510 0.0031914
0.1285780 0.0145865 0.0035115
0.1413605 0.0155846 0.0037730
0.1553648 0.0161105 0.0041542
0.1663470 0.0172203 0.0044901
0.1781544 0.0178088 0.0048502
0.1903051 0.0190431 0.0052424
0.2030950 0.0203617 0.0056880
0.2168087 0.0210548 0.0060079
0.2307495 0.0217723 0.0065215
0.2399386 0.0232752 0.0068937
0.2496665 0.0240759 0.0072953
0.2649098 0.0249103 0.0079599
0.2747118 0.0266591 0.0084433
0.2847787 0.0275795 0.0089503
0.2950736 0.0285310 0.0094875
0.3055892 0.0295146 0.0100844
0.3160030 0.0315765 0.0104077
0.3267797 0.0326623 0.0110682
0.3318856 0.0337794 0.0117722
0.3426509 0.0349201 0.0121415
0.3535667 0.0361003 0.0129110
0.3588820 0.0373197 0.0137450
0.3700620 0.0385760 0.0141864
0.3754881 0.0398762 0.0151095
0.3865719 0.0412156 0.0155943
0.3918840 0.0425987 0.0160970
0.4029669 0.0440290 0.0171403
0.4083607 0.0455029 0.0176922
0.4137791 0.0470241 0.0182617
0.4191991 0.0485689 0.0194877
0.4305629 0.0501582 0.0201322
0.4360736 0.0517977 0.0208008
0.4413456 0.0534884 0.0214915
0.4466327 0.0552316 0.0222047
0.4522879 0.0552383 0.0236764
0.4633407 0.0570350 0.0244570
0.4686784 0.0588877 0.0252667
0.4740250 0.0607974 0.0261032
0.4793801 0.0627657 0.0269673
0.4851271 0.0627690 0.0278424
0.4904940 0.0647973 0.0287626
0.4957877 0.0668646 0.0297124
0.5010453 0.0689821 0.0306927
0.5066848 0.0689857 0.0316857
0.5119441 0.0711662 0.0327294
0.5172026 0.0734108 0.0338064
0.5224873 0.0757165 0.0338215
0.5281206 0.0757203 0.0349128
0.5277129 0.0780994 0.0360528
0.5329626 0.0805464 0.0371983
0.5385861 0.0805503 0.0383565
0.0009545 0.0108476 0.0007644
0.0036494 0.0115713 0.0008726
0.0080431 0.0123551 0.0009916
0.0147675 0.0131968 0.0011232
0.0233632 0.0140976 0.0012734
0.0333628 0.0150619 0.0014960
0.0440061 0.0160918 0.0017174
0.0558032 0.0166341 0.0019906
0.0680588 0.0177877 0.0022159
0.0803492 0.0183958 0.0025205
0.0914254 0.0196700 0.0027546
0.1039676 0.0203413 0.0030776
0.1146386 0.0217485 0.0033760
0.1295220 0.0224889 0.0037117
0.1423671 0.0240510 0.0039882
0.1527600 0.0248851 0.0044089
0.1676966 0.0257458 0.0047617
0.1793130 0.0275531 0.0051468
0.1917714 0.0285030 0.0054215
0.2048811 0.0294866 0.0058852
0.2138915 0.0305037 0.0063894
0.2277062 0.0315528 0.0067488
0.2370809 0.0326374 0.0071296
0.2515061 0.0348933 0.0077841
0.2615541 0.0360725 0.0082515
0.2715894 0.0372903 0.0087468
0.2815878 0.0385480 0.0092718
0.2918153 0.0398467 0.0098390
0.3022658 0.0411877 0.0104635
0.3129579 0.0425696 0.0107920
0.3236820 0.0439988 0.0114765
0.3287650 0.0454748 0.0122062
0.3394779 0.0469947 0.0125890
0.3503496 0.0485377 0.0133898
0.3556727 0.0501267 0.0138220
0.3671443 0.0501319 0.0147101
0.3725837 0.0517706 0.0151844
0.3836130 0.0534633 0.0161691
0.3889157 0.0552057 0.0166899
0.3999740 0.0570050 0.0177709
0.4053608 0.0588569 0.0183427
0.4107718 0.0607658 0.0189528
0.4224417 0.0607681 0.0195679
0.4278956 0.0627397 0.0208802
0.4333969 0.0647673 0.0215734
0.4386649 0.0668338 0.0222891
0.4500293 0.0668364 0.0230109
0.4553451 0.0689532 0.0237733
0.4606726 0.0711329 0.0245605
0.4660115 0.0733766 0.0253733
0.4717384 0.0733804 0.0261974
0.4770963 0.0756902 0.0270642
0.4824610 0.0780674 0.0279591
0.4882116 0.0780714 0.0288656
0.4935057 0.0805179 0.0298186
0.4987621 0.0830351 0.0308024
0.5044011 0.0830393 0.0317988
0.5096604 0.0856290 0.0328461
0.5149195 0.0882929 0.0339269
0.5205574 0.0882972 0.0350215
0.5258154 0.0910157 0.0361594
0.5310754 0.0937669 0.0373078
0.5310479 0.0937728 0.0384749
0.5363305 0.0965937 0.0384914
0.0011730 0.0184302 0.0009081
0.0040612 0.0190375 0.0010188
0.0086207 0.0203437 0.0011527
0.0154382 0.0210282 0.0013077
0.0236503 0.0224755 0.0014537
0.0337754 0.0232354 0.0016286
0.0445906 0.0240342 0.0018834
0.0564190 0.0257229 0.0021397
0.0668984 0.0266128 0.0024338
0.0789971 0.0275319 0.0027136
0.0924145 0.0284810 0.0029647
0.1049134 0.0304750 0.0032415
0.1157674 0.0315249 0.0035646
0.1276028 0.0326100 0.0039197
0.1404675 0.0337245 0.0042144
0.1544020 0.0348655 0.0045516
0.1655347 0.0360445 0.0049166
0.1772601 0.0372622 0.0053108
0.1895944 0.0385200 0.0057587
0.2025928 0.0398189 0.0062510
0.2162206 0.0411578 0.0066025
0.2252534 0.0425408 0.0069749
0.2394529 0.0439706 0.0075972
0.2491681 0.0454448 0.0080535
0.2591529 0.0469663 0.0085370
0.2691329 0.0485081 0.0090493
0.2790788 0.0500982 0.0095922
0.2892543 0.0517385 0.0101955
0.2996554 0.0534300 0.0108424
0.3102997 0.0551706 0.0111825
0.3209789 0.0569687 0.0118915
0.3318780 0.0569742 0.0126374
0.3370589 0.0588251 0.0130356
0.3478915 0.0607360 0.0138751
0.3589174 0.0627015 0.0143205
0.3642763 0.0647321 0.0152521
0.3758186 0.0647342 0.0157315
0.3810555 0.0668040 0.0167537
0.3920588 0.0689190 0.0172903
0.3974122 0.0710974 0.0178466
0.4031293 0.0711055 0.0190131
0.4143612 0.0733475 0.0196420
0.4198170 0.0756565 0.0202945
0.4256647 0.0756604 0.0209557
0.4311640 0.0780368 0.0216511
0.4363994 0.0804876 0.0231005
0.4477500 0.0804906 0.0238480
0.4530601 0.0830071 0.0246377
0.4583828 0.0855960 0.0254530
0.4640945 0.0856002 0.0262796
0.4694396 0.0882634 0.0271491
0.4747969 0.0909810 0.0280466
0.4805380 0.0909855 0.0289559
0.4859153 0.0937362 0.0299113
0.4912164 0.0965624 0.0308976
0.4968518 0.0965672 0.0318970
0.5021185 0.0994706 0.0329470
0.5077583 0.0994755 0.0340109
0.5130259 0.1024575 0.0351285
0.5182933 0.1055199 0.0362695
0.5239578 0.1055183 0.0362641
0.5292194 0.1086623 0.0374157
0.5348474 0.1086672 0.0385804
0.5344490 0.1118964 0.0398089
0.0014341 0.0275858 0.0010634
0.0045377 0.0285080 0.0011837
0.0093395 0.0294747 0.0013423
0.0162085 0.0304776 0.0014943
0.0248393 0.0325995 0.0016743
0.0342746 0.0337083 0.0018589
0.0452048 0.0348444 0.0020644
0.0572753 0.0360193 0.0022968
0.0678263 0.0372350 0.0025568
0.0800112 0.0384908 0.0028546
0.0911232 0.0397888 0.0031893
0.1036083 0.0411278 0.0035010
0.1172347 0.0425084 0.0037587
0.1292031 0.0439367 0.0041331
0.1421959 0.0454095 0.0044610
0.1525913 0.0469307 0.0048187
0.1636200 0.0484721 0.0052050
0.1793284 0.0500612 0.0056336
0.1874650 0.0517024 0.0061163
0.2006117 0.0517052 0.0064562
0.2141438 0.0533938 0.0068190
0.2278388 0.0551383 0.0074145
0.2372243 0.0569349 0.0078598
0.2468815 0.0587870 0.0083316
0.2568091 0.0606960 0.0088316
0.2721149 0.0607001 0.0093541
0.2821307 0.0626680 0.0099261
0.2923746 0.0646964 0.0105561
0.3028464 0.0667638 0.0112256
0.3080060 0.0688784 0.0115794
0.3189722 0.0688847 0.0123058
0.3295022 0.0710655 0.0130853
0.3402392 0.0733062 0.0134986
0.3458079 0.0733143 0.0143685
0.3568076 0.0756210 0.0148294
0.3621577 0.0780012 0.0157935
0.3733175 0.0804444 0.0162996
0.3789221 0.0804482 0.0168143
0.3898748 0.0829673 0.0179031
0.3952172 0.0855550 0.0184788
0.4009488 0.0855593 0.0190817
0.4121328 0.0882255 0.0203586
0.4179475 0.0882299 0.0210219
0.4234205 0.0909466 0.0217193
0.4289201 0.0936963 0.0224393
0.4402224 0.0936995 0.0231658
0.4455210 0.0965248 0.0239330
0.4508341 0.0994272 0.0247251
0.4565279 0.0994320 0.0255279
0.4618389 0.1024196 0.0272327
0.4675578 0.1024245 0.0281162
0.4729179 0.1054861 0.0290446
0.4786562 0.1054911 0.0299855
0.4840315 0.1086347 0.0309741
0.4893591 0.1118546 0.0309875
0.4949932 0.1118599 0.0319898
0.5002592 0.1151718 0.0330427
0.5058986 0.1151773 0.0341096
0.5111665 0.1185757 0.0352303
0.5168060 0.1185813 0.0363535
0.5220723 0.1220676 0.0375078
0.5277069 0.1220730 0.0386753
0.5329726 0.1255774 0.0399004
0.5386232 0.1255754 0.0398945
0.0017302 0.0385697 0.0012384
0.0049756 0.0398321 0.0013783
0.0101337 0.0411491 0.0015372
0.0170605 0.0425169 0.0017234
0.0253228 0.0439332 0.0019124
0.0359951 0.0453969 0.0021231
0.0459648 0.0469106 0.0023119
0.0583147 0.0469082 0.0025159
0.0689662 0.0484455 0.0027452
0.0812351 0.0500335 0.0030664
0.0925104 0.0516707 0.0033556
0.1050941 0.0533597 0.0036892
0.1159780 0.0551000 0.0039614
0.1278364 0.0568973 0.0043699
0.1408961 0.0569012 0.0047166
0.1548699 0.0587518 0.0050938
0.1660340 0.0606608 0.0055051
0.1777687 0.0626254 0.0058147
0.1901345 0.0646536 0.0063117
0.2034255 0.0646568 0.0066624
0.2123403 0.0667256 0.0072327
0.2259701 0.0688405 0.0076657
0.2353044 0.0710192 0.0081259
0.2502548 0.0710235 0.0086068
0.2602791 0.0732667 0.0091231
0.2700156 0.0755760 0.0096704
0.2799856 0.0779533 0.0102784
0.2904948 0.0779601 0.0109238
0.3009280 0.0804069 0.0116164
0.3116036 0.0829194 0.0119805
0.3169951 0.0829281 0.0127339
0.3274894 0.0855184 0.0135437
0.3381919 0.0881777 0.0139784
0.3437434 0.0881872 0.0148789
0.3547141 0.0909013 0.0153559
0.3661965 0.0909038 0.0158385
0.3715402 0.0936580 0.0168672
0.3767872 0.0964821 0.0174099
0.3880994 0.0964849 0.0179564
0.3934138 0.0993924 0.0191412
0.4049146 0.0993954 0.0197624
0.4103377 0.1023756 0.0204185
0.4157850 0.1054359 0.0210961
0.4215883 0.1054475 0.0224954
0.4327299 0.1085882 0.0232372
0.4383707 0.1085934 0.0239926
0.4436637 0.1118194 0.0247866
0.4493386 0.1118246 0.0255914
0.4546610 0.1151357 0.0264379
0.4599961 0.1185332 0.0273121
0.4657113 0.1185386 0.0281982
0.4710679 0.1220243 0.0291293
0.4768035 0.1220300 0.0300728
0.4821839 0.1255335 0.0310638
0.4878526 0.1255393 0.0320685
0.4931216 0.1291304 0.0331236
0.4987583 0.1291365 0.0341930
0.5040329 0.1328164 0.0353160
0.5096730 0.1328226 0.0364418
0.5149490 0.1365929 0.0375984
0.5206155 0.1365907 0.0375928
0.5258868 0.1404524 0.0387848
0.5315179 0.1404584 0.0399907
0.5367797 0.1444130 0.0412560
0.0020374 0.0501364 0.0014176
0.0054752 0.0517337 0.0015808
0.0106788 0.0533976 0.0017740
0.0180134 0.0551192 0.0019667
0.0267590 0.0551095 0.0021820
0.0367538 0.0568932 0.0023747
0.0468799 0.0587360 0.0025857
0.0576473 0.0606378 0.0028226
0.0701317 0.0625956 0.0030150
0.0826070 0.0625943 0.0032192
0.0940549 0.0646193 0.0035337
0.1041024 0.0666853 0.0038856
0.1177914 0.0687969 0.0041714
0.1299789 0.0688047 0.0046165
0.1396174 0.0709833 0.0049866
0.1534881 0.0732247 0.0053853
0.1645844 0.0755301 0.0056818
0.1764415 0.0755375 0.0061637
0.1887521 0.0779108 0.0065102
0.2017143 0.0803574 0.0070662
0.2153798 0.0803614 0.0074717
0.2243939 0.0828771 0.0079203
0.2385809 0.0854633 0.0083942
0.2485598 0.0854698 0.0088924
0.2585379 0.0881321 0.0094257
0.2682327 0.0908494 0.0100019
0.2784606 0.0908571 0.0106301
0.2886335 0.0936080 0.0113041
0.2993405 0.0936159 0.0120133
0.3099908 0.0964369 0.0123895
0.3204421 0.0993408 0.0131740
0.3258618 0.0993452 0.0135840
0.3365197 0.1023283 0.0144656
0.3477140 0.1023310 0.0149205
0.3530068 0.1053964 0.0158903
0.3641225 0.1085354 0.0163992
0.3697962 0.1085468 0.0174536
0.3806732 0.1117695 0.0180120
0.3863230 0.1117744 0.0185800
0.3916538 0.1150841 0.0191975
0.4031089 0.1150947 0.0204697
0.4085238 0.1184913 0.0211489
0.4143218 0.1184966 0.0218375
0.4256606 0.1219792 0.0225578
0.4312766 0.1219847 0.0232916
0.4365556 0.1254873 0.0240626
0.4421811 0.1255008 0.0256548
0.4474922 0.1290911 0.0265031
0.4531775 0.1290970 0.0273634
0.4585167 0.1327762 0.0282673
0.4699807 0.1327801 0.0291792
0.4753515 0.1365497 0.0301415
0.4810935 0.1365558 0.0311170
0.4863971 0.1404171 0.0321416
0.4920292 0.1404234 0.0331801
0.4973290 0.1443687 0.0331941
0.5029677 0.1443751 0.0342657
0.5025747 0.1484257 0.0353962
0.5082148 0.1484323 0.0365245
0.5134911 0.1525758 0.0376837
0.5191306 0.1525823 0.0388564
0.5244029 0.1568225 0.0400871
0.5300355 0.1568291 0.0413321
0.5356895 0.1568267 0.0413260
0.0024377 0.0627246 0.0016270
0.0060566 0.0647059 0.0018263
0.0116496 0.0667388 0.0020226
0.0190768 0.0667174 0.0021954
0.0273689 0.0688156 0.0023885
0.0375338 0.0709789 0.0025993
0.0478193 0.0732112 0.0028367
0.0588043 0.0732062 0.0030279
0.0715198 0.0755074 0.0033069
0.0818080 0.0778775 0.0035501
0.0932872 0.0778787 0.0038088
0.1059007 0.0803183 0.0040890
0.1168597 0.0828311 0.0044047
0.1289728 0.0828360 0.0047540
0.1419421 0.0854218 0.0051341
0.1523283 0.0880838 0.0055486
0.1674225 0.0880901 0.0060181
0.1792299 0.0908032 0.0063564
0.1916845 0.0935539 0.0068993
0.2005133 0.0935599 0.0072837
0.2138721 0.0963823 0.0077196
0.2278188 0.0963928 0.0084173
0.2372142 0.0992947 0.0089221
0.2468818 0.1022751 0.0094571
0.2571180 0.1022766 0.0097318
0.2667808 0.1053383 0.0103436
0.2769729 0.1053469 0.0109930
0.2871119 0.1084908 0.0116898
0.2977846 0.1084996 0.0124230
0.3084023 0.1117206 0.0128119
0.3188231 0.1150334 0.0136264
0.3297053 0.1150363 0.0140552
0.3348571 0.1184382 0.0149694
0.3460235 0.1184411 0.0154400
0.3513034 0.1219314 0.0164432
0.3627346 0.1219343 0.0169595
0.3680876 0.1254353 0.0175048
0.3792650 0.1254460 0.0186264
0.3845629 0.1290350 0.0192452
0.3959665 0.1290385 0.0198697
0.4013541 0.1327163 0.0205291
0.4070904 0.1327305 0.0218914
0.4125306 0.1364988 0.0226168
0.4242157 0.1365025 0.0233486
0.4294708 0.1403626 0.0241214
0.4351004 0.1403689 0.0249050
0.4403912 0.1443216 0.0257284
0.4460563 0.1443281 0.0265638
0.4571013 0.1483729 0.0274376
0.4628102 0.1483794 0.0283276
0.4685314 0.1483860 0.0292458
0.4738998 0.1525288 0.0302103
0.4796399 0.1525355 0.0311880
0.4849420 0.1567750 0.0322148
0.4905728 0.1567819 0.0332557
0.4958435 0.1611191 0.0343488
0.5014812 0.1611262 0.0354565
0.5067562 0.1655684 0.0366075
0.5067289 0.1655780 0.0377534
0.5123698 0.1655848 0.0389282
0.5176721 0.1701209 0.0389445
0.5233091 0.1701279 0.0401552
0.5285780 0.1747749 0.0414256
0.5342064 0.1747820 0.0427106
0.0028019 0.0756583 0.0018421
0.0065627 0.0779821 0.0020372
0.0123269 0.0803901 0.0022585
0.0195181 0.0828773 0.0024553
0.0289671 0.0828593 0.0026696
0.0383842 0.0854324 0.0029138
0.0489157 0.0854234 0.0031095
0.0599822 0.0880724 0.0033211
0.0709248 0.0907794 0.0035644
0.0834192 0.0907779 0.0038234
0.0949809 0.0935207 0.0041045
0.1077340 0.0963349 0.0043083
0.1190138 0.0963402 0.0046501
0.1311473 0.0992393 0.0050218
0.1410387 0.0992472 0.0054209
0.1550302 0.1022260 0.0058767
0.1662006 0.1052820 0.0062070
0.1781403 0.1052917 0.0067332
0.1905494 0.1084299 0.0071113
0.2038620 0.1084345 0.0075192
0.2126197 0.1116657 0.0082052
0.2265239 0.1116712 0.0086907
0.2358810 0.1149815 0.0092119
0.2457807 0.1149896 0.0097583
0.2606315 0.1183851 0.0103698
0.2706901 0.1183874 0.0106887
0.2806826 0.1218736 0.0113663
0.2909119 0.1253778 0.0120864
0.3016922 0.1253803 0.0124575
0.3068310 0.1289746 0.0132482
0.3175389 0.1289852 0.0140927
0.3280798 0.1326590 0.0145444
0.3335448 0.1326724 0.0154809
0.3443633 0.1364366 0.0159767
0.3556860 0.1364398 0.0164785
0.3613760 0.1364536 0.0175379
0.3723067 0.1403096 0.0180987
0.3779049 0.1403154 0.0186694
0.3831686 0.1442758 0.0199217
0.3945561 0.1442796 0.0205678
0.3999367 0.1483257 0.0212499
0.4056928 0.1483321 0.0219418
0.4169638 0.1524710 0.0226652
0.4227721 0.1524868 0.0241666
0.4280222 0.1567252 0.0249659
0.4336467 0.1567320 0.0257765
0.4389327 0.1610682 0.0266286
0.4502987 0.1610726 0.0274888
0.4559915 0.1610795 0.0283805
0.4613359 0.1655209 0.0293171
0.4670543 0.1655280 0.0302666
0.4724196 0.1700729 0.0312639
0.4781573 0.1700801 0.0322747
0.4834570 0.1747264 0.0333365
0.4890862 0.1747340 0.0344125
0.4947203 0.1747414 0.0355223
0.5000207 0.1794793 0.0355373
0.5056602 0.1794870 0.0366699
0.5109360 0.1843378 0.0378336
0.5165763 0.1843452 0.0390109
0.5165489 0.1843556 0.0402294
0.5218216 0.1893104 0.0415021
0.5274838 0.1893074 0.0414960
0.5331133 0.1893149 0.0427831
0.0032342 0.0909560 0.0020979
0.0071108 0.0936495 0.0023239
0.0130623 0.0936094 0.0025222
0.0207021 0.0964017 0.0027444
0.0296744 0.0992752 0.0029279
0.0393178 0.0992610 0.0031236
0.0499734 0.1022278 0.0034156
0.0612734 0.1022220 0.0036627
0.0724430 0.1052669 0.0038386
0.0850716 0.1052651 0.0041175
0.0968404 0.1084006 0.0044344
0.1070213 0.1116174 0.0046675
0.1182352 0.1116232 0.0050375
0.1303094 0.1149250 0.0053023
0.1435740 0.1149317 0.0057351
0.1540748 0.1183235 0.0060575
0.1692774 0.1183312 0.0065698
0.1811934 0.1218111 0.0069389
0.1896423 0.1218184 0.0073255
0.2026591 0.1253241 0.0079923
0.2161942 0.1253299 0.0084652
0.2252444 0.1289193 0.0089729
0.2397412 0.1289255 0.0095035
0.2494857 0.1326043 0.0100841
0.2595042 0.1326144 0.0107172
0.2692524 0.1363768 0.0110531
0.2795053 0.1363873 0.0117467
0.2897078 0.1402493 0.0124906
0.3004611 0.1402520 0.0128740
0.3109641 0.1442072 0.0136922
0.3162704 0.1442214 0.0145744
0.3267879 0.1482631 0.0150414
0.3378150 0.1482663 0.0155143
0.3430384 0.1524149 0.0165220
0.3543399 0.1524183 0.0170407
0.3600198 0.1524333 0.0181358
0.3709323 0.1566674 0.0187154
0.3765206 0.1566741 0.0193260
0.3874853 0.1610060 0.0199645
0.3931476 0.1610226 0.0212900
0.3985206 0.1654626 0.0219957
0.4100743 0.1654667 0.0227078
0.4158794 0.1654736 0.0234462
0.4213562 0.1700173 0.0242221
0.4269559 0.1700247 0.0250089
0.4322197 0.1746696 0.0258356
0.4435437 0.1746742 0.0266705
0.4488579 0.1794213 0.0275519
0.4545470 0.1794288 0.0284456
0.4602498 0.1794365 0.0293675
0.4656034 0.1842865 0.0303359
0.4713294 0.1842943 0.0313175
0.4767013 0.1892482 0.0323485
0.4823639 0.1892561 0.0333935
0.4879919 0.1892641 0.0344714
0.4932602 0.1943223 0.0356033
0.4988973 0.1943303 0.0367379
0.5045371 0.1943381 0.0378822
0.5098127 0.1995014 0.0390831
0.5154808 0.1994981 0.0390773
0.5207539 0.2047665 0.0403148
0.5207266 0.2047778 0.0415727
0.5263621 0.2047857 0.0428621
0.5316282 0.2101600 0.0442149
0.0036522 0.1054667 0.0023407
0.0077174 0.1085448 0.0025393
0.0138437 0.1085017 0.0027589
0.0219570 0.1116904 0.0030074
0.0314259 0.1116662 0.0032066
0.0415292 0.1149529 0.0034282
0.0511278 0.1183338 0.0036783
0.0625969 0.1183271 0.0039444
0.0739861 0.1217996 0.0042332
0.0844972 0.1217960 0.0044493
0.0961955 0.1252916 0.0048039
0.1091564 0.1252887 0.0050524
0.1204271 0.1288689 0.0053178
0.1328515 0.1288694 0.0055969
0.1426888 0.1325423 0.0059114
0.1570079 0.1325505 0.0064114
0.1682661 0.1363138 0.0067715
0.1803252 0.1363257 0.0073453
0.1928566 0.1401816 0.0077846
0.2017251 0.1401907 0.0082468
0.2149729 0.1441398 0.0087398
0.2242334 0.1441493 0.0092584
0.2386838 0.1441559 0.0098058
0.2483971 0.1482036 0.0104219
0.2583859 0.1482146 0.0110761
0.2681062 0.1523498 0.0114231
0.2783310 0.1523612 0.0121396
0.2885068 0.1566019 0.0129082
0.2992333 0.1566046 0.0133043
0.3097107 0.1609436 0.0141604
0.3204197 0.1609469 0.0146058
0.3258152 0.1609626 0.0155462
0.3365027 0.1653979 0.0160440
0.3476723 0.1654109 0.0170731
0.3529951 0.1699528 0.0176219
0.3643748 0.1699564 0.0181748
0.3695573 0.1746099 0.0193736
0.3751364 0.1746171 0.0200053
0.3864276 0.1746214 0.0206541
0.3917651 0.1793673 0.0213391
0.3974780 0.1793746 0.0220338
0.4086432 0.1842310 0.0235039
0.4144417 0.1842386 0.0242677
0.4202663 0.1842463 0.0250558
0.4255065 0.1891990 0.0258841
0.4367845 0.1892039 0.0267204
0.4420799 0.1942609 0.0276035
0.4477500 0.1942688 0.0284987
0.4534360 0.1942769 0.0294224
0.4587747 0.1994394 0.0303925
0.4644875 0.1994475 0.0313759
0.4702115 0.1994557 0.0323903
0.4755819 0.2047236 0.0334556
0.4812428 0.2047321 0.0345354
0.4865051 0.2101055 0.0356693
0.4921373 0.2101141 0.0368061
0.4978017 0.2101107 0.0368007
0.5030760 0.2155881 0.0379683
0.5087168 0.2155964 0.0391496
0.5143574 0.2156048 0.0403664
0.5196317 0.2211842 0.0416433
0.5252680 0.2211926 0.0429348
0.5252680 0.2211926 0.0429348
0.5305356 0.2268783 0.0442898
0.0040206 0.1220223 0.0026131
0.0084532 0.1219558 0.0028378
0.0146716 0.1254027 0.0030233
0.0225627 0.1253672 0.0032219
0.0321957 0.1289280 0.0035254
0.0425559 0.1289054 0.0036897
0.0523824 0.1325667 0.0039587
0.0640377 0.1325593 0.0042451
0.0756109 0.1363097 0.0044632
0.0862895 0.1363124 0.0048161
0.0981971 0.1401585 0.0050681
0.1085935 0.1401586 0.0053311
0.1198033 0.1441084 0.0057697
0.1321709 0.1441096 0.0060892
0.1454307 0.1481472 0.0064300
0.1562476 0.1481444 0.0066044
0.1674484 0.1522884 0.0071682
0.1794730 0.1522940 0.0075794
0.1919580 0.1565281 0.0080326
0.2052880 0.1565345 0.0085078
0.2142359 0.1565447 0.0090128
0.2279660 0.1608771 0.0095513
0.2376287 0.1608878 0.0101288
0.2473114 0.1653298 0.0107709
0.2622352 0.1653384 0.0114449
0.2720502 0.1698752 0.0118034
0.2823711 0.1698875 0.0125436
0.2876017 0.1699032 0.0133320
0.2980064 0.1745416 0.0137524
0.3087650 0.1745549 0.0146360
