Plugins/FilmEmulator/Content/LUTs/FE_Kodak_Ektachrome_100D_64.cube
TITLE "FE_Kodak_Ektachrome_100D_33"
LUT_3D_SIZE 4
0.0011610 0.0005464 0.0003700
0.1093548 0.0066417 0.0056230
0.2732707 0.0357080 0.0275648
0.4330311 0.0783367 0.0581800
0.0129808 0.1557030 0.0000000
0.3181467 0.2898688 0.0015586
0.5313073 0.3555191 0.0245967
0.6997354 0.4065883 0.0499026
0.0432430 0.3275648 0.0100993
0.3964925 0.4838182 0.0205667
0.6341420 0.5517846 0.0439326
0.8117390 0.5991096 0.0688967
0.0804697 0.4439797 0.0370350
0.4317695 0.5883173 0.0472112
0.6855982 0.6574337 0.0698747
0.8677194 0.7014870 0.0965834
0.0204655 0.0000000 0.1976636
0.2015983 0.0140935 0.2703138
0.3633138 0.0397567 0.3129874
0.5186779 0.0853225 0.3534100
0.0000000 0.2473657 0.3292824
0.3581491 0.3534476 0.3733999
0.5885695 0.4062884 0.3967816
0.7622153 0.4500583 0.4161873
0.0287752 0.4284876 0.3531901
0.4226882 0.5556857 0.3860967
0.6748139 0.6105643 0.4050426
0.8586557 0.6468770 0.4226036
0.0752175 0.5322996 0.3613696
0.4558344 0.6551637 0.3871017
0.7179443 0.7106552 0.4068803
0.9048175 0.7456158 0.4240526
0.0552040 0.0200646 0.3587694
0.2689121 0.0481608 0.4193217
0.4373065 0.0797206 0.4536342
0.5773091 0.1122538 0.4771963
0.0583280 0.2806063 0.4880265
0.4037592 0.3683299 0.5257127
0.6272720 0.4175771 0.5406158
0.7944158 0.4608095 0.5518440
0.0748948 0.4623171 0.5186098
0.4675336 0.5743333 0.5469519
0.7121668 0.6229210 0.5588969
0.8879246 0.6565744 0.5659001
0.1243409 0.5699918 0.5319942
0.5019345 0.6770440 0.5536581
0.7561035 0.7269880 0.5643479
0.9345626 0.7588397 0.5704918
0.1032234 0.0565800 0.4459220
0.3269187 0.0906702 0.4907088
0.4962948 0.1232096 0.5156982
0.6328523 0.1537496 0.5326459
0.1282260 0.3051336 0.5483563
0.4437606 0.3785831 0.5765968
0.6603800 0.4291501 0.5893718
0.8202994 0.4696594 0.5976704
0.1524791 0.4944753 0.5799309
0.5138844 0.5866782 0.6014759
0.7452315 0.6317682 0.6094362
0.9131662 0.6638252 0.6144044
0.1772072 0.5929481 0.5911138
0.5475370 0.6889558 0.6091231
0.7894605 0.7347973 0.6157966
0.9592696 0.7647846 0.6192770
