Plugins/FilmEmulator/Content/LUTs/FE_Kodak_5213_64.cube
TITLE "FE_Kodak_5213_33"
LUT_3D_SIZE 8
0.0015915 0.0010500 0.0015134
0.0816808 0.0023396 0.0030308
0.1901315 0.0054789 0.0068353
0.2906471 0.0097341 0.0117080
0.3756413 0.0152500 0.0171233
0.4525254 0.0207206 0.0233644
0.5142059 0.0281020 0.0298077
0.5672733 0.0352365 0.0366657
0.0033971 0.0917533 0.0038767
0.0829923 0.0996028 0.0075985
0.1844848 0.1107570 0.0123580
0.2853504 0.1187932 0.0178115
0.3716369 0.1272025 0.0232966
0.4494546 0.1405454 0.0295057
0.5125114 0.1501427 0.0361030
0.5667853 0.1552680 0.0440845
0.0077332 0.2194336 0.0091143
0.0896214 0.2280593 0.0136730
0.1866562 0.2426391 0.0190224
0.2884586 0.2504237 0.0256597
0.3753940 0.2581397 0.0313241
0.4449351 0.2659405 0.0382589
0.5079094 0.2814758 0.0452122
0.5622297 0.2896038 0.0533284
0.0133039 0.3419335 0.0156511
0.0944102 0.3527096 0.0208288
0.1956973 0.3625866 0.0270979
0.2931947 0.3722253 0.0330355
0.3723851 0.3818241 0.0403121
0.4509121 0.3823457 0.0474850
0.5141849 0.3918595 0.0541571
0.5594243 0.4013998 0.0617205
0.0194060 0.4525420 0.0229059
0.0998032 0.4544707 0.0285501
0.1998724 0.4651092 0.0347159
0.2914600 0.4658730 0.0422487
0.3788249 0.4761432 0.0497812
0.4485638 0.4862914 0.0567436
0.5120257 0.4867279 0.0644856
0.5662882 0.4967746 0.0709042
0.0262584 0.5306857 0.0312076
0.1089944 0.5420096 0.0364625
0.2045291 0.5429993 0.0442651
0.2973070 0.5533554 0.0520950
0.3857106 0.5539196 0.0592427
0.4558504 0.5639883 0.0673113
0.5102923 0.5643343 0.0739079
0.5645756 0.5743254 0.0811956
0.0331244 0.6080065 0.0397491
0.1154428 0.6094378 0.0464085
0.2153274 0.6102908 0.0526526
0.3035633 0.6202314 0.0599068
0.3842812 0.6207373 0.0679421
0.4543433 0.6304234 0.0770352
0.5178658 0.6307837 0.0844862
0.5720609 0.6402562 0.0925110
0.0403981 0.6633209 0.0487912
0.1223065 0.6645023 0.0551193
0.2205260 0.6652755 0.0624898
0.3100938 0.6746458 0.0708146
0.3916010 0.6750723 0.0776397
0.4620475 0.6841178 0.0852180
0.5165488 0.6844212 0.0932009
0.5709862 0.6847241 0.1017915
0.0064247 0.0031358 0.1049840
0.0974540 0.0063840 0.1145241
0.2053114 0.0105829 0.1224535
0.3041421 0.0154107 0.1307389
0.3917066 0.0209182 0.1393797
0.4606594 0.0273043 0.1486372
0.5230651 0.0329682 0.1581320
0.5761876 0.0396813 0.1633910
0.0093814 0.0970489 0.1232605
0.0976466 0.1082397 0.1285492
0.2015197 0.1160325 0.1356308
0.2932116 0.1241796 0.1434448
0.3803840 0.1371596 0.1519950
0.4589292 0.1464906 0.1610359
0.5220396 0.1563192 0.1706074
0.5671444 0.1614633 0.1754935
0.0135111 0.2292479 0.1302749
0.1020564 0.2374799 0.1358845
0.2038906 0.2450447 0.1431981
0.2962713 0.2598118 0.1513800
0.3842974 0.2675579 0.1600992
0.4543087 0.2753783 0.1694050
0.5175945 0.2833185 0.1791937
0.5717489 0.2913079 0.1842266
0.0196344 0.3540696 0.1400036
0.1074739 0.3556574 0.1461924
0.2075743 0.3652221 0.1540141
0.3012125 0.3746650 0.1627254
0.3813907 0.3840432 0.1672030
0.4602443 0.3935333 0.1767951
0.5144949 0.4030177 0.1869718
0.5689159 0.4032554 0.1919829
0.0264919 0.4557687 0.1454202
0.1134709 0.4572770 0.1521074
0.2118818 0.4676512 0.1603104
0.3067505 0.4778635 0.1693530
0.3878301 0.4782398 0.1737998
0.4580523 0.4882852 0.1837433
0.5213773 0.4983149 0.1941839
0.5757087 0.4985634 0.1993446
0.0333824 0.5431309 0.1507844
0.1199413 0.5444862 0.1578967
0.2165462 0.5548698 0.1665168
0.3129089 0.5554226 0.1756619
0.3945291 0.5654455 0.1855928
0.4653143 0.5657545 0.1904759
0.5196025 0.5756877 0.2012666
0.5739651 0.5759315 0.2065715
0.0406706 0.6103854 0.1605167
0.1269208 0.6115186 0.1636091
0.2215796 0.6215290 0.1725709
0.3193179 0.6220580 0.1819822
0.3932603 0.6224332 0.1920503
0.4637619 0.6319589 0.1972660
0.5273792 0.6322703 0.2080881
0.5724276 0.6416054 0.2138095
0.0478805 0.6652897 0.1659988
0.1343506 0.6662672 0.1693557
0.2333092 0.6669130 0.1783867
0.3181683 0.6761408 0.1883429
0.4006067 0.6765210 0.1986330
0.4714666 0.6854565 0.2039872
0.5260379 0.6857179 0.2151556
0.5802817 0.6859355 0.2207746
0.0157458 0.0078644 0.2384910
0.1126961 0.0122815 0.2440831
0.2152329 0.0179651 0.2517096
0.3098528 0.0235055 0.2592212
0.3985971 0.0295148 0.2668046
0.4681216 0.0369752 0.2747239
0.5308178 0.0427865 0.2822969
0.5838284 0.0512720 0.2903322
0.0189622 0.1045327 0.2550440
0.1108463 0.1124632 0.2656533
0.2132551 0.1204771 0.2715681
0.3081379 0.1331448 0.2783517
0.3975643 0.1422508 0.2851866
0.4680188 0.1518312 0.2923280
0.5220904 0.1619127 0.2997146
0.5761674 0.1672261 0.3069416
0.0236446 0.2305272 0.2674378
0.1157617 0.2454460 0.2717159
0.2157148 0.2531024 0.2775316
0.3116659 0.2607879 0.2910373
0.3929213 0.2760392 0.2981317
0.4633819 0.2839769 0.3051991
0.5267375 0.2920044 0.3124325
0.5807494 0.3001423 0.3198335
0.0286508 0.3555450 0.2780015
0.1217956 0.3657179 0.2823435
0.2195501 0.3752987 0.2883691
0.3165432 0.3848052 0.2948870
0.3987886 0.3851601 0.3015046
0.4695463 0.3945818 0.3086179
0.5238498 0.4040265 0.3159687
0.5779177 0.4135501 0.3234163
0.0348271 0.4572849 0.2874721
0.1284899 0.4682205 0.2921831
0.2304387 0.4689158 0.2980738
0.3224329 0.4790488 0.3047930
0.3964719 0.4890769 0.3118827
0.4673468 0.4893896 0.3188609
0.5307479 0.4993699 0.3262758
0.5757448 0.5092911 0.3339286
0.0409441 0.5445416 0.2894667
0.1357960 0.5457835 0.2941444
0.2353900 0.5560805 0.3003943
0.3208941 0.5565182 0.3069448
0.4034147 0.5664864 0.3139926
0.4746187 0.5667952 0.3209969
0.5289626 0.5766730 0.3285139
0.5831463 0.5769167 0.3358375
0.0498025 0.6116958 0.2981395
0.1392707 0.6127351 0.3032535
0.2407369 0.6226862 0.3096196
0.3273930 0.6231050 0.3162855
0.4106137 0.6326844 0.3234558
0.4730617 0.6329477 0.3306480
0.5365025 0.6423358 0.3382103
0.5816169 0.6425359 0.3457192
0.0566272 0.6664914 0.3068427
0.1473086 0.6674092 0.3121875
0.2463298 0.6767561 0.3187338
0.3341567 0.6771477 0.3255087
0.4095401 0.6774535 0.3325808
0.4807870 0.6863755 0.3400949
0.5353881 0.6865924 0.3475507
0.5802885 0.6952523 0.3474691
0.0270809 0.0147793 0.3573792
0.1263884 0.0201461 0.3642541
0.2322829 0.0263536 0.3648173
0.3237215 0.0330623 0.3737964
0.4056728 0.0398195 0.3827746
0.4760080 0.0460675 0.3916629
0.5387098 0.0532331 0.3923492
0.5917913 0.0613730 0.4014668
0.0306551 0.1085703 0.3736392
0.1255118 0.1166093 0.3790544
0.2315149 0.1290230 0.3865587
0.3235860 0.1379174 0.3944536
0.4061841 0.1472587 0.3942740
0.4770284 0.1571212 0.4026249
0.5311339 0.1674913 0.4111975
0.5850405 0.1729252 0.4110240
0.0355969 0.2381858 0.3889769
0.1309981 0.2532556 0.3947235
0.2342838 0.2610139 0.3934463
0.3272008 0.2687944 0.4010884
0.4017168 0.2766230 0.4091034
0.4725875 0.2845304 0.4087725
0.5360069 0.2925675 0.4169968
0.5806950 0.3087579 0.4257446
0.0402278 0.3653587 0.3935026
0.1378132 0.3665368 0.3988256
0.2385154 0.3760968 0.4060220
0.3244990 0.3855027 0.4053726
0.4074175 0.3949885 0.4133355
0.4785602 0.4044990 0.4215090
0.5329146 0.4140257 0.4298920
0.5869989 0.4142163 0.4294032
0.0471755 0.4679290 0.4048329
0.1409158 0.4690230 0.4021033
0.2432728 0.4793485 0.4093220
0.3304687 0.4797887 0.4168392
0.4140140 0.4898505 0.4248748
0.4763414 0.4997798 0.4246207
0.5400094 0.5000606 0.4326267
0.5848379 0.5099818 0.4411479
0.0518208 0.5455242 0.4070532
0.1487108 0.5562693 0.4131595
0.2485898 0.5568982 0.4202125
0.3366760 0.5668778 0.4195572
0.4122921 0.5672178 0.4273761
0.4836412 0.5771571 0.4356329
0.5382277 0.5773507 0.4351433
0.5830886 0.5871374 0.4436797
0.0588559 0.6125780 0.4173823
0.1570702 0.6228487 0.4151850
0.2541347 0.6234194 0.4223299
0.3433363 0.6330556 0.4302362
0.4195427 0.6333792 0.4381097
0.4822927 0.6335948 0.4375384
0.5366683 0.6429453 0.4460046
0.5906764 0.6431752 0.4541790
0.0668305 0.6672737 0.4189402
0.1611032 0.6769067 0.4255187
0.2599396 0.6774405 0.4327154
0.3423304 0.6777582 0.4318222
0.4182301 0.6867032 0.4400236
0.4900333 0.6869764 0.4480177
0.5446261 0.6871488 0.4475248
0.5893557 0.6958437 0.4561103
0.0390127 0.0225197 0.4522830
0.1418985 0.0283994 0.4596473
0.2439711 0.0356355 0.4600716
0.3383145 0.0428384 0.4693512
0.4219864 0.0495538 0.4785732
0.4838485 0.0572003 0.4792912
0.5468072 0.0636414 0.4884450
0.5908217 0.0732378 0.4893210
0.0430066 0.1126042 0.4752863
0.1417136 0.1248427 0.4731493
0.2443634 0.1335761 0.4809636
0.3313970 0.1426985 0.4806079
0.4148290 0.1523376 0.4891876
0.4860066 0.1624557 0.4891634
0.5401336 0.1731125 0.4980848
0.5938255 0.1786929 0.4979045
0.0482001 0.2457656 0.4829421
0.1480133 0.2537270 0.4803320
0.2474027 0.2614844 0.4879226
0.3350692 0.2768131 0.4963456
0.4190703 0.2847761 0.4958361
0.4815696 0.2928172 0.5043588
0.5449962 0.3009538 0.5040951
0.5897223 0.3092105 0.5127850
0.0526446 0.3661073 0.4874840
0.1508651 0.3760829 0.4938152
0.2516249 0.3856706 0.4926361
0.3403400 0.3952192 0.5007416
0.4162863 0.3955465 0.5087811
0.4877637 0.4050137 0.5084351
0.5421325 0.4145442 0.5170417
0.5869063 0.4240649 0.5169442
0.0595980 0.4687065 0.4994447
0.1588717 0.4793665 0.4971684
0.2567381 0.4799670 0.5045380
0.3464443 0.4900431 0.5038615
0.4229159 0.4903875 0.5119016
0.4855406 0.5003175 0.5116398
0.5399140 0.5102713 0.5202461
0.5938278 0.5104688 0.5197453
0.0653776 0.5463017 0.5017623
0.1627140 0.5569159 0.5084416
0.2622451 0.5574627 0.5070252
0.3448575 0.5674577 0.5152192
0.4209642 0.5773771 0.5147961
0.4928532 0.5776842 0.5229135
0.5472089 0.5874513 0.5227373
0.5921018 0.5876612 0.5310952
0.0717360 0.6132460 0.5037733
0.1667400 0.6234357 0.5106249
0.2679856 0.6239583 0.5092088
0.3515853 0.6335592 0.5174050
0.4284894 0.6338823 0.5254391
0.4912775 0.6432131 0.5251805
0.5458776 0.6434428 0.5334526
0.5907879 0.6435955 0.5330359
0.0762088 0.6678879 0.5143392
0.1760482 0.6774390 0.5124071
0.2739902 0.6779439 0.5198601
0.3585778 0.6868985 0.5192724
0.4271684 0.6871706 0.5273876
0.4992404 0.6874000 0.5267223
0.5535880 0.6961194 0.5353172
0.5983174 0.6962609 0.5349008
0.0524056 0.0316986 0.5334807
0.1544361 0.0383380 0.5410892
0.2562470 0.0460441 0.5412239
0.3452647 0.0532430 0.5415331
0.4298106 0.0592936 0.5504423
0.4919114 0.0682938 0.5511492
0.5548470 0.0758987 0.5602717
0.5988954 0.0842047 0.5608143
0.0561429 0.1205807 0.5455322
0.1550627 0.1292383 0.5522634
0.2576741 0.1381975 0.5514113
0.3473878 0.1476120 0.5597971
0.4234949 0.1574852 0.5596921
0.4949864 0.1679118 0.5683752
0.5490872 0.1788281 0.5685144
0.5937084 0.1845356 0.5684190
0.0608249 0.2533894 0.5616603
0.1618348 0.2614195 0.5594083
0.2608259 0.2692688 0.5583243
0.3513351 0.2771835 0.5663701
0.4279801 0.2851269 0.5659492
0.4905310 0.3011248 0.5746861
0.5448769 0.3093696 0.5745091
0.5984546 0.3177866 0.5829728
0.0663467 0.3756756 0.5661538
0.1650161 0.3765497 0.5637564
0.2653827 0.3861598 0.5713690
0.3485323 0.3956343 0.5707841
0.4249624 0.4051810 0.5790240
0.4967336 0.4147274 0.5786848
0.5513018 0.4149671 0.5868158
0.5958715 0.4244907 0.5867208
0.0726245 0.4693016 0.5690598
0.1736419 0.4799169 0.5757431
0.2704902 0.4901217 0.5747502
0.3547184 0.4905305 0.5824957
0.4316405 0.5005252 0.5820789
0.4947298 0.5007551 0.5815087
0.5490898 0.5107092 0.5899379
0.6025331 0.5206112 0.5897632
0.0795012 0.5565289 0.5716580
0.1777660 0.5574127 0.5781823
0.2761819 0.5675173 0.5771911
0.3613465 0.5679211 0.5849255
0.4298947 0.5778062 0.5845932
0.5020503 0.5781134 0.5925322
0.5563625 0.5878783 0.5923609
0.6010338 0.5880881 0.6004963
0.0843384 0.6231443 0.5823658
0.1820908 0.6239104 0.5803208
0.2749540 0.6336321 0.5880298
0.3599065 0.6339686 0.5871390
0.4374818 0.6342917 0.5949851
0.5004733 0.6436184 0.5947342
0.5550227 0.6438016 0.5942487
0.5995108 0.6530100 0.6026853
0.0895107 0.6771660 0.5841061
0.1866296 0.6778536 0.5821459
0.2812282 0.6783298 0.5895305
0.3669755 0.6872790 0.5889586
0.4450856 0.6875800 0.5967945
0.4993429 0.6877518 0.5963106
0.5536896 0.6964661 0.6046559
0.6072069 0.6966358 0.6041738
0.0657276 0.0411255 0.5960362
0.1681152 0.0477014 0.6034277
0.2692740 0.0551679 0.6033214
0.3607296 0.0636193 0.6036081
0.4376679 0.0707562 0.6123401
0.5001956 0.0785961 0.6127106
0.5630770 0.0871983 0.6215217
0.6069099 0.0966152 0.6220405
0.0684061 0.1248440 0.6058617
0.1694078 0.1337228 0.6126379
0.2714581 0.1429316 0.6118973
0.3554497 0.1526006 0.6200944
0.4322018 0.1627507 0.6199938
0.5039367 0.1734327 0.6199703
0.5580016 0.1846654 0.6284939
0.6024027 0.1905198 0.6284029
0.0740993 0.2537976 0.6211221
0.1766878 0.2691893 0.6195077
0.2747121 0.2771645 0.6185468
0.3594388 0.2852005 0.6263901
0.4367220 0.2932609 0.6259868
0.4997136 0.3014472 0.6340800
0.5540258 0.3096972 0.6339112
0.6073186 0.3180756 0.6337418
0.0807252 0.3761864 0.6254278
0.1801046 0.3860174 0.6236753
0.2794181 0.3956923 0.6310852
0.3648888 0.4052532 0.6305275
0.4338923 0.4055040 0.6299035
0.5059208 0.4151025 0.6378850
0.5601964 0.4246589 0.6377168
0.6045520 0.4342967 0.6458579
0.0853649 0.4794778 0.6285891
0.1841012 0.4803357 0.6349536
0.2776588 0.4905089 0.6340864
0.3628471 0.5005680 0.6335317
0.4406378 0.5009136 0.6411089
0.5036927 0.5108498 0.6408659
0.5582119 0.5110472 0.6404012
0.6026198 0.5209668 0.6485176
0.0933981 0.5570406 0.6307687
0.1937731 0.5674507 0.6374965
0.2834467 0.5678995 0.6364102
0.3695544 0.5779302 0.6441082
0.4478282 0.5782191 0.6434164
0.5019022 0.5879830 0.6432542
0.5564517 0.5882251 0.6509717
0.6096637 0.5979245 0.6508096
0.0990021 0.6236333 0.6410148
0.1985373 0.6243383 0.6392299
0.2894792 0.6339782 0.6384476
0.3767105 0.6343625 0.6458285
0.4462746 0.6437179 0.6455142
0.5096620 0.6439781 0.6531349
0.5639139 0.6531683 0.6529734
0.6083676 0.6533192 0.6525915
0.1049837 0.6776229 0.6426664
0.2033838 0.6782529 0.6409632
0.2957821 0.6873316 0.6483915
0.3754493 0.6876163 0.6476268
0.4541355 0.6878735 0.6469378
0.5083045 0.6965856 0.6549186
0.5627956 0.6967553 0.6544619
0.6072811 0.6968967 0.6540806
0.0796055 0.0511513 0.6477957
0.1827615 0.0591667 0.6550509
0.2827187 0.0658792 0.6547216
0.3682971 0.0732578 0.6547737
0.4457813 0.0813711 0.6630287
0.5084770 0.0902357 0.6633731
0.5622569 0.0999620 0.6637921
0.6150723 0.1070066 0.6718735
0.0831284 0.1292175 0.6556187
0.1848099 0.1383183 0.6622819
0.2856877 0.1477790 0.6616579
0.3719305 0.1576959 0.6614115
0.4409533 0.1681338 0.6693726
0.5128903 0.1791003 0.6693506
0.5668583 0.1905924 0.6694766
0.6110255 0.1966245 0.6772789
0.0870743 0.2614276 0.6701342
0.1872858 0.2694763 0.6685526
0.2892297 0.2774571 0.6676473
0.3676182 0.2932958 0.6753884
0.4455141 0.3014943 0.6750095
0.5086544 0.3097726 0.6747765
0.5629112 0.3181960 0.6824418
0.6071796 0.3266731 0.6823564
0.0948136 0.3766218 0.6739017
0.1964066 0.3863968 0.6724036
0.2867267 0.3960137 0.6795124
0.3733297 0.4055775 0.6789896
0.4516335 0.4151581 0.6786128
0.5148748 0.4247962 0.6861596
0.5602732 0.4249563 0.6857964
0.6133599 0.4345782 0.6856388
0.1001861 0.4799442 0.6768733
0.2005334 0.4903738 0.6754578
0.2922733 0.4908795 0.6822528
0.3796990 0.5009394 0.6817333
0.4494350 0.5109075 0.6814320
0.5128693 0.5111886 0.6886668
0.5670805 0.5210903 0.6885114
0.6114419 0.5212547 0.6881493
0.1060738 0.5574718 0.6789935
0.2051500 0.5678163 0.6854445
0.2982475 0.5682653 0.6844285
0.3780300 0.5782121 0.6839862
0.4568903 0.5785512 0.6910475
0.5110787 0.5883127 0.6908962
0.5655346 0.5885053 0.6904636
0.6097380 0.5982204 0.6980052
0.1123376 0.6240451 0.6885871
0.2099746 0.6338986 0.6873472
0.3044692 0.6343254 0.6863346
0.3852668 0.6346791 0.6932968
0.4553301 0.6440313 0.6930038
0.5188244 0.6442446 0.6925020
0.5729654 0.6534317 0.6923499
0.6171399 0.6536290 0.6995907
0.1190123 0.6780073 0.6901299
0.2151802 0.6785803 0.6886851
0.3109536 0.6876101 0.6879582
0.3925427 0.6879391 0.6949010
0.4629966 0.6966626 0.6946106
0.5174674 0.6968319 0.6941819
0.5718648 0.6970451 0.7013279
0.6158458 0.7055447 0.7012509
