Plugins/FilmEmulator/Content/LUTs/FE_Kodak_Polymax_Grade_0_64.cube
TITLE "FE_Kodak_Polymax_Grade_0_33"
LUT_3D_SIZE 64
0.0021638 0.0021638 0.0021638
0.0021638 0.0021638 0.0021638
0.0021638 0.0021638 0.0021638
0.0021638 0.0021638 0.0021638
0.0021638 0.0021638 0.0021638
0.0021638 0.0021638 0.0021638
0.0021638 0.0021638 0.0021638
0.0021638 0.0021638 0.0021638
0.0021638 0.0021638 0.0021638
0.0021638 0.0021638 0.0021638
0.0021638 0.0021638 0.0021638
0.0021638 0.0021638 0.0021638
0.0021638 0.0021638 0.0021638
0.0021638 0.0021638 0.0021638
0.0021638 0.0021638 0.0021638
0.0021638 0.0021638 0.0021638
0.0021638 0.0021638 0.0021638
0.0021638 0.0021638 0.0021638
0.0021638 0.0021638 0.0021638
0.0021638 0.0021638 0.0021638
0.0021638 0.0021638 0.0021638
0.0021638 0.0021638 0.0021638
0.0021641 0.0021641 0.0021641
0.0021657 0.0021657 0.0021657
0.0021671 0.0021671 0.0021671
0.0021687 0.0021687 0.0021687
0.0021700 0.0021700 0.0021700
0.0021713 0.0021713 0.0021713
0.0021726 0.0021726 0.0021726
0.0021738 0.0021738 0.0021738
0.0021750 0.0021750 0.0021750
0.0021759 0.0021759 0.0021759
0.0021767 0.0021767 0.0021767
0.0021775 0.0021775 0.0021775
0.0021782 0.0021782 0.0021782
0.0021789 0.0021789 0.0021789
0.0021797 0.0021797 0.0021797
0.0021806 0.0021806 0.0021806
0.0021813 0.0021813 0.0021813
0.0021825 0.0021825 0.0021825
0.0021834 0.0021834 0.0021834
0.0021853 0.0021853 0.0021853
0.0021871 0.0021871 0.0021871
0.0021888 0.0021888 0.0021888
0.0021911 0.0021911 0.0021911
0.0021945 0.0021945 0.0021945
0.0021979 0.0021979 0.0021979
0.0022013 0.0022013 0.0022013
0.0022059 0.0022059 0.0022059
0.0022106 0.0022106 0.0022106
0.0022137 0.0022137 0.0022137
0.0022186 0.0022186 0.0022186
0.0022244 0.0022244 0.0022244
0.0022283 0.0022283 0.0022283
0.0022342 0.0022342 0.0022342
0.0022381 0.0022381 0.0022381
0.0022470 0.0022470 0.0022470
0.0022529 0.0022529 0.0022529
0.0022589 0.0022589 0.0022589
0.0022678 0.0022678 0.0022678
0.0022766 0.0022766 0.0022766
0.0022860 0.0022860 0.0022860
0.0022955 0.0022955 0.0022955
0.0023097 0.0023097 0.0023097
0.0021638 0.0021638 0.0021638
0.0021638 0.0021638 0.0021638
0.0021638 0.0021638 0.0021638
0.0021638 0.0021638 0.0021638
0.0021638 0.0021638 0.0021638
0.0021638 0.0021638 0.0021638
0.0021638 0.0021638 0.0021638
0.0021638 0.0021638 0.0021638
0.0021638 0.0021638 0.0021638
0.0021638 0.0021638 0.0021638
0.0021638 0.0021638 0.0021638
0.0021638 0.0021638 0.0021638
0.0021638 0.0021638 0.0021638
0.0021638 0.0021638 0.0021638
0.0021638 0.0021638 0.0021638
0.0021644 0.0021644 0.0021644
0.0021660 0.0021660 0.0021660
0.0021676 0.0021676 0.0021676
0.0021689 0.0021689 0.0021689
0.0021703 0.0021703 0.0021703
0.0021716 0.0021716 0.0021716
0.0021728 0.0021728 0.0021728
0.0021741 0.0021741 0.0021741
0.0021752 0.0021752 0.0021752
0.0021761 0.0021761 0.0021761
0.0021769 0.0021769 0.0021769
0.0021776 0.0021776 0.0021776
0.0021783 0.0021783 0.0021783
0.0021791 0.0021791 0.0021791
0.0021799 0.0021799 0.0021799
0.0021808 0.0021808 0.0021808
0.0021816 0.0021816 0.0021816
0.0021828 0.0021828 0.0021828
0.0021837 0.0021837 0.0021837
0.0021853 0.0021853 0.0021853
0.0021877 0.0021877 0.0021877
0.0021894 0.0021894 0.0021894
0.0021923 0.0021923 0.0021923
0.0021957 0.0021957 0.0021957
0.0021991 0.0021991 0.0021991
0.0022027 0.0022027 0.0022027
0.0022074 0.0022074 0.0022074
0.0022106 0.0022106 0.0022106
0.0022153 0.0022153 0.0022153
0.0022205 0.0022205 0.0022205
0.0022244 0.0022244 0.0022244
0.0022303 0.0022303 0.0022303
0.0022342 0.0022342 0.0022342
0.0022411 0.0022411 0.0022411
0.0022470 0.0022470 0.0022470
0.0022559 0.0022559 0.0022559
0.0022619 0.0022619 0.0022619
0.0022678 0.0022678 0.0022678
0.0022813 0.0022813 0.0022813
0.0022908 0.0022908 0.0022908
0.0023002 0.0023002 0.0023002
0.0023097 0.0023097 0.0023097
0.0023213 0.0023213 0.0023213
0.0023435 0.0023435 0.0023435
0.0023659 0.0023659 0.0023659
0.0023885 0.0023885 0.0023885
0.0024113 0.0024113 0.0024113
0.0024343 0.0024343 0.0024343
0.0024699 0.0024699 0.0024699
0.0021638 0.0021638 0.0021638
0.0021638 0.0021638 0.0021638
0.0021638 0.0021638 0.0021638
0.0021638 0.0021638 0.0021638
0.0021638 0.0021638 0.0021638
0.0021638 0.0021638 0.0021638
0.0021638 0.0021638 0.0021638
0.0021638 0.0021638 0.0021638
0.0021646 0.0021646 0.0021646
0.0021663 0.0021663 0.0021663
0.0021679 0.0021679 0.0021679
0.0021692 0.0021692 0.0021692
0.0021708 0.0021708 0.0021708
0.0021721 0.0021721 0.0021721
0.0021731 0.0021731 0.0021731
0.0021743 0.0021743 0.0021743
0.0021754 0.0021754 0.0021754
0.0021763 0.0021763 0.0021763
0.0021771 0.0021771 0.0021771
0.0021778 0.0021778 0.0021778
0.0021785 0.0021785 0.0021785
0.0021793 0.0021793 0.0021793
0.0021801 0.0021801 0.0021801
0.0021808 0.0021808 0.0021808
0.0021819 0.0021819 0.0021819
0.0021831 0.0021831 0.0021831
0.0021841 0.0021841 0.0021841
0.0021859 0.0021859 0.0021859
0.0021877 0.0021877 0.0021877
0.0021900 0.0021900 0.0021900
0.0021934 0.0021934 0.0021934
0.0021968 0.0021968 0.0021968
0.0022002 0.0022002 0.0022002
0.0022027 0.0022027 0.0022027
0.0022074 0.0022074 0.0022074
0.0022121 0.0022121 0.0022121
0.0022169 0.0022169 0.0022169
0.0022205 0.0022205 0.0022205
0.0022264 0.0022264 0.0022264
0.0022303 0.0022303 0.0022303
0.0022362 0.0022362 0.0022362
0.0022411 0.0022411 0.0022411
0.0022500 0.0022500 0.0022500
0.0022559 0.0022559 0.0022559
0.0022649 0.0022649 0.0022649
0.0022720 0.0022720 0.0022720
0.0022813 0.0022813 0.0022813
0.0022908 0.0022908 0.0022908
0.0023002 0.0023002 0.0023002
0.0023145 0.0023145 0.0023145
0.0023324 0.0023324 0.0023324
0.0023547 0.0023547 0.0023547
0.0023771 0.0023771 0.0023771
0.0023998 0.0023998 0.0023998
0.0024228 0.0024228 0.0024228
0.0024520 0.0024520 0.0024520
0.0024879 0.0024879 0.0024879
0.0025242 0.0025242 0.0025242
0.0025611 0.0025611 0.0025611
0.0025797 0.0025797 0.0025797
0.0026174 0.0026174 0.0026174
0.0026660 0.0026660 0.0026660
0.0027175 0.0027175 0.0027175
0.0027701 0.0027701 0.0027701
0.0021638 0.0021638 0.0021638
0.0021652 0.0021652 0.0021652
0.0021668 0.0021668 0.0021668
0.0021681 0.0021681 0.0021681
0.0021697 0.0021697 0.0021697
0.0021710 0.0021710 0.0021710
0.0021723 0.0021723 0.0021723
0.0021733 0.0021733 0.0021733
0.0021746 0.0021746 0.0021746
0.0021757 0.0021757 0.0021757
0.0021765 0.0021765 0.0021765
0.0021773 0.0021773 0.0021773
0.0021780 0.0021780 0.0021780
0.0021787 0.0021787 0.0021787
0.0021795 0.0021795 0.0021795
0.0021804 0.0021804 0.0021804
0.0021810 0.0021810 0.0021810
0.0021822 0.0021822 0.0021822
0.0021831 0.0021831 0.0021831
0.0021847 0.0021847 0.0021847
0.0021865 0.0021865 0.0021865
0.0021882 0.0021882 0.0021882
0.0021900 0.0021900 0.0021900
0.0021934 0.0021934 0.0021934
0.0021968 0.0021968 0.0021968
0.0022002 0.0022002 0.0022002
0.0022043 0.0022043 0.0022043
0.0022090 0.0022090 0.0022090
0.0022137 0.0022137 0.0022137
0.0022169 0.0022169 0.0022169
0.0022225 0.0022225 0.0022225
0.0022283 0.0022283 0.0022283
0.0022322 0.0022322 0.0022322
0.0022381 0.0022381 0.0022381
0.0022440 0.0022440 0.0022440
0.0022500 0.0022500 0.0022500
0.0022589 0.0022589 0.0022589
0.0022649 0.0022649 0.0022649
0.0022720 0.0022720 0.0022720
0.0022860 0.0022860 0.0022860
0.0022955 0.0022955 0.0022955
0.0023049 0.0023049 0.0023049
0.0023145 0.0023145 0.0023145
0.0023324 0.0023324 0.0023324
0.0023547 0.0023547 0.0023547
0.0023771 0.0023771 0.0023771
0.0023998 0.0023998 0.0023998
0.0024228 0.0024228 0.0024228
0.0024520 0.0024520 0.0024520
0.0024879 0.0024879 0.0024879
0.0025242 0.0025242 0.0025242
0.0025611 0.0025611 0.0025611
0.0025985 0.0025985 0.0025985
0.0026406 0.0026406 0.0026406
0.0026660 0.0026660 0.0026660
0.0027175 0.0027175 0.0027175
0.0027701 0.0027701 0.0027701
0.0028236 0.0028236 0.0028236
0.0028508 0.0028508 0.0028508
0.0029073 0.0029073 0.0029073
0.0029721 0.0029721 0.0029721
0.0030050 0.0030050 0.0030050
0.0030719 0.0030719 0.0030719
0.0031404 0.0031404 0.0031404
0.0021738 0.0021738 0.0021738
0.0021748 0.0021748 0.0021748
0.0021759 0.0021759 0.0021759
0.0021767 0.0021767 0.0021767
0.0021775 0.0021775 0.0021775
0.0021782 0.0021782 0.0021782
0.0021789 0.0021789 0.0021789
0.0021797 0.0021797 0.0021797
0.0021806 0.0021806 0.0021806
0.0021813 0.0021813 0.0021813
0.0021825 0.0021825 0.0021825
0.0021834 0.0021834 0.0021834
0.0021847 0.0021847 0.0021847
0.0021871 0.0021871 0.0021871
0.0021888 0.0021888 0.0021888
0.0021911 0.0021911 0.0021911
0.0021945 0.0021945 0.0021945
0.0021979 0.0021979 0.0021979
0.0022013 0.0022013 0.0022013
0.0022059 0.0022059 0.0022059
0.0022106 0.0022106 0.0022106
0.0022137 0.0022137 0.0022137
0.0022186 0.0022186 0.0022186
0.0022244 0.0022244 0.0022244
0.0022283 0.0022283 0.0022283
0.0022342 0.0022342 0.0022342
0.0022381 0.0022381 0.0022381
0.0022470 0.0022470 0.0022470
0.0022529 0.0022529 0.0022529
0.0022589 0.0022589 0.0022589
0.0022678 0.0022678 0.0022678
0.0022766 0.0022766 0.0022766
0.0022860 0.0022860 0.0022860
0.0022955 0.0022955 0.0022955
0.0023049 0.0023049 0.0023049
0.0023213 0.0023213 0.0023213
0.0023435 0.0023435 0.0023435
0.0023659 0.0023659 0.0023659
0.0023885 0.0023885 0.0023885
0.0024113 0.0024113 0.0024113
0.0024343 0.0024343 0.0024343
0.0024699 0.0024699 0.0024699
0.0025060 0.0025060 0.0025060
0.0025426 0.0025426 0.0025426
0.0025611 0.0025611 0.0025611
0.0025985 0.0025985 0.0025985
0.0026406 0.0026406 0.0026406
0.0026916 0.0026916 0.0026916
0.0027437 0.0027437 0.0027437
0.0027701 0.0027701 0.0027701
0.0028236 0.0028236 0.0028236
0.0028782 0.0028782 0.0028782
0.0029073 0.0029073 0.0029073
0.0029721 0.0029721 0.0029721
0.0030383 0.0030383 0.0030383
0.0030719 0.0030719 0.0030719
0.0031404 0.0031404 0.0031404
0.0032103 0.0032103 0.0032103
0.0032459 0.0032459 0.0032459
0.0033236 0.0033236 0.0033236
0.0033632 0.0033632 0.0033632
0.0034438 0.0034438 0.0034438
0.0034848 0.0034848 0.0034848
0.0035683 0.0035683 0.0035683
0.0021799 0.0021799 0.0021799
0.0021806 0.0021806 0.0021806
0.0021816 0.0021816 0.0021816
0.0021825 0.0021825 0.0021825
0.0021837 0.0021837 0.0021837
0.0021853 0.0021853 0.0021853
0.0021871 0.0021871 0.0021871
0.0021894 0.0021894 0.0021894
0.0021923 0.0021923 0.0021923
0.0021957 0.0021957 0.0021957
0.0021991 0.0021991 0.0021991
0.0022027 0.0022027 0.0022027
0.0022059 0.0022059 0.0022059
0.0022106 0.0022106 0.0022106
0.0022153 0.0022153 0.0022153
0.0022205 0.0022205 0.0022205
0.0022244 0.0022244 0.0022244
0.0022303 0.0022303 0.0022303
0.0022342 0.0022342 0.0022342
0.0022411 0.0022411 0.0022411
0.0022470 0.0022470 0.0022470
0.0022529 0.0022529 0.0022529
0.0022619 0.0022619 0.0022619
0.0022678 0.0022678 0.0022678
0.0022766 0.0022766 0.0022766
0.0022908 0.0022908 0.0022908
0.0023002 0.0023002 0.0023002
0.0023097 0.0023097 0.0023097
0.0023213 0.0023213 0.0023213
0.0023435 0.0023435 0.0023435
0.0023659 0.0023659 0.0023659
0.0023885 0.0023885 0.0023885
0.0024113 0.0024113 0.0024113
0.0024343 0.0024343 0.0024343
0.0024699 0.0024699 0.0024699
0.0025060 0.0025060 0.0025060
0.0025426 0.0025426 0.0025426
0.0025797 0.0025797 0.0025797
0.0026174 0.0026174 0.0026174
0.0026406 0.0026406 0.0026406
0.0026916 0.0026916 0.0026916
0.0027437 0.0027437 0.0027437
0.0027967 0.0027967 0.0027967
0.0028236 0.0028236 0.0028236
0.0028782 0.0028782 0.0028782
0.0029395 0.0029395 0.0029395
0.0029721 0.0029721 0.0029721
0.0030383 0.0030383 0.0030383
0.0031060 0.0031060 0.0031060
0.0031404 0.0031404 0.0031404
0.0032103 0.0032103 0.0032103
0.0032459 0.0032459 0.0032459
0.0033236 0.0033236 0.0033236
0.0033632 0.0033632 0.0033632
0.0034438 0.0034438 0.0034438
0.0034848 0.0034848 0.0034848
0.0035683 0.0035683 0.0035683
0.0036108 0.0036108 0.0036108
0.0037004 0.0037004 0.0037004
0.0037493 0.0037493 0.0037493
0.0038491 0.0038491 0.0038491
0.0038999 0.0038999 0.0038999
0.0039515 0.0039515 0.0039515
0.0040566 0.0040566 0.0040566
0.0021894 0.0021894 0.0021894
0.0021923 0.0021923 0.0021923
0.0021957 0.0021957 0.0021957
0.0021991 0.0021991 0.0021991
0.0022027 0.0022027 0.0022027
0.0022074 0.0022074 0.0022074
0.0022121 0.0022121 0.0022121
0.0022153 0.0022153 0.0022153
0.0022205 0.0022205 0.0022205
0.0022264 0.0022264 0.0022264
0.0022303 0.0022303 0.0022303
0.0022362 0.0022362 0.0022362
0.0022411 0.0022411 0.0022411
0.0022500 0.0022500 0.0022500
0.0022559 0.0022559 0.0022559
0.0022619 0.0022619 0.0022619
0.0022720 0.0022720 0.0022720
0.0022813 0.0022813 0.0022813
0.0022908 0.0022908 0.0022908
0.0023002 0.0023002 0.0023002
0.0023097 0.0023097 0.0023097
0.0023324 0.0023324 0.0023324
0.0023547 0.0023547 0.0023547
0.0023771 0.0023771 0.0023771
0.0023998 0.0023998 0.0023998
0.0024228 0.0024228 0.0024228
0.0024520 0.0024520 0.0024520
0.0024879 0.0024879 0.0024879
0.0025060 0.0025060 0.0025060
0.0025426 0.0025426 0.0025426
0.0025797 0.0025797 0.0025797
0.0026174 0.0026174 0.0026174
0.0026660 0.0026660 0.0026660
0.0027175 0.0027175 0.0027175
0.0027437 0.0027437 0.0027437
0.0027967 0.0027967 0.0027967
0.0028508 0.0028508 0.0028508
0.0029073 0.0029073 0.0029073
0.0029395 0.0029395 0.0029395
0.0030050 0.0030050 0.0030050
0.0030383 0.0030383 0.0030383
0.0031060 0.0031060 0.0031060
0.0031751 0.0031751 0.0031751
0.0032103 0.0032103 0.0032103
0.0032845 0.0032845 0.0032845
0.0033236 0.0033236 0.0033236
0.0034033 0.0034033 0.0034033
0.0034438 0.0034438 0.0034438
0.0035263 0.0035263 0.0035263
0.0035683 0.0035683 0.0035683
0.0036538 0.0036538 0.0036538
0.0037004 0.0037004 0.0037004
0.0037989 0.0037989 0.0037989
0.0038491 0.0038491 0.0038491
0.0038999 0.0038999 0.0038999
0.0040037 0.0040037 0.0040037
0.0040566 0.0040566 0.0040566
0.0041644 0.0041644 0.0041644
0.0042221 0.0042221 0.0042221
0.0042859 0.0042859 0.0042859
0.0043506 0.0043506 0.0043506
0.0044831 0.0044831 0.0044831
0.0045508 0.0045508 0.0045508
0.0046196 0.0046196 0.0046196
0.0022169 0.0022169 0.0022169
0.0022225 0.0022225 0.0022225
0.0022264 0.0022264 0.0022264
0.0022322 0.0022322 0.0022322
0.0022362 0.0022362 0.0022362
0.0022440 0.0022440 0.0022440
0.0022500 0.0022500 0.0022500
0.0022589 0.0022589 0.0022589
0.0022649 0.0022649 0.0022649
0.0022720 0.0022720 0.0022720
0.0022813 0.0022813 0.0022813
0.0022955 0.0022955 0.0022955
0.0023049 0.0023049 0.0023049
0.0023145 0.0023145 0.0023145
0.0023324 0.0023324 0.0023324
0.0023547 0.0023547 0.0023547
0.0023771 0.0023771 0.0023771
0.0023998 0.0023998 0.0023998
0.0024228 0.0024228 0.0024228
0.0024520 0.0024520 0.0024520
0.0024879 0.0024879 0.0024879
0.0025242 0.0025242 0.0025242
0.0025611 0.0025611 0.0025611
0.0025985 0.0025985 0.0025985
0.0026174 0.0026174 0.0026174
0.0026660 0.0026660 0.0026660
0.0027175 0.0027175 0.0027175
0.0027701 0.0027701 0.0027701
0.0028236 0.0028236 0.0028236
0.0028508 0.0028508 0.0028508
0.0029073 0.0029073 0.0029073
0.0029721 0.0029721 0.0029721
0.0030050 0.0030050 0.0030050
0.0030719 0.0030719 0.0030719
0.0031060 0.0031060 0.0031060
0.0031751 0.0031751 0.0031751
0.0032459 0.0032459 0.0032459
0.0032845 0.0032845 0.0032845
0.0033632 0.0033632 0.0033632
0.0034033 0.0034033 0.0034033
0.0034848 0.0034848 0.0034848
0.0035263 0.0035263 0.0035263
0.0036108 0.0036108 0.0036108
0.0036538 0.0036538 0.0036538
0.0037493 0.0037493 0.0037493
0.0037989 0.0037989 0.0037989
0.0038491 0.0038491 0.0038491
0.0039515 0.0039515 0.0039515
0.0040037 0.0040037 0.0040037
0.0040566 0.0040566 0.0040566
0.0041644 0.0041644 0.0041644
0.0042221 0.0042221 0.0042221
0.0042859 0.0042859 0.0042859
0.0044164 0.0044164 0.0044164
0.0044831 0.0044831 0.0044831
0.0045508 0.0045508 0.0045508
0.0046893 0.0046893 0.0046893
0.0047602 0.0047602 0.0047602
0.0048320 0.0048320 0.0048320
0.0049050 0.0049050 0.0049050
0.0050745 0.0050745 0.0050745
0.0051613 0.0051613 0.0051613
0.0052497 0.0052497 0.0052497
0.0053396 0.0053396 0.0053396
0.0022589 0.0022589 0.0022589
0.0022649 0.0022649 0.0022649
0.0022766 0.0022766 0.0022766
0.0022860 0.0022860 0.0022860
0.0022955 0.0022955 0.0022955
0.0023049 0.0023049 0.0023049
0.0023145 0.0023145 0.0023145
0.0023435 0.0023435 0.0023435
0.0023659 0.0023659 0.0023659
0.0023885 0.0023885 0.0023885
0.0024113 0.0024113 0.0024113
0.0024343 0.0024343 0.0024343
0.0024699 0.0024699 0.0024699
0.0024879 0.0024879 0.0024879
0.0025242 0.0025242 0.0025242
0.0025611 0.0025611 0.0025611
0.0025985 0.0025985 0.0025985
0.0026406 0.0026406 0.0026406
0.0026916 0.0026916 0.0026916
0.0027175 0.0027175 0.0027175
0.0027701 0.0027701 0.0027701
0.0028236 0.0028236 0.0028236
0.0028782 0.0028782 0.0028782
0.0029073 0.0029073 0.0029073
0.0029721 0.0029721 0.0029721
0.0030383 0.0030383 0.0030383
0.0030719 0.0030719 0.0030719
0.0031404 0.0031404 0.0031404
0.0031751 0.0031751 0.0031751
0.0032459 0.0032459 0.0032459
0.0033236 0.0033236 0.0033236
0.0033632 0.0033632 0.0033632
0.0034438 0.0034438 0.0034438
0.0034848 0.0034848 0.0034848
0.0035683 0.0035683 0.0035683
0.0036108 0.0036108 0.0036108
0.0036538 0.0036538 0.0036538
0.0037493 0.0037493 0.0037493
0.0037989 0.0037989 0.0037989
0.0038999 0.0038999 0.0038999
0.0039515 0.0039515 0.0039515
0.0040037 0.0040037 0.0040037
0.0041101 0.0041101 0.0041101
0.0041644 0.0041644 0.0041644
0.0042221 0.0042221 0.0042221
0.0043506 0.0043506 0.0043506
0.0044164 0.0044164 0.0044164
0.0044831 0.0044831 0.0044831
0.0046196 0.0046196 0.0046196
0.0046893 0.0046893 0.0046893
0.0047602 0.0047602 0.0047602
0.0048320 0.0048320 0.0048320
0.0049890 0.0049890 0.0049890
0.0050745 0.0050745 0.0050745
0.0051613 0.0051613 0.0051613
0.0052497 0.0052497 0.0052497
0.0053396 0.0053396 0.0053396
0.0055240 0.0055240 0.0055240
0.0056185 0.0056185 0.0056185
0.0057147 0.0057147 0.0057147
0.0058125 0.0058125 0.0058125
0.0059184 0.0059184 0.0059184
0.0060294 0.0060294 0.0060294
0.0062579 0.0062579 0.0062579
0.0023435 0.0023435 0.0023435
0.0023659 0.0023659 0.0023659
0.0023885 0.0023885 0.0023885
0.0024113 0.0024113 0.0024113
0.0024343 0.0024343 0.0024343
0.0024699 0.0024699 0.0024699
0.0025060 0.0025060 0.0025060
0.0025426 0.0025426 0.0025426
0.0025797 0.0025797 0.0025797
0.0025985 0.0025985 0.0025985
0.0026406 0.0026406 0.0026406
0.0026916 0.0026916 0.0026916
0.0027437 0.0027437 0.0027437
0.0027967 0.0027967 0.0027967
0.0028236 0.0028236 0.0028236
0.0028782 0.0028782 0.0028782
0.0029395 0.0029395 0.0029395
0.0029721 0.0029721 0.0029721
0.0030383 0.0030383 0.0030383
0.0031060 0.0031060 0.0031060
0.0031404 0.0031404 0.0031404
0.0032103 0.0032103 0.0032103
0.0032459 0.0032459 0.0032459
0.0033236 0.0033236 0.0033236
0.0033632 0.0033632 0.0033632
0.0034438 0.0034438 0.0034438
0.0034848 0.0034848 0.0034848
0.0035683 0.0035683 0.0035683
0.0036108 0.0036108 0.0036108
0.0037004 0.0037004 0.0037004
0.0037493 0.0037493 0.0037493
0.0038491 0.0038491 0.0038491
0.0038999 0.0038999 0.0038999
0.0039515 0.0039515 0.0039515
0.0040566 0.0040566 0.0040566
0.0041101 0.0041101 0.0041101
0.0041644 0.0041644 0.0041644
0.0042859 0.0042859 0.0042859
0.0043506 0.0043506 0.0043506
0.0044164 0.0044164 0.0044164
0.0045508 0.0045508 0.0045508
0.0046196 0.0046196 0.0046196
0.0046893 0.0046893 0.0046893
0.0047602 0.0047602 0.0047602
0.0049050 0.0049050 0.0049050
0.0049890 0.0049890 0.0049890
0.0050745 0.0050745 0.0050745
0.0051613 0.0051613 0.0051613
0.0053396 0.0053396 0.0053396
0.0054310 0.0054310 0.0054310
0.0055240 0.0055240 0.0055240
0.0056185 0.0056185 0.0056185
0.0057147 0.0057147 0.0057147
0.0058125 0.0058125 0.0058125
0.0060294 0.0060294 0.0060294
0.0061426 0.0061426 0.0061426
0.0062579 0.0062579 0.0062579
0.0063753 0.0063753 0.0063753
0.0064949 0.0064949 0.0064949
0.0066167 0.0066167 0.0066167
0.0067408 0.0067408 0.0067408
0.0068672 0.0068672 0.0068672
0.0069960 0.0069960 0.0069960
0.0071315 0.0071315 0.0071315
0.0025426 0.0025426 0.0025426
0.0025797 0.0025797 0.0025797
0.0026174 0.0026174 0.0026174
0.0026660 0.0026660 0.0026660
0.0026916 0.0026916 0.0026916
0.0027437 0.0027437 0.0027437
0.0027967 0.0027967 0.0027967
0.0028508 0.0028508 0.0028508
0.0028782 0.0028782 0.0028782
0.0029395 0.0029395 0.0029395
0.0030050 0.0030050 0.0030050
0.0030383 0.0030383 0.0030383
0.0031060 0.0031060 0.0031060
0.0031751 0.0031751 0.0031751
0.0032103 0.0032103 0.0032103
0.0032845 0.0032845 0.0032845
0.0033236 0.0033236 0.0033236
0.0034033 0.0034033 0.0034033
0.0034438 0.0034438 0.0034438
0.0035263 0.0035263 0.0035263
0.0035683 0.0035683 0.0035683
0.0036538 0.0036538 0.0036538
0.0037004 0.0037004 0.0037004
0.0037989 0.0037989 0.0037989
0.0038491 0.0038491 0.0038491
0.0038999 0.0038999 0.0038999
0.0040037 0.0040037 0.0040037
0.0040566 0.0040566 0.0040566
0.0041101 0.0041101 0.0041101
0.0042221 0.0042221 0.0042221
0.0042859 0.0042859 0.0042859
0.0043506 0.0043506 0.0043506
0.0044831 0.0044831 0.0044831
0.0045508 0.0045508 0.0045508
0.0046196 0.0046196 0.0046196
0.0047602 0.0047602 0.0047602
0.0048320 0.0048320 0.0048320
0.0049050 0.0049050 0.0049050
0.0049890 0.0049890 0.0049890
0.0050745 0.0050745 0.0050745
0.0052497 0.0052497 0.0052497
0.0053396 0.0053396 0.0053396
0.0054310 0.0054310 0.0054310
0.0055240 0.0055240 0.0055240
0.0056185 0.0056185 0.0056185
0.0058125 0.0058125 0.0058125
0.0059184 0.0059184 0.0059184
0.0060294 0.0060294 0.0060294
0.0061426 0.0061426 0.0061426
0.0062579 0.0062579 0.0062579
0.0063753 0.0063753 0.0063753
0.0064949 0.0064949 0.0064949
0.0066167 0.0066167 0.0066167
0.0067408 0.0067408 0.0067408
0.0069960 0.0069960 0.0069960
0.0071315 0.0071315 0.0071315
0.0072786 0.0072786 0.0072786
0.0074287 0.0074287 0.0074287
0.0075819 0.0075819 0.0075819
0.0077382 0.0077382 0.0077382
0.0078978 0.0078978 0.0078978
0.0080605 0.0080605 0.0080605
0.0082267 0.0082267 0.0082267
0.0083962 0.0083962 0.0083962
0.0028508 0.0028508 0.0028508
0.0029073 0.0029073 0.0029073
0.0029395 0.0029395 0.0029395
0.0030050 0.0030050 0.0030050
0.0030719 0.0030719 0.0030719
0.0031060 0.0031060 0.0031060
0.0031751 0.0031751 0.0031751
0.0032103 0.0032103 0.0032103
0.0032845 0.0032845 0.0032845
0.0033632 0.0033632 0.0033632
0.0034033 0.0034033 0.0034033
0.0034848 0.0034848 0.0034848
0.0035263 0.0035263 0.0035263
0.0036108 0.0036108 0.0036108
0.0036538 0.0036538 0.0036538
0.0037004 0.0037004 0.0037004
0.0037989 0.0037989 0.0037989
0.0038491 0.0038491 0.0038491
0.0039515 0.0039515 0.0039515
0.0040037 0.0040037 0.0040037
0.0040566 0.0040566 0.0040566
0.0041644 0.0041644 0.0041644
0.0042221 0.0042221 0.0042221
0.0042859 0.0042859 0.0042859
0.0044164 0.0044164 0.0044164
0.0044831 0.0044831 0.0044831
0.0045508 0.0045508 0.0045508
0.0046893 0.0046893 0.0046893
0.0047602 0.0047602 0.0047602
0.0048320 0.0048320 0.0048320
0.0049050 0.0049050 0.0049050
0.0050745 0.0050745 0.0050745
0.0051613 0.0051613 0.0051613
0.0052497 0.0052497 0.0052497
0.0053396 0.0053396 0.0053396
0.0054310 0.0054310 0.0054310
0.0055240 0.0055240 0.0055240
0.0057147 0.0057147 0.0057147
0.0058125 0.0058125 0.0058125
0.0059184 0.0059184 0.0059184
0.0060294 0.0060294 0.0060294
0.0061426 0.0061426 0.0061426
0.0062579 0.0062579 0.0062579
0.0063753 0.0063753 0.0063753
0.0066167 0.0066167 0.0066167
0.0067408 0.0067408 0.0067408
0.0068672 0.0068672 0.0068672
0.0069960 0.0069960 0.0069960
0.0071315 0.0071315 0.0071315
0.0072786 0.0072786 0.0072786
0.0074287 0.0074287 0.0074287
0.0075819 0.0075819 0.0075819
0.0077382 0.0077382 0.0077382
0.0078978 0.0078978 0.0078978
0.0080605 0.0080605 0.0080605
0.0082267 0.0082267 0.0082267
0.0083962 0.0083962 0.0083962
0.0085691 0.0085691 0.0085691
0.0087456 0.0087456 0.0087456
0.0089381 0.0089381 0.0089381
0.0091347 0.0091347 0.0091347
0.0093357 0.0093357 0.0093357
0.0095410 0.0095410 0.0095410
0.0097508 0.0097508 0.0097508
0.0032459 0.0032459 0.0032459
0.0032845 0.0032845 0.0032845
0.0033632 0.0033632 0.0033632
0.0034033 0.0034033 0.0034033
0.0034848 0.0034848 0.0034848
0.0035263 0.0035263 0.0035263
0.0036108 0.0036108 0.0036108
0.0036538 0.0036538 0.0036538
0.0037493 0.0037493 0.0037493
0.0037989 0.0037989 0.0037989
0.0038999 0.0038999 0.0038999
0.0039515 0.0039515 0.0039515
0.0040037 0.0040037 0.0040037
0.0041101 0.0041101 0.0041101
0.0041644 0.0041644 0.0041644
0.0042221 0.0042221 0.0042221
0.0043506 0.0043506 0.0043506
0.0044164 0.0044164 0.0044164
0.0044831 0.0044831 0.0044831
0.0046196 0.0046196 0.0046196
0.0046893 0.0046893 0.0046893
0.0047602 0.0047602 0.0047602
0.0048320 0.0048320 0.0048320
0.0049890 0.0049890 0.0049890
0.0050745 0.0050745 0.0050745
0.0051613 0.0051613 0.0051613
0.0052497 0.0052497 0.0052497
0.0053396 0.0053396 0.0053396
0.0055240 0.0055240 0.0055240
0.0056185 0.0056185 0.0056185
