Plugins/FilmEmulator/Content/LUTs/FE_Kodak_Aerocolor_2460_Low_64.cube
TITLE "FE_Kodak_Aerocolor_2460_Low_33"
LUT_3D_SIZE 64
0.0012540 0.0018339 0.0009742
0.0031571 0.0018673 0.0009704
0.0086895 0.0019041 0.0010453
0.0165633 0.0020088 0.0012216
0.0251844 0.0021830 0.0015265
0.0341293 0.0024721 0.0018873
0.0429245 0.0028009 0.0022612
0.0521401 0.0031799 0.0026739
0.0616046 0.0036226 0.0032488
0.0727305 0.0041617 0.0037910
0.0834910 0.0046357 0.0044552
0.0932075 0.0052849 0.0050937
0.1043480 0.0058873 0.0058210
0.1169772 0.0064058 0.0066376
0.1273995 0.0071196 0.0073544
0.1393206 0.0077137 0.0081310
0.1525876 0.0083482 0.0089882
0.1668972 0.0090340 0.0099272
0.1770350 0.0095207 0.0105873
0.1946121 0.0103082 0.0116605
0.2071952 0.0108702 0.0124353
0.2203875 0.0114626 0.0132610
0.2341911 0.0121112 0.0145359
0.2485165 0.0127684 0.0154670
0.2629973 0.0134965 0.0164610
0.2780299 0.0142354 0.0170193
0.2936014 0.0150461 0.0181116
0.3096937 0.0159027 0.0192792
0.3179288 0.0163840 0.0204818
0.3342451 0.0172821 0.0211815
0.3503650 0.0178219 0.0225015
0.3587210 0.0187913 0.0232696
0.3670654 0.0193639 0.0247170
0.3840055 0.0204302 0.0255592
0.3925942 0.0210088 0.0264000
0.4098750 0.0216682 0.0281322
0.4187370 0.0228431 0.0291364
0.4275270 0.0234813 0.0301078
0.4363684 0.0241369 0.0311107
0.4452569 0.0248662 0.0331424
0.4631479 0.0262134 0.0343187
0.4721405 0.0269437 0.0354579
0.4811569 0.0276937 0.0366305
0.4901915 0.0284636 0.0378343
0.4992374 0.0292545 0.0390764
0.5085050 0.0300673 0.0403578
0.5182028 0.0309010 0.0416795
0.5278931 0.0317573 0.0430430
0.5375680 0.0326366 0.0444493
0.5472212 0.0335395 0.0458998
0.5568443 0.0344667 0.0473956
0.5664306 0.0354188 0.0489382
0.5758635 0.0355227 0.0504201
0.5759739 0.0364744 0.0520146
0.5854648 0.0373978 0.0521267
0.5948988 0.0384259 0.0537728
0.6042681 0.0394814 0.0554683
0.6138190 0.0405609 0.0572140
0.6231829 0.0406776 0.0588865
0.6232878 0.0416666 0.0590115
0.6326687 0.0428013 0.0608625
0.6419550 0.0439657 0.0627681
0.6510391 0.0440917 0.0645936
0.6511406 0.0451606 0.0647300
0.0012753 0.0049933 0.0010806
0.0034100 0.0055116 0.0011902
0.0091699 0.0061226 0.0014273
0.0168908 0.0066017 0.0017866
0.0256838 0.0072505 0.0022125
0.0347687 0.0077424 0.0026450
0.0449187 0.0084371 0.0030764
0.0544858 0.0089822 0.0036189
0.0643021 0.0095513 0.0042115
0.0737591 0.0101546 0.0049286
0.0845978 0.0107732 0.0056019
0.0943250 0.0114233 0.0063734
0.1054668 0.0118314 0.0072352
0.1181745 0.0125526 0.0079841
0.1285982 0.0133089 0.0088100
0.1405181 0.0137655 0.0096990
0.1538348 0.0145628 0.0103634
0.1681302 0.0150591 0.0113676
0.1783366 0.0159173 0.0121260
0.1958894 0.0164657 0.0132995
0.2084720 0.0169842 0.0141493
0.2217345 0.0179617 0.0150605
0.2355289 0.0185242 0.0159935
0.2498391 0.0191039 0.0169835
0.2642871 0.0197006 0.0180340
0.2792796 0.0202729 0.0186040
0.2948968 0.0214356 0.0198040
0.3109368 0.0221022 0.0210395
0.3191896 0.0227186 0.0217091
0.3354415 0.0234177 0.0230607
0.3515882 0.0240857 0.0237936
0.3598537 0.0248077 0.0252721
0.3682078 0.0254968 0.0260736
0.3850629 0.0262836 0.0277685
0.3936591 0.0270161 0.0286953
0.4109541 0.0277877 0.0296526
0.4197127 0.0285609 0.0306408
0.4285094 0.0294209 0.0326426
0.4372467 0.0295068 0.0336539
0.4461384 0.0303247 0.0347714
0.4639249 0.0311857 0.0359251
0.4729194 0.0320487 0.0371125
0.4819375 0.0329343 0.0383314
0.4909729 0.0338438 0.0395890
0.4999078 0.0339416 0.0407978
0.5091752 0.0348786 0.0421334
0.5188726 0.0358419 0.0435112
0.5285621 0.0368310 0.0449322
0.5381247 0.0369388 0.0462978
0.5477762 0.0379571 0.0478061
0.5573974 0.0390025 0.0493614
0.5669808 0.0400712 0.0509646
0.5764111 0.0401858 0.0524629
0.5765198 0.0411633 0.0525749
0.5860077 0.0422841 0.0542337
0.5953298 0.0424047 0.0558234
0.6046954 0.0435580 0.0575794
0.6141370 0.0436829 0.0592620
0.6142427 0.0447423 0.0593878
0.6237076 0.0459576 0.0612499
0.6329809 0.0460890 0.0630337
0.6422638 0.0473392 0.0650034
0.6514453 0.0485189 0.0651409
0.6514459 0.0486221 0.0670309
0.0013588 0.0105827 0.0013353
0.0035548 0.0115058 0.0016469
0.0095989 0.0122205 0.0020520
0.0176490 0.0131807 0.0024919
0.0267740 0.0137781 0.0029109
0.0361540 0.0147398 0.0034101
0.0453522 0.0153638 0.0040149
0.0549877 0.0159942 0.0046894
0.0648662 0.0166045 0.0053120
0.0744043 0.0176690 0.0060430
0.0853006 0.0183358 0.0068614
0.0950688 0.0190167 0.0077914
0.1062918 0.0196804 0.0085786
0.1190421 0.0203659 0.0094446
0.1294834 0.0210569 0.0103972
0.1414730 0.0217212 0.0110711
0.1548088 0.0224557 0.0121431
0.1691779 0.0231642 0.0129240
0.1793711 0.0238783 0.0137545
0.1970026 0.0246863 0.0150623
0.2096387 0.0254459 0.0159949
0.2228781 0.0262283 0.0169845
0.2438293 0.0269981 0.0175215
0.2582172 0.0278263 0.0186042
0.2655761 0.0286560 0.0197524
0.2806146 0.0295326 0.0209842
0.2961822 0.0303712 0.0216521
0.3121675 0.0305440 0.0229495
0.3204384 0.0313878 0.0236786
0.3367238 0.0323443 0.0251503
0.3529008 0.0332575 0.0259480
0.3610785 0.0334234 0.0275277
0.3777921 0.0343703 0.0284468
0.3863230 0.0353193 0.0293956
0.3949305 0.0363746 0.0313180
0.4121374 0.0365049 0.0322896
0.4209039 0.0375109 0.0333630
0.4297061 0.0385392 0.0344708
0.4384497 0.0386507 0.0355371
0.4561720 0.0397335 0.0367149
0.4651414 0.0408180 0.0379270
0.4740284 0.0409350 0.0390867
0.4830480 0.0420506 0.0403677
0.4920845 0.0431954 0.0416891
0.5010202 0.0433191 0.0429597
0.5102872 0.0444978 0.0443627
0.5199832 0.0457088 0.0458098
0.5295600 0.0458414 0.0472009
0.5392309 0.0470875 0.0487367
0.5487686 0.0472239 0.0502128
0.5583855 0.0485059 0.0518421
0.5679644 0.0498183 0.0534789
0.5773899 0.0499593 0.0550476
0.5774971 0.0511505 0.0551635
0.5868712 0.0512951 0.0567790
0.5962917 0.0526361 0.0585593
0.6055438 0.0527846 0.0602690
0.6150801 0.0541637 0.0621527
0.6244321 0.0542027 0.0621529
0.6245341 0.0555770 0.0640918
0.6337993 0.0557344 0.0659535
0.6430700 0.0571866 0.0680039
0.6521412 0.0572276 0.0680041
0.6522397 0.0586747 0.0701140
0.0014478 0.0174294 0.0018847
0.0037997 0.0184490 0.0022696
0.0100112 0.0195125 0.0026992
0.0183655 0.0204729 0.0031672
0.0269656 0.0213882 0.0037183
0.0363954 0.0223259 0.0044150
0.0456522 0.0231920 0.0050011
0.0553481 0.0241301 0.0058453
0.0652609 0.0244309 0.0066221
0.0748224 0.0252809 0.0072877
0.0857745 0.0262183 0.0082763
0.0955910 0.0271137 0.0091118
0.1068687 0.0280416 0.0100310
0.1196795 0.0290008 0.0110335
0.1301199 0.0291804 0.0117175
0.1421601 0.0301568 0.0128514
0.1555495 0.0310997 0.0136773
0.1699746 0.0320713 0.0145557
0.1858207 0.0330705 0.0154682
0.1978320 0.0332580 0.0163892
0.2105081 0.0342714 0.0174028
0.2306157 0.0353410 0.0184783
0.2447192 0.0355410 0.0195758
0.2591422 0.0366174 0.0207897
0.2739424 0.0376442 0.0214513
0.2815014 0.0378296 0.0227367
0.2970987 0.0388893 0.0234590
0.3132066 0.0400615 0.0249169
0.3297035 0.0402028 0.0256510
0.3377072 0.0413819 0.0272419
0.3539071 0.0425372 0.0281355
0.3620950 0.0426599 0.0290105
0.3788289 0.0439482 0.0309081
0.3872644 0.0440749 0.0318671
0.3958786 0.0452740 0.0329264
0.4132067 0.0465353 0.0340201
0.4218718 0.0466690 0.0350729
0.4306805 0.0480411 0.0373545
0.4394292 0.0481784 0.0385039
0.4571587 0.0495022 0.0397656
0.4660215 0.0496430 0.0409796
0.4750176 0.0509436 0.0423172
0.4840353 0.0522767 0.0436968
0.4929624 0.0524249 0.0450263
0.5020058 0.0537949 0.0464907
0.5111623 0.0539481 0.0479016
0.5208539 0.0553586 0.0494556
0.5304296 0.0555177 0.0509525
0.5400940 0.0568439 0.0510579
0.5496292 0.0570070 0.0526011
0.5592391 0.0584898 0.0542567
0.5687055 0.0586539 0.0558471
0.5782318 0.0601773 0.0575996
0.5782325 0.0603038 0.0592826
0.5877059 0.0617379 0.0594043
0.5970171 0.0619106 0.0611373
0.6062639 0.0620837 0.0629181
0.6157946 0.0636922 0.0648797
0.6251401 0.0637375 0.0648799
0.6252418 0.0653398 0.0668987
0.6345003 0.0655231 0.0688369
0.6437605 0.0671665 0.0709666
0.6528239 0.0672141 0.0709668
0.6529191 0.0688498 0.0731782
0.0015414 0.0245180 0.0025346
0.0039349 0.0258716 0.0029606
0.0104141 0.0266416 0.0034217
0.0184580 0.0279254 0.0040170
0.0279563 0.0291593 0.0046653
0.0365758 0.0303725 0.0054485
0.0458579 0.0307825 0.0061664
0.0555952 0.0319510 0.0070012
0.0655756 0.0330676 0.0077046
0.0772282 0.0334782 0.0087316
0.0861461 0.0346083 0.0096125
0.0986103 0.0357957 0.0105817
0.1072805 0.0360189 0.0112556
0.1201344 0.0372285 0.0123452
0.1306580 0.0383716 0.0131386
0.1426878 0.0386949 0.0143767
0.1561184 0.0398878 0.0152938
0.1705861 0.0411110 0.0162404
0.1864116 0.0413660 0.0172068
0.1985213 0.0426102 0.0182700
0.2111584 0.0428495 0.0193553
0.2313101 0.0440779 0.0199656
0.2455240 0.0454016 0.0212032
0.2598955 0.0456566 0.0224742
0.2747228 0.0469136 0.0231878
0.2822956 0.0471427 0.0245753
0.2979166 0.0484123 0.0253528
0.3139560 0.0486827 0.0268673
0.3305679 0.0499920 0.0277158
0.3384847 0.0502434 0.0294499
0.3546994 0.0515945 0.0304288
0.3628959 0.0517420 0.0313733
0.3796414 0.0531315 0.0324144
0.3880850 0.0534001 0.0344534
0.3967026 0.0547959 0.0355935
0.4139362 0.0549883 0.0366937
0.4227098 0.0564233 0.0379055
0.4314143 0.0565833 0.0390713
0.4402720 0.0580565 0.0403487
0.4579005 0.0582582 0.0415802
0.4668719 0.0597728 0.0429367
0.4757636 0.0599410 0.0442439
0.4847829 0.0614969 0.0456838
0.4937111 0.0616697 0.0470713
0.5027552 0.0632678 0.0485994
0.5119117 0.0634463 0.0500716
0.5214961 0.0636273 0.0515863
0.5311741 0.0652287 0.0532507
0.5407312 0.0654106 0.0548131
0.5503665 0.0669104 0.0549225
0.5598681 0.0670966 0.0565313
0.5694335 0.0687759 0.0583004
0.5788513 0.0689669 0.0600030
0.5882177 0.0691585 0.0617526
0.5883185 0.0706899 0.0618748
0.5976257 0.0708860 0.0636758
0.6069674 0.0726537 0.0656554
0.6163902 0.0728561 0.0675597
0.6257304 0.0729075 0.0675600
0.6258289 0.0746711 0.0696524
0.6350818 0.0748786 0.0716651
0.6443350 0.0765815 0.0718059
0.6533924 0.0767957 0.0738973
0.6533933 0.0769571 0.0760559
0.0016714 0.0318412 0.0032253
0.0042001 0.0335211 0.0036880
0.0108237 0.0345348 0.0043321
0.0191491 0.0361671 0.0050596
0.0280604 0.0367581 0.0057181
0.0377761 0.0382147 0.0064898
0.0473302 0.0396738 0.0073681
0.0573413 0.0401827 0.0083475
0.0658113 0.0415531 0.0091900
0.0775026 0.0419719 0.0100946
0.0864493 0.0433661 0.0111116
0.0989148 0.0436759 0.0118052
0.1107409 0.0450941 0.0129464
0.1205398 0.0464305 0.0137770
0.1310454 0.0467133 0.0146292
0.1475142 0.0482312 0.0160177
0.1565671 0.0484940 0.0169710
0.1710666 0.0499284 0.0180185
0.1869270 0.0501323 0.0185464
0.1990603 0.0515858 0.0196895
0.2117235 0.0518730 0.0208578
0.2319123 0.0534158 0.0221555
0.2460711 0.0536040 0.0228097
0.2605453 0.0551541 0.0242262
0.2753108 0.0553454 0.0249404
0.2906058 0.0556524 0.0264307
0.2985349 0.0570998 0.0272655
0.3145936 0.0574206 0.0289238
0.3312241 0.0589596 0.0298857
0.3391484 0.0591269 0.0308138
0.3553785 0.0607040 0.0318369
0.3635831 0.0610088 0.0338405
0.3803392 0.0625876 0.0349588
0.3887883 0.0627646 0.0360398
0.3974085 0.0643443 0.0372282
0.4146526 0.0645681 0.0383773
0.4233269 0.0647499 0.0395571
0.4321364 0.0663750 0.0408471
0.4408927 0.0665606 0.0420930
0.4586290 0.0682723 0.0434630
0.4674966 0.0684629 0.0447856
0.4763899 0.0686540 0.0461468
0.4854071 0.0703707 0.0476431
0.4943362 0.0705668 0.0490875
0.5033771 0.0723283 0.0506749
0.5125337 0.0725304 0.0522070
0.5221174 0.0727355 0.0537834
0.5317946 0.0745464 0.0554707
0.5413504 0.0747524 0.0570949
0.5509840 0.0764515 0.0572086
0.5604831 0.0766623 0.0588809
0.5699438 0.0768737 0.0605996
0.5794605 0.0787800 0.0624889
0.5888233 0.0789967 0.0643068
0.5888233 0.0789967 0.0643068
0.5982273 0.0809517 0.0663048
0.6074651 0.0811740 0.0682268
0.6168839 0.0813983 0.0702010
0.6263244 0.0833689 0.0703491
0.6263250 0.0835407 0.0723804
0.6355728 0.0837726 0.0744874
0.6448312 0.0858634 0.0746492
0.6538834 0.0861021 0.0768284
0.6539888 0.0883685 0.0792370
0.0018179 0.0392059 0.0040531
0.0043537 0.0412219 0.0046866
0.0108594 0.0423178 0.0052967
0.0192116 0.0442699 0.0061902
0.0281513 0.0449961 0.0070126
0.0378970 0.0466256 0.0077165
0.0474612 0.0472497 0.0087436
0.0575207 0.0488624 0.0096251
0.0678184 0.0493512 0.0105721
0.0777394 0.0508661 0.0112784
0.0890553 0.0513360 0.0123477
0.0992103 0.0529845 0.0135408
0.1110268 0.0533354 0.0143787
0.1208480 0.0549043 0.0153001
0.1350588 0.0552634 0.0162227
0.1478807 0.0568878 0.0172246
0.1616587 0.0572326 0.0182488
0.1714218 0.0575419 0.0193329
0.1873702 0.0591892 0.0205224
0.1994592 0.0595176 0.0217463
0.2187748 0.0611046 0.0224347
0.2323565 0.0614445 0.0237782
0.2466098 0.0630349 0.0245294
0.2610244 0.0633829 0.0259957
0.2758075 0.0636010 0.0267609
0.2912039 0.0653745 0.0284152
0.2990546 0.0655591 0.0292824
0.3152170 0.0672541 0.0302539
0.3317722 0.0676390 0.0321608
0.3397033 0.0678294 0.0331577
0.3559434 0.0695735 0.0342540
0.3641533 0.0697690 0.0353138
0.3809207 0.0715597 0.0364793
0.3893757 0.0719153 0.0387657
0.3979022 0.0721166 0.0399570
0.4152536 0.0739621 0.0412599
0.4239319 0.0741675 0.0425180
0.4326436 0.0743734 0.0438129
0.4503051 0.0762719 0.0452366
0.4591429 0.0764832 0.0466111
0.4681152 0.0783817 0.0481217
0.4770102 0.0785984 0.0495801
0.4859253 0.0788157 0.0510806
0.4949650 0.0807236 0.0511903
0.5039030 0.0809463 0.0527373
0.5130594 0.0811707 0.0543289
0.5227576 0.0833718 0.0560447
0.5323306 0.0836001 0.0576848
0.5418850 0.0838291 0.0593704
0.5515289 0.0860963 0.0612367
0.5610255 0.0861545 0.0612369
0.5704839 0.0863899 0.0630204
0.5800084 0.0887205 0.0649948
0.5893677 0.0889623 0.0668811
0.5893677 0.0889623 0.0668811
0.5987792 0.0913562 0.0689689
0.6080130 0.0916044 0.0709632
0.6174271 0.0918550 0.0730113
0.6268662 0.0941296 0.0731700
0.6268668 0.0943233 0.0752982
0.6361094 0.0945835 0.0774950
0.6453623 0.0969193 0.0776629
0.6544082 0.0971859 0.0799235
0.6544089 0.0973863 0.0822447
0.0019852 0.0468663 0.0050467
0.0046603 0.0491692 0.0057156
0.0112710 0.0504430 0.0064686
0.0199033 0.0526051 0.0073430
0.0291202 0.0533430 0.0080626
0.0379864 0.0540941 0.0091370
0.0475902 0.0559221 0.0100572
0.0576533 0.0565064 0.0110465
0.0679983 0.0582153 0.0117741
0.0779144 0.0587463 0.0128849
0.0892858 0.0604813 0.0137108
0.0994276 0.0609997 0.0150022
0.1112673 0.0613992 0.0159237
0.1211058 0.0631365 0.0169062
0.1353427 0.0635431 0.0179118
0.1481857 0.0653490 0.0190152
0.1619874 0.0657419 0.0201442
0.1717661 0.0659605 0.0207332
0.1877400 0.0678355 0.0220146
0.1998475 0.0682104 0.0233334
0.2191219 0.0684958 0.0240219
0.2327917 0.0704005 0.0255104
0.2469882 0.0706445 0.0262616
0.2614962 0.0726026 0.0278858
0.2762967 0.0728501 0.0287053
0.2916254 0.0731042 0.0295814
0.2995691 0.0750909 0.0315107
0.3156592 0.0753553 0.0324882
0.3322264 0.0756205 0.0334951
0.3402622 0.0777902 0.0356774
0.3564214 0.0780570 0.0367801
0.3646364 0.0782745 0.0379156
0.3814239 0.0804572 0.0391727
0.3898826 0.0806805 0.0403761
0.4070109 0.0809550 0.0416084
0.4157832 0.0831521 0.0429723
0.4244649 0.0833810 0.0442806
0.4331797 0.0836104 0.0456271
0.4508572 0.0859276 0.0471177
0.4596973 0.0861634 0.0485469
0.4685684 0.0863998 0.0500176
0.4775790 0.0887319 0.0516449
0.4864952 0.0889748 0.0532050
0.4954256 0.0892181 0.0548100
0.5044783 0.0916146 0.0565402
0.5136341 0.0916734 0.0565405
0.5232171 0.0919225 0.0581943
0.5329039 0.0943891 0.0600256
0.5424571 0.0946449 0.0617758
0.5519853 0.0949013 0.0635742
0.5615937 0.0972427 0.0637137
0.5710493 0.0975054 0.0655651
0.5804587 0.0977688 0.0674670
0.5898153 0.0980328 0.0694206
0.5899270 0.1003770 0.0695719
0.5992237 0.1006474 0.0715825
0.6084542 0.1009184 0.0736472
0.6179733 0.1033952 0.0738073
0.6272997 0.1036767 0.0759530
0.6273003 0.1038892 0.0781673
0.6365379 0.1039599 0.0781675
0.6457904 0.1068074 0.0806212
0.6548315 0.1070982 0.0829613
0.6548315 0.1070982 0.0829613
0.0022192 0.0556504 0.0061532
0.0048261 0.0568455 0.0067567
0.0116924 0.0583142 0.0076540
0.0199497 0.0607567 0.0086892
0.0291876 0.0616048 0.0095449
0.0391771 0.0623644 0.0104842
0.0490284 0.0644547 0.0115389
0.0577833 0.0649370 0.0122588
0.0681251 0.0655608 0.0134149
0.0780867 0.0674831 0.0142743
0.0894488 0.0679524 0.0151570
0.0996073 0.0685241 0.0165597
0.1115056 0.0704895 0.0175810
0.1247560 0.0709401 0.0186261
0.1356287 0.0728985 0.0192137
0.1484438 0.0733335 0.0203542
0.1622653 0.0737710 0.0215614
0.1721219 0.0759826 0.0229054
0.1880599 0.0762867 0.0235814
0.2001834 0.0767048 0.0249922
0.2195590 0.0789034 0.0257868
0.2331759 0.0793350 0.0273266
0.2473889 0.0796075 0.0281301
0.2619213 0.0819948 0.0299070
0.2767376 0.0822814 0.0308360
0.2920815 0.0825689 0.0317931
0.3080320 0.0848688 0.0328528
0.3161467 0.0852886 0.0349187
0.3327277 0.0855859 0.0359986
0.3407725 0.0879001 0.0371940
0.3569434 0.0881985 0.0383420
0.3651640 0.0884418 0.0395241
0.3818543 0.0887413 0.0407382
0.3904253 0.0911318 0.0420747
0.4075623 0.0914385 0.0433569
0.4162275 0.0916885 0.0446764
0.4250236 0.0941509 0.0461369
0.4337415 0.0944071 0.0475376
0.4513112 0.0947232 0.0489792
0.4602668 0.0972593 0.0505743
0.4691397 0.0975232 0.0521035
0.4780373 0.0977878 0.0536769
0.4869542 0.0980530 0.0552954
0.4960000 0.1006638 0.0570402
0.5049384 0.1009304 0.0587079
0.5140942 0.1009945 0.0587082
0.5237953 0.1037643 0.0605593
0.5333666 0.1040428 0.0623242
0.5429188 0.1043221 0.0641376
0.5524455 0.1046019 0.0660007
0.5620636 0.1074173 0.0661601
0.5715173 0.1077046 0.0680782
0.5809243 0.1079925 0.0700483
0.5904015 0.1111116 0.0722446
0.5904015 0.1111116 0.0722446
0.5996947 0.1114077 0.0743272
0.6089216 0.1117066 0.0764869
0.6184479 0.1146935 0.0766698
0.6277700 0.1150035 0.0789037
0.6277708 0.1152366 0.0811975
0.6370037 0.1153141 0.0811977
0.6462585 0.1186253 0.0837515
0.6552941 0.1189445 0.0861751
0.6552941 0.1189445 0.0861751
0.0024554 0.0630635 0.0072672
0.0051615 0.0643678 0.0079793
0.0121205 0.0659825 0.0090411
0.0206513 0.0687418 0.0099540
0.0301680 0.0696927 0.0109332
0.0392546 0.0703506 0.0116386
0.0491266 0.0728482 0.0127709
0.0595150 0.0735798 0.0139748
0.0682592 0.0740864 0.0148391
0.0782422 0.0764223 0.0157923
0.0896249 0.0769417 0.0167442
0.0998012 0.0774188 0.0177402
0.1117245 0.0798090 0.0188374
0.1249978 0.0803146 0.0199560
0.1358384 0.0807765 0.0211399
0.1487266 0.0832327 0.0224509
0.1625696 0.0835597 0.0231137
0.1774583 0.0840572 0.0244972
0.1884027 0.0863821 0.0252762
0.2068355 0.0869114 0.0267863
0.2198678 0.0872076 0.0275742
0.2335791 0.0897996 0.0292842
0.2478093 0.0901118 0.0301775
0.2622707 0.0904256 0.0311146
0.2771004 0.0909314 0.0330744
0.2925502 0.0934436 0.0341756
0.3084194 0.0937665 0.0352333
0.3165392 0.0940276 0.0363225
0.3332321 0.0966174 0.0375285
0.3411820 0.0970860 0.0398785
0.3573622 0.0974120 0.0411031
0.3655871 0.0976766 0.0423565
0.3823971 0.1004287 0.0437476
0.3908643 0.1007008 0.0450786
0.4080083 0.1010365 0.0464487
0.4167989 0.1039772 0.0479757
0.4254869 0.1042577 0.0494299
0.4342075 0.1045385 0.0509261
0.4517816 0.1048849 0.0524658
0.4607500 0.1077026 0.0525941
0.4696243 0.1079918 0.0541815
0.4785230 0.1082817 0.0558145
0.4874409 0.1085662 0.0574483
0.4964991 0.1116953 0.0592708
0.5054376 0.1119878 0.0610002
0.5145941 0.1122826 0.0627773
0.5241756 0.1123564 0.0627775
0.5338726 0.1155873 0.0647593
0.5434233 0.1158939 0.0666393
0.5529487 0.1162013 0.0685704
0.5625650 0.1192921 0.0687357
0.5720164 0.1196073 0.0707236
0.5814207 0.1199232 0.0727652
0.5907716 0.1202399 0.0748618
0.6001841 0.1234250 0.0750411
0.6001847 0.1236719 0.0772199
0.6094079 0.1240008 0.0794686
0.6188097 0.1240834 0.0794688
0.6281288 0.1244155 0.0817780
0.6374766 0.1279545 0.0843486
0.6374766 0.1279545 0.0843486
0.6466095 0.1282955 0.0867881
0.6556405 0.1283806 0.0867883
0.6557565 0.1319303 0.0895029
0.0027823 0.0721737 0.0085900
0.0053441 0.0735332 0.0094359
0.0121467 0.0751553 0.0103645
0.0206869 0.0764038 0.0113838
0.0302322 0.0791684 0.0121362
0.0393378 0.0800618 0.0132809
0.0492091 0.0807397 0.0141028
0.0596387 0.0835271 0.0154660
0.0702915 0.0841395 0.0164156
0.0805371 0.0847016 0.0173924
0.0898061 0.0872874 0.0184684
0.1000010 0.0878232 0.0195654
0.1119015 0.0883730 0.0207265
0.1251928 0.0887519 0.0213324
0.1361003 0.0914142 0.0226551
0.1489531 0.0919540 0.0240116
0.1628135 0.0923122 0.0247196
0.1777878 0.0951674 0.0262584
0.1886798 0.0954810 0.0270311
0.2071334 0.0960608 0.0286437
0.2201797 0.0963853 0.0294849
0.2339128 0.0992765 0.0304597
0.2481578 0.0998317 0.0323793
0.2626329 0.1001760 0.0333830
0.2774752 0.1005197 0.0344168
0.2929477 0.1035215 0.0355697
0.3088303 0.1040931 0.0378011
0.3169563 0.1043800 0.0389671
0.3336715 0.1074850 0.0402672
0.3496746 0.1078420 0.0415033
0.3578163 0.1081320 0.0427685
0.3743595 0.1084897 0.0440710
0.3828723 0.1116237 0.0455230
0.3913438 0.1119227 0.0469058
0.4084952 0.1122915 0.0483291
0.4171667 0.1125921 0.0497935
0.4259805 0.1158307 0.0514256
0.4434724 0.1162100 0.0529797
0.4522826 0.1165194 0.0545782
0.4611281 0.1168294 0.0562226
0.4701294 0.1201686 0.0580083
0.4790285 0.1202416 0.0580085
0.4879475 0.1205537 0.0597030
0.4968795 0.1208666 0.0614444
0.5059451 0.1243065 0.0633865
0.5151014 0.1246296 0.0652290
0.5246824 0.1247104 0.0652292
0.5342521 0.1250381 0.0671220
0.5439283 0.1285870 0.0692324
0.5534517 0.1289235 0.0712338
0.5629409 0.1290067 0.0712340
0.5723906 0.1293442 0.0732894
0.5817928 0.1296824 0.0754000
0.5912641 0.1330839 0.0755805
0.6005515 0.1334331 0.0777740
0.6005521 0.1336986 0.0800375
0.6097719 0.1337844 0.0800377
0.6192915 0.1375530 0.0825578
0.6286060 0.1379159 0.0849497
0.6378307 0.1380064 0.0849499
0.6378313 0.1382797 0.0874051
0.6470795 0.1422308 0.0901420
0.6561051 0.1423236 0.0901423
0.6650248 0.1426973 0.0927346
0.0031667 0.0805530 0.0101376
0.0055307 0.0817386 0.0107919
0.0125857 0.0835296 0.0118528
0.0214173 0.0868360 0.0126220
0.0312383 0.0879931 0.0138121
0.0405458 0.0887913 0.0146665
0.0493151 0.0918730 0.0156123
0.0597412 0.0925867 0.0165709
0.0704113 0.0934329 0.0180711
0.0806731 0.0940514 0.0191448
0.0899598 0.0969424 0.0197546
0.1029445 0.0975849 0.0209268
0.1120891 0.0981366 0.0221672
0.1254001 0.0987516 0.0234951
0.1363282 0.1017326 0.0242487
0.1491993 0.1023273 0.0256986
0.1630786 0.1027217 0.0264552
0.1780050 0.1033217 0.0280342
0.1889831 0.1063826 0.0289298
0.2074593 0.1070298 0.0306870
0.2205210 0.1073996 0.0316395
0.2341806 0.1077705 0.0326208
0.2485291 0.1109705 0.0337152
0.2630194 0.1115803 0.0358339
0.2778760 0.1119588 0.0369413
0.2932591 0.1123384 0.0380818
0.3092575 0.1156532 0.0393533
0.3173898 0.1159682 0.0405656
0.3340059 0.1163593 0.0418105
0.3500172 0.1167410 0.0430849
0.3582780 0.1200850 0.0445057
0.3748307 0.1204775 0.0458591
0.3832292 0.1207972 0.0472516
0.3917037 0.1211178 0.0486848
0.4089824 0.1246474 0.0502824
0.4176574 0.1249768 0.0518033
0.4263508 0.1253067 0.0533680
0.4438466 0.1257130 0.0549779
0.4527834 0.1292801 0.0567715
0.4616308 0.1296126 0.0584318
0.4705079 0.1299458 0.0601380
0.4794081 0.1300239 0.0601383
0.4884538 0.1336894 0.0620414
0.4973865 0.1340317 0.0638470
0.5063257 0.1343747 0.0657021
0.5154818 0.1347204 0.0676078
0.5250624 0.1348067 0.0676080
0.5347607 0.1386667 0.0697362
0.5443093 0.1390258 0.0717513
0.5538319 0.1393857 0.0738206
0.5633196 0.1394745 0.0738208
0.5727675 0.1398354 0.0759456
0.5822940 0.1438207 0.0783393
0.5916389 0.1439120 0.0783395
0.6009239 0.1442866 0.0806184
0.6009246 0.1445705 0.0829582
0.6102654 0.1483804 0.0831596
0.6196606 0.1487675 0.0855674
0.6289716 0.1491554 0.0880393
0.6381925 0.1492520 0.0880395
0.6381933 0.1495441 0.0905763
0.6474367 0.1534666 0.0907945
0.6564590 0.1538647 0.0934040
0.6653744 0.1542637 0.0960815
0.0035697 0.0903541 0.0116028
0.0057246 0.0913337 0.0119710
0.0130423 0.0932988 0.0131054
0.0214579 0.0972499 0.0143767
0.0312970 0.0983321 0.0152656
0.0406214 0.0992151 0.0162088
0.0507586 0.1000285 0.0171855
0.0598507 0.1033897 0.0182532
0.0705390 0.1041208 0.0193376
0.0808181 0.1048028 0.0204854
0.0925430 0.1054906 0.0217002
0.1031258 0.1089118 0.0230507
0.1154944 0.1093716 0.0237310
0.1256159 0.1099876 0.0251505
0.1365024 0.1103897 0.0258913
0.1494498 0.1139247 0.0275058
0.1633484 0.1143586 0.0283144
0.1782946 0.1150189 0.0300015
0.1892111 0.1153991 0.0309161
0.2077853 0.1188791 0.0319549
0.2208628 0.1195308 0.0339661
0.2345376 0.1199385 0.0350175
0.2488086 0.1203474 0.0361004
0.2633094 0.1207538 0.0372158
0.2782765 0.1242860 0.0384594
0.2936739 0.1249578 0.0408659
0.3095788 0.1253753 0.0421197
0.3177159 0.1257112 0.0434031
0.3344525 0.1293675 0.0448341
0.3504747 0.1297860 0.0461971
