Plugins/FilmEmulator/Content/LUTs/FE_Kodak_TriX_400_Dev11_64.cube
TITLE "FE_Kodak_TriX_400_Dev11_33"
LUT_3D_SIZE 4
0.0004614 0.0004614 0.0004614
0.0213174 0.0213174 0.0213174
0.0723871 0.0723871 0.0723871
0.1378848 0.1378848 0.1378848
0.0723871 0.0723871 0.0723871
0.1378848 0.1378848 0.1378848
0.2137375 0.2137375 0.2137375
0.2859771 0.2859771 0.2859771
0.2137375 0.2137375 0.2137375
0.2859771 0.2859771 0.2859771
0.3569595 0.3569595 0.3569595
0.4196775 0.4196775 0.4196775
0.3569595 0.3569595 0.3569595
0.4268288 0.4268288 0.4268288
0.4834014 0.4834014 0.4834014
0.5320104 0.5320104 0.5320104
0.1450647 0.1450647 0.1450647
0.2187770 0.2187770 0.2187770
0.2921178 0.2921178 0.2921178
0.3637754 0.3637754 0.3637754
0.2921178 0.2921178 0.2921178
0.3637754 0.3637754 0.3637754
0.4268288 0.4268288 0.4268288
0.4834014 0.4834014 0.4834014
0.4268288 0.4268288 0.4268288
0.4834014 0.4834014 0.4834014
0.5320104 0.5320104 0.5320104
0.5785133 0.5785133 0.5785133
0.5320104 0.5320104 0.5320104
0.5785133 0.5785133 0.5785133
0.6103461 0.6103461 0.6103461
0.6408790 0.6408790 0.6408790
0.3706462 0.3706462 0.3706462
0.4340109 0.4340109 0.4340109
0.4903996 0.4903996 0.4903996
0.5387073 0.5387073 0.5387073
0.4903996 0.4903996 0.4903996
0.5387073 0.5387073 0.5387073
0.5785133 0.5785133 0.5785133
0.6165310 0.6165310 0.6165310
0.5785133 0.5785133 0.5785133
0.6165310 0.6165310 0.6165310
0.6468598 0.6468598 0.6468598
0.6754453 0.6754453 0.6754453
0.6468598 0.6468598 0.6468598
0.6754453 0.6754453 0.6754453
0.6972506 0.6972506 0.6972506
0.7179539 0.7179539 0.7179539
0.5387073 0.5387073 0.5387073
0.5785133 0.5785133 0.5785133
0.6165310 0.6165310 0.6165310
0.6468598 0.6468598 0.6468598
0.6165310 0.6165310 0.6165310
0.6468598 0.6468598 0.6468598
0.6754453 0.6754453 0.6754453
0.6972506 0.6972506 0.6972506
0.6754453 0.6754453 0.6754453
0.6972506 0.6972506 0.6972506
0.7179539 0.7179539 0.7179539
0.7372994 0.7372994 0.7372994
0.7179539 0.7179539 0.7179539
0.7372994 0.7372994 0.7372994
0.7557693 0.7557693 0.7557693
0.7686579 0.7686579 0.7686579
