Plugins/FilmEmulator/Content/LUTs/FE_Kodak_5219_64.cube
TITLE "FE_Kodak_5219_33"
LUT_3D_SIZE 4
0.0020791 0.0013526 0.0018791
0.2191703 0.0065549 0.0079147
0.4254481 0.0178519 0.0207175
0.5706396 0.0324660 0.0350665
0.0093083 0.2593978 0.0102730
0.2232880 0.2855660 0.0230085
0.4181812 0.3031427 0.0394478
0.5659072 0.3295690 0.0568576
0.0230080 0.5065363 0.0268680
0.2390605 0.5288895 0.0422730
0.4314044 0.5399328 0.0585989
0.5705538 0.5506477 0.0783586
0.0395242 0.6609901 0.0467980
0.2572851 0.6715503 0.0619629
0.4467642 0.6811523 0.0799412
0.5768059 0.6903727 0.0996684
0.0235477 0.0099359 0.2759304
0.2544267 0.0218010 0.2904724
0.4496475 0.0354102 0.3071567
0.5869110 0.0512002 0.3243635
0.0380389 0.2882750 0.3151381
0.2634945 0.3060012 0.3265839
0.4544351 0.3322689 0.3417007
0.5841881 0.3504256 0.3575947
0.0544470 0.5315962 0.3372993
0.2812586 0.5429214 0.3579206
0.4590319 0.5533797 0.3732837
0.5889544 0.5635641 0.3809245
0.0729961 0.6736881 0.3656191
0.2938128 0.6834378 0.3790355
0.4745470 0.6924797 0.3861410
0.5951154 0.7012652 0.4026653
0.0584066 0.0282879 0.5114140
0.2877257 0.0426804 0.5196499
0.4746450 0.0594183 0.5299225
0.6029773 0.0765835 0.5402378
0.0750547 0.3147477 0.5430112
0.3000820 0.3330221 0.5488289
0.4726447 0.3512798 0.5569379
0.6020824 0.3698386 0.5655418
0.0929459 0.5432782 0.5593246
0.3117255 0.5541474 0.5652282
0.4865693 0.5742134 0.5732732
0.6067976 0.5843255 0.5906549
0.1116510 0.6837834 0.5727231
0.3331904 0.6932147 0.5879452
0.4930629 0.7020437 0.5957412
0.6132621 0.7023627 0.6036083
0.0984536 0.0493953 0.6587139
0.3246292 0.0663098 0.6661533
0.5005842 0.0853786 0.6666100
0.6192000 0.1055889 0.6756024
0.1145936 0.3330754 0.6833792
0.3314992 0.3516454 0.6810569
0.5002346 0.3703240 0.6882469
0.6197056 0.3892900 0.6957143
0.1321079 0.5542238 0.6894552
0.3521700 0.5746362 0.6953197
0.5144775 0.5848067 0.7020450
0.6245372 0.5947716 0.7091293
0.1526843 0.6932694 0.7011490
0.3665609 0.7023780 0.7067572
0.5210141 0.7110375 0.7134103
0.6308907 0.7112834 0.7125188
