Plugins/FilmEmulator/Content/LUTs/FE_Kodak_EXR_5386_64.cube
TITLE "FE_Kodak_EXR_5386_33"
LUT_3D_SIZE 4
0.0000000 0.0126967 0.1922250
0.5123940 0.1136643 0.2204239
1.0000000 0.3168445 0.3012404
1.0000000 0.4606950 0.3865575
0.2217322 0.8504953 0.3927875
0.5295761 0.8554780 0.4241610
0.8872761 0.8820363 0.5011956
0.9953809 0.9044076 0.5730187
0.4402086 1.0000000 0.5774311
0.6187896 0.9984124 0.5980064
0.8879223 0.9925571 0.6599099
0.9707987 0.9924599 0.7173010
0.5559126 1.0000000 0.6751604
0.6531669 1.0000000 0.6857617
0.8924327 1.0000000 0.7358717
0.9696877 1.0000000 0.7846598
0.9317901 0.8347200 0.9820042
0.9944833 0.8702760 0.9815408
1.0000000 0.8893976 0.9821987
1.0000000 0.9018297 0.9830616
0.9418122 0.9761761 0.9834778
0.9831266 0.9815442 0.9850641
0.9942139 0.9844190 0.9864388
0.9987013 0.9865085 0.9876188
0.9502589 0.9926693 0.9868777
0.9849727 0.9941393 0.9886407
0.9938067 0.9950808 0.9898395
0.9972915 0.9956986 0.9907990
0.9515529 0.9967416 0.9890618
0.9859205 0.9971524 0.9904421
0.9941047 0.9975929 0.9915181
0.9971486 0.9978926 0.9923524
0.9948683 0.9804869 0.9979839
0.9981421 0.9824256 0.9979333
0.9997606 0.9836500 0.9979324
1.0000000 0.9845217 0.9979945
0.9948952 0.9950351 0.9980333
0.9971656 0.9955961 0.9980959
0.9981953 0.9959953 0.9981601
0.9987793 0.9962165 0.9982132
0.9954509 0.9976721 0.9982836
0.9974229 0.9979601 0.9983629
0.9982466 0.9981192 0.9984260
0.9987164 0.9982285 0.9984794
0.9956934 0.9985104 0.9984702
0.9975963 0.9987069 0.9985514
0.9983372 0.9988110 0.9986119
0.9987750 0.9988858 0.9986644
0.9981807 0.9949527 0.9992808
0.9986908 0.9951868 0.9992707
0.9990476 0.9953802 0.9992769
0.9992400 0.9955838 0.9992855
0.9982836 0.9979814 0.9993166
0.9986795 0.9980865 0.9993194
0.9989259 0.9981635 0.9993322
0.9990890 0.9982198 0.9993445
0.9984443 0.9988497 0.9993811
0.9987808 0.9989125 0.9993874
0.9990010 0.9989607 0.9994014
0.9991391 0.9989943 0.9994138
0.9985277 0.9991558 0.9994150
0.9988530 0.9992068 0.9994308
0.9990438 0.9992411 0.9994444
0.9991820 0.9992684 0.9994569
