Plugins/FilmEmulator/Content/LUTs/FE_Kodak_Vision2_100T_5212_64.cube
# FilmEmulator LUT (resampled to 64)
LUT_3D_SIZE 64
0.000000 0.000000 0.000000
0.009905 0.000000 0.000434
0.019823 0.000000 0.000869
0.030115 0.000000 0.001350
0.040424 0.000000 0.001832
0.050980 0.000000 0.002328
0.061535 0.000000 0.002822
0.072076 0.000000 0.003303
0.082617 0.000000 0.003785
0.093157 0.000000 0.004281
0.103700 0.000000 0.004777
0.114256 0.000000 0.005273
0.124809 0.000000 0.005769
0.135350 0.000000 0.006265
0.145894 0.000000 0.006761
0.156451 0.000000 0.007257
0.167011 0.000000 0.007753
0.177583 0.000000 0.008249
0.188154 0.000000 0.008746
0.198726 0.000000 0.009242
0.209298 0.000000 0.009743
0.219869 0.000000 0.010254
0.230452 0.000000 0.010760
0.241054 0.000000 0.011256
0.251657 0.000000 0.011752
0.262260 0.000000 0.012248
0.272875 0.000000 0.012744
0.283509 0.000000 0.013240
0.294169 0.000000 0.013743
0.304865 0.000000 0.014254
0.315590 0.000000 0.014759
0.326347 0.000000 0.015255
0.337159 0.000000 0.015767
0.348025 0.000000 0.016294
0.358916 0.000000 0.016813
0.369829 0.000000 0.017324
0.380785 0.000000 0.017844
0.391775 0.000000 0.018371
0.402793 0.000000 0.018898
0.413830 0.000000 0.019425
0.424915 0.000000 0.019962
0.436030 0.000000 0.020505
0.447174 0.000000 0.021047
0.458335 0.000000 0.021589
0.469528 0.000000 0.022132
0.480735 0.000000 0.022674
0.492098 0.000000 0.023228
0.503522 0.000000 0.023786
0.515156 0.000000 0.024333
0.526859 0.000000 0.024875
0.538780 0.000000 0.025442
0.550762 0.000000 0.026015
0.562921 0.000000 0.026602
0.575120 0.000000 0.027191
0.587489 0.000000 0.027793
0.599890 0.000000 0.028397
0.612440 0.000000 0.029016
0.625011 0.000000 0.029636
0.637709 0.000000 0.030256
0.650421 0.000000 0.030875
0.663291 0.000000 0.031510
0.676172 0.000000 0.032146
0.689264 0.000000 0.032796
0.702362 0.000000 0.033447
0.000000 0.010990 0.000000
0.013141 0.010085 0.000213
0.026211 0.009186 0.000428
0.037087 0.008509 0.000664
0.048118 0.007754 0.000912
0.061501 0.005825 0.001321
0.074472 0.004077 0.001841
0.083454 0.004077 0.003432
0.092470 0.004077 0.004864
0.101727 0.004077 0.005187
0.110944 0.004077 0.005511
0.119941 0.004077 0.005842
0.128883 0.004077 0.006168
0.137589 0.004077 0.006475
0.146661 0.004077 0.006820
0.157036 0.004077 0.007300
0.167453 0.004077 0.007784
0.177993 0.004077 0.008280
0.188535 0.004077 0.008777
0.199083 0.004077 0.009273
0.209634 0.004077 0.009771
0.220190 0.004077 0.010275
0.230756 0.004077 0.010778
0.241343 0.004077 0.011282
0.251933 0.004077 0.011780
0.262528 0.004077 0.012268
0.273132 0.004077 0.012760
0.283750 0.004077 0.013256
0.294398 0.004077 0.013759
0.305086 0.004077 0.014270
0.315803 0.004077 0.014774
0.326553 0.004077 0.015270
0.337357 0.004077 0.015782
0.348215 0.004077 0.016309
0.359098 0.004077 0.016828
0.370003 0.004077 0.017339
0.380956 0.004077 0.017860
0.391946 0.004077 0.018387
0.402964 0.004077 0.018914
0.414000 0.004077 0.019441
0.425081 0.004077 0.019977
0.436187 0.004077 0.020520
0.447324 0.004077 0.021062
0.458477 0.004077 0.021605
0.469667 0.004077 0.022148
0.480874 0.004077 0.022690
0.492232 0.004077 0.023238
0.503648 0.004077 0.023788
0.515285 0.004077 0.024339
0.526997 0.004077 0.024889
0.538914 0.004077 0.025457
0.550888 0.004077 0.026031
0.563045 0.004077 0.026617
0.575244 0.004077 0.027206
0.587614 0.004077 0.027808
0.600014 0.004077 0.028413
0.612564 0.004077 0.029031
0.625135 0.004077 0.029651
0.637833 0.004077 0.030271
0.650544 0.004077 0.030891
0.663415 0.004077 0.031526
0.676296 0.004077 0.032161
0.689380 0.004077 0.032812
0.702471 0.004077 0.033463
0.000000 0.022018 0.000000
0.016227 0.020242 0.000000
0.032307 0.018478 0.000000
0.043851 0.017121 0.000000
0.055679 0.015613 0.000020
0.071764 0.011832 0.000340
0.087044 0.008404 0.000877
0.094552 0.008395 0.003501
0.102141 0.008378 0.005816
0.110296 0.008308 0.005968
0.118361 0.008241 0.006129
0.125933 0.008193 0.006334
0.133382 0.008153 0.006532
0.140294 0.008153 0.006701
0.147911 0.008153 0.006933
0.158049 0.008153 0.007389
0.168261 0.008153 0.007854
0.178694 0.008153 0.008341
0.189128 0.008153 0.008829
0.199566 0.008153 0.009316
0.210025 0.008153 0.009805
0.220533 0.008153 0.010298
0.231062 0.008153 0.010797
0.241633 0.008153 0.011308
0.252210 0.008153 0.011808
0.262796 0.008153 0.012289
0.273389 0.008153 0.012776
0.283992 0.008153 0.013272
0.294628 0.008153 0.013775
0.305308 0.008153 0.014286
0.316017 0.008153 0.014790
0.326759 0.008153 0.015286
0.337555 0.008153 0.015797
0.348406 0.008153 0.016324
0.359281 0.008153 0.016843
0.370178 0.008153 0.017355
0.381127 0.008153 0.017875
0.392117 0.008153 0.018402
0.403135 0.008153 0.018929
0.414171 0.008153 0.019456
0.425246 0.008153 0.019992
0.436345 0.008153 0.020535
0.447474 0.008153 0.021077
0.458619 0.008153 0.021621
0.469807 0.008153 0.022163
0.481014 0.008153 0.022706
0.492366 0.008153 0.023248
0.503775 0.008153 0.023791
0.515416 0.008153 0.024345
0.527135 0.008153 0.024902
0.539048 0.008153 0.025473
0.551014 0.008153 0.026047
0.563170 0.008153 0.026633
0.575369 0.008153 0.027222
0.587738 0.008153 0.027823
0.600139 0.008153 0.028428
0.612689 0.008153 0.029046
0.625259 0.008153 0.029666
0.637957 0.008153 0.030286
0.650668 0.008153 0.030907
0.663539 0.008153 0.031541
0.676420 0.008153 0.032177
0.689497 0.008153 0.032827
0.702580 0.008153 0.033478
0.000000 0.034217 0.000000
0.014652 0.032638 0.000000
0.029311 0.031041 0.000000
0.044194 0.028912 0.000000
0.059078 0.026714 0.000010
0.073989 0.023476 0.000165
0.088317 0.020513 0.000424
0.096998 0.020196 0.001694
0.106178 0.019631 0.002814
0.118853 0.017325 0.002888
0.131157 0.015129 0.003153
0.141462 0.013530 0.004452
0.151030 0.012230 0.005810
0.157407 0.012230 0.007419
0.164172 0.012230 0.008720
0.172326 0.012230 0.008917
0.180437 0.012230 0.009118
0.188422 0.012230 0.009330
0.196308 0.012230 0.009539
0.203942 0.012230 0.009743
0.212142 0.012230 0.010005
0.221587 0.012230 0.010396
0.231410 0.012230 0.010825
0.241958 0.012230 0.011329
0.252514 0.012230 0.011826
0.263085 0.012230 0.012315
0.273665 0.012230 0.012807
0.284260 0.012230 0.013303
0.294885 0.012230 0.013802
0.305549 0.012230 0.014305
0.316249 0.012230 0.014809
0.326992 0.012230 0.015313
0.337784 0.012230 0.015825
0.348626 0.012230 0.016344
0.359494 0.012230 0.016859
0.370383 0.012230 0.017370
0.381324 0.012230 0.017891
0.392306 0.012230 0.018418
0.403316 0.012230 0.018945
0.414344 0.012230 0.019472
0.425417 0.012230 0.020003
0.436516 0.012230 0.020537
0.447645 0.012230 0.021083
0.458790 0.012230 0.021634
0.469972 0.012230 0.022179
0.481172 0.012230 0.022721
0.492521 0.012230 0.023264
0.503930 0.012230 0.023806
0.515571 0.012230 0.024360
0.527290 0.012230 0.024918
0.539203 0.012230 0.025488
0.551169 0.012230 0.026062
0.563318 0.012230 0.026648
0.575510 0.012230 0.027237
0.587878 0.012230 0.027839
0.600278 0.012230 0.028444
0.612821 0.012230 0.029055
0.625384 0.012230 0.029667
0.638081 0.012230 0.030293
0.650792 0.012230 0.030921
0.663663 0.012230 0.031557
0.676544 0.012230 0.032192
0.689629 0.012230 0.032843
0.702720 0.012230 0.033494
0.000000 0.046589 0.000000
0.013175 0.045126 0.000000
0.026497 0.043621 0.000000
0.044336 0.040811 0.000000
0.061937 0.038002 0.000000
0.075950 0.035226 0.000000
0.089587 0.032643 0.000000
0.099581 0.031925 0.000000
0.110411 0.030761 0.000000
0.127095 0.026479 0.000000
0.143167 0.022402 0.000352
0.155938 0.019423 0.002603
0.167479 0.016977 0.004970
0.173691 0.016843 0.007836
0.180009 0.016698 0.010066
0.186706 0.016516 0.010021
0.193168 0.016370 0.010008
0.198927 0.016333 0.010090
0.204474 0.016307 0.010166
0.209477 0.016307 0.010227
0.215524 0.016307 0.010355
0.223869 0.016307 0.010633
0.232889 0.016307 0.010977
0.243197 0.016307 0.011446
0.253507 0.016307 0.011916
0.263820 0.016307 0.012386
0.274182 0.016307 0.012861
0.284619 0.016307 0.013342
0.295148 0.016307 0.013830
0.305797 0.016307 0.014326
0.316489 0.016307 0.014828
0.327231 0.016307 0.015339
0.338018 0.016307 0.015851
0.348853 0.016307 0.016363
0.359712 0.016307 0.016875
0.370594 0.016307 0.017386
0.381527 0.016307 0.017906
0.392500 0.016307 0.018433
0.403502 0.016307 0.018960
0.414524 0.016307 0.019487
0.425593 0.016307 0.020014
0.436691 0.016307 0.020542
0.447820 0.016307 0.021089
0.458965 0.016307 0.021647
0.470142 0.016307 0.022194
0.481333 0.016307 0.022736
0.492681 0.016307 0.023279
0.504089 0.016307 0.023821
0.515730 0.016307 0.024376
0.527449 0.016307 0.024934
0.539361 0.016307 0.025504
0.551327 0.016307 0.026077
0.563470 0.016307 0.026664
0.575655 0.016307 0.027253
0.588021 0.016307 0.027855
0.600422 0.016307 0.028459
0.612958 0.016307 0.029063
0.625514 0.016307 0.029668
0.638210 0.016307 0.030300
0.650921 0.016307 0.030935
0.663791 0.016307 0.031571
0.676672 0.016307 0.032207
0.689763 0.016307 0.032857
0.702861 0.016307 0.033508
0.000000 0.061548 0.000000
0.013167 0.058998 0.000000
0.026395 0.056462 0.000000
0.041479 0.054320 0.000000
0.056698 0.052092 0.000000
0.073939 0.048552 0.000000
0.090821 0.045105 0.000000
0.104224 0.042560 0.000000
0.117582 0.040040 0.000000
0.130620 0.037696 0.000000
0.143380 0.035439 0.000167
0.154631 0.033657 0.001238
0.165947 0.031781 0.002363
0.177544 0.029497 0.003725
0.189481 0.027036 0.004785
0.202634 0.023940 0.004764
0.214221 0.021462 0.005284
0.221106 0.020834 0.007430
0.227444 0.020383 0.009540
0.232384 0.020383 0.011561
0.237873 0.020383 0.012954
0.244573 0.020383 0.012964
0.251322 0.020383 0.012983
0.258167 0.020383 0.013019
0.264847 0.020383 0.013064
0.271254 0.020383 0.013125
0.278319 0.020383 0.013261
0.286346 0.020383 0.013506
0.295517 0.020383 0.013861
0.306158 0.020383 0.014357
0.316838 0.020383 0.014856
0.327564 0.020383 0.015359
0.338340 0.020383 0.015867
0.349167 0.020383 0.016378
0.360018 0.020383 0.016890
0.370892 0.020383 0.017401
0.381813 0.020383 0.017922
0.392771 0.020383 0.018449
0.403766 0.020383 0.018976
0.414787 0.020383 0.019503
0.425846 0.020383 0.020035
0.436928 0.020383 0.020570
0.448052 0.020383 0.021115
0.459197 0.020383 0.021665
0.470369 0.020383 0.022210
0.481552 0.020383 0.022752
0.492903 0.020383 0.023295
0.504320 0.020383 0.023837
0.515957 0.020383 0.024391
0.527668 0.020383 0.024949
0.539572 0.020383 0.025519
0.551530 0.020383 0.026093
0.563678 0.020383 0.026679
0.575870 0.020383 0.027268
0.588232 0.020383 0.027863
0.600624 0.020383 0.028459
0.613159 0.020383 0.029070
0.625715 0.020383 0.029683
0.638412 0.020383 0.030309
0.651123 0.020383 0.030936
0.663985 0.020383 0.031571
0.676858 0.020383 0.032207
0.689941 0.020383 0.032857
0.703031 0.020383 0.033508
0.000198 0.076448 0.000000
0.013316 0.072913 0.000000
0.026414 0.069439 0.000000
0.038907 0.067884 0.000000
0.051864 0.066166 0.000000
0.071794 0.061985 0.000000
0.091420 0.057799 0.000000
0.108114 0.053560 0.000000
0.123993 0.049747 0.000000
0.134176 0.048914 0.000000
0.144308 0.048102 0.000000
0.154170 0.047412 0.000000
0.165213 0.046089 0.000000
0.181376 0.042029 0.000000
0.198066 0.037656 0.000000
0.216636 0.032160 0.000000
0.232631 0.027717 0.000956
0.240905 0.026430 0.004779
0.248369 0.025452 0.008545
0.253762 0.025265 0.012162
0.259280 0.025059 0.014579
0.265075 0.024813 0.014358
0.270241 0.024619 0.014159
0.274210 0.024521 0.014005
0.277783 0.024460 0.013893
0.280696 0.024460 0.013850
0.284769 0.024460 0.013854
0.290535 0.024460 0.013926
0.298266 0.024460 0.014161
0.308522 0.024460 0.014605
0.318762 0.024460 0.015049
0.328983 0.024460 0.015491
0.339291 0.024460 0.015947
0.349687 0.024460 0.016415
0.360333 0.024460 0.016907
0.371199 0.024460 0.017418
0.382108 0.024460 0.017938
0.393050 0.024460 0.018466
0.404039 0.024460 0.018993
0.415059 0.024460 0.019519
0.426108 0.024460 0.020055
0.437174 0.024460 0.020597
0.448292 0.024460 0.021140
0.459437 0.024460 0.021683
0.470604 0.024460 0.022225
0.481780 0.024460 0.022768
0.493134 0.024460 0.023310
0.504557 0.024460 0.023853
0.516190 0.024460 0.024407
0.527892 0.024460 0.024964
0.539790 0.024460 0.025535
0.551742 0.024460 0.026109
0.563894 0.024460 0.026695
0.576092 0.024460 0.027283
0.588448 0.024460 0.027873
0.600834 0.024460 0.028463
0.613368 0.024460 0.029079
0.625923 0.024460 0.029698
0.638618 0.024460 0.030319
0.651329 0.024460 0.030939
0.664185 0.024460 0.031574
0.677050 0.024460 0.032210
0.690126 0.024460 0.032860
0.703209 0.024460 0.033511
0.002306 0.090787 0.000000
0.014975 0.087235 0.000000
0.027607 0.083739 0.000000
0.039092 0.081972 0.000000
0.050947 0.080089 0.000000
0.068349 0.076460 0.000000
0.085885 0.072735 0.000000
0.104712 0.068087 0.000000
0.123056 0.063589 0.000000
0.138018 0.060150 0.000000
0.152162 0.057151 0.000000
0.161890 0.056530 0.000000
0.172195 0.055609 0.000000
0.185004 0.053384 0.000000
0.198060 0.051004 0.000000
0.212001 0.048067 0.000000
0.225507 0.045212 0.000446
0.237710 0.042603 0.002230
0.249527 0.040112 0.003988
0.260360 0.037925 0.005676
0.271573 0.035525 0.006804
0.283619 0.032657 0.006700
0.293854 0.030384 0.007321
0.300634 0.029247 0.009324
0.306146 0.028537 0.011629
0.309548 0.028537 0.014436
0.313575 0.028537 0.016312
0.318514 0.028537 0.016825
0.324019 0.028537 0.017067
0.330253 0.028537 0.016960
0.335904 0.028537 0.016841
0.340897 0.028537 0.016708
0.346332 0.028537 0.016648
0.352209 0.028537 0.016660
0.360732 0.028537 0.016938
0.371589 0.028537 0.017449
0.382490 0.028537 0.017969
0.393425 0.028537 0.018497
0.404401 0.028537 0.019024
0.415405 0.028537 0.019550
0.426444 0.028537 0.020082
0.437503 0.028537 0.020616
0.448613 0.028537 0.021155
0.459750 0.028537 0.021698
0.470913 0.028537 0.022241
0.482090 0.028537 0.022783
0.493438 0.028537 0.023326
0.504853 0.028537 0.023868
0.516478 0.028537 0.024422
0.528173 0.028537 0.024980
0.540075 0.028537 0.025550
0.552035 0.028537 0.026124
0.564182 0.028537 0.026710
0.576373 0.028537 0.027299
0.588728 0.028537 0.027896
0.601113 0.028537 0.028493
0.613640 0.028537 0.029103
0.626187 0.028537 0.029714
0.638875 0.028537 0.030341
0.651577 0.028537 0.030970
0.664433 0.028537 0.031605
0.677298 0.028537 0.032241
0.690374 0.028537 0.032891
0.703457 0.028537 0.033542
0.004755 0.104839 0.000529
0.016885 0.101342 0.000401
0.028964 0.097894 0.000273
0.039451 0.095960 0.000132
0.050218 0.093960 0.000000
0.065182 0.090949 0.000000
0.080655 0.087766 0.000000
0.101039 0.082919 0.000000
0.121300 0.077945 0.000000
0.140694 0.072087 0.000000
0.158664 0.066999 0.000000
0.168947 0.066068 0.000000
0.179166 0.065187 0.000000
0.189109 0.064523 0.000000
0.199039 0.063854 0.000000
0.208926 0.063167 0.000000
0.220147 0.061768 0.000000
0.235367 0.058234 0.000000
0.250523 0.054679 0.000000
0.265516 0.051071 0.000000
0.281191 0.047042 0.000000
0.298363 0.042086 0.000000
0.312970 0.038079 0.001253
0.322679 0.035884 0.004896
0.330522 0.034384 0.009035
0.335259 0.034043 0.014000
0.340216 0.033657 0.017290
0.345498 0.033205 0.018132
0.349853 0.032876 0.018495
0.353015 0.032706 0.018242
0.354971 0.032616 0.018011
0.355558 0.032616 0.017802
0.356857 0.032616 0.017578
0.358868 0.032616 0.017337
0.365288 0.032616 0.017453
0.375596 0.032616 0.017884
0.385817 0.032616 0.018315
0.395971 0.032616 0.018748
0.406079 0.032616 0.019183
0.416156 0.032616 0.019619
0.426826 0.032616 0.020111
0.437851 0.032616 0.020636
0.448944 0.032616 0.021173
0.460072 0.032616 0.021715
0.471232 0.032616 0.022258
0.482408 0.032616 0.022800
0.493751 0.032616 0.023343
0.505159 0.032616 0.023885
0.516777 0.032616 0.024440
0.528465 0.032616 0.024998
0.540370 0.032616 0.025568
0.552336 0.032616 0.026141
0.564479 0.032616 0.026728
0.576663 0.032616 0.027317
0.589016 0.032616 0.027918
0.601400 0.032616 0.028521
0.613921 0.032616 0.029127
0.626461 0.032616 0.029732
0.639142 0.032616 0.030364
0.651837 0.032616 0.030998
0.664691 0.032616 0.031634
0.677556 0.032616 0.032270
0.690632 0.032616 0.032920
0.703715 0.032616 0.033571
0.009591 0.116883 0.004761
0.020548 0.113937 0.003609
0.031462 0.111028 0.002454
0.041028 0.109252 0.001187
0.050818 0.107467 0.000000
0.063963 0.105543 0.000000
0.077555 0.103464 0.000000
0.095467 0.099892 0.000000
0.113815 0.095897 0.000000
0.135209 0.088937 0.000000
0.155706 0.082453 0.000000
0.171367 0.078538 0.000000
0.186058 0.075166 0.000000
0.196552 0.074147 0.000000
0.206908 0.073220 0.000000
0.216772 0.072620 0.000000
0.227134 0.071750 0.000000
0.238992 0.070074 0.000000
0.250381 0.068597 0.000000
0.260572 0.067627 0.000000
0.272086 0.065925 0.000000
0.286510 0.062615 0.000000
0.300605 0.059279 0.000573
0.314069 0.055895 0.002241
0.326982 0.052628 0.004135
0.338978 0.049554 0.006407
0.351710 0.046078 0.007912
0.365519 0.042012 0.008298
0.376244 0.039055 0.009582
0.383005 0.037522 0.012022
0.387503 0.036708 0.014823
0.389436 0.036708 0.018032
0.391767 0.036708 0.020102
0.394495 0.036708 0.021034
0.398945 0.036708 0.021357
0.404915 0.036708 0.021143
0.409753 0.036708 0.020867
0.413710 0.036708 0.020543
0.416963 0.036708 0.020241
0.419733 0.036708 0.019953
0.427530 0.036708 0.020163
0.438343 0.036708 0.020673
0.449352 0.036708 0.021204
0.460464 0.036708 0.021746
0.471615 0.036708 0.022289
0.482782 0.036708 0.022831
0.494123 0.036708 0.023374
0.505532 0.036708 0.023916
0.517150 0.036708 0.024471
0.528837 0.036708 0.025029
0.540736 0.036708 0.025599
0.552694 0.036708 0.026172
0.564836 0.036708 0.026759
0.577019 0.036708 0.027348
0.589366 0.036708 0.027942
0.601742 0.036708 0.028538
0.614262 0.036708 0.029149
0.626802 0.036708 0.029762
0.639483 0.036708 0.030388
0.652178 0.036708 0.031015
0.665025 0.036708 0.031650
0.677882 0.036708 0.032285
0.690957 0.036708 0.032936
0.704040 0.036708 0.033587
0.014459 0.128968 0.009063
0.024305 0.126488 0.007226
0.034114 0.124036 0.005368
0.042795 0.122451 0.002850
0.051653 0.120906 0.000474
0.063141 0.119947 0.000225
0.075010 0.118850 0.000024
0.090551 0.116432 0.000281
0.106973 0.113386 0.000474
0.129567 0.105941 0.000217
0.151824 0.098638 0.000000
0.172263 0.092093 0.000000
0.191086 0.086422 0.000000
0.202906 0.084541 0.000000
0.214355 0.082918 0.000000
0.224475 0.082219 0.000000
0.234284 0.081686 0.000000
0.243159 0.081650 0.000000
0.251262 0.081983 0.000000
0.257393 0.083259 0.000000
0.265247 0.083617 0.000000
0.276892 0.081953 0.000000
0.289975 0.079505 0.000000
0.305803 0.075559 0.000000
0.322322 0.071177 0.000000
0.339993 0.066070 0.000000
0.358952 0.060203 0.000000
0.379794 0.053224 0.000000
0.396176 0.047998 0.001898
0.406821 0.045025 0.006236
0.414585 0.043189 0.011170
0.419084 0.042641 0.016778
0.423731 0.042067 0.020468
0.428525 0.041467 0.022237
0.432281 0.041081 0.022919
0.435122 0.040884 0.022640
0.435820 0.040798 0.022317
0.434851 0.040798 0.021960
0.432705 0.040798 0.021495
0.429754 0.040798 0.020956
0.434851 0.040798 0.020994
0.444777 0.040798 0.021377
0.454787 0.040798 0.021774
0.464840 0.040798 0.022179
0.474660 0.040798 0.022580
0.484374 0.040798 0.022980
0.495016 0.040798 0.023454
0.506020 0.040798 0.023957
0.517536 0.040798 0.024502
0.529224 0.040798 0.025060
0.541117 0.040798 0.025630
0.553067 0.040798 0.026203
0.565206 0.040798 0.026790
0.577388 0.040798 0.027379
0.589729 0.040798 0.027968
0.602099 0.040798 0.028556
0.614616 0.040798 0.029173
0.627155 0.040798 0.029793
0.639834 0.040798 0.030413
0.652529 0.040798 0.031033
0.665369 0.040798 0.031668
0.678219 0.040798 0.032303
0.691294 0.040798 0.032954
0.704376 0.040798 0.033605
0.019497 0.141276 0.013744
0.028563 0.138796 0.013049
0.037596 0.136355 0.012236
0.045592 0.135149 0.007790
0.053759 0.133978 0.003506
0.064468 0.133325 0.001667
0.075459 0.132553 0.000178
0.089173 0.130631 0.002081
0.103608 0.128375 0.003508
0.123084 0.123781 0.001605
0.142951 0.118770 0.000000
0.164933 0.111508 0.000000
0.186043 0.104580 0.000000
0.203375 0.099093 0.000000
0.219517 0.094412 0.000000
0.231408 0.092610 0.000000
0.242312 0.091366 0.000000
0.250250 0.091794 0.000000
0.257666 0.092499 0.000000
0.263750 0.093909 0.000000
0.270649 0.094876 0.000000
0.279341 0.094866 0.000000
0.288716 0.094471 0.000000
0.299395 0.093344 0.000000
0.311615 0.091376 0.000000
0.326404 0.088009 0.000000
0.343233 0.083530 0.000000
0.363044 0.077426 0.000000
0.381222 0.071875 0.000851
0.397301 0.067036 0.002795
0.412240 0.062566 0.005007
0.425888 0.058515 0.007521
0.439785 0.054268 0.009175
0.453933 0.049825 0.009968
0.463881 0.046969 0.011828
0.470124 0.045512 0.014628
0.473394 0.044875 0.017826
0.474354 0.044875 0.021335
0.474679 0.044875 0.023811
0.474571 0.044875 0.025579
0.477905 0.044875 0.026029
0.483304 0.044875 0.025687
0.487365 0.044875 0.025257
0.490725 0.044875 0.024780
0.492088 0.044875 0.024278
0.492543 0.044875 0.023764
0.498718 0.044875 0.023800
0.507132 0.044875 0.024051
0.518001 0.044875 0.024532
0.529689 0.044875 0.025091
0.541575 0.044875 0.025661
0.553518 0.044875 0.026234
0.565649 0.044875 0.026821
0.577823 0.044875 0.027410
0.590163 0.044875 0.027999
0.602532 0.044875 0.028588
0.615043 0.044875 0.029204
0.627574 0.044875 0.029824
0.640246 0.044875 0.030444
0.652932 0.044875 0.031064
0.665772 0.044875 0.031699
0.678623 0.044875 0.032334
0.691689 0.044875 0.032985
0.704763 0.044875 0.033636
0.024572 0.153648 0.018472
0.032890 0.151188 0.018775
0.041178 0.148777 0.018887
0.048540 0.147863 0.013069
0.056063 0.146983 0.007397
0.066001 0.146615 0.003909
0.076144 0.146149 0.001004
0.088257 0.144734 0.003745
0.100924 0.143211 0.005864
0.117461 0.140935 0.003636
0.134968 0.137875 0.001649
0.157720 0.130576 0.000965
0.180303 0.123101 0.000371
0.202161 0.114864 0.000163
0.222346 0.107686 0.000000
0.236560 0.104286 0.000000
0.249151 0.101858 0.000000
0.256872 0.102346 0.000000
0.264115 0.103124 0.000000
0.270135 0.104644 0.000000
0.276241 0.106114 0.000000
0.282536 0.107479 0.000000
0.288902 0.108786 0.000000
0.295405 0.109984 0.000000
0.303933 0.110120 0.000000
0.315837 0.108487 0.000000
0.330199 0.105556 0.000000
0.348153 0.100729 0.000000
0.366986 0.095375 0.000000
0.386949 0.089345 0.000000
0.407394 0.082958 0.000000
0.428385 0.076168 0.000000
0.449701 0.069056 0.000000
0.471341 0.061621 0.000000
0.486881 0.056607 0.002548
0.497038 0.053728 0.007345
0.503927 0.052080 0.012827
0.508274 0.051389 0.018844
0.512482 0.050660 0.023245
0.516595 0.049906 0.026541
0.519767 0.049410 0.027536
0.522376 0.049069 0.027151
0.522154 0.048951 0.026773
0.520450 0.048951 0.026399
0.515562 0.048951 0.025926
0.509228 0.048951 0.025408
0.511630 0.048951 0.025230
0.517452 0.048951 0.025185
0.526665 0.048951 0.025453
0.537008 0.048951 0.025825
0.546973 0.048951 0.026188
0.556834 0.048951 0.026549
0.567553 0.048951 0.026995
0.578471 0.048951 0.027460
0.590613 0.048951 0.028031
0.602981 0.048951 0.028622
0.615485 0.048951 0.029237
0.628008 0.048951 0.029855
0.640672 0.048951 0.030475
0.653351 0.048951 0.031095
0.666189 0.048951 0.031730
0.679038 0.048951 0.032365
0.692098 0.048951 0.033016
0.705165 0.048951 0.033667
0.029812 0.166296 0.023401
0.037515 0.163947 0.024082
0.045195 0.161640 0.024593
0.052139 0.160647 0.019823
0.059226 0.159706 0.015013
0.068432 0.159527 0.009619
0.077853 0.159284 0.004738
0.089344 0.158420 0.004818
0.101196 0.157381 0.005283
0.115567 0.155121 0.008448
0.130844 0.152528 0.010442
0.151013 0.148134 0.006113
0.171546 0.143200 0.002348
0.193655 0.135924 0.001030
0.215067 0.128676 0.000000
0.233990 0.121528 0.000000
0.250838 0.115866 0.000000
0.261465 0.114662 0.000000
0.270759 0.114223 0.000000
0.276645 0.115742 0.000000
0.282662 0.117265 0.000000
0.288964 0.118794 0.000000
0.295349 0.120275 0.000000
0.301891 0.121662 0.000000
0.309357 0.122557 0.000000
0.318364 0.122632 0.000000
0.328798 0.121945 0.000000
0.341320 0.120141 0.000000
0.355860 0.117245 0.000000
0.372996 0.112947 0.000000
0.391714 0.107750 0.000000
0.412225 0.101535 0.000000
0.433013 0.095056 0.000000
0.454079 0.088314 0.000000
0.472612 0.082495 0.001118
0.488911 0.077491 0.003221
0.503947 0.072840 0.005626
0.518002 0.068464 0.008265
0.532208 0.063850 0.010195
0.546517 0.059072 0.011641
0.556471 0.055930 0.013758
0.563811 0.053771 0.016278
0.566523 0.053028 0.019766
0.566811 0.053028 0.023762
0.565236 0.053028 0.027361
0.562814 0.053028 0.030780
0.564450 0.053028 0.031359
0.567674 0.053028 0.030826
0.570857 0.053028 0.030227
0.574028 0.053028 0.029607
0.573776 0.053028 0.028868
0.572566 0.053028 0.028095
0.575791 0.053028 0.027791
0.580040 0.053028 0.027594
