Plugins/FilmEmulator/Content/LUTs/FE_Kodak_Ektar_100_64.cube
TITLE "FE_Kodak_Ektar_100_33"
LUT_3D_SIZE 4
0.0011691 0.0020878 0.0008240
0.2421055 0.0048454 0.0039610
0.5441517 0.0138457 0.0121462
0.7147352 0.0263415 0.0252688
0.0034272 0.2486529 0.0046275
0.2563642 0.2680013 0.0126678
0.5439000 0.2819796 0.0260841
0.7160141 0.2968125 0.0410865
0.0103743 0.5037431 0.0149496
0.2710906 0.5110481 0.0278289
0.5516531 0.5194701 0.0436896
0.7134200 0.5282051 0.0606931
0.0209272 0.6571006 0.0306088
0.2965274 0.6640981 0.0443887
0.5607249 0.6633840 0.0615712
0.7207998 0.6711888 0.0822494
0.0113618 0.0233410 0.3340043
0.2990306 0.0349383 0.3544159
0.5735989 0.0482314 0.3853175
0.7305317 0.0639990 0.4070345
0.0180133 0.3037475 0.3616240
0.3105340 0.3187876 0.3904290
0.5767341 0.3348322 0.4105783
0.7335680 0.3514164 0.4311741
0.0275457 0.5272160 0.3868899
0.3272724 0.5354319 0.4062306
0.5845653 0.5536566 0.4266568
0.7398621 0.5626217 0.4472144
0.0407518 0.6704517 0.4005459
0.3454007 0.6778021 0.4202124
0.5933924 0.6855779 0.4406000
0.7384210 0.6932834 0.4615031
0.0389011 0.0663281 0.6506010
0.3552603 0.0814939 0.6611288
0.6033367 0.0999610 0.6719221
0.7460823 0.1142603 0.6821631
0.0516962 0.3517254 0.6634478
0.3699159 0.3681645 0.6728891
0.6081784 0.3854442 0.6825592
0.7502079 0.3940803 0.7010889
0.0663747 0.5628765 0.6781921
0.3777243 0.5713131 0.6872560
0.6161148 0.5801553 0.6964778
0.7564258 0.5890567 0.7056222
0.0816234 0.6934616 0.6814814
0.3969935 0.7005960 0.6997073
0.6248405 0.7002849 0.7085204
0.7632082 0.7077909 0.7174496
0.0809771 0.1183307 0.7966424
0.4056955 0.1390901 0.8038168
0.6330428 0.1530335 0.8041629
0.7613370 0.1735048 0.8112282
0.0975214 0.4036425 0.8039054
0.4116443 0.4120105 0.8102537
0.6387389 0.4299374 0.8167682
0.7660520 0.4389523 0.8168230
0.1135598 0.5895161 0.8135718
0.4308536 0.5980074 0.8134218
0.6466529 0.6066422 0.8197040
0.7721907 0.6153034 0.8258644
0.1320574 0.7081735 0.8157144
0.4510762 0.7152573 0.8217964
0.6550938 0.7224957 0.8278637
0.7787162 0.7223238 0.8277672
