Plugins/FilmEmulator/Content/LUTs/FE_Kodak_TriX_400_Dev7_64.cube
TITLE "FE_Kodak_TriX_400_Dev7_33"
LUT_3D_SIZE 4
0.0037964 0.0037964 0.0037964
0.0393379 0.0393379 0.0393379
0.0885383 0.0885383 0.0885383
0.1418998 0.1418998 0.1418998
0.0885383 0.0885383 0.0885383
0.1418998 0.1418998 0.1418998
0.1975787 0.1975787 0.1975787
0.2469151 0.2469151 0.2469151
0.1975787 0.1975787 0.1975787
0.2469151 0.2469151 0.2469151
0.2979252 0.2979252 0.2979252
0.3413320 0.3413320 0.3413320
0.2979252 0.2979252 0.2979252
0.3413320 0.3413320 0.3413320
0.3808257 0.3808257 0.3808257
0.4150199 0.4150199 0.4150199
0.1453586 0.1453586 0.1453586
0.1975787 0.1975787 0.1975787
0.2522837 0.2522837 0.2522837
0.2979252 0.2979252 0.2979252
0.2522837 0.2522837 0.2522837
0.2979252 0.2979252 0.2979252
0.3413320 0.3413320 0.3413320
0.3808257 0.3808257 0.3808257
0.3413320 0.3413320 0.3413320
0.3808257 0.3808257 0.3808257
0.4219697 0.4219697 0.4219697
0.4571725 0.4571725 0.4571725
0.4219697 0.4219697 0.4219697
0.4571725 0.4571725 0.4571725
0.4856757 0.4856757 0.4856757
0.5141667 0.5141667 0.5141667
0.3039305 0.3039305 0.3039305
0.3477788 0.3477788 0.3477788
0.3875824 0.3875824 0.3875824
0.4219697 0.4219697 0.4219697
0.3875824 0.3875824 0.3875824
0.4219697 0.4219697 0.4219697
0.4571725 0.4571725 0.4571725
0.4856757 0.4856757 0.4856757
0.4571725 0.4571725 0.4571725
0.4856757 0.4856757 0.4856757
0.5141667 0.5141667 0.5141667
0.5423557 0.5423557 0.5423557
0.5141667 0.5141667 0.5141667
0.5423557 0.5423557 0.5423557
0.5702761 0.5702761 0.5702761
0.5906404 0.5906404 0.5906404
0.4289507 0.4289507 0.4289507
0.4571725 0.4571725 0.4571725
0.4928233 0.4928233 0.4928233
0.5212293 0.5212293 0.5212293
0.4928233 0.4928233 0.4928233
0.5212293 0.5212293 0.5212293
0.5423557 0.5423557 0.5423557
0.5702761 0.5702761 0.5702761
0.5423557 0.5423557 0.5423557
0.5702761 0.5702761 0.5702761
0.5906404 0.5906404 0.5906404
0.6105525 0.6105525 0.6105525
0.5906404 0.5906404 0.5906404
0.6105525 0.6105525 0.6105525
0.6301029 0.6301029 0.6301029
0.6429076 0.6429076 0.6429076
