Plugins/FilmEmulator/Content/LUTs/FE_Kodak_5277_64.cube
TITLE "FE_Kodak_5277_33"
LUT_3D_SIZE 64
0.0018127 0.0013597 0.0016405
0.0066017 0.0014157 0.0017024
0.0145844 0.0016488 0.0019583
0.0229266 0.0018529 0.0022722
0.0317192 0.0020641 0.0025835
0.0416520 0.0022935 0.0028181
0.0514342 0.0025367 0.0030502
0.0634952 0.0028687 0.0033398
0.0737204 0.0031485 0.0037269
0.0855627 0.0035148 0.0040653
0.0962623 0.0038391 0.0045508
0.1082182 0.0042237 0.0050234
0.1180726 0.0045497 0.0054100
0.1325470 0.0049017 0.0058278
0.1444705 0.0052952 0.0062843
0.1528346 0.0057397 0.0067791
0.1663551 0.0062227 0.0073105
0.1759006 0.0065671 0.0077144
0.1911824 0.0071523 0.0081459
0.2019791 0.0075848 0.0088263
0.2132583 0.0080420 0.0093147
0.2250030 0.0085267 0.0098386
0.2372356 0.0090391 0.0101264
0.2501281 0.0093220 0.0107056
0.2564215 0.0099174 0.0113319
0.2698098 0.0105527 0.0119909
0.2838967 0.0108875 0.0123308
0.2907313 0.0115821 0.0130559
0.3054805 0.0119493 0.0134398
0.3126171 0.0127160 0.0142547
0.3189863 0.0131307 0.0146791
0.3319677 0.0139984 0.0151268
0.3385178 0.0144568 0.0160288
0.3451639 0.0149276 0.0165054
0.3518749 0.0154135 0.0169959
0.3657789 0.0159177 0.0174963
0.3724058 0.0169645 0.0180322
0.3793544 0.0175159 0.0185664
0.3866618 0.0180136 0.0196653
0.3942078 0.0185224 0.0202442
0.4018094 0.0190452 0.0208398
0.4094628 0.0195826 0.0214527
0.4171644 0.0201350 0.0220833
0.4249437 0.0206993 0.0220957
0.4327320 0.0212825 0.0227448
0.4405584 0.0218820 0.0234126
0.4486648 0.0218891 0.0241116
0.4483812 0.0225021 0.0248755
0.4562690 0.0231354 0.0256558
0.4646354 0.0238077 0.0264605
0.4739462 0.0245103 0.0272893
0.4833165 0.0252290 0.0273044
0.4832806 0.0252333 0.0281435
0.4926328 0.0259771 0.0290238
0.5019957 0.0267424 0.0299309
0.5113994 0.0275250 0.0299474
0.5113633 0.0275298 0.0308657
0.5207283 0.0283397 0.0318289
0.5300832 0.0291731 0.0328564
0.5397224 0.0291781 0.0328456
0.5394201 0.0300307 0.0339885
0.5487348 0.0309129 0.0351584
0.5583216 0.0309181 0.0351469
0.5580066 0.0318701 0.0363692
0.0019866 0.0060503 0.0018565
0.0071190 0.0065910 0.0020840
0.0151394 0.0070117 0.0024052
0.0225266 0.0074475 0.0026949
0.0312661 0.0079069 0.0029341
0.0411354 0.0083924 0.0031698
0.0509128 0.0086524 0.0035128
0.0611083 0.0091921 0.0038572
0.0732556 0.0097898 0.0042904
0.0826908 0.0101067 0.0046937
0.0959933 0.0107615 0.0051744
0.1049678 0.0111070 0.0055654
0.1180685 0.0118229 0.0059929
0.1288717 0.0122023 0.0064534
0.1407033 0.0125986 0.0069491
0.1533983 0.0134382 0.0074900
0.1624332 0.0138809 0.0078987
0.1769021 0.0143404 0.0083270
0.1871726 0.0148148 0.0090153
0.1979586 0.0153024 0.0095065
0.2090317 0.0163155 0.0100430
0.2207824 0.0168495 0.0103284
0.2329917 0.0174034 0.0109197
0.2457383 0.0179013 0.0115430
0.2589801 0.0184133 0.0122016
0.2656824 0.0189336 0.0125500
0.2796268 0.0194747 0.0132702
0.2866688 0.0200245 0.0136632
0.3014978 0.0200377 0.0144598
0.3088693 0.0206032 0.0148877
0.3152270 0.0211839 0.0153288
0.3283806 0.0217873 0.0162364
0.3349562 0.0224007 0.0167169
0.3416000 0.0230311 0.0172115
0.3485366 0.0230381 0.0177056
0.3624058 0.0237104 0.0182236
0.3692959 0.0244094 0.0187617
0.3762432 0.0251286 0.0193155
0.3835458 0.0258687 0.0198852
0.3913060 0.0258767 0.0204532
0.3988751 0.0266384 0.0210557
0.4064974 0.0274220 0.0216757
0.4144236 0.0274304 0.0222940
0.4221426 0.0282367 0.0229498
0.4299047 0.0290662 0.0236245
0.4379626 0.0290753 0.0243296
0.4457974 0.0299291 0.0250943
0.4536636 0.0308074 0.0258824
0.4536282 0.0308126 0.0266788
0.4620029 0.0317606 0.0266957
0.4715680 0.0317713 0.0275075
0.4808539 0.0328564 0.0283725
0.4901588 0.0339776 0.0292639
0.4901230 0.0339834 0.0301618
0.4994763 0.0351359 0.0301828
0.5091073 0.0351477 0.0310979
0.5184302 0.0363447 0.0320728
0.5184302 0.0363447 0.0320728
0.5277446 0.0375813 0.0331127
0.5370430 0.0388591 0.0342583
0.5370430 0.0388591 0.0342583
0.5463207 0.0401789 0.0354423
0.5558766 0.0401929 0.0366288
0.5555720 0.0415420 0.0366661
0.0023808 0.0139765 0.0022477
0.0076939 0.0145047 0.0025698
0.0156060 0.0150226 0.0028121
0.0232832 0.0160410 0.0030376
0.0324231 0.0165885 0.0032923
0.0414074 0.0171494 0.0035941
0.0512509 0.0176543 0.0039416
0.0616004 0.0181733 0.0043796
0.0717093 0.0187033 0.0047894
0.0834738 0.0192495 0.0052744
0.0941252 0.0198061 0.0056708
0.1061859 0.0198281 0.0062470
0.1160505 0.0203958 0.0065625
0.1267043 0.0209825 0.0070658
0.1383794 0.0215861 0.0076075
0.1510727 0.0222040 0.0080190
0.1647133 0.0228428 0.0086785
0.1744525 0.0228564 0.0091425
0.1846453 0.0235277 0.0096396
0.1953326 0.0242292 0.0101728
0.2064935 0.0249516 0.0107543
0.2181548 0.0256910 0.0110588
0.2304590 0.0257068 0.0116801
0.2430991 0.0264723 0.0123469
0.2562586 0.0272558 0.0126961
0.2630805 0.0272685 0.0134173
0.2769515 0.0280752 0.0138110
0.2839146 0.0289054 0.0146336
0.2986847 0.0289190 0.0150492
0.3060053 0.0297688 0.0154950
0.3189327 0.0306511 0.0164129
0.3256239 0.0306601 0.0168844
0.3321467 0.0316083 0.0173854
0.3389845 0.0316175 0.0178844
0.3526262 0.0327008 0.0184105
0.3593903 0.0338157 0.0189568
0.3664969 0.0338256 0.0194990
0.3733501 0.0349833 0.0206563
0.3808760 0.0349937 0.0212461
0.3883251 0.0361847 0.0218748
0.3961231 0.0361954 0.0224986
0.4037170 0.0374201 0.0225154
0.4113292 0.0386909 0.0231810
0.4192858 0.0387024 0.0238413
0.4269888 0.0400156 0.0245781
0.4350313 0.0400279 0.0253280
0.4428108 0.0413846 0.0261271
0.4509260 0.0413973 0.0269233
0.4505874 0.0427930 0.0277795
0.4592271 0.0427991 0.0277712
0.4684778 0.0442472 0.0286443
0.4780618 0.0442617 0.0295139
0.4873644 0.0457446 0.0304402
0.4873644 0.0457446 0.0304402
0.4969860 0.0457595 0.0313629
0.5063112 0.0472905 0.0323456
0.5159782 0.0472979 0.0323350
0.5156364 0.0488710 0.0333939
0.5252580 0.0488876 0.0345137
0.5345631 0.0505196 0.0357061
0.5345631 0.0505196 0.0357061
0.5438495 0.0522035 0.0369383
0.5534528 0.0522115 0.0369262
0.5534135 0.0522212 0.0381733
0.0027601 0.0223169 0.0027202
0.0084501 0.0230669 0.0029171
0.0161582 0.0238111 0.0031496
0.0236301 0.0245534 0.0033922
0.0329485 0.0253159 0.0036998
0.0421265 0.0253550 0.0040790
0.0521589 0.0261298 0.0044359
0.0626831 0.0269256 0.0048497
0.0730467 0.0269576 0.0053363
0.0824674 0.0277686 0.0057375
0.0929882 0.0286076 0.0063262
0.1049281 0.0286347 0.0068037
0.1181539 0.0294915 0.0071453
0.1289705 0.0303735 0.0076934
0.1410453 0.0303951 0.0081027
0.1494583 0.0313494 0.0087724
0.1631282 0.0313718 0.0092386
0.1726205 0.0324525 0.0097426
0.1880373 0.0335745 0.0102797
0.1990398 0.0335945 0.0108576
0.2103548 0.0347449 0.0111667
0.2223345 0.0347657 0.0117940
0.2282757 0.0359553 0.0124729
0.2410430 0.0359713 0.0128142
0.2540693 0.0372064 0.0135519
0.2675928 0.0384767 0.0139515
0.2746109 0.0384946 0.0147693
0.2888319 0.0398074 0.0152044
0.2962230 0.0398196 0.0156408
0.3034438 0.0411766 0.0165734
0.3165633 0.0411934 0.0170449
0.3229617 0.0425878 0.0175523
0.3296990 0.0425998 0.0180560
0.3431506 0.0440455 0.0185871
0.3501024 0.0440579 0.0191189
0.3568155 0.0455400 0.0202538
0.3638986 0.0455529 0.0208325
0.3710453 0.0455658 0.0214274
0.3782675 0.0470893 0.0220613
0.3859846 0.0471029 0.0226904
0.3934757 0.0486758 0.0233608
0.4013444 0.0486821 0.0233543
0.4089436 0.0503054 0.0240439
0.4168837 0.0503203 0.0247614
0.4245754 0.0519962 0.0255428
0.4326053 0.0520117 0.0263215
0.4406756 0.0520272 0.0271235
0.4484815 0.0537574 0.0279778
0.4571132 0.0537647 0.0279695
0.4567763 0.0555425 0.0288579
0.4663236 0.0555602 0.0297339
0.4759018 0.0555779 0.0306358
0.4852358 0.0574117 0.0306568
0.4948545 0.0574299 0.0315859
0.4945140 0.0593225 0.0325861
0.5041413 0.0593417 0.0336079
0.5138085 0.0593505 0.0335969
0.5134643 0.0613040 0.0347699
0.5230877 0.0613245 0.0359345
0.5327398 0.0613336 0.0359228
0.5323939 0.0633657 0.0371747
0.5420280 0.0633750 0.0371626
0.5512912 0.0654892 0.0384439
0.5512516 0.0655012 0.0397405
0.0032491 0.0317305 0.0030646
0.0091601 0.0329457 0.0032651
0.0168039 0.0330371 0.0035381
0.0247794 0.0342195 0.0038006
0.0336125 0.0342802 0.0042148
0.0429342 0.0354892 0.0045830
0.0532257 0.0355380 0.0050197
0.0620144 0.0367749 0.0053965
0.0721956 0.0380588 0.0059438
0.0841162 0.0380985 0.0063890
0.0948331 0.0394174 0.0068784
0.1070066 0.0394540 0.0073973
0.1169165 0.0408077 0.0077720
0.1277588 0.0408356 0.0081855
0.1395789 0.0422425 0.0088602
0.1524910 0.0422719 0.0093311
0.1614721 0.0437141 0.0098401
0.1760908 0.0437449 0.0103718
0.1863606 0.0452238 0.0109661
0.1972869 0.0452501 0.0115823
0.2087241 0.0452696 0.0118994
0.2204301 0.0467980 0.0125804
0.2328577 0.0468182 0.0129246
0.2390255 0.0483901 0.0136727
0.2522271 0.0484113 0.0140613
0.2656612 0.0500419 0.0148961
0.2726724 0.0500568 0.0153238
0.2868322 0.0517320 0.0157749
0.2941646 0.0517555 0.0166981
0.3081495 0.0517773 0.0171723
0.3144538 0.0534988 0.0176834
0.3210928 0.0535136 0.0181908
0.3343613 0.0552966 0.0187256
0.3411931 0.0553206 0.0198173
0.3481253 0.0553359 0.0203837
0.3548503 0.0571697 0.0209875
0.3619152 0.0571855 0.0215868
0.3687634 0.0590774 0.0222255
0.3762498 0.0590940 0.0228593
0.3839500 0.0591107 0.0235107
0.3914574 0.0610536 0.0235280
0.3992790 0.0610709 0.0241981
0.4071552 0.0610886 0.0249200
0.4147869 0.0631203 0.0257066
0.4227624 0.0631388 0.0264902
0.4304817 0.0652433 0.0273253
0.4385416 0.0652624 0.0281572
0.4466742 0.0652706 0.0281493
0.4549583 0.0674423 0.0290350
0.4549228 0.0674535 0.0299261
0.4644633 0.0674746 0.0308337
0.4737647 0.0697044 0.0308552
0.4833622 0.0697261 0.0317902
0.4929780 0.0697478 0.0327528
0.4926327 0.0720496 0.0338254
0.5022958 0.0720600 0.0338143
0.5119233 0.0720837 0.0349479
0.5212396 0.0744689 0.0361552
0.5212396 0.0744689 0.0361552
0.5308548 0.0744932 0.0373648
0.5401457 0.0769525 0.0386529
0.5401457 0.0769525 0.0386529
0.5497205 0.0769775 0.0399433
0.5580019 0.0769871 0.0399320
0.0037835 0.0428172 0.0034093
0.0102627 0.0444229 0.0036414
0.0174917 0.0445313 0.0039274
0.0252785 0.0446195 0.0043527
0.0342947 0.0461760 0.0047302
0.0438569 0.0462444 0.0051952
0.0526746 0.0478307 0.0055834
0.0633617 0.0478849 0.0059943
0.0737829 0.0495201 0.0064499
0.0833683 0.0495648 0.0069367
0.0939992 0.0512489 0.0074677
0.1060871 0.0512887 0.0078355
0.1160296 0.0513305 0.0084728
0.1266696 0.0530593 0.0089326
0.1385595 0.0530955 0.0094073
0.1512403 0.0548815 0.0099173
0.1603205 0.0549119 0.0104564
0.1748534 0.0549504 0.0110409
0.1850659 0.0567893 0.0116732
0.1959527 0.0568132 0.0119928
0.2071146 0.0587113 0.0126791
0.2189571 0.0587448 0.0133905
0.2313240 0.0587697 0.0137615
0.2440065 0.0607209 0.0141671
0.2506030 0.0607481 0.0149973
0.2642373 0.0607742 0.0154231
0.2709593 0.0628062 0.0163429
0.2853072 0.0628332 0.0168064
0.2923915 0.0649285 0.0173062
0.3063265 0.0649551 0.0177974
0.3128677 0.0649728 0.0183080
0.3191946 0.0671443 0.0193959
0.3326879 0.0671703 0.0199451
0.3395320 0.0671886 0.0205152
0.3461709 0.0694186 0.0211230
0.3531528 0.0694375 0.0217261
0.3602021 0.0694563 0.0223461
0.3670322 0.0717566 0.0230073
0.3745031 0.0717764 0.0236629
0.3899700 0.0718052 0.0243299
0.3975190 0.0741671 0.0243481
0.3974855 0.0741791 0.0250815
0.4053484 0.0742005 0.0258465
0.4129674 0.0766482 0.0266618
0.4209320 0.0766702 0.0274739
0.4289424 0.0766922 0.0283102
0.4370299 0.0767017 0.0283023
0.4448170 0.0792258 0.0291932
0.4533985 0.0792490 0.0300800
0.4629331 0.0792734 0.0309922
0.4626271 0.0818522 0.0310240
0.4721941 0.0818774 0.0319640
0.4817880 0.0819023 0.0329317
0.4910919 0.0845862 0.0339988
0.4910919 0.0845862 0.0339988
0.5007139 0.0846135 0.0351384
0.5103412 0.0846407 0.0363150
0.5196962 0.0874104 0.0363405
0.5196565 0.0874262 0.0375684
0.5292738 0.0874542 0.0388237
0.5386014 0.0903456 0.0388514
0.5385616 0.0903618 0.0401612
0.5481805 0.0903745 0.0401481
0.5564273 0.0904017 0.0414885
0.0043739 0.0538451 0.0038045
0.0111553 0.0558376 0.0041450
0.0182476 0.0559653 0.0044921
0.0257913 0.0579063 0.0048896
0.0350692 0.0580041 0.0053725
0.0448549 0.0580816 0.0057646
0.0538907 0.0600526 0.0061961
0.0648101 0.0601200 0.0066599
0.0755610 0.0601808 0.0071604
0.0852755 0.0622139 0.0075210
0.0962682 0.0622612 0.0078913
0.1052733 0.0643719 0.0085421
0.1186426 0.0644224 0.0089937
0.1297090 0.0644652 0.0094717
0.1416973 0.0666374 0.0099853
0.1502957 0.0666739 0.0105280
0.1640273 0.0667196 0.0111165
0.1736152 0.0689554 0.0117533
0.1839670 0.0689838 0.0120751
0.1947836 0.0690226 0.0127529
0.2058922 0.0713307 0.0134825
0.2177036 0.0713603 0.0138560
0.2299952 0.0714012 0.0146636
0.2426234 0.0737731 0.0150957
0.2559617 0.0738041 0.0155243
0.2627765 0.0738367 0.0164330
0.2766020 0.0762838 0.0169166
0.2837977 0.0763057 0.0174015
0.2985642 0.0763378 0.0178946
0.3050082 0.0763583 0.0184080
0.3112439 0.0788829 0.0195017
0.3245526 0.0789129 0.0200539
0.3313074 0.0789341 0.0206270
0.3378637 0.0815250 0.0212381
0.3447616 0.0815466 0.0218445
0.3517298 0.0815684 0.0224678
0.3584847 0.0842388 0.0231325
0.3730723 0.0842712 0.0237853
0.3807454 0.0842942 0.0244625
0.3885151 0.0843043 0.0244556
0.3960178 0.0870764 0.0252113
0.4038704 0.0871011 0.0259801
0.4117770 0.0871257 0.0267720
0.4114396 0.0900096 0.0276241
0.4193949 0.0900350 0.0284649
0.4274318 0.0900457 0.0284569
0.4354765 0.0900711 0.0293224
0.4432507 0.0930549 0.0302452
0.4518258 0.0930817 0.0311632
0.4613542 0.0931097 0.0321073
0.4613542 0.0931097 0.0321073
0.4706044 0.0961867 0.0331138
0.4801929 0.0962161 0.0341517
0.4898393 0.0962294 0.0341405
0.4991457 0.0994013 0.0353215
0.4991060 0.0994191 0.0365160
0.5087725 0.0994327 0.0365041
0.5183989 0.0994642 0.0377250
0.5180447 0.1027180 0.0390387
0.5277037 0.1027321 0.0390259
0.5373080 0.1027644 0.0403283
0.5373080 0.1027644 0.0403283
0.5465782 0.1061295 0.0417158
0.5548297 0.1061608 0.0431065
0.0049782 0.0676449 0.0042928
0.0117357 0.0678869 0.0046363
0.0190577 0.0680404 0.0050501
0.0272224 0.0704085 0.0055520
0.0359051 0.0705087 0.0059555
0.0459227 0.0706019 0.0063935
0.0551897 0.0729994 0.0068793
0.0643615 0.0730619 0.0072162
0.0750431 0.0731346 0.0077582
0.0846953 0.0755860 0.0081629
0.0956186 0.0756439 0.0085946
0.1078916 0.0757023 0.0090489
0.1179959 0.0757515 0.0095299
0.1288756 0.0782763 0.0100467
0.1409422 0.0783283 0.0105896
0.1539586 0.0783811 0.0111814
0.1630088 0.0809785 0.0118220
0.1727198 0.0810230 0.0124858
0.1883743 0.0810662 0.0128235
0.1992001 0.0837460 0.0135570
0.2107210 0.0837800 0.0139325
0.2227146 0.0838273 0.0147446
0.2289046 0.0838510 0.0151680
0.2414889 0.0866213 0.0156149
0.2547591 0.0866702 0.0165238
0.2615781 0.0866947 0.0169976
0.2753577 0.0895883 0.0174979
0.2825329 0.0896136 0.0179993
0.2972315 0.0896642 0.0190437
0.3036584 0.0896878 0.0195884
0.3099013 0.0926586 0.0201696
0.3231780 0.0926932 0.0207405
0.3299174 0.0927176 0.0213328
0.3367316 0.0927419 0.0219418
0.3433374 0.0958046 0.0225916
0.3502913 0.0958297 0.0232359
0.3644318 0.0958655 0.0238919
0.3715885 0.0990219 0.0245980
0.3792470 0.0990491 0.0253317
0.3870043 0.0990608 0.0253246
0.3947898 0.0990884 0.0260968
0.4023330 0.1023417 0.0269204
0.4102293 0.1023702 0.0277402
0.4181771 0.1023986 0.0285845
0.4261720 0.1024270 0.0294537
0.4258661 0.1057494 0.0294846
0.4339027 0.1057787 0.0303806
0.4419791 0.1058079 0.0313031
0.4505486 0.1058379 0.0322523
0.4597957 0.1092738 0.0322755
0.4693535 0.1093061 0.0332524
0.4693165 0.1093242 0.0343057
0.4789388 0.1093390 0.0342945
0.4885432 0.1093731 0.0354437
0.4978482 0.1129309 0.0366684
0.4978482 0.1129309 0.0366684
0.5074746 0.1129660 0.0378946
0.5171016 0.1130011 0.0391605
0.5167871 0.1166271 0.0392012
0.5264075 0.1166632 0.0405092
0.5360539 0.1166788 0.0404960
0.5360143 0.1166992 0.0418594
0.5452878 0.1204668 0.0432976
0.5535824 0.1204806 0.0432854
0.0057248 0.0795659 0.0047928
0.0127234 0.0798340 0.0052210
0.0194877 0.0826012 0.0057360
0.0279046 0.0827412 0.0061482
0.0368074 0.0828581 0.0066011
0.0456506 0.0829462 0.0069205
0.0565867 0.0857573 0.0074439
0.0659769 0.0858297 0.0078083
0.0769335 0.0859157 0.0084238
0.0868067 0.0888163 0.0088786
0.0980065 0.0888835 0.0093478
0.1072828 0.0889404 0.0098446
0.1208768 0.0890081 0.0103645
0.1320692 0.0919951 0.0109507
0.1401830 0.0920313 0.0112507
0.1531404 0.0920923 0.0118792
0.1623139 0.0921421 0.0125463
0.1769175 0.0952120 0.0128993
0.1874065 0.0952637 0.0136229
0.1984002 0.0953019 0.0140003
0.2096602 0.0984704 0.0148320
0.2216315 0.0985101 0.0152531
0.2341307 0.0985500 0.0156861
0.2405387 0.0985923 0.0166042
0.2535644 0.1018443 0.0170931
0.2673065 0.1018855 0.0175776
0.2743456 0.1019138 0.0180812
0.2887791 0.1019704 0.0191303
0.2959118 0.1053090 0.0196973
0.3023219 0.1053363 0.0202603
0.3154135 0.1053750 0.0208337
0.3220639 0.1054022 0.0214287
0.3285165 0.1088391 0.0220636
0.3353155 0.1088672 0.0226931
0.3421869 0.1088952 0.0233401
0.3561704 0.1089352 0.0239990
0.3632478 0.1089633 0.0246826
0.3703925 0.1125048 0.0254456
0.3780734 0.1125177 0.0254384
0.3857871 0.1125486 0.0262141
0.3935631 0.1125794 0.0270129
0.4010977 0.1162256 0.0278647
0.4089856 0.1162573 0.0287126
0.4169256 0.1162890 0.0295857
0.4249483 0.1163023 0.0295774
0.4326729 0.1200546 0.0305080
0.4326378 0.1200736 0.0314431
0.4407081 0.1201063 0.0323970
0.4493075 0.1201207 0.0323874
0.4588256 0.1201557 0.0333676
0.4680612 0.1240817 0.0344497
0.4680612 0.1240817 0.0344497
0.4776407 0.1241197 0.0356040
0.4872425 0.1241577 0.0367957
0.4969000 0.1241742 0.0367837
0.4965409 0.1281988 0.0380663
0.5061667 0.1282380 0.0393377
0.5158337 0.1282548 0.0393249
0.5254552 0.1282940 0.0406369
0.5251360 0.1324113 0.0406797
0.5347450 0.1324515 0.0420353
0.5443343 0.1324918 0.0434344
0.5443343 0.1324918 0.0434344
0.5525920 0.1325296 0.0448803
0.0064677 0.0935998 0.0054117
0.0133977 0.0938897 0.0059226
0.0205764 0.0940698 0.0063448
0.0286004 0.0973010 0.0068179
0.0377320 0.0974239 0.0071436
0.0467836 0.0975386 0.0076759
0.0563124 0.0976308 0.0080492
0.0676384 0.1009113 0.0084790
0.0764887 0.1009861 0.0089273
0.0864049 0.1010611 0.0093991
0.0975577 0.1011364 0.0098956
0.1099343 0.1045003 0.0104292
0.1202059 0.1045673 0.0110074
0.1314831 0.1046351 0.0116225
0.1437723 0.1046884 0.0119371
0.1523178 0.1081345 0.0126208
0.1662189 0.1081895 0.0129623
0.1761689 0.1082473 0.0136894
0.1866415 0.1082899 0.0140685
0.1975790 0.1083491 0.0148884
0.2088253 0.1118878 0.0153275
0.2207385 0.1119489 0.0162198
0.2332014 0.1119934 0.0166799
0.2396152 0.1120241 0.0171581
0.2526065 0.1156690 0.0176631
0.2663138 0.1157150 0.0181635
0.2733098 0.1157638 0.0192232
0.2877361 0.1158097 0.0197659
0.2948530 0.1195484 0.0203515
0.3012494 0.1195788 0.0209329
0.3143143 0.1196220 0.0215249
0.3209516 0.1196523 0.0221393
0.3276659 0.1196828 0.0227709
0.3341745 0.1235903 0.0234453
0.3479946 0.1236348 0.0241070
0.3549946 0.1236661 0.0247936
0.3620594 0.1236983 0.0255334
0.3694833 0.1237315 0.0263120
0.3768585 0.1277363 0.0263327
0.3845621 0.1277707 0.0271351
0.3923284 0.1278050 0.0279613
0.4001541 0.1278395 0.0288121
0.4077288 0.1319799 0.0297198
0.4156955 0.1319948 0.0297114
0.4236762 0.1320301 0.0306141
0.4317014 0.1320655 0.0315435
0.4316663 0.1320861 0.0325095
0.4394538 0.1363238 0.0325349
0.4480120 0.1363611 0.0335205
0.4575233 0.1364008 0.0345708
0.4671089 0.1364185 0.0345594
0.4766857 0.1364598 0.0357172
0.4763280 0.1408256 0.0369638
0.4859667 0.1408439 0.0369517
0.4955829 0.1408862 0.0381871
0.5052082 0.1409285 0.0394625
0.5052082 0.1409285 0.0394625
0.5145158 0.1454347 0.0408219
0.5241386 0.1454782 0.0421821
0.5241386 0.1454782 0.0421821
0.5337493 0.1455217 0.0435859
0.5433807 0.1455404 0.0435716
0.5433410 0.1455651 0.0450346
0.5513237 0.1501680 0.0450692
0.0071495 0.1065015 0.0059830
0.0145250 0.1068067 0.0063927
0.0217266 0.1069998 0.0068574
0.0293500 0.1106165 0.0073704
0.0387231 0.1107545 0.0077224
0.0480024 0.1108841 0.0083120
0.0577947 0.1109896 0.0087464
0.0673123 0.1146558 0.0092159
0.0784919 0.1147526 0.0096999
0.0886462 0.1148366 0.0102122
0.1000905 0.1149216 0.0107609
0.1094356 0.1186614 0.0110644
0.1196660 0.1187366 0.0116827
0.1308993 0.1188126 0.0123351
0.1431420 0.1188719 0.0126689
0.1563282 0.1189484 0.0133758
0.1655047 0.1228510 0.0137564
0.1754190 0.1229165 0.0145481
0.1858558 0.1229646 0.0149613
0.1967782 0.1230126 0.0153861
0.2081704 0.1230788 0.0162818
0.2198642 0.1271008 0.0167616
0.2322911 0.1271505 0.0172368
0.2452320 0.1272002 0.0177253
0.2518512 0.1272533 0.0187610
0.2652865 0.1313936 0.0193116
0.2722910 0.1314288 0.0198629
0.2866833 0.1314801 0.0204234
0.2940414 0.1315153 0.0210059
0.3069229 0.1315621 0.0216000
0.3132001 0.1358043 0.0222403
0.3198244 0.1358383 0.0228747
0.3265258 0.1358722 0.0235269
0.3401828 0.1359202 0.0241909
0.3471048 0.1359542 0.0248798
0.3538054 0.1403184 0.0256495
0.3608586 0.1403547 0.0264319
0.3683044 0.1403700 0.0264246
0.3759331 0.1404072 0.0272297
0.3836289 0.1404444 0.0280587
0.3910857 0.1449326 0.0289432
0.3989021 0.1449709 0.0298231
0.4068093 0.1449868 0.0298148
0.4147355 0.1450251 0.0307205
0.4227105 0.1450634 0.0316531
0.4307304 0.1451017 0.0326132
0.4385135 0.1496924 0.0326386
0.4384783 0.1497154 0.0336372
0.4470309 0.1497564 0.0346922
0.4565748 0.1497756 0.0346808
0.4661174 0.1498201 0.0358426
0.4753734 0.1545647 0.0370813
0.4753734 0.1545647 0.0370813
0.4849705 0.1546104 0.0383209
0.4945853 0.1546562 0.0396005
0.5042496 0.1546758 0.0395876
0.5042098 0.1547019 0.0409214
0.5135177 0.1595749 0.0423293
0.5231810 0.1595951 0.0423155
0.5231413 0.1596218 0.0437379
0.5327930 0.1596420 0.0437236
0.5423872 0.1596888 0.0451767
0.5420690 0.1646429 0.0452242
0.5503328 0.1646883 0.0467272
0.0079409 0.1210357 0.0066176
0.0152054 0.1213536 0.0070822
0.0222666 0.1215609 0.0075982
0.0310965 0.1217342 0.0079568
0.0397376 0.1258113 0.0083626
0.0492736 0.1259587 0.0090321
0.0593119 0.1260766 0.0095038
0.0691657 0.1261812 0.0100030
0.0781216 0.1303172 0.0102687
0.0882317 0.1304114 0.0108204
0.0996268 0.1305076 0.0114218
0.1123570 0.1306040 0.0120563
0.1228407 0.1306673 0.0123828
0.1342751 0.1349367 0.0130880
0.1425045 0.1349871 0.0134460
0.1556414 0.1350727 0.0142007
0.1649550 0.1351240 0.0146043
0.1800157 0.1351920 0.0150144
0.1904762 0.1395535 0.0154573
0.2015875 0.1396273 0.0163572
0.2132124 0.1396808 0.0168211
0.2191994 0.1397177 0.0173033
0.2315991 0.1397716 0.0177936
0.2442572 0.1442800 0.0188477
0.2576568 0.1443352 0.0193799
0.2645276 0.1443733 0.0199332
0.2786566 0.1444288 0.0204956
0.2858856 0.1444670 0.0210801
0.2932311 0.1445051 0.0216810
0.3058240 0.1491157 0.0223178
0.3123591 0.1491523 0.0229543
0.3189733 0.1491890 0.0236088
0.3324618 0.1492409 0.0242750
0.3393031 0.1492776 0.0249663
0.3459287 0.1540014 0.0257386
0.3529062 0.1540406 0.0265237
0.3599836 0.1540563 0.0265166
0.3673882 0.1540963 0.0273246
0.3750087 0.1541363 0.0281565
0.3826966 0.1541766 0.0290131
0.3901462 0.1590307 0.0299269
0.3979897 0.1590479 0.0299185
0.4058561 0.1590892 0.0308273
0.4137761 0.1591305 0.0317631
0.4217454 0.1591718 0.0327264
0.4294835 0.1641306 0.0327519
0.4375385 0.1641730 0.0337445
0.4460868 0.1642173 0.0348027
0.4460478 0.1642447 0.0359802
0.4555872 0.1642653 0.0359684
0.4651264 0.1643133 0.0371720
0.4743797 0.1694285 0.0384551
0.4840142 0.1694496 0.0384425
0.4839747 0.1694777 0.0397390
0.4936277 0.1694988 0.0397260
0.5032514 0.1695481 0.0410510
0.5032117 0.1695762 0.0424324
0.5125600 0.1747922 0.0424631
0.5221842 0.1748426 0.0438759
0.5221842 0.1748426 0.0438759
0.5317979 0.1748931 0.0453339
0.5414338 0.1749147 0.0453191
0.5413941 0.1749436 0.0468384
0.5493428 0.1803185 0.0484434
0.0086836 0.1332238 0.0073208
0.0159182 0.1377967 0.0076552
0.0235079 0.1380322 0.0082120
0.0319070 0.1382146 0.0086317
0.0408234 0.1383700 0.0090776
0.0506397 0.1385117 0.0095490
0.0590261 0.1430264 0.0100614
0.0688353 0.1431428 0.0105896
0.0802485 0.1432617 0.0111700
0.0906293 0.1433452 0.0114693
0.1023241 0.1434496 0.0121064
0.1119634 0.1435380 0.0127824
0.1222822 0.1481417 0.0131425
0.1338150 0.1482338 0.0138755
0.1462892 0.1483057 0.0142555
0.1551357 0.1483611 0.0146606
0.1692830 0.1484554 0.0155100
0.1792438 0.1531769 0.0159673
0.1898602 0.1532347 0.0164203
0.2009649 0.1532925 0.0168859
0.2125627 0.1533503 0.0173646
0.2246409 0.1534303 0.0183739
0.2308853 0.1534702 0.0189000
0.2435399 0.1583247 0.0194545
0.2569126 0.1583845 0.0200037
0.2637703 0.1584256 0.0205744
0.2778732 0.1584854 0.0211546
0.2850893 0.1585265 0.0217576
0.2985506 0.1635102 0.0223955
0.3049944 0.1635497 0.0230343
