Plugins/FilmEmulator/Content/LUTs/FE_Kodak_5293_64.cube
TITLE "FE_Kodak_5293_33"
LUT_3D_SIZE 4
0.0007620 0.0004238 0.0006158
0.2345928 0.0075628 0.0058927
0.4261654 0.0266998 0.0180661
0.5435786 0.0535382 0.0369059
0.0095159 0.2695698 0.0053665
0.2356806 0.3084344 0.0139624
0.4166852 0.3434322 0.0298451
0.5279264 0.3789542 0.0506709
0.0304393 0.5274682 0.0158279
0.2564818 0.5470092 0.0294580
0.4234462 0.5665287 0.0455397
0.5350775 0.5850700 0.0650652
0.0575254 0.6605700 0.0320328
0.2770330 0.6711152 0.0489745
0.4348273 0.6817166 0.0676298
0.5408722 0.6901044 0.0875841
0.0101985 0.0053133 0.3087896
0.2547486 0.0179785 0.3329941
0.4356429 0.0428988 0.3604456
0.5486451 0.0738154 0.3815387
0.0294119 0.2972327 0.3439377
0.2570897 0.3308091 0.3593249
0.4300963 0.3659801 0.3844628
0.5357832 0.4021265 0.4038084
0.0549373 0.5424657 0.3596460
0.2794161 0.5617434 0.3759671
0.4376879 0.5802418 0.4012634
0.5435530 0.5984705 0.4200341
0.0834241 0.6672894 0.3738720
0.3008717 0.6776180 0.3909466
0.4498010 0.6869690 0.4159438
0.5498919 0.6951906 0.4348010
0.0324163 0.0180288 0.5472793
0.2801729 0.0318831 0.5564348
0.4535347 0.0612647 0.5691808
0.5555660 0.0972330 0.5759971
0.0552715 0.3177059 0.5667629
0.2811224 0.3524278 0.5748409
0.4454725 0.3879283 0.5848371
0.5509536 0.4173351 0.5893959
0.0825273 0.5559816 0.5758321
0.2990963 0.5746267 0.5841403
0.4536166 0.5928429 0.5932102
0.5536484 0.6048691 0.5974591
0.1099410 0.6782597 0.5829527
0.3212107 0.6874081 0.5912634
0.4602358 0.6914487 0.5997701
0.5600560 0.6995793 0.6039476
0.0610638 0.0377348 0.6507972
0.3011823 0.0557299 0.6531425
0.4670399 0.0811621 0.6574818
0.5636058 0.1194320 0.6624327
0.0831137 0.3387567 0.6611919
0.3062911 0.3737966 0.6666431
0.4556071 0.4101533 0.6699372
0.5606365 0.4388879 0.6737049
0.1117588 0.5689569 0.6682485
0.3252916 0.5809275 0.6699294
0.4643187 0.5990853 0.6769229
0.5637284 0.6170312 0.6806487
0.1403378 0.6836288 0.6734917
0.3425553 0.6916977 0.6754183
0.4764366 0.6997909 0.6786107
0.5650209 0.7037826 0.6821724
