Plugins/FilmEmulator/Content/LUTs/FE_Kodak_Vision2_200T_5217_64.cube
# FilmEmulator LUT (resampled to 64)
LUT_3D_SIZE 8
0.000000 0.000000 0.001160
0.118034 0.016950 0.019614
0.241930 0.030025 0.032715
0.361747 0.037157 0.039150
0.479000 0.042942 0.045192
0.605138 0.055259 0.057190
0.731794 0.082293 0.083296
0.848846 0.131653 0.131836
0.000000 0.062858 0.000000
0.115870 0.110552 0.024982
0.249901 0.123793 0.039509
0.372903 0.125333 0.047417
0.494703 0.131538 0.052976
0.624278 0.145910 0.067187
0.757464 0.184933 0.102797
0.867584 0.228180 0.145843
0.000000 0.131043 0.000000
0.051215 0.162111 0.000165
0.242486 0.231841 0.047984
0.373896 0.243403 0.051761
0.511997 0.238753 0.062082
0.645385 0.249953 0.083144
0.780518 0.291213 0.126303
0.884639 0.328735 0.167419
0.000000 0.206582 0.000000
0.002858 0.219683 0.000000
0.195150 0.299175 0.015942
0.374096 0.357045 0.066227
0.518354 0.377787 0.075057
0.665544 0.387628 0.098192
0.807982 0.424752 0.156944
0.907109 0.451948 0.199219
0.000000 0.278490 0.000000
0.000000 0.282825 0.000000
0.079907 0.334059 0.005829
0.341572 0.448679 0.055377
0.525707 0.502627 0.089720
0.679932 0.537452 0.118335
0.828365 0.565785 0.175114
0.925428 0.584259 0.224069
0.000000 0.346471 0.005680
0.000000 0.352583 0.007182
0.028027 0.392607 0.015458
0.289407 0.516384 0.024458
0.504267 0.612181 0.092243
0.687502 0.663950 0.141561
0.838840 0.698367 0.206143
0.937029 0.706538 0.254015
0.000000 0.412550 0.034324
0.000000 0.420448 0.037731
0.013437 0.450958 0.043008
0.239707 0.568506 0.026541
0.462467 0.698235 0.055560
0.665287 0.764383 0.144874
0.841738 0.813600 0.229677
0.946036 0.826089 0.298989
0.000000 0.481842 0.070740
0.000000 0.490213 0.074437
0.006099 0.520137 0.078801
0.152357 0.599535 0.024998
0.395791 0.755720 0.053864
0.612741 0.854654 0.099906
0.814623 0.915541 0.224701
0.950012 0.944702 0.323151
0.006291 0.008990 0.163465
0.137558 0.040230 0.140050
0.249536 0.036992 0.123755
0.363723 0.040106 0.123780
0.484549 0.046794 0.129775
0.610815 0.058460 0.140792
0.740899 0.088709 0.168976
0.855900 0.134705 0.214090
0.000000 0.115806 0.132769
0.111820 0.118969 0.134198
0.258640 0.123368 0.128001
0.376752 0.127369 0.131391
0.501557 0.134461 0.138621
0.633425 0.151747 0.154451
0.767937 0.194962 0.194266
0.876567 0.238152 0.236918
0.000000 0.160363 0.071262
0.026675 0.173832 0.058336
0.246188 0.237398 0.117880
0.381312 0.246185 0.137322
0.519517 0.241886 0.149771
0.653719 0.252208 0.168382
0.791256 0.305235 0.222911
0.894731 0.344824 0.269817
0.000000 0.208705 0.003385
0.003010 0.224694 0.004466
0.170922 0.296369 0.055080
0.380697 0.366780 0.137546
0.530712 0.386765 0.159284
0.677137 0.398192 0.190934
0.814566 0.432357 0.251017
0.911322 0.456019 0.289710
0.000000 0.279951 0.000000
0.000000 0.286190 0.000000
0.053989 0.337129 0.029926
0.337989 0.454359 0.097433
0.534155 0.514509 0.163008
0.688918 0.546275 0.204932
0.833409 0.572484 0.268162
0.928390 0.587710 0.312576
0.000000 0.347040 0.000000
0.000000 0.355196 0.000000
0.025090 0.394196 0.017537
0.272735 0.513360 0.065151
0.504272 0.619462 0.149667
0.688881 0.667555 0.211356
0.840752 0.701661 0.288048
0.938778 0.709120 0.335984
0.000000 0.413403 0.017760
0.000000 0.423218 0.022941
0.012540 0.454832 0.038852
0.193456 0.548142 0.054615
0.449788 0.698225 0.103145
0.660488 0.767533 0.202456
0.839361 0.814934 0.298623
0.946719 0.828139 0.370746
0.000000 0.484737 0.055651
0.000000 0.496441 0.060941
0.006258 0.526531 0.072400
0.109840 0.590405 0.073149
0.377590 0.746979 0.091137
0.602114 0.855268 0.131769
0.806673 0.915391 0.281927
0.950928 0.946755 0.388694
0.000078 0.000000 0.325440
0.138662 0.000000 0.328476
0.291206 0.062398 0.296852
0.397313 0.063799 0.258128
0.503984 0.059544 0.240539
0.626087 0.068741 0.237128
0.754569 0.098750 0.266370
0.864759 0.141663 0.307508
0.000000 0.123934 0.324272
0.032955 0.063361 0.339842
0.293925 0.104439 0.313837
0.412491 0.132308 0.269213
0.523312 0.143535 0.247671
0.646472 0.161981 0.249796
0.780061 0.207755 0.293192
0.884706 0.248215 0.334997
0.000000 0.242023 0.283809
0.001544 0.248170 0.296129
0.242998 0.241896 0.296840
0.412931 0.247076 0.265450
0.535736 0.241356 0.246669
0.668183 0.260367 0.265893
0.801517 0.322340 0.327375
0.903421 0.354455 0.360732
0.000000 0.300352 0.222020
0.001834 0.309377 0.221067
0.090780 0.335753 0.207830
0.400591 0.383722 0.224375
0.550126 0.390528 0.253541
0.690230 0.404513 0.288110
0.823457 0.440314 0.346991
0.917645 0.460780 0.376665
0.000000 0.333745 0.155697
0.000000 0.335034 0.142807
0.050764 0.363029 0.136953
0.322477 0.461876 0.145962
0.545499 0.528865 0.240016
0.698225 0.554124 0.294206
0.839810 0.577764 0.359327
0.931581 0.590108 0.396814
0.000000 0.365802 0.089165
0.000000 0.366374 0.043165
0.025856 0.401024 0.044606
0.227882 0.499914 0.106557
0.499909 0.627484 0.203453
0.693100 0.675279 0.288866
0.846585 0.707294 0.368416
0.940866 0.712448 0.418104
0.000000 0.418783 0.014209
0.000000 0.427042 0.012636
0.012910 0.460825 0.035408
0.127595 0.533211 0.088612
0.430058 0.693676 0.150948
0.653721 0.770896 0.261894
0.840649 0.819506 0.368078
0.948750 0.831633 0.443867
0.000000 0.490042 0.041661
0.000000 0.503941 0.046804
0.007293 0.532246 0.065817
0.085269 0.594602 0.114019
0.348399 0.729763 0.126888
0.586447 0.853527 0.183008
0.799795 0.917118 0.335690
0.952419 0.949158 0.456015
0.001831 0.001264 0.459756
0.123130 0.000000 0.472174
0.287201 0.009458 0.471392
0.435930 0.079134 0.444500
0.550242 0.089824 0.407972
0.666056 0.103166 0.392728
0.782149 0.131201 0.402627
0.878034 0.154166 0.412136
0.000000 0.118698 0.470391
0.018390 0.058069 0.491521
0.272844 0.017961 0.490459
0.448313 0.114335 0.464811
0.571780 0.155583 0.425190
0.692193 0.193214 0.414338
0.806389 0.239863 0.427443
0.893121 0.265450 0.444507
0.000000 0.244134 0.455159
0.000000 0.246061 0.479228
0.186890 0.210284 0.481374
0.441915 0.222329 0.468995
0.586067 0.244213 0.431549
0.710529 0.277572 0.420988
0.821574 0.338398 0.443058
0.907593 0.363552 0.461734
0.000000 0.352422 0.413513
0.000000 0.365873 0.430387
0.035023 0.375680 0.438483
0.391926 0.388805 0.443756
0.582010 0.404373 0.427687
0.721563 0.413942 0.422123
0.841468 0.448392 0.452514
0.923366 0.470912 0.476751
0.000000 0.417269 0.359561
0.000000 0.429015 0.367413
0.034810 0.451019 0.374761
0.270286 0.503648 0.360673
0.570879 0.550903 0.392027
0.720027 0.565702 0.423462
0.854295 0.587624 0.461844
0.932923 0.594012 0.488463
0.000000 0.460309 0.313690
0.000000 0.467734 0.312314
0.030660 0.497296 0.316594
0.143648 0.549225 0.303165
0.466958 0.647290 0.300102
0.707104 0.686990 0.379928
0.850761 0.714013 0.458661
0.943127 0.717443 0.504638
0.000000 0.500323 0.278056
0.000000 0.506032 0.271548
0.016799 0.525887 0.262599
0.109604 0.564424 0.251376
0.376855 0.699176 0.198983
0.647371 0.778895 0.317402
0.842885 0.825936 0.438434
0.951307 0.835832 0.516989
0.000000 0.543753 0.257917
0.000000 0.543710 0.240561
0.009347 0.559625 0.220128
0.086298 0.602786 0.192246
0.318228 0.714664 0.164437
0.573537 0.852707 0.235418
0.794536 0.919063 0.389900
0.954289 0.951839 0.522666
0.003239 0.000000 0.582925
0.120463 0.000000 0.602036
0.280518 0.000000 0.625999
0.451914 0.077919 0.610912
0.591698 0.124847 0.587020
0.695889 0.145428 0.557530
0.818218 0.189883 0.557554
0.894893 0.219744 0.553336
0.000000 0.122912 0.602257
0.017990 0.061603 0.629634
0.262378 0.000041 0.645545
0.463392 0.059714 0.636317
0.616778 0.180076 0.614506
0.724457 0.226792 0.588240
0.845759 0.288093 0.587987
0.905970 0.320495 0.583110
0.000000 0.251992 0.598027
0.000000 0.254389 0.623866
0.145783 0.204841 0.646547
0.436307 0.203738 0.642158
0.628365 0.249419 0.627080
0.746898 0.304792 0.610045
0.856851 0.370898 0.600638
0.916189 0.405660 0.598692
0.000000 0.367831 0.562494
0.000000 0.383384 0.586699
0.004464 0.389257 0.605890
0.332493 0.359279 0.614811
0.609179 0.386226 0.618645
0.750131 0.422656 0.601953
0.864311 0.467610 0.602831
0.925820 0.499014 0.607214
0.000000 0.458629 0.513576
0.000000 0.475625 0.526393
0.005851 0.495948 0.541486
0.194419 0.514737 0.559756
0.548629 0.553764 0.561279
0.736298 0.576565 0.577298
0.869649 0.600029 0.600167
0.932355 0.611218 0.616477
0.000000 0.517791 0.475062
0.000000 0.529671 0.484570
0.009053 0.549279 0.492250
0.095941 0.583753 0.501197
0.451438 0.657244 0.508056
0.715529 0.704622 0.543786
0.862032 0.725653 0.594941
0.940113 0.724989 0.624435
0.000000 0.560434 0.446948
0.000000 0.570892 0.451141
0.016098 0.593948 0.456639
0.101436 0.629308 0.464709
0.321080 0.723150 0.455320
0.607102 0.802805 0.458429
0.851612 0.837894 0.559680
0.946969 0.842285 0.629998
0.000000 0.600608 0.429483
0.000000 0.606715 0.426238
0.012693 0.626557 0.423662
0.088511 0.665401 0.426396
0.201591 0.777027 0.391070
0.435225 0.894336 0.304072
0.766764 0.938413 0.459148
0.954367 0.953191 0.616063
0.017107 0.000000 0.696420
0.125824 0.000000 0.717472
0.277983 0.000000 0.747922
0.465122 0.012608 0.753387
0.628304 0.172230 0.737659
0.744546 0.225290 0.728407
0.837091 0.257617 0.711854
0.901769 0.297315 0.689558
0.000000 0.137609 0.720769
0.018012 0.078066 0.751070
0.257863 0.000000 0.775464
0.476966 0.010591 0.778847
0.660880 0.212880 0.768517
0.774740 0.296106 0.763782
0.862747 0.347753 0.738341
0.912332 0.384552 0.714970
0.000000 0.272706 0.721577
0.000000 0.276737 0.750440
0.013928 0.210861 0.784355
0.424273 0.157374 0.790189
0.655340 0.258651 0.779241
0.789953 0.356423 0.781625
0.872653 0.421017 0.756661
0.920663 0.457463 0.729940
0.000000 0.390201 0.692440
0.000000 0.406869 0.714782
0.000000 0.407336 0.737095
0.294364 0.348743 0.758999
0.605596 0.366226 0.768067
0.780419 0.443558 0.773161
0.877683 0.508812 0.761463
0.926076 0.537762 0.735748
0.000000 0.489795 0.642757
0.000000 0.516680 0.655016
0.000002 0.536581 0.662999
0.094813 0.518487 0.692133
0.496280 0.504142 0.717828
0.745463 0.557159 0.744742
0.879302 0.611351 0.752313
0.929766 0.632251 0.739378
0.000000 0.556570 0.604131
0.000000 0.570990 0.616646
0.000058 0.585513 0.624874
0.054965 0.604025 0.635424
0.413806 0.648614 0.675316
0.670795 0.702373 0.667693
0.868612 0.728496 0.732905
0.933722 0.736898 0.750804
0.000000 0.597534 0.571444
0.000000 0.607581 0.580238
0.000503 0.617525 0.582414
0.058876 0.645126 0.594461
0.203973 0.714011 0.622153
0.587775 0.794860 0.643265
0.849728 0.843264 0.701922
0.940005 0.848196 0.753993
0.000000 0.628400 0.547486
0.000000 0.633106 0.549137
0.001533 0.642761 0.546094
0.064233 0.678046 0.557370
0.157792 0.753470 0.582734
0.448641 0.873795 0.597383
0.743733 0.936903 0.616054
0.948534 0.950138 0.733364
0.022404 0.000000 0.810520
0.131530 0.000000 0.830589
0.266570 0.000000 0.850972
0.452119 0.000000 0.866844
0.637110 0.165003 0.863112
0.773759 0.287916 0.859783
0.870926 0.352843 0.856609
0.906176 0.373461 0.815247
0.000000 0.152580 0.831987
0.015653 0.097257 0.844527
0.247858 0.000000 0.853505
0.451851 0.000306 0.869716
0.656248 0.173541 0.883841
0.798244 0.341570 0.879034
0.883191 0.424714 0.874669
0.913147 0.446408 0.838974
0.000000 0.288059 0.835536
0.000000 0.291173 0.840812
0.002330 0.233500 0.845007
0.380751 0.086070 0.863465
0.638641 0.215365 0.882911
0.804156 0.379533 0.889011
0.886851 0.481198 0.880907
0.919153 0.506275 0.852665
0.000000 0.405161 0.809537
0.000000 0.415037 0.826780
0.000000 0.410090 0.833676
0.184446 0.332216 0.849579
0.563955 0.327369 0.872142
0.778454 0.431631 0.885555
0.889623 0.547794 0.883142
0.923211 0.570050 0.858730
0.000000 0.524625 0.738573
0.000000 0.557655 0.739275
0.000000 0.570671 0.746731
0.021904 0.515731 0.803439
0.426501 0.459357 0.846104
0.722678 0.512728 0.871499
0.886629 0.621812 0.881508
0.925354 0.654731 0.862266
0.000000 0.596173 0.687369
0.000000 0.608759 0.695864
0.000000 0.617242 0.702034
0.025368 0.624544 0.712001
0.270989 0.623885 0.786559
0.624586 0.635868 0.838265
0.866873 0.708930 0.869010
0.927396 0.745243 0.863935
0.000000 0.625658 0.660972
0.000000 0.633541 0.667339
0.000000 0.638665 0.669306
0.027746 0.654630 0.681001
0.106343 0.704035 0.734991
0.530261 0.766848 0.794621
0.820247 0.827425 0.827178
0.931136 0.851204 0.863601
0.000000 0.646262 0.636174
0.000000 0.650232 0.635140
0.000000 0.652316 0.632666
0.031294 0.676294 0.645675
0.107734 0.732406 0.684255
0.256893 0.844357 0.742497
0.715892 0.923505 0.780773
0.939170 0.943229 0.850525
0.043152 0.000000 0.839386
0.127507 0.000000 0.841675
0.259046 0.103668 0.849151
0.412214 0.180390 0.861271
0.584883 0.234179 0.882233
0.740152 0.315242 0.901525
0.871608 0.413382 0.907571
0.910675 0.463165 0.903198
0.035109 0.145552 0.839447
0.129026 0.156022 0.840412
0.278129 0.196893 0.846306
0.416804 0.193557 0.859659
0.598104 0.240908 0.883705
0.756557 0.347416 0.904254
0.886150 0.465259 0.911497
0.916225 0.512203 0.908530
0.000000 0.269631 0.834699
0.000000 0.273354 0.830571
0.084946 0.237056 0.833861
0.362758 0.208504 0.849941
0.585312 0.244552 0.881296
0.765126 0.371711 0.905981
0.896531 0.514475 0.915516
0.921722 0.554531 0.914699
0.000000 0.388571 0.824877
0.000000 0.401965 0.820060
0.000000 0.402493 0.817358
0.151484 0.333680 0.834853
0.524310 0.317658 0.871525
0.745003 0.410836 0.902375
0.893314 0.551366 0.916135
0.923427 0.606611 0.916910
0.000000 0.547028 0.800118
0.000000 0.563413 0.784081
0.000000 0.568862 0.776732
0.002273 0.519502 0.807004
0.377056 0.438704 0.854891
0.685625 0.474783 0.894715
0.875428 0.596605 0.915089
0.924042 0.675947 0.918178
0.000000 0.607579 0.741232
0.000000 0.615404 0.733122
0.000000 0.621239 0.725563
0.003189 0.622894 0.729237
0.088556 0.591537 0.830876
0.573000 0.582571 0.883018
0.832330 0.662679 0.911216
0.924107 0.750066 0.918645
0.000000 0.636597 0.708038
0.000000 0.640827 0.702989
0.000000 0.643361 0.698988
0.005057 0.649478 0.703348
0.066829 0.687769 0.766311
0.417988 0.716351 0.864275
0.766369 0.756539 0.906124
0.925341 0.839970 0.919948
0.000000 0.653748 0.682587
0.000000 0.657794 0.679940
0.000000 0.660531 0.678589
0.006823 0.670576 0.685403
0.069907 0.717931 0.730891
0.153539 0.823621 0.837629
0.660871 0.895120 0.899431
0.929962 0.934814 0.926178
