Plugins/FilmEmulator/Content/LUTs/FE_Kodak_Aerocolor_2460_Low_64.cube
TITLE "FE_Kodak_Aerocolor_2460_Low_33"
LUT_3D_SIZE 4
0.0012540 0.0018339 0.0009742
0.2203875 0.0114626 0.0132610
0.4811569 0.0276937 0.0366305
0.6511406 0.0451606 0.0647300
0.0081668 0.1808848 0.0258064
0.2436945 0.2152795 0.0547723
0.5004105 0.2408347 0.0873471
0.6679572 0.2649919 0.1232680
0.0242851 0.3829339 0.0719461
0.2611193 0.4102954 0.1041479
0.5130193 0.4365959 0.1419898
0.6710162 0.4524117 0.1803633
0.0420458 0.5320126 0.1245868
0.2702614 0.5561978 0.1597236
0.5152479 0.5744975 0.2015009
0.6817078 0.5895921 0.2383724
0.0240542 0.0531004 0.2308341
0.2831944 0.0709435 0.2632868
0.5224702 0.0887459 0.2988577
0.6808175 0.1064974 0.3299554
0.0328080 0.2769227 0.3063158
0.2971051 0.3073885 0.3358974
0.5389208 0.3265412 0.3663087
0.6863814 0.3445357 0.3977518
0.0455130 0.4661354 0.3650336
0.3158178 0.4875048 0.3959464
0.5419563 0.5014514 0.4196785
0.6975026 0.5220907 0.4523529
0.0637289 0.5951028 0.4137201
0.3258891 0.6144908 0.4378279
0.5536157 0.6293272 0.4702439
0.7075591 0.6420836 0.4948550
0.0613823 0.1168590 0.4678011
0.3340579 0.1414155 0.4870521
0.5538800 0.1633942 0.5133497
0.7000079 0.1828102 0.5314633
0.0699832 0.3510036 0.5226814
0.3469546 0.3753546 0.5468842
0.5684451 0.3947714 0.5635593
0.7124410 0.4132796 0.5801142
0.0810010 0.5211396 0.5609204
0.3658301 0.5398383 0.5844062
0.5804900 0.5532469 0.6001378
0.7145579 0.5651746 0.6156779
0.0909368 0.6420270 0.5943704
0.3760709 0.6598408 0.6174270
0.5823894 0.6646269 0.6320505
0.7242934 0.6756147 0.6399975
0.1009434 0.1957759 0.6180584
0.3850928 0.2163717 0.6351994
0.5934142 0.2401550 0.6525736
0.7261689 0.2587800 0.6617107
0.1115060 0.4122923 0.6627067
0.3977343 0.4357076 0.6711827
0.5974230 0.4557009 0.6866263
0.7292967 0.4666775 0.6942040
0.1223829 0.5645866 0.6890616
0.4086726 0.5809910 0.6966456
0.6088973 0.5938725 0.7108982
0.7390186 0.6050181 0.7181649
0.1339076 0.6759278 0.7116264
0.4192536 0.6907954 0.7189381
0.6199354 0.7026325 0.7325764
0.7404614 0.7054425 0.7389307
