Plugins/FilmEmulator/Content/LUTs/FE_Kodak_Vision2_500T_5218_64.cube
# FilmEmulator LUT (resampled to 64)
LUT_3D_SIZE 4
0.002380 0.001587 0.001587
0.197235 0.014720 0.004995
0.380768 0.021566 0.009460
0.553467 0.027618 0.009460
0.000000 0.161590 0.113902
0.156992 0.225722 0.027696
0.519036 0.270036 0.010952
0.733581 0.219401 0.013397
0.000000 0.292246 0.183685
0.019799 0.346819 0.142700
0.520169 0.514509 0.025414
0.887054 0.525624 0.011312
0.000000 0.544312 0.357269
0.027588 0.657633 0.396159
0.601450 0.872060 0.362335
0.976257 0.919861 0.267517
0.001587 0.018392 0.133789
0.228841 0.012810 0.161906
0.432953 0.024180 0.185764
0.608622 0.033142 0.187134
0.000000 0.196198 0.265581
0.227597 0.274683 0.269922
0.604824 0.312634 0.253022
0.770813 0.209195 0.188073
0.000000 0.357086 0.342357
0.025166 0.426815 0.357380
0.607201 0.602358 0.323464
0.933336 0.580400 0.176778
0.000000 0.622609 0.539520
0.051636 0.722676 0.553311
0.586341 0.887770 0.551171
0.978210 0.939433 0.535329
0.000000 0.031291 0.240733
0.213281 0.017626 0.282308
0.451586 0.024275 0.342679
0.654968 0.039693 0.375499
0.000000 0.191945 0.374963
0.198980 0.259068 0.432648
0.607882 0.301071 0.485588
0.811273 0.225973 0.450063
0.000000 0.372538 0.468350
0.021842 0.448400 0.514800
0.635034 0.641511 0.592777
0.948276 0.636244 0.565718
0.000000 0.654531 0.652751
0.070953 0.760051 0.694661
0.619676 0.917283 0.738681
0.981852 0.956645 0.743266
0.000000 0.036285 0.334381
0.197469 0.027089 0.394816
0.448537 0.023142 0.434316
0.649719 0.035492 0.489532
0.000000 0.167104 0.465017
0.159597 0.192787 0.517833
0.568363 0.173587 0.580611
0.801452 0.170176 0.609813
0.000000 0.378967 0.588003
0.017341 0.436421 0.647098
0.641490 0.619388 0.772363
0.954407 0.637756 0.798889
0.000000 0.670380 0.772766
0.175079 0.813029 0.862488
0.754618 0.939057 0.928711
0.994446 0.978699 0.962952
