Plugins/FilmEmulator/Content/LUTs/FE_Kodak_Aerocolor_2460_High_64.cube
TITLE "FE_Kodak_Aerocolor_2460_High_33"
LUT_3D_SIZE 4
0.0001125 0.0000642 0.0000487
0.2708158 0.0013271 0.0028863
0.7559365 0.0059358 0.0157824
0.9111998 0.0144835 0.0389415
0.0012661 0.2196484 0.0092228
0.3169700 0.2858688 0.0312414
0.7778603 0.3365057 0.0647334
0.9193822 0.3834824 0.1122674
0.0057905 0.6044593 0.0474276
0.3410499 0.6517834 0.0859791
0.7968059 0.6836786 0.1432216
0.9210412 0.7076353 0.2068874
0.0150301 0.7843963 0.1150618
0.3731415 0.8117958 0.1739971
0.8059283 0.8263944 0.2403282
0.9247568 0.8407635 0.3060042
0.0057439 0.0197675 0.2892092
0.3839186 0.0365851 0.3514290
0.8076670 0.0600307 0.4095038
0.9252887 0.0853227 0.4595204
0.0098599 0.4140787 0.4308266
0.4180438 0.4644555 0.4831246
0.8214734 0.5094823 0.5285733
0.9282997 0.5416177 0.5647797
0.0172037 0.7144864 0.5226507
0.4556957 0.7442510 0.5655553
0.8303608 0.7635262 0.6002628
0.9320661 0.7790591 0.6334831
0.0344341 0.8405994 0.5930900
0.4806787 0.8543619 0.6264240
0.8436083 0.8667309 0.6584841
0.9352070 0.8731056 0.6828446
0.0313013 0.1054001 0.6450289
0.4987520 0.1385847 0.6684220
0.8413357 0.1707737 0.6960259
0.9341524 0.2077138 0.7223697
0.0415200 0.5501133 0.7205086
0.5308486 0.5912530 0.7381936
0.8515750 0.6235070 0.7601033
0.9385039 0.6440905 0.7755321
0.0536436 0.7771416 0.7591241
0.5576332 0.7985332 0.7792114
0.8639454 0.8089817 0.7931072
0.9415275 0.8211089 0.8065444
0.0662245 0.8689090 0.7923384
0.5714480 0.8824366 0.8059197
0.8701121 0.8892218 0.8183610
0.9441224 0.8943405 0.8301740
0.0816068 0.2239683 0.8010722
0.5924686 0.2728521 0.8158998
0.8692623 0.3152379 0.8257915
0.9436527 0.3593069 0.8387885
0.0979821 0.6502029 0.8409552
0.6212920 0.6770549 0.8484383
0.8769343 0.7037777 0.8559687
0.9469692 0.7212064 0.8656527
0.1121045 0.8191918 0.8607875
0.6460676 0.8316949 0.8670896
0.8827431 0.8440631 0.8760709
0.9476564 0.8541054 0.8819429
0.1276051 0.8903997 0.8753746
0.6588722 0.9010723 0.8812854
0.8879071 0.9063265 0.8866858
0.9499491 0.9105895 0.8942597
