Plugins/FilmEmulator/Content/LUTs/FE_Kodak_Polymax_Grade_4_64.cube
TITLE "FE_Kodak_Polymax_Grade_4_33"
LUT_3D_SIZE 4
0.0021919 0.0021919 0.0021919
0.0021919 0.0021919 0.0021919
0.0022246 0.0022246 0.0022246
0.0022346 0.0022346 0.0022346
0.0034631 0.0034631 0.0034631
0.0044698 0.0044698 0.0044698
0.0060696 0.0060696 0.0060696
0.0088483 0.0088483 0.0088483
0.0596889 0.0596889 0.0596889
0.0873986 0.0873986 0.0873986
0.1227615 0.1227615 0.1227615
0.1695163 0.1695163 0.1695163
0.4409545 0.4409545 0.4409545
0.5162641 0.5162641 0.5162641
0.5914613 0.5914613 0.5914613
0.6552185 0.6552185 0.6552185
0.7341740 0.7341740 0.7341740
0.7778635 0.7778635 0.7778635
0.8211809 0.8211809 0.8211809
0.8539854 0.8539854 0.8539854
0.9321816 0.9321816 0.9321816
0.9426844 0.9426844 0.9426844
0.9512936 0.9512936 0.9512936
0.9573874 0.9573874 0.9573874
0.9736633 0.9736633 0.9736633
0.9757871 0.9757871 0.9757871
0.9773650 0.9773650 0.9773650
0.9788694 0.9788694 0.9788694
0.9827148 0.9827148 0.9827148
0.9832599 0.9832599 0.9832599
0.9837881 0.9837881 0.9837881
0.9842223 0.9842223 0.9842223
0.9847959 0.9847959 0.9847959
0.9850483 0.9850483 0.9850483
0.9853348 0.9853348 0.9853348
0.9856159 0.9856159 0.9856159
0.9862481 0.9862481 0.9862481
0.9863856 0.9863856 0.9863856
0.9864879 0.9864879 0.9864879
0.9865736 0.9865736 0.9865736
0.9868835 0.9868835 0.9868835
0.9869407 0.9869407 0.9869407
0.9869927 0.9869927 0.9869927
0.9870276 0.9870276 0.9870276
0.9871357 0.9871357 0.9871357
0.9871572 0.9871572 0.9871572
0.9871714 0.9871714 0.9871714
0.9871891 0.9871891 0.9871891
0.9872102 0.9872102 0.9872102
0.9872208 0.9872208 0.9872208
0.9872369 0.9872369 0.9872369
0.9872484 0.9872484 0.9872484
0.9873122 0.9873122 0.9873122
0.9873292 0.9873292 0.9873292
0.9873548 0.9873548 0.9873548
0.9873717 0.9873717 0.9873717
0.9875180 0.9875180 0.9875180
0.9875522 0.9875522 0.9875522
0.9876099 0.9876099 0.9876099
0.9876722 0.9876722 0.9876722
0.9879570 0.9879570 0.9879570
0.9880247 0.9880247 0.9880247
0.9880921 0.9880921 0.9880921
0.9881590 0.9881590 0.9881590
