Plugins/FilmEmulator/Content/LUTs/FE_Kodak_Aerochrome_III_64.cube
TITLE "FE_Kodak_Aerochrome_III_33"
LUT_3D_SIZE 64
0.0005847 0.0004999 0.0004647
0.0006117 0.0005419 0.0004732
0.0008163 0.0008636 0.0005208
0.0012315 0.0014490 0.0005640
0.0017942 0.0023640 0.0005795
0.0026058 0.0037398 0.0005507
0.0036570 0.0054702 0.0004707
0.0049529 0.0074613 0.0003450
0.0065332 0.0097704 0.0001715
0.0083490 0.0123664 0.0000000
0.0102328 0.0150878 0.0000000
0.0124728 0.0183673 0.0000000
0.0145187 0.0214007 0.0000000
0.0168465 0.0248481 0.0000000
0.0194223 0.0285543 0.0000000
0.0221809 0.0323589 0.0000000
0.0251446 0.0362513 0.0000000
0.0287706 0.0407743 0.0000000
0.0330465 0.0456434 0.0000000
0.0379155 0.0507372 0.0000000
0.0435382 0.0562931 0.0000000
0.0503151 0.0626322 0.0000000
0.0572933 0.0688994 0.0000000
0.0653960 0.0759101 0.0000000
0.0744475 0.0834679 0.0000000
0.0837986 0.0912768 0.0000000
0.0936308 0.0985889 0.0000000
0.1035182 0.1059622 0.0000000
0.1135568 0.1135526 0.0000000
0.1242306 0.1206657 0.0000000
0.1357757 0.1288854 0.0000000
0.1480805 0.1363063 0.0000000
0.1604845 0.1438940 0.0000000
0.1716101 0.1508393 0.0000000
0.1838899 0.1575534 0.0000000
0.1976247 0.1650560 0.0000000
0.2095224 0.1713020 0.0000000
0.2249178 0.1789301 0.0000000
0.2377502 0.1851843 0.0000000
0.2513294 0.1916431 0.0000000
0.2652888 0.1978957 0.0000000
0.2802829 0.2044711 0.0000000
0.2957963 0.2107952 0.0000000
0.3083486 0.2164270 0.0000000
0.3237344 0.2223217 0.0000000
0.3404385 0.2285199 0.0000000
0.3530776 0.2335678 0.0000000
0.3707027 0.2399806 0.0000000
0.3842357 0.2453687 0.0000000
0.3978495 0.2503288 0.0000000
0.4126295 0.2560968 0.0000000
0.4269150 0.2612669 0.0000000
0.4461488 0.2672058 0.0000000
0.4617992 0.2725396 0.0000000
0.4780290 0.2781184 0.0000000
0.4895822 0.2827944 0.0000000
0.5049257 0.2878185 0.0000000
0.5212401 0.2934203 0.0000000
0.5380287 0.2990621 0.0000000
0.5546871 0.3038424 0.0000000
0.5656149 0.3082552 0.0000000
0.5824977 0.3140232 0.0000000
0.5942663 0.3180541 0.0000000
0.6109784 0.3233917 0.0000000
0.0005848 0.0004999 0.0004646
0.0006193 0.0005533 0.0004750
0.0008360 0.0008954 0.0005247
0.0012544 0.0014916 0.0005690
0.0018186 0.0024303 0.0005870
0.0026151 0.0038020 0.0005627
0.0036864 0.0055726 0.0004872
0.0050026 0.0076095 0.0003654
0.0065986 0.0099636 0.0001937
0.0084288 0.0126121 0.0000000
0.0103237 0.0153806 0.0000000
0.0124311 0.0184824 0.0000000
0.0146483 0.0217614 0.0000000
0.0170154 0.0252425 0.0000000
0.0194062 0.0286597 0.0000000
0.0221775 0.0324799 0.0000000
0.0251655 0.0364117 0.0000000
0.0289190 0.0410491 0.0000000
0.0332393 0.0460195 0.0000000
0.0384736 0.0517570 0.0000000
0.0442445 0.0575344 0.0000000
0.0505930 0.0633654 0.0000000
0.0582794 0.0705487 0.0000000
0.0665478 0.0777710 0.0000000
0.0749357 0.0845623 0.0000000
0.0843641 0.0924483 0.0000000
0.0935389 0.0996174 0.0000000
0.1034309 0.1070485 0.0000000
0.1144055 0.1150350 0.0000000
0.1251684 0.1222431 0.0000000
0.1368127 0.1306250 0.0000000
0.1480042 0.1378484 0.0000000
0.1604107 0.1456126 0.0000000
0.1730830 0.1530491 0.0000000
0.1866238 0.1609984 0.0000000
0.1975712 0.1670359 0.0000000
0.2125655 0.1750511 0.0000000
0.2248761 0.1812645 0.0000000
0.2377121 0.1877274 0.0000000
0.2512996 0.1941909 0.0000000
0.2652663 0.2004759 0.0000000
0.2802671 0.2071412 0.0000000
0.2957853 0.2139640 0.0000000
0.3114634 0.2203341 0.0000000
0.3237315 0.2256639 0.0000000
0.3404433 0.2318234 0.0000000
0.3530822 0.2369102 0.0000000
0.3707118 0.2435538 0.0000000
0.3842405 0.2489015 0.0000000
0.3978523 0.2542145 0.0000000
0.4126322 0.2596511 0.0000000
0.4311758 0.2657988 0.0000000
0.4461473 0.2706674 0.0000000
0.4617916 0.2762620 0.0000000
0.4780138 0.2819208 0.0000000
0.4943658 0.2868834 0.0000000
0.5049040 0.2906221 0.0000000
0.5212103 0.2963207 0.0000000
0.5380020 0.3012787 0.0000000
0.5546579 0.3060943 0.0000000
0.5655727 0.3107360 0.0000000
0.5824649 0.3157089 0.0000000
0.5942293 0.3197646 0.0000000
0.6109573 0.3242620 0.0000000
0.0005800 0.0005060 0.0004819
0.0006222 0.0005736 0.0004963
0.0008562 0.0009342 0.0005493
0.0012702 0.0015514 0.0005938
0.0018524 0.0025454 0.0006113
0.0026493 0.0039291 0.0005853
0.0037099 0.0056879 0.0005120
0.0050512 0.0077704 0.0003917
0.0066587 0.0101770 0.0002248
0.0085008 0.0128951 0.0000131
0.0103930 0.0157483 0.0000000
0.0125062 0.0189510 0.0000000
0.0147217 0.0223266 0.0000000
0.0169083 0.0256487 0.0000000
0.0195290 0.0294925 0.0000000
0.0223379 0.0334557 0.0000000
0.0254101 0.0375477 0.0000000
0.0288602 0.0418707 0.0000000
0.0332242 0.0469934 0.0000000
0.0384692 0.0528784 0.0000000
0.0443311 0.0588297 0.0000000
0.0513380 0.0655801 0.0000000
0.0585097 0.0722759 0.0000000
0.0668297 0.0797490 0.0000000
0.0761056 0.0876844 0.0000000
0.0847719 0.0950229 0.0000000
0.0940140 0.1024642 0.0000000
0.1040069 0.1103276 0.0000000
0.1150739 0.1186535 0.0000000
0.1259168 0.1269630 0.0000000
0.1376541 0.1351294 0.0000000
0.1490742 0.1428581 0.0000000
0.1616073 0.1510576 0.0000000
0.1743542 0.1590261 0.0000000
0.1863348 0.1670915 0.0000000
0.1991678 0.1742806 0.0000000
0.2122737 0.1823405 0.0000000
0.2267780 0.1898607 0.0000000
0.2397755 0.1965925 0.0000000
0.2535069 0.2039629 0.0000000
0.2676931 0.2111625 0.0000000
0.2828881 0.2182322 0.0000000
0.2985853 0.2258289 0.0000000
0.3111467 0.2325029 0.0000000
0.3276381 0.2395245 0.0000000
0.3401340 0.2448290 0.0000000
0.3570679 0.2522456 0.0000000
0.3703712 0.2577804 0.0000000
0.3877351 0.2646087 0.0000000
0.4020990 0.2705109 0.0000000
0.4163246 0.2760819 0.0000000
0.4307203 0.2822662 0.0000000
0.4456680 0.2876507 0.0000000
0.4612918 0.2931474 0.0000000
0.4774928 0.2987171 0.0000000
0.4938141 0.3041979 0.0000000
0.5096937 0.3095943 0.0000000
0.5256189 0.3146692 0.0000000
0.5372786 0.3202445 0.0000000
0.5538992 0.3254360 0.0000000
0.5703741 0.3305218 0.0000000
0.5816432 0.3345385 0.0000000
0.5987889 0.3395339 0.0000000
0.6101143 0.3424759 0.0000000
0.0005724 0.0005157 0.0005100
0.0006200 0.0005987 0.0005331
0.0008805 0.0009941 0.0005989
0.0012608 0.0016213 0.0006541
0.0018434 0.0026754 0.0006853
0.0026491 0.0041337 0.0006726
0.0037394 0.0059866 0.0006066
0.0051085 0.0081787 0.0004960
0.0066550 0.0105658 0.0003450
0.0085000 0.0133849 0.0001422
0.0103871 0.0163443 0.0000000
0.0125085 0.0196762 0.0000000
0.0145386 0.0229199 0.0000000
0.0169172 0.0266669 0.0000000
0.0195656 0.0306620 0.0000000
0.0221175 0.0344603 0.0000000
0.0254767 0.0392098 0.0000000
0.0291104 0.0438340 0.0000000
0.0334626 0.0492210 0.0000000
0.0385348 0.0549653 0.0000000
0.0450316 0.0619111 0.0000000
0.0512883 0.0682395 0.0000000
0.0591864 0.0761449 0.0000000
0.0668766 0.0831503 0.0000000
0.0762007 0.0916280 0.0000000
0.0857157 0.1003941 0.0000000
0.0950791 0.1085133 0.0000000
0.1051853 0.1169046 0.0000000
0.1153867 0.1249870 0.0000000
0.1262651 0.1341468 0.0000000
0.1381149 0.1426769 0.0000000
0.1497338 0.1512436 0.0000000
0.1623868 0.1600057 0.0000000
0.1735745 0.1685070 0.0000000
0.1872109 0.1779400 0.0000000
0.2013093 0.1865417 0.0000000
0.2135162 0.1940494 0.0000000
0.2259108 0.2019021 0.0000000
0.2422888 0.2107986 0.0000000
0.2560361 0.2188787 0.0000000
0.2704978 0.2264181 0.0000000
0.2829328 0.2335227 0.0000000
0.2976370 0.2402570 0.0000000
0.3133108 0.2484033 0.0000000
0.3265944 0.2553293 0.0000000
0.3425011 0.2619761 0.0000000
0.3559815 0.2685640 0.0000000
0.3730184 0.2754046 0.0000000
0.3866039 0.2813067 0.0000000
0.4009252 0.2877234 0.0000000
0.4192930 0.2943168 0.0000000
0.4338747 0.2999293 0.0000000
0.4490416 0.3055238 0.0000000
0.4648349 0.3112205 0.0000000
0.4812157 0.3169660 0.0000000
0.4925162 0.3217400 0.0000000
0.5083622 0.3273012 0.0000000
0.5248135 0.3329549 0.0000000
0.5412631 0.3371893 0.0000000
0.5575936 0.3425785 0.0000000
0.5690101 0.3473164 0.0000000
0.5854920 0.3527868 0.0000000
0.5973634 0.3564725 0.0000000
0.6137978 0.3617348 0.0000000
0.0005549 0.0005378 0.0005779
0.0006072 0.0006387 0.0006109
0.0008768 0.0010697 0.0006952
0.0012404 0.0017408 0.0007699
0.0018084 0.0028583 0.0008235
0.0026152 0.0044148 0.0008316
0.0036679 0.0063259 0.0008007
0.0050382 0.0086335 0.0007111
0.0065634 0.0111718 0.0005983
0.0083856 0.0141586 0.0004242
0.0102611 0.0172914 0.0002226
0.0123504 0.0208787 0.0000000
0.0143513 0.0243283 0.0000000
0.0167296 0.0283386 0.0000000
0.0191317 0.0323054 0.0000000
0.0219135 0.0367754 0.0000000
0.0250212 0.0414715 0.0000000
0.0289665 0.0468936 0.0000000
0.0331181 0.0522941 0.0000000
0.0384961 0.0591153 0.0000000
0.0444937 0.0660512 0.0000000
0.0513979 0.0735996 0.0000000
0.0591666 0.0816479 0.0000000
0.0671359 0.0899451 0.0000000
0.0765567 0.0993702 0.0000000
0.0852316 0.1079121 0.0000000
0.0946420 0.1165652 0.0000000
0.1048425 0.1255154 0.0000000
0.1160268 0.1355012 0.0000000
0.1260198 0.1439385 0.0000000
0.1390118 0.1543704 0.0000000
0.1507792 0.1639555 0.0000000
0.1634496 0.1733610 0.0000000
0.1747763 0.1821717 0.0000000
0.1874704 0.1906980 0.0000000
0.1997986 0.1995071 0.0000000
0.2139642 0.2089021 0.0000000
0.2274728 0.2178229 0.0000000
0.2406037 0.2258200 0.0000000
0.2543599 0.2338951 0.0000000
0.2688051 0.2417774 0.0000000
0.2841952 0.2499441 0.0000000
0.2997942 0.2577594 0.0000000
0.3116199 0.2639484 0.0000000
0.3282723 0.2719063 0.0000000
0.3443370 0.2779456 0.0000000
0.3579476 0.2847797 0.0000000
0.3713376 0.2910498 0.0000000
0.3894308 0.2985356 0.0000000
0.4031875 0.3045916 0.0000000
0.4174931 0.3108752 0.0000000
0.4321213 0.3160780 0.0000000
0.4471955 0.3223555 0.0000000
0.4628924 0.3287548 0.0000000
0.4791735 0.3352198 0.0000000
0.4952665 0.3402846 0.0000000
0.5111960 0.3465336 0.0000000
0.5277220 0.3529975 0.0000000
0.5394630 0.3571883 0.0000000
0.5551998 0.3630188 0.0000000
0.5718597 0.3679312 0.0000000
0.5830448 0.3730495 0.0000000
0.6001929 0.3792213 0.0000000
0.6115605 0.3829505 0.0000000
0.0005205 0.0005797 0.0007224
0.0005725 0.0007033 0.0007767
0.0008351 0.0011905 0.0009022
0.0011746 0.0019322 0.0010180
0.0017083 0.0031517 0.0011203
0.0024593 0.0048118 0.0011937
0.0035298 0.0069790 0.0012208
0.0048142 0.0094147 0.0012057
0.0063776 0.0123286 0.0011563
0.0080686 0.0154244 0.0010475
0.0098747 0.0188922 0.0009412
0.0118984 0.0228069 0.0007971
0.0138540 0.0265593 0.0006234
0.0159657 0.0307137 0.0004805
0.0184961 0.0355084 0.0002906
0.0212800 0.0403548 0.0000240
0.0244233 0.0454791 0.0000000
0.0280256 0.0511686 0.0000000
0.0324837 0.0575614 0.0000000
0.0374278 0.0644121 0.0000000
0.0434395 0.0718003 0.0000000
0.0507017 0.0802107 0.0000000
0.0581316 0.0885421 0.0000000
0.0665588 0.0981178 0.0000000
0.0754673 0.1078266 0.0000000
0.0841807 0.1167780 0.0000000
0.0935902 0.1261407 0.0000000
0.1038368 0.1358389 0.0000000
0.1151036 0.1461820 0.0000000
0.1261629 0.1566243 0.0000000
0.1369737 0.1660694 0.0000000
0.1487874 0.1756071 0.0000000
0.1614268 0.1854892 0.0000000
0.1743420 0.1952379 0.0000000
0.1881267 0.2053073 0.0000000
0.1996528 0.2134555 0.0000000
0.2151645 0.2237766 0.0000000
0.2276892 0.2318828 0.0000000
0.2409407 0.2402164 0.0000000
0.2549790 0.2478647 0.0000000
0.2695940 0.2562279 0.0000000
0.2850837 0.2651207 0.0000000
0.2975524 0.2729309 0.0000000
0.3133987 0.2814645 0.0000000
0.3294379 0.2883027 0.0000000
0.3426162 0.2957830 0.0000000
0.3590281 0.3034252 0.0000000
0.3734168 0.3100661 0.0000000
0.3867599 0.3168557 0.0000000
0.4003731 0.3237331 0.0000000
0.4190014 0.3303359 0.0000000
0.4336230 0.3371687 0.0000000
0.4489954 0.3426786 0.0000000
0.4647930 0.3495535 0.0000000
0.4814094 0.3551473 0.0000000
0.4921721 0.3608589 0.0000000
0.5082339 0.3661560 0.0000000
0.5246822 0.3728841 0.0000000
0.5415906 0.3781027 0.0000000
0.5520473 0.3833021 0.0000000
0.5686979 0.3883232 0.0000000
0.5857192 0.3946994 0.0000000
0.5971653 0.3982965 0.0000000
0.6136277 0.4042635 0.0000000
0.0004550 0.0006548 0.0010413
0.0005016 0.0008108 0.0011323
0.0007320 0.0013873 0.0013572
0.0010257 0.0022432 0.0015585
0.0014873 0.0036386 0.0017925
0.0021734 0.0055451 0.0020015
0.0031523 0.0078941 0.0021329
0.0043729 0.0106052 0.0022215
0.0058375 0.0138732 0.0023293
0.0074387 0.0173292 0.0023431
0.0091816 0.0211258 0.0023230
0.0109330 0.0252393 0.0023857
0.0129451 0.0297052 0.0023319
0.0150226 0.0342186 0.0022722
0.0175258 0.0393971 0.0021683
0.0198921 0.0444989 0.0022187
0.0229417 0.0501487 0.0021080
0.0268793 0.0568220 0.0019242
0.0311001 0.0632774 0.0017604
0.0366238 0.0713369 0.0014729
0.0427666 0.0794457 0.0011523
0.0491244 0.0874597 0.0008292
0.0572395 0.0974357 0.0003347
0.0658138 0.1073288 0.0000000
0.0739728 0.1165360 0.0000000
0.0835117 0.1271978 0.0000000
0.0930086 0.1371817 0.0000000
0.1034807 0.1469392 0.0000000
0.1138489 0.1565572 0.0000000
0.1249440 0.1675468 0.0000000
0.1359110 0.1775992 0.0000000
0.1477261 0.1879374 0.0000000
0.1604937 0.1978732 0.0000000
0.1734115 0.2084768 0.0000000
0.1854143 0.2189038 0.0000000
0.1988169 0.2284053 0.0000000
0.2123992 0.2380510 0.0000000
0.2247840 0.2469602 0.0000000
0.2403720 0.2568401 0.0000000
0.2545768 0.2651304 0.0000000
0.2692142 0.2744248 0.0000000
0.2819282 0.2821185 0.0000000
0.2973934 0.2912821 0.0000000
0.3133313 0.3004040 0.0000000
0.3260378 0.3068001 0.0000000
0.3426521 0.3155695 0.0000000
0.3556834 0.3216095 0.0000000
0.3697909 0.3297947 0.0000000
0.3872269 0.3364423 0.0000000
0.4009214 0.3436318 0.0000000
0.4154657 0.3495677 0.0000000
0.4306217 0.3570303 0.0009833
0.4460101 0.3626509 0.0013537
0.4620376 0.3683598 0.0017382
0.4782975 0.3753119 0.0032390
0.4935644 0.3802130 0.0038047
0.5095354 0.3869869 0.0055243
0.5211877 0.3915814 0.0062499
0.5381068 0.3968168 0.0068191
0.5541096 0.4031612 0.0086771
0.5651850 0.4070008 0.0095546
0.5824298 0.4121543 0.0102669
0.5988333 0.4179647 0.0124429
0.6102805 0.4218451 0.0134585
0.0003557 0.0007575 0.0016410
0.0003852 0.0009586 0.0018154
0.0005591 0.0016595 0.0022215
0.0007758 0.0026745 0.0025875
0.0011504 0.0042707 0.0029738
0.0017636 0.0064487 0.0033394
0.0026519 0.0091379 0.0036681
0.0037840 0.0122403 0.0039529
0.0051006 0.0156875 0.0041994
0.0065258 0.0196620 0.0045418
0.0081469 0.0239066 0.0047188
0.0098374 0.0283177 0.0048641
0.0115921 0.0328817 0.0049952
0.0137629 0.0382117 0.0050911
0.0160577 0.0432341 0.0050233
0.0186941 0.0490325 0.0050836
0.0217611 0.0551864 0.0051434
0.0253582 0.0617622 0.0051865
0.0298186 0.0693782 0.0051728
0.0349286 0.0772199 0.0051520
0.0410398 0.0859033 0.0050825
0.0480454 0.0951708 0.0047160
0.0554768 0.1049502 0.0046819
0.0639599 0.1156764 0.0046051
0.0728489 0.1270050 0.0045183
0.0816365 0.1366419 0.0041448
0.0910856 0.1474624 0.0041551
0.1013375 0.1586621 0.0042180
0.1128007 0.1698233 0.0037718
0.1228181 0.1804558 0.0040003
0.1350611 0.1920449 0.0035532
0.1469327 0.2032545 0.0038312
0.1593997 0.2146622 0.0041736
0.1715325 0.2237353 0.0040320
0.1836170 0.2348912 0.0044806
0.1983789 0.2452945 0.0042347
0.2107280 0.2552433 0.0049268
0.2234399 0.2635863 0.0049521
0.2376227 0.2744629 0.0057072
0.2517004 0.2829936 0.0057845
0.2663115 0.2926938 0.0067596
0.2811278 0.3003239 0.0069167
0.2966236 0.3097039 0.0079807
0.3096282 0.3171028 0.0082681
0.3263568 0.3265963 0.0094891
0.3388821 0.3326964 0.0099849
0.3564583 0.3405798 0.0103050
0.3698836 0.3481374 0.0119659
0.3834070 0.3540006 0.0125258
0.3973725 0.3599403 0.0131071
0.4167010 0.3688533 0.0147174
0.4315975 0.3745050 0.0154143
0.4471739 0.3802557 0.0161312
0.4631017 0.3873984 0.0182117
0.4795240 0.3931195 0.0190355
0.4904518 0.3977062 0.0200553
0.5059279 0.4036998 0.0220962
0.5228348 0.4091182 0.0228647
0.5395327 0.4142665 0.0236896
0.5508350 0.4184288 0.0246883
0.5669447 0.4242647 0.0270552
0.5789222 0.4285192 0.0281406
0.5956262 0.4329125 0.0291973
0.6070907 0.4367117 0.0303960
0.0002318 0.0008679 0.0026163
0.0002478 0.0011313 0.0029108
0.0003484 0.0019371 0.0034750
0.0004754 0.0031063 0.0040491
0.0007627 0.0050193 0.0046907
0.0012596 0.0074468 0.0052889
0.0020089 0.0103659 0.0058522
0.0030230 0.0138221 0.0063780
0.0042196 0.0176313 0.0068588
0.0056331 0.0217835 0.0071282
0.0071408 0.0264259 0.0075305
0.0086968 0.0312529 0.0079358
0.0103173 0.0363117 0.0083864
0.0122765 0.0415409 0.0085622
0.0145521 0.0477541 0.0089963
0.0168395 0.0536477 0.0094638
0.0197112 0.0603929 0.0099345
0.0236479 0.0679962 0.0100261
0.0275742 0.0756196 0.0105476
0.0329958 0.0851510 0.0110289
0.0392240 0.0942995 0.0110672
0.0454434 0.1038322 0.0116103
0.0536300 0.1150484 0.0115304
0.0613266 0.1253876 0.0121098
0.0703339 0.1368766 0.0119943
0.0788462 0.1478340 0.0125804
0.0890846 0.1607979 0.0131072
0.0986952 0.1705824 0.0131662
0.1098897 0.1832290 0.0138365
0.1211988 0.1952156 0.0137860
0.1322606 0.2068137 0.0146341
0.1444440 0.2176407 0.0146602
0.1571936 0.2285578 0.0146913
0.1685274 0.2399192 0.0156694
0.1816343 0.2496379 0.0158601
0.1941386 0.2608998 0.0170103
0.2089482 0.2708044 0.0172611
0.2227538 0.2806934 0.0175451
0.2360823 0.2906480 0.0189450
0.2503896 0.2994306 0.0193284
0.2654585 0.3082190 0.0197346
0.2811671 0.3184330 0.0213049
0.2927506 0.3248964 0.0220117
0.3091092 0.3333282 0.0225690
0.3224181 0.3422240 0.0245391
0.3385400 0.3493061 0.0253129
0.3525471 0.3563680 0.0259356
0.3699506 0.3646076 0.0277956
0.3835460 0.3704826 0.0286027
0.3984258 0.3772108 0.0293671
0.4131865 0.3832952 0.0302133
0.4278139 0.3900847 0.0325257
0.4434167 0.3958225 0.0334944
0.4596702 0.4016457 0.0344869
0.4761368 0.4072699 0.0354516
0.4920225 0.4126034 0.0364366
0.5082376 0.4191410 0.0389363
0.5194929 0.4231698 0.0401548
0.5362017 0.4283535 0.0412801
0.5526820 0.4333986 0.0424527
0.5638991 0.4371839 0.0437958
0.5813746 0.4423269 0.0450267
0.5929459 0.4461527 0.0464385
0.6092690 0.4514677 0.0492815
0.0001105 0.0009550 0.0038731
0.0001093 0.0012888 0.0043640
0.0001238 0.0022230 0.0051296
0.0001438 0.0035868 0.0060441
0.0002894 0.0057616 0.0070834
0.0006252 0.0084460 0.0080896
0.0013018 0.0117957 0.0088782
0.0021152 0.0155343 0.0098194
0.0031227 0.0197988 0.0107722
0.0043624 0.0244280 0.0113869
0.0055563 0.0293064 0.0122878
0.0071273 0.0348047 0.0128290
0.0085805 0.0404041 0.0137332
0.0102650 0.0464625 0.0146747
0.0123256 0.0524765 0.0151568
0.0146480 0.0594894 0.0161107
0.0176835 0.0665846 0.0165906
0.0211081 0.0745421 0.0176147
0.0255394 0.0832369 0.0180750
0.0305202 0.0925826 0.0191636
0.0363991 0.1022466 0.0196099
0.0435850 0.1137303 0.0206433
0.0506611 0.1242504 0.0210041
0.0590327 0.1365136 0.0220694
0.0672532 0.1473049 0.0224373
0.0767838 0.1595746 0.0227294
0.0861927 0.1717649 0.0239452
0.0967392 0.1835621 0.0243065
0.1059511 0.1948040 0.0256385
0.1183455 0.2076811 0.0259293
0.1298756 0.2188572 0.0263261
0.1418179 0.2310478 0.0277787
0.1545851 0.2424193 0.0282349
0.1662616 0.2532516 0.0287399
0.1805552 0.2647420 0.0292318
0.1921276 0.2750074 0.0311261
0.2058481 0.2857606 0.0315719
0.2211151 0.2951786 0.0321307
0.2346149 0.3052001 0.0339158
0.2491679 0.3141780 0.0345818
0.2614231 0.3223357 0.0353296
0.2774566 0.3315377 0.0360309
0.2928276 0.3409442 0.0381689
0.3085507 0.3484660 0.0390830
0.3222926 0.3561670 0.0399457
0.3349610 0.3623365 0.0409115
0.3528000 0.3703831 0.0417641
0.3663674 0.3778221 0.0442211
0.3806695 0.3845326 0.0452726
0.3990783 0.3914750 0.0463298
0.4140246 0.3976437 0.0474835
0.4292044 0.4033502 0.0487036
0.4450154 0.4091408 0.0499513
0.4615018 0.4149668 0.0511558
0.4774779 0.4214732 0.0537795
0.4885951 0.4258863 0.0550442
0.5051228 0.4312567 0.0562533
0.5222523 0.4366587 0.0574878
0.5382070 0.4412088 0.0588163
0.5496588 0.4453372 0.0602252
0.5667616 0.4503788 0.0615801
0.5784120 0.4541257 0.0630806
0.5953421 0.4587062 0.0645347
0.6066610 0.4619082 0.0657975
0.0000000 0.0010252 0.0059123
0.0000000 0.0014451 0.0065954
0.0000000 0.0025570 0.0079654
0.0000000 0.0041413 0.0091827
0.0000000 0.0066086 0.0107867
0.0000000 0.0096257 0.0120661
0.0003193 0.0133350 0.0136242
0.0010210 0.0174108 0.0147653
0.0018253 0.0221147 0.0162499
0.0028872 0.0272267 0.0172750
0.0038857 0.0325881 0.0187034
0.0052769 0.0385899 0.0196244
0.0065822 0.0446825 0.0209943
0.0082875 0.0509793 0.0218389
0.0100422 0.0577898 0.0232691
0.0124634 0.0650445 0.0241262
0.0151256 0.0719551 0.0249698
0.0187442 0.0812697 0.0265649
0.0227969 0.0896700 0.0274341
0.0280939 0.1005186 0.0290376
0.0343835 0.1109868 0.0298925
0.0408713 0.1212213 0.0307180
0.0481570 0.1330936 0.0324226
0.0561863 0.1451161 0.0332109
0.0651732 0.1580011 0.0339615
0.0735537 0.1699953 0.0358193
0.0833046 0.1818699 0.0364924
0.0939005 0.1940568 0.0371511
0.1043939 0.2064637 0.0377780
0.1156867 0.2189154 0.0395424
0.1273407 0.2304592 0.0402701
0.1407549 0.2437652 0.0409230
0.1508851 0.2531827 0.0417607
0.1639678 0.2657201 0.0437843
0.1765161 0.2768673 0.0445557
0.1905685 0.2868176 0.0454008
0.2044277 0.2978707 0.0461856
0.2174000 0.3068024 0.0471136
0.2311905 0.3160239 0.0480515
0.2454206 0.3261445 0.0504349
0.2606829 0.3352662 0.0514754
0.2767914 0.3446345 0.0525298
0.2926698 0.3531276 0.0536656
0.3060244 0.3609519 0.0547908
0.3224190 0.3684303 0.0558386
0.3360392 0.3755251 0.0569225
0.3491714 0.3828072 0.0595738
0.3669636 0.3900390 0.0607485
0.3814610 0.3967675 0.0619717
0.3958437 0.4028154 0.0632676
0.4108208 0.4089603 0.0645881
0.4260351 0.4146259 0.0659704
0.4418816 0.4203731 0.0673794
0.4584449 0.4260131 0.0684967
0.4747433 0.4314080 0.0696494
0.4908976 0.4366108 0.0708348
0.5076722 0.4418786 0.0720371
0.5196648 0.4462425 0.0733226
0.5356731 0.4506563 0.0746256
0.5524209 0.4555230 0.0759220
0.5643254 0.4595586 0.0773017
0.5815952 0.4640475 0.0786699
0.5930069 0.4675922 0.0801327
0.6098540 0.4716271 0.0814789
0.0000000 0.0010411 0.0086640
0.0000000 0.0015714 0.0097276
0.0000000 0.0028262 0.0116463
0.0000000 0.0046348 0.0133913
0.0000000 0.0074016 0.0153270
0.0000000 0.0108692 0.0175681
0.0000000 0.0147527 0.0192997
0.0000000 0.0195763 0.0215071
0.0004721 0.0243605 0.0230241
0.0012879 0.0295973 0.0244359
0.0021856 0.0357183 0.0264138
0.0032935 0.0417640 0.0277216
0.0045725 0.0480227 0.0289772
0.0059513 0.0550164 0.0309466
0.0079041 0.0625796 0.0322415
0.0100448 0.0696616 0.0334875
0.0127178 0.0781264 0.0355304
0.0161167 0.0866765 0.0367426
0.0207653 0.0966245 0.0380071
0.0256014 0.1063538 0.0392077
0.0316119 0.1177293 0.0413518
0.0386399 0.1297382 0.0425748
0.0462524 0.1415928 0.0437668
0.0543202 0.1541113 0.0449016
0.0625810 0.1659058 0.0460257
0.0718187 0.1797026 0.0481311
0.0816415 0.1919868 0.0491922
0.0914291 0.2029885 0.0502834
0.1019427 0.2158057 0.0512970
0.1123910 0.2274171 0.0523533
0.1246758 0.2417175 0.0546673
0.1370458 0.2537150 0.0557912
0.1497940 0.2655295 0.0569333
0.1633918 0.2775147 0.0580265
0.1750618 0.2871829 0.0590790
0.1903385 0.2988497 0.0601005
0.2033088 0.3085462 0.0611910
0.2164440 0.3175964 0.0623344
0.2314564 0.3283574 0.0634209
0.2458449 0.3383540 0.0660955
0.2613662 0.3476070 0.0673451
0.2734509 0.3549311 0.0686819
0.2893583 0.3634605 0.0700206
0.3062753 0.3720401 0.0710777
0.3192243 0.3786195 0.0722233
0.3366216 0.3865405 0.0733463
0.3502562 0.3928064 0.0745488
0.3648865 0.3998681 0.0757292
0.3787507 0.4057259 0.0769952
0.3974808 0.4125783 0.0782531
0.4127528 0.4186506 0.0795531
0.4282126 0.4242157 0.0809054
0.4443144 0.4298598 0.0822774
0.4611043 0.4355325 0.0835742
0.4722875 0.4399402 0.0848945
0.4884661 0.4451269 0.0862075
0.5052660 0.4503773 0.0875375
0.5225281 0.4556293 0.0888876
0.5337793 0.4595646 0.0903221
0.5500843 0.4639399 0.0917644
0.5674561 0.4688312 0.0931991
0.5796474 0.4727267 0.0947067
0.5961382 0.4767469 0.0962366
0.6079563 0.4802650 0.0977782
0.0000000 0.0009897 0.0119731
0.0000000 0.0016303 0.0135108
0.0000000 0.0030497 0.0157788
0.0000000 0.0050984 0.0181263
0.0000000 0.0081738 0.0211487
0.0000000 0.0118358 0.0236151
0.0000000 0.0162538 0.0260121
0.0000000 0.0212613 0.0286977
0.0000000 0.0264158 0.0306529
0.0000000 0.0320539 0.0325007
0.0006780 0.0384094 0.0343031
0.0015042 0.0450301 0.0366812
0.0026558 0.0517057 0.0383134
0.0040936 0.0588519 0.0399307
0.0058209 0.0661794 0.0415178
0.0080259 0.0742775 0.0430939
0.0106819 0.0831743 0.0455430
0.0142324 0.0922899 0.0471891
0.0183843 0.1016507 0.0488270
0.0239245 0.1130847 0.0505439
0.0298303 0.1243738 0.0521851
0.0363631 0.1355386 0.0538001
0.0436859 0.1483387 0.0565640
0.0517257 0.1612804 0.0581074
0.0607357 0.1750041 0.0595139
0.0695328 0.1869502 0.0608895
0.0794188 0.1995559 0.0622596
0.0901685 0.2125631 0.0636129
0.0998213 0.2239311 0.0649355
0.1115060 0.2377210 0.0662271
