Plugins/FilmEmulator/Content/LUTs/FE_Kodachrome_25_K14_64.cube
# FilmEmulator LUT (resampled to 64)
LUT_3D_SIZE 4
0.000000 0.000000 0.000000
0.231717 0.000000 0.000000
0.954954 0.000000 0.000000
0.975129 0.223146 0.091454
0.172920 0.474218 0.243250
0.477854 0.445048 0.173208
0.770910 0.452604 0.153309
0.975526 0.513689 0.216928
0.564660 0.743757 0.316406
0.622635 0.720584 0.305779
0.756961 0.707906 0.291922
0.976879 0.703499 0.265622
0.788148 0.980533 0.428680
0.828435 0.980489 0.428509
0.897307 0.980355 0.423806
0.977775 0.987864 0.412777
0.000000 0.025499 0.220110
0.091954 0.000036 0.301970
0.912394 0.000000 0.143686
0.975004 0.220226 0.344322
0.048888 0.435908 0.465086
0.370550 0.411932 0.431719
0.710640 0.422555 0.415638
0.969578 0.488836 0.463055
0.555576 0.732343 0.353599
0.611788 0.711303 0.337274
0.746541 0.696346 0.323449
0.976781 0.693028 0.346844
0.788054 0.984270 0.456763
0.828376 0.983604 0.454464
0.899570 0.984086 0.452252
0.977815 0.987422 0.436206
0.000000 0.056597 0.336949
0.037274 0.043958 0.344497
0.830314 0.000000 0.262907
0.975111 0.144936 0.419749
0.000000 0.351201 0.610838
0.227585 0.334405 0.581730
0.696337 0.345488 0.549658
0.966476 0.457213 0.595294
0.396103 0.707956 0.735458
0.455763 0.690349 0.720540
0.635253 0.667996 0.687043
0.940618 0.671268 0.675071
0.796023 0.988166 0.492724
0.832524 0.988118 0.487811
0.901359 0.987975 0.481888
0.977898 0.987812 0.470403
0.000000 0.070568 0.406600
0.039676 0.065357 0.397377
0.647329 0.000000 0.358748
0.974934 0.019870 0.423237
0.000000 0.253481 0.613922
0.062047 0.212279 0.601969
0.719812 0.194976 0.565276
0.976464 0.397119 0.663916
0.291407 0.674915 0.852593
0.363674 0.651600 0.841751
0.533963 0.638918 0.817325
0.920828 0.632752 0.808119
0.655089 0.976961 0.958757
0.694952 0.977062 0.963824
0.774574 0.984419 0.968929
0.980701 0.988483 0.984547
