Plugins/FilmEmulator/Content/LUTs/FE_Kodak_5222_64.cube
TITLE "FE_Kodak_5222_33"
LUT_3D_SIZE 8
0.0033839 0.0033839 0.0033839
0.0110405 0.0110405 0.0110405
0.0250787 0.0250787 0.0250787
0.0405428 0.0405428 0.0405428
0.0581291 0.0581291 0.0581291
0.0767747 0.0767747 0.0767747
0.0963107 0.0963107 0.0963107
0.1175904 0.1175904 0.1175904
0.0250787 0.0250787 0.0250787
0.0405428 0.0405428 0.0405428
0.0581291 0.0581291 0.0581291
0.0767747 0.0767747 0.0767747
0.0963107 0.0963107 0.0963107
0.1175904 0.1175904 0.1175904
0.1369959 0.1369959 0.1369959
0.1558200 0.1558200 0.1558200
0.0581291 0.0581291 0.0581291
0.0767747 0.0767747 0.0767747
0.0963107 0.0963107 0.0963107
0.1175904 0.1175904 0.1175904
0.1369959 0.1369959 0.1369959
0.1558200 0.1558200 0.1558200
0.1766676 0.1766676 0.1766676
0.1956614 0.1956614 0.1956614
0.0963107 0.0963107 0.0963107
0.1175904 0.1175904 0.1175904
0.1369959 0.1369959 0.1369959
0.1558200 0.1558200 0.1558200
0.1766676 0.1766676 0.1766676
0.1956614 0.1956614 0.1956614
0.2158843 0.2158843 0.2158843
0.2331235 0.2331235 0.2331235
0.1369959 0.1369959 0.1369959
0.1558200 0.1558200 0.1558200
0.1766676 0.1766676 0.1766676
0.1956614 0.1956614 0.1956614
0.2158843 0.2158843 0.2158843
0.2331235 0.2331235 0.2331235
0.2558310 0.2558310 0.2558310
0.2700979 0.2700979 0.2700979
0.1766676 0.1766676 0.1766676
0.1956614 0.1956614 0.1956614
0.2158843 0.2158843 0.2158843
0.2331235 0.2331235 0.2331235
0.2558310 0.2558310 0.2558310
0.2700979 0.2700979 0.2700979
0.2898590 0.2898590 0.2898590
0.3050338 0.3050338 0.3050338
0.2158843 0.2158843 0.2158843
0.2375801 0.2375801 0.2375801
0.2558310 0.2558310 0.2558310
0.2700979 0.2700979 0.2700979
0.2898590 0.2898590 0.2898590
0.3050338 0.3050338 0.3050338
0.3206444 0.3206444 0.3206444
0.3366668 0.3366668 0.3366668
0.2558310 0.2558310 0.2558310
0.2700979 0.2700979 0.2700979
0.2898590 0.2898590 0.2898590
0.3050338 0.3050338 0.3050338
0.3206444 0.3206444 0.3206444
0.3366668 0.3366668 0.3366668
0.3527775 0.3527775 0.3527775
0.3690788 0.3690788 0.3690788
0.0637337 0.0637337 0.0637337
0.0822418 0.0822418 0.0822418
0.1029816 0.1029816 0.1029816
0.1228454 0.1228454 0.1228454
0.1430481 0.1430481 0.1430481
0.1625395 0.1625395 0.1625395
0.1840857 0.1840857 0.1840857
0.2035737 0.2035737 0.2035737
0.1029816 0.1029816 0.1029816
0.1228454 0.1228454 0.1228454
0.1430481 0.1430481 0.1430481
0.1625395 0.1625395 0.1625395
0.1840857 0.1840857 0.1840857
0.2035737 0.2035737 0.2035737
0.2201058 0.2201058 0.2201058
0.2420677 0.2420677 0.2420677
0.1430481 0.1430481 0.1430481
0.1625395 0.1625395 0.1625395
0.1840857 0.1840857 0.1840857
0.2035737 0.2035737 0.2035737
0.2201058 0.2201058 0.2201058
0.2420677 0.2420677 0.2420677
0.2605312 0.2605312 0.2605312
0.2749635 0.2749635 0.2749635
0.1840857 0.1840857 0.1840857
0.2035737 0.2035737 0.2035737
0.2201058 0.2201058 0.2201058
0.2420677 0.2420677 0.2420677
0.2605312 0.2605312 0.2605312
0.2749635 0.2749635 0.2749635
0.2948676 0.2948676 0.2948676
0.3101901 0.3101901 0.3101901
0.2201058 0.2201058 0.2201058
0.2420677 0.2420677 0.2420677
0.2605312 0.2605312 0.2605312
0.2749635 0.2749635 0.2749635
0.2948676 0.2948676 0.2948676
0.3101901 0.3101901 0.3101901
0.3259408 0.3259408 0.3259408
0.3420945 0.3420945 0.3420945
0.2605312 0.2605312 0.2605312
0.2749635 0.2749635 0.2749635
0.2948676 0.2948676 0.2948676
0.3101901 0.3101901 0.3101901
0.3259408 0.3259408 0.3259408
0.3420945 0.3420945 0.3420945
0.3581753 0.3581753 0.3581753
0.3690788 0.3690788 0.3690788
0.2948676 0.2948676 0.2948676
0.3101901 0.3101901 0.3101901
0.3259408 0.3259408 0.3259408
0.3420945 0.3420945 0.3420945
0.3581753 0.3581753 0.3581753
0.3690788 0.3690788 0.3690788
0.3856845 0.3856845 0.3856845
0.3969073 0.3969073 0.3969073
0.3259408 0.3259408 0.3259408
0.3420945 0.3420945 0.3420945
0.3581753 0.3581753 0.3581753
0.3690788 0.3690788 0.3690788
0.3856845 0.3856845 0.3856845
0.3969073 0.3969073 0.3969073
0.4135591 0.4135591 0.4135591
0.4247416 0.4247416 0.4247416
0.1493215 0.1493215 0.1493215
0.1694864 0.1694864 0.1694864
0.1878842 0.1878842 0.1878842
0.2076182 0.2076182 0.2076182
0.2287256 0.2287256 0.2287256
0.2465988 0.2465988 0.2465988
0.2652871 0.2652871 0.2652871
0.2798831 0.2798831 0.2798831
0.1878842 0.1878842 0.1878842
0.2076182 0.2076182 0.2076182
0.2287256 0.2287256 0.2287256
0.2465988 0.2465988 0.2465988
0.2652871 0.2652871 0.2652871
0.2798831 0.2798831 0.2798831
0.2999260 0.2999260 0.2999260
0.3153938 0.3153938 0.3153938
0.2287256 0.2287256 0.2287256
0.2465988 0.2465988 0.2465988
0.2652871 0.2652871 0.2652871
0.2798831 0.2798831 0.2798831
0.2999260 0.2999260 0.2999260
0.3153938 0.3153938 0.3153938
0.3312819 0.3312819 0.3312819
0.3474168 0.3474168 0.3474168
0.2652871 0.2652871 0.2652871
0.2798831 0.2798831 0.2798831
0.2999260 0.2999260 0.2999260
0.3153938 0.3153938 0.3153938
0.3312819 0.3312819 0.3312819
0.3474168 0.3474168 0.3474168
0.3636095 0.3636095 0.3636095
0.3745819 0.3745819 0.3745819
0.2999260 0.2999260 0.2999260
0.3153938 0.3153938 0.3153938
0.3312819 0.3312819 0.3312819
0.3474168 0.3474168 0.3474168
0.3636095 0.3636095 0.3636095
0.3745819 0.3745819 0.3745819
0.3912817 0.3912817 0.3912817
0.4024653 0.4024653 0.4024653
0.3312819 0.3312819 0.3312819
0.3474168 0.3474168 0.3474168
0.3636095 0.3636095 0.3636095
0.3745819 0.3745819 0.3745819
0.3912817 0.3912817 0.3912817
0.4024653 0.4024653 0.4024653
0.4135591 0.4135591 0.4135591
0.4247416 0.4247416 0.4247416
0.3636095 0.3636095 0.3636095
0.3745819 0.3745819 0.3745819
0.3912817 0.3912817 0.3912817
0.4024653 0.4024653 0.4024653
0.4135591 0.4135591 0.4135591
0.4247416 0.4247416 0.4247416
0.4360014 0.4360014 0.4360014
0.4530121 0.4530121 0.4530121
0.3912817 0.3912817 0.3912817
0.4024653 0.4024653 0.4024653
0.4135591 0.4135591 0.4135591
0.4247416 0.4247416 0.4247416
0.4360014 0.4360014 0.4360014
0.4530121 0.4530121 0.4530121
0.4586720 0.4586720 0.4586720
0.4698733 0.4698733 0.4698733
0.2331235 0.2331235 0.2331235
0.2511867 0.2511867 0.2511867
0.2700979 0.2700979 0.2700979
0.2848560 0.2848560 0.2848560
0.3050338 0.3050338 0.3050338
0.3206444 0.3206444 0.3206444
0.3366668 0.3366668 0.3366668
0.3527775 0.3527775 0.3527775
0.2700979 0.2700979 0.2700979
0.2848560 0.2848560 0.2848560
0.3050338 0.3050338 0.3050338
0.3206444 0.3206444 0.3206444
0.3366668 0.3366668 0.3366668
0.3527775 0.3527775 0.3527775
0.3636095 0.3636095 0.3636095
0.3801174 0.3801174 0.3801174
0.3050338 0.3050338 0.3050338
0.3206444 0.3206444 0.3206444
0.3366668 0.3366668 0.3366668
0.3527775 0.3527775 0.3527775
0.3636095 0.3636095 0.3636095
0.3801174 0.3801174 0.3801174
0.3912817 0.3912817 0.3912817
0.4080006 0.4080006 0.4080006
0.3366668 0.3366668 0.3366668
0.3527775 0.3527775 0.3527775
0.3636095 0.3636095 0.3636095
0.3801174 0.3801174 0.3801174
0.3912817 0.3912817 0.3912817
0.4080006 0.4080006 0.4080006
0.4191399 0.4191399 0.4191399
0.4303625 0.4303625 0.4303625
0.3636095 0.3636095 0.3636095
0.3801174 0.3801174 0.3801174
0.3912817 0.3912817 0.3912817
0.4080006 0.4080006 0.4080006
0.4191399 0.4191399 0.4191399
0.4303625 0.4303625 0.4303625
0.4416570 0.4416570 0.4416570
0.4530121 0.4530121 0.4530121
0.3912817 0.3912817 0.3912817
0.4080006 0.4080006 0.4080006
0.4191399 0.4191399 0.4191399
0.4303625 0.4303625 0.4303625
0.4416570 0.4416570 0.4416570
0.4530121 0.4530121 0.4530121
0.4642681 0.4642681 0.4642681
0.4754861 0.4754861 0.4754861
0.4191399 0.4191399 0.4191399
0.4303625 0.4303625 0.4303625
0.4416570 0.4416570 0.4416570
0.4530121 0.4530121 0.4530121
0.4642681 0.4642681 0.4642681
0.4754861 0.4754861 0.4754861
0.4867288 0.4867288 0.4867288
0.4923561 0.4923561 0.4923561
0.4416570 0.4416570 0.4416570
0.4530121 0.4530121 0.4530121
0.4642681 0.4642681 0.4642681
0.4754861 0.4754861 0.4754861
0.4867288 0.4867288 0.4867288
0.4923561 0.4923561 0.4923561
0.5036147 0.5036147 0.5036147
0.5148698 0.5148698 0.5148698
0.3101901 0.3101901 0.3101901
0.3259408 0.3259408 0.3259408
0.3420945 0.3420945 0.3420945
0.3527775 0.3527775 0.3527775
0.3690788 0.3690788 0.3690788
0.3856845 0.3856845 0.3856845
0.3969073 0.3969073 0.3969073
0.4080006 0.4080006 0.4080006
0.3420945 0.3420945 0.3420945
0.3527775 0.3527775 0.3527775
0.3690788 0.3690788 0.3690788
0.3856845 0.3856845 0.3856845
0.3969073 0.3969073 0.3969073
0.4080006 0.4080006 0.4080006
0.4191399 0.4191399 0.4191399
0.4360014 0.4360014 0.4360014
0.3690788 0.3690788 0.3690788
0.3856845 0.3856845 0.3856845
0.3969073 0.3969073 0.3969073
0.4080006 0.4080006 0.4080006
0.4191399 0.4191399 0.4191399
0.4360014 0.4360014 0.4360014
0.4473277 0.4473277 0.4473277
0.4586720 0.4586720 0.4586720
0.3969073 0.3969073 0.3969073
0.4080006 0.4080006 0.4080006
0.4191399 0.4191399 0.4191399
0.4360014 0.4360014 0.4360014
0.4473277 0.4473277 0.4473277
0.4586720 0.4586720 0.4586720
0.4698733 0.4698733 0.4698733
0.4754861 0.4754861 0.4754861
0.4191399 0.4191399 0.4191399
0.4360014 0.4360014 0.4360014
0.4473277 0.4473277 0.4473277
0.4586720 0.4586720 0.4586720
0.4698733 0.4698733 0.4698733
0.4754861 0.4754861 0.4754861
0.4867288 0.4867288 0.4867288
0.4979853 0.4979853 0.4979853
0.4473277 0.4473277 0.4473277
0.4586720 0.4586720 0.4586720
0.4698733 0.4698733 0.4698733
0.4754861 0.4754861 0.4754861
0.4867288 0.4867288 0.4867288
0.4979853 0.4979853 0.4979853
0.5092435 0.5092435 0.5092435
0.5148698 0.5148698 0.5148698
0.4698733 0.4698733 0.4698733
0.4754861 0.4754861 0.4754861
0.4867288 0.4867288 0.4867288
0.4979853 0.4979853 0.4979853
0.5092435 0.5092435 0.5092435
0.5148698 0.5148698 0.5148698
0.5255605 0.5255605 0.5255605
0.5308978 0.5308978 0.5308978
0.4867288 0.4867288 0.4867288
0.4979853 0.4979853 0.4979853
0.5092435 0.5092435 0.5092435
0.5148698 0.5148698 0.5148698
0.5255605 0.5255605 0.5255605
0.5308978 0.5308978 0.5308978
0.5415500 0.5415500 0.5415500
0.5468625 0.5468625 0.5468625
0.3745819 0.3745819 0.3745819
0.3856845 0.3856845 0.3856845
0.4024653 0.4024653 0.4024653
0.4135591 0.4135591 0.4135591
0.4247416 0.4247416 0.4247416
0.4360014 0.4360014 0.4360014
0.4473277 0.4473277 0.4473277
0.4586720 0.4586720 0.4586720
0.4024653 0.4024653 0.4024653
0.4135591 0.4135591 0.4135591
0.4247416 0.4247416 0.4247416
0.4360014 0.4360014 0.4360014
0.4473277 0.4473277 0.4473277
0.4586720 0.4586720 0.4586720
0.4698733 0.4698733 0.4698733
0.4811052 0.4811052 0.4811052
0.4247416 0.4247416 0.4247416
0.4360014 0.4360014 0.4360014
0.4473277 0.4473277 0.4473277
0.4586720 0.4586720 0.4586720
0.4698733 0.4698733 0.4698733
0.4811052 0.4811052 0.4811052
0.4923561 0.4923561 0.4923561
0.4979853 0.4979853 0.4979853
0.4473277 0.4473277 0.4473277
0.4586720 0.4586720 0.4586720
0.4698733 0.4698733 0.4698733
0.4811052 0.4811052 0.4811052
0.4923561 0.4923561 0.4923561
0.4979853 0.4979853 0.4979853
0.5092435 0.5092435 0.5092435
0.5202175 0.5202175 0.5202175
0.4698733 0.4698733 0.4698733
0.4811052 0.4811052 0.4811052
0.4923561 0.4923561 0.4923561
0.4979853 0.4979853 0.4979853
0.5092435 0.5092435 0.5092435
0.5202175 0.5202175 0.5202175
0.5255605 0.5255605 0.5255605
0.5362281 0.5362281 0.5362281
0.4923561 0.4923561 0.4923561
0.4979853 0.4979853 0.4979853
0.5092435 0.5092435 0.5092435
0.5202175 0.5202175 0.5202175
0.5255605 0.5255605 0.5255605
0.5362281 0.5362281 0.5362281
0.5415500 0.5415500 0.5415500
0.5521642 0.5521642 0.5521642
0.5092435 0.5092435 0.5092435
0.5202175 0.5202175 0.5202175
0.5255605 0.5255605 0.5255605
0.5362281 0.5362281 0.5362281
0.5415500 0.5415500 0.5415500
0.5521642 0.5521642 0.5521642
0.5574542 0.5574542 0.5574542
0.5627313 0.5627313 0.5627313
0.5255605 0.5255605 0.5255605
0.5362281 0.5362281 0.5362281
0.5415500 0.5415500 0.5415500
0.5521642 0.5521642 0.5521642
0.5574542 0.5574542 0.5574542
0.5627313 0.5627313 0.5627313
0.5731412 0.5731412 0.5731412
0.5782225 0.5782225 0.5782225
0.4303625 0.4303625 0.4303625
0.4416570 0.4416570 0.4416570
0.4530121 0.4530121 0.4530121
0.4642681 0.4642681 0.4642681
0.4754861 0.4754861 0.4754861
0.4811052 0.4811052 0.4811052
0.4923561 0.4923561 0.4923561
0.5036147 0.5036147 0.5036147
0.4530121 0.4530121 0.4530121
0.4642681 0.4642681 0.4642681
0.4754861 0.4754861 0.4754861
0.4811052 0.4811052 0.4811052
0.4923561 0.4923561 0.4923561
0.5036147 0.5036147 0.5036147
0.5092435 0.5092435 0.5092435
0.5202175 0.5202175 0.5202175
0.4754861 0.4754861 0.4754861
0.4811052 0.4811052 0.4811052
0.4923561 0.4923561 0.4923561
0.5036147 0.5036147 0.5036147
0.5092435 0.5092435 0.5092435
0.5202175 0.5202175 0.5202175
0.5308978 0.5308978 0.5308978
0.5362281 0.5362281 0.5362281
0.4923561 0.4923561 0.4923561
0.5036147 0.5036147 0.5036147
0.5092435 0.5092435 0.5092435
0.5202175 0.5202175 0.5202175
0.5308978 0.5308978 0.5308978
0.5362281 0.5362281 0.5362281
0.5468625 0.5468625 0.5468625
0.5521642 0.5521642 0.5521642
0.5092435 0.5092435 0.5092435
0.5202175 0.5202175 0.5202175
0.5308978 0.5308978 0.5308978
0.5362281 0.5362281 0.5362281
0.5468625 0.5468625 0.5468625
0.5521642 0.5521642 0.5521642
0.5574542 0.5574542 0.5574542
0.5679941 0.5679941 0.5679941
0.5308978 0.5308978 0.5308978
0.5362281 0.5362281 0.5362281
0.5468625 0.5468625 0.5468625
0.5521642 0.5521642 0.5521642
0.5574542 0.5574542 0.5574542
0.5679941 0.5679941 0.5679941
0.5731412 0.5731412 0.5731412
0.5782225 0.5782225 0.5782225
0.5468625 0.5468625 0.5468625
0.5521642 0.5521642 0.5521642
0.5574542 0.5574542 0.5574542
0.5679941 0.5679941 0.5679941
0.5731412 0.5731412 0.5731412
0.5782225 0.5782225 0.5782225
0.5883345 0.5883345 0.5883345
0.5933634 0.5933634 0.5933634
0.5574542 0.5574542 0.5574542
0.5679941 0.5679941 0.5679941
0.5731412 0.5731412 0.5731412
0.5782225 0.5782225 0.5782225
0.5883345 0.5883345 0.5883345
0.5933634 0.5933634 0.5933634
0.5983726 0.5983726 0.5983726
0.6033614 0.6033614 0.6033614
0.4754861 0.4754861 0.4754861
0.4867288 0.4867288 0.4867288
0.4979853 0.4979853 0.4979853
0.5036147 0.5036147 0.5036147
0.5148698 0.5148698 0.5148698
0.5255605 0.5255605 0.5255605
0.5308978 0.5308978 0.5308978
0.5415500 0.5415500 0.5415500
0.4979853 0.4979853 0.4979853
0.5036147 0.5036147 0.5036147
0.5148698 0.5148698 0.5148698
0.5255605 0.5255605 0.5255605
0.5308978 0.5308978 0.5308978
0.5415500 0.5415500 0.5415500
0.5468625 0.5468625 0.5468625
0.5521642 0.5521642 0.5521642
0.5148698 0.5148698 0.5148698
0.5255605 0.5255605 0.5255605
0.5308978 0.5308978 0.5308978
0.5415500 0.5415500 0.5415500
0.5468625 0.5468625 0.5468625
0.5521642 0.5521642 0.5521642
0.5627313 0.5627313 0.5627313
0.5679941 0.5679941 0.5679941
0.5308978 0.5308978 0.5308978
0.5415500 0.5415500 0.5415500
0.5468625 0.5468625 0.5468625
0.5521642 0.5521642 0.5521642
0.5627313 0.5627313 0.5627313
0.5679941 0.5679941 0.5679941
0.5731412 0.5731412 0.5731412
0.5832873 0.5832873 0.5832873
0.5468625 0.5468625 0.5468625
0.5521642 0.5521642 0.5521642
0.5627313 0.5627313 0.5627313
0.5679941 0.5679941 0.5679941
0.5731412 0.5731412 0.5731412
0.5832873 0.5832873 0.5832873
0.5883345 0.5883345 0.5883345
0.5933634 0.5933634 0.5933634
0.5627313 0.5627313 0.5627313
0.5679941 0.5679941 0.5679941
0.5731412 0.5731412 0.5731412
0.5832873 0.5832873 0.5832873
0.5883345 0.5883345 0.5883345
0.5933634 0.5933634 0.5933634
0.5983726 0.5983726 0.5983726
0.6083288 0.6083288 0.6083288
0.5731412 0.5731412 0.5731412
0.5832873 0.5832873 0.5832873
0.5883345 0.5883345 0.5883345
0.5933634 0.5933634 0.5933634
0.5983726 0.5983726 0.5983726
0.6083288 0.6083288 0.6083288
0.6132739 0.6132739 0.6132739
0.6181957 0.6181957 0.6181957
0.5883345 0.5883345 0.5883345
0.5933634 0.5933634 0.5933634
0.5983726 0.5983726 0.5983726
0.6083288 0.6083288 0.6083288
0.6132739 0.6132739 0.6132739
0.6181957 0.6181957 0.6181957
0.6231315 0.6231315 0.6231315
0.6281175 0.6281175 0.6281175
