Plugins/FilmEmulator/Content/LUTs/FE_Kodak_EXR_5386_64.cube
TITLE "FE_Kodak_EXR_5386_33"
LUT_3D_SIZE 64
0.0000000 0.0126967 0.1922250
0.0000000 0.0126967 0.1922250
0.0015709 0.0133560 0.1924064
0.0103250 0.0147390 0.1927875
0.0234659 0.0168326 0.1933666
0.0398948 0.0194788 0.1941019
0.0611118 0.0229459 0.1950711
0.0868373 0.0272257 0.1962768
0.1164826 0.0322648 0.1977094
0.1454661 0.0373079 0.1991574
0.1728368 0.0421794 0.2005696
0.1991006 0.0469596 0.2019675
0.2303316 0.0527822 0.2036882
0.2632684 0.0590961 0.2055749
0.2930449 0.0649648 0.2073483
0.3247834 0.0713972 0.2093143
0.3544337 0.0775810 0.2112261
0.3850015 0.0841433 0.2132781
0.4139826 0.0905413 0.2149292
0.4473408 0.0981315 0.2164956
0.4791094 0.1055810 0.2182211
0.5123940 0.1136643 0.2204239
0.5475383 0.1225431 0.2230728
0.5833336 0.1319504 0.2260580
0.6139536 0.1403540 0.2288123
0.6461637 0.1495854 0.2319452
0.6719775 0.1576840 0.2346253
0.7043272 0.1684536 0.2382076
0.7304366 0.1779813 0.2413809
0.7577882 0.1883887 0.2449226
0.7840351 0.1990411 0.2487832
0.8063605 0.2087117 0.2523841
0.8326986 0.2200056 0.2568303
0.8541455 0.2301085 0.2609745
0.8797550 0.2420278 0.2659569
0.8995239 0.2517887 0.2702833
0.9187186 0.2616677 0.2747156
0.9367381 0.2713687 0.2792064
0.9548093 0.2814910 0.2839754
0.9676049 0.2892271 0.2877553
0.9839040 0.2989374 0.2923876
1.0000000 0.3092465 0.2974566
1.0000000 0.3168445 0.3012404
1.0000000 0.3269877 0.3063462
1.0000000 0.3347697 0.3103024
1.0000000 0.3424284 0.3142402
1.0000000 0.3500048 0.3182807
1.0000000 0.3581511 0.3227833
1.0000000 0.3659771 0.3270386
1.0000000 0.3734491 0.3311151
1.0000000 0.3811470 0.3355802
1.0000000 0.3888417 0.3400828
1.0000000 0.3964030 0.3445558
1.0000000 0.4038383 0.3491642
1.0000000 0.4087537 0.3522343
1.0000000 0.4160203 0.3568119
1.0000000 0.4210404 0.3602282
1.0000000 0.4279239 0.3644778
1.0000000 0.4350413 0.3691460
1.0000000 0.4397261 0.3722431
1.0000000 0.4446164 0.3757204
1.0000000 0.4513118 0.3799840
1.0000000 0.4558906 0.3830763
1.0000000 0.4606950 0.3865575
0.0000000 0.0128440 0.1922410
0.0000000 0.0128470 0.1922413
0.0007399 0.0133733 0.1923862
0.0091985 0.0147061 0.1927539
0.0219771 0.0167393 0.1933160
0.0379235 0.0193043 0.1940285
0.0583974 0.0226404 0.1949611
0.0828733 0.0267013 0.1961041
0.1115221 0.0315505 0.1974815
0.1401884 0.0365170 0.1989055
0.1690785 0.0416402 0.2003881
0.1969757 0.0467011 0.2018678
0.2249744 0.0519042 0.2034035
0.2574967 0.0580993 0.2052530
0.2867919 0.0638418 0.2069848
0.3181939 0.0701681 0.2089139
0.3510306 0.0769756 0.2110164
0.3813082 0.0834520 0.2130392
0.4104303 0.0898014 0.2145580
0.4431698 0.0971445 0.2160814
0.4742593 0.1043782 0.2178354
0.5075827 0.1124290 0.2200784
0.5426298 0.1212491 0.2226974
0.5727803 0.1291332 0.2251552
0.6039200 0.1375522 0.2278563
0.6355647 0.1464990 0.2308733
0.6667633 0.1559869 0.2340698
0.6937571 0.1649960 0.2370005
0.7247697 0.1758806 0.2406732
0.7524459 0.1863202 0.2442141
0.7785069 0.1967624 0.2479373
0.8008826 0.2063768 0.2515039
0.8275828 0.2177035 0.2558968
0.8541956 0.2298297 0.2608423
0.8747923 0.2396348 0.2649033
0.8945333 0.2492921 0.2691730
0.9140323 0.2592143 0.2736088
0.9323394 0.2689603 0.2780761
0.9503779 0.2789643 0.2827792
0.9676639 0.2890000 0.2875564
0.9798156 0.2966624 0.2913708
0.9960941 0.3066888 0.2961918
1.0000000 0.3145511 0.3001869
1.0000000 0.3243663 0.3050237
1.0000000 0.3321894 0.3089858
1.0000000 0.3401197 0.3131369
1.0000000 0.3500048 0.3182807
1.0000000 0.3579116 0.3225338
1.0000000 0.3657404 0.3267908
1.0000000 0.3734491 0.3311151
1.0000000 0.3811470 0.3355802
1.0000000 0.3865300 0.3388965
1.0000000 0.3938972 0.3430679
1.0000000 0.4013740 0.3476317
1.0000000 0.4087537 0.3522343
1.0000000 0.4138424 0.3556473
1.0000000 0.4207957 0.3598455
1.0000000 0.4258102 0.3633274
1.0000000 0.4326784 0.3675917
1.0000000 0.4376373 0.3710860
1.0000000 0.4443564 0.3753242
1.0000000 0.4489961 0.3784283
1.0000000 0.4558906 0.3830763
1.0000000 0.4604108 0.3861492
0.0000000 0.0340689 0.1945744
0.0000000 0.0337540 0.1945392
0.0017669 0.0341556 0.1946528
0.0098231 0.0357137 0.1950401
0.0225401 0.0376979 0.1956040
0.0376779 0.0400853 0.1962856
0.0580975 0.0433491 0.1972225
0.0816242 0.0471742 0.1983284
0.1111453 0.0523799 0.1997918
0.1396177 0.0572150 0.2012158
0.1663150 0.0618514 0.2025940
0.1937981 0.0667332 0.2040582
0.2230163 0.0720489 0.2056679
0.2551783 0.0783557 0.2075425
0.2872115 0.0845121 0.2094491
0.3184533 0.0906919 0.2113848
0.3477230 0.0966474 0.2132712
0.3779056 0.1028569 0.2142823
0.4067459 0.1092858 0.2156277
0.4386653 0.1163234 0.2174411
0.4688939 0.1232199 0.2193496
0.5022495 0.1311173 0.2217514
0.5368170 0.1396316 0.2244711
0.5716952 0.1488705 0.2275141
0.6026514 0.1571465 0.2303255
0.6341201 0.1659001 0.2333362
0.6601145 0.1734104 0.2359338
0.6920718 0.1830335 0.2393854
0.7179592 0.1914348 0.2424001
0.7452266 0.2003710 0.2458588
0.7716101 0.2094103 0.2495018
0.7991575 0.2193007 0.2536381
0.8206778 0.2273912 0.2572121
0.8472046 0.2380725 0.2618155
0.8681944 0.2467404 0.2658505
0.8879919 0.2552809 0.2699205
0.9079140 0.2642388 0.2740817
0.9266194 0.2730737 0.2784686
0.9447124 0.2822502 0.2828426
0.9624250 0.2914267 0.2874908
0.9790156 0.3004280 0.2919973
0.9913465 0.3074557 0.2958242
1.0000000 0.3167629 0.3005638
1.0000000 0.3238657 0.3042768
1.0000000 0.3309186 0.3080652
1.0000000 0.3403223 0.3130060
1.0000000 0.3474911 0.3169311
1.0000000 0.3552724 0.3211096
1.0000000 0.3631456 0.3253744
1.0000000 0.3708888 0.3296385
1.0000000 0.3785522 0.3340731
1.0000000 0.3862917 0.3385851
1.0000000 0.3938972 0.3430679
1.0000000 0.3991310 0.3464584
1.0000000 0.4063030 0.3507011
1.0000000 0.4136121 0.3552896
1.0000000 0.4186434 0.3586864
1.0000000 0.4255585 0.3629332
1.0000000 0.4305512 0.3664255
1.0000000 0.4373904 0.3706966
1.0000000 0.4422928 0.3741732
1.0000000 0.4489961 0.3784283
1.0000000 0.4536107 0.3815338
1.0000000 0.4584426 0.3850240
0.0010313 0.0547023 0.1969057
0.0009524 0.0538346 0.1968064
0.0028517 0.0545500 0.1969379
0.0108246 0.0557613 0.1972905
0.0231155 0.0576434 0.1978397
0.0380697 0.0599569 0.1985178
0.0578781 0.0630625 0.1994333
0.0804068 0.0666531 0.2004986
0.1091111 0.0713221 0.2018952
0.1390995 0.0767341 0.2034521
0.1654721 0.0812266 0.2048220
0.1926873 0.0859672 0.2062806
0.2215101 0.0911095 0.2078774
0.2528995 0.0968584 0.2096813
0.2845494 0.1028211 0.2115728
0.3155136 0.1087698 0.2129905
0.3446723 0.1150327 0.2140844
0.3747222 0.1211299 0.2154909
0.4031212 0.1270742 0.2169994
0.4342462 0.1338106 0.2189350
0.4684932 0.1415030 0.2213612
0.5016746 0.1492394 0.2238635
0.5360608 0.1575804 0.2266976
0.5654933 0.1649913 0.2292309
0.5965286 0.1736063 0.2320666
0.6275411 0.1820369 0.2350580
0.6587119 0.1908715 0.2382524
0.6851838 0.1986856 0.2411476
0.7162549 0.2082797 0.2449778
0.7433686 0.2170404 0.2485772
0.7695993 0.2259060 0.2524014
0.7913939 0.2340754 0.2559109
0.8183311 0.2439823 0.2603309
0.8447335 0.2542094 0.2650772
0.8656058 0.2626971 0.2691534
0.8853035 0.2710479 0.2731314
0.9050944 0.2798398 0.2775369
0.9237112 0.2884724 0.2817646
0.9417322 0.2972460 0.2862886
0.9592750 0.3066397 0.2908784
0.9717380 0.3132734 0.2943837
0.9880348 0.3223248 0.2992025
0.9998556 0.3291851 0.3028890
1.0000000 0.3381621 0.3076094
1.0000000 0.3450688 0.3114197
1.0000000 0.3520160 0.3153797
1.0000000 0.3610714 0.3202062
1.0000000 0.3684317 0.3243284
1.0000000 0.3755192 0.3285578
1.0000000 0.3825026 0.3328757
1.0000000 0.3893701 0.3369069
1.0000000 0.3963557 0.3412907
1.0000000 0.4009880 0.3445790
1.0000000 0.4077633 0.3487564
1.0000000 0.4148292 0.3533045
1.0000000 0.4192575 0.3562830
1.0000000 0.4257765 0.3604320
1.0000000 0.4322298 0.3649527
1.0000000 0.4364986 0.3679619
1.0000000 0.4428515 0.3721434
1.0000000 0.4470903 0.3754953
1.0000000 0.4512483 0.3785181
1.0000000 0.4576855 0.3827300
1.0000000 0.4617098 0.3857050
0.0046506 0.0926104 0.2013589
0.0045297 0.0913915 0.2012120
0.0056573 0.0915565 0.2012626
0.0133815 0.0926893 0.2016091
0.0251201 0.0944239 0.2021418
0.0394527 0.0965622 0.2028010
0.0593007 0.0995643 0.2037311
0.0807366 0.1028600 0.2047584
0.1101617 0.1086574 0.2063525
0.1381576 0.1131488 0.2077788
0.1657633 0.1176810 0.2092308
0.1925949 0.1221887 0.2106878
0.2209008 0.1270595 0.2122760
0.2515030 0.1324514 0.2139292
0.2825955 0.1380108 0.2149236
0.3131182 0.1436447 0.2161383
0.3420895 0.1491562 0.2174596
0.3717388 0.1549872 0.2191356
0.4031214 0.1626084 0.2212612
0.4339360 0.1690719 0.2233477
0.4630265 0.1753788 0.2254709
0.4961002 0.1828067 0.2280675
0.5298719 0.1906848 0.2308319
0.5638952 0.1989495 0.2337782
0.5946474 0.2067287 0.2366193
0.6253542 0.2148146 0.2396280
0.6511776 0.2218979 0.2424605
0.6823891 0.2308221 0.2461706
0.7080355 0.2396972 0.2496479
0.7344679 0.2479166 0.2533425
0.7607230 0.2564366 0.2572043
0.7874115 0.2655118 0.2614786
0.8140554 0.2750204 0.2660347
0.8348129 0.2827855 0.2699118
0.8557726 0.2909490 0.2739367
0.8803059 0.3009838 0.2789927
0.8998997 0.3093984 0.2832338
0.9182986 0.3176954 0.2876726
0.9359406 0.3271428 0.2922195
0.9491102 0.3336118 0.2957332
0.9656976 0.3420873 0.3002361
0.9818307 0.3507414 0.3048774
0.9935217 0.3573130 0.3085558
1.0000000 0.3659193 0.3133401
1.0000000 0.3725448 0.3172433
1.0000000 0.3791990 0.3211914
1.0000000 0.3857542 0.3251423
1.0000000 0.3923329 0.3293093
1.0000000 0.4000818 0.3335475
1.0000000 0.4068004 0.3378544
1.0000000 0.4133825 0.3418642
1.0000000 0.4200713 0.3463790
1.0000000 0.4266644 0.3505666
1.0000000 0.4331788 0.3550471
1.0000000 0.4395668 0.3591861
1.0000000 0.4438480 0.3625649
1.0000000 0.4500930 0.3667424
1.0000000 0.4542225 0.3697432
1.0000000 0.4611942 0.3744063
1.0000000 0.4652791 0.3774377
1.0000000 0.4712858 0.3816144
1.0000000 0.4752589 0.3846208
1.0000000 0.4810959 0.3887435
1.0000000 0.4849433 0.3917021
0.0106263 0.1488159 0.2083954
0.0104007 0.1468197 0.2081362
0.0109988 0.1469026 0.2081636
0.0185223 0.1479461 0.2085093
0.0297312 0.1495118 0.2090296
0.0434047 0.1514412 0.2096727
0.0628309 0.1542187 0.2106033
0.0845921 0.1573825 0.2116692
0.1115683 0.1613839 0.2130275
0.1406491 0.1677235 0.2147920
0.1676775 0.1719185 0.2162439
0.1939972 0.1760995 0.2177028
0.2216944 0.1805493 0.2186602
0.2515982 0.1854695 0.2196209
0.2819235 0.1906218 0.2208793
0.3118767 0.1958790 0.2224084
0.3433749 0.2015800 0.2241380
0.3725871 0.2070450 0.2259693
0.4000132 0.2123326 0.2278118
0.4297669 0.2182495 0.2299419
0.4625452 0.2249964 0.2324179
0.4951456 0.2319575 0.2349895
0.5283815 0.2411175 0.2380530
0.5566912 0.2476321 0.2405667
0.5872241 0.2549326 0.2434894
0.6171490 0.2624025 0.2467498
0.6477993 0.2703745 0.2502211
0.6732843 0.2772962 0.2534652
0.7038603 0.2859550 0.2575228
0.7298850 0.2936702 0.2612650
0.7557223 0.3016799 0.2653103
0.7819948 0.3101995 0.2696273
0.8031021 0.3173668 0.2734542
0.8286569 0.3264120 0.2780595
0.8490481 0.3356345 0.2825119
0.8684933 0.3431671 0.2865520
0.8877425 0.3509582 0.2907663
0.9061210 0.3587611 0.2951966
0.9236219 0.3665171 0.2994896
0.9410560 0.3746127 0.3040013
0.9573742 0.3825642 0.3084922
0.9692571 0.3886264 0.3120938
0.9847320 0.3968630 0.3169470
0.9956303 0.4029511 0.3207268
1.0000000 0.4111578 0.3256586
1.0000000 0.4173895 0.3294728
1.0000000 0.4235554 0.3335874
1.0000000 0.4310488 0.3380007
1.0000000 0.4374254 0.3420395
1.0000000 0.4437331 0.3464352
1.0000000 0.4499128 0.3505357
1.0000000 0.4561811 0.3550217
1.0000000 0.4623600 0.3591850
1.0000000 0.4684706 0.3636973
1.0000000 0.4724904 0.3667195
1.0000000 0.4784420 0.3709008
1.0000000 0.4843270 0.3753976
1.0000000 0.4881964 0.3783829
1.0000000 0.4939127 0.3825359
1.0000000 0.4989095 0.3858197
1.0000000 0.5045323 0.3899689
1.0000000 0.5082512 0.3929532
1.0000000 0.5119284 0.3959216
1.0000000 0.5173619 0.4004551
0.0172316 0.2037191 0.2158194
0.0169314 0.2013658 0.2154891
0.0171486 0.2013938 0.2154993
0.0243032 0.2023289 0.2158358
0.0347087 0.2036987 0.2163297
0.0485507 0.2055386 0.2169955
0.0670449 0.2080306 0.2179008
0.0881307 0.2109187 0.2189560
0.1140021 0.2168109 0.2206048
0.1421509 0.2208253 0.2220973
0.1685863 0.2246662 0.2232949
0.1961006 0.2287118 0.2239796
0.2231448 0.2328065 0.2249027
0.2522856 0.2373505 0.2261311
0.2819539 0.2421260 0.2276582
0.3112376 0.2469853 0.2293244
0.3421067 0.2522698 0.2312232
0.3707747 0.2573381 0.2331541
0.3975118 0.2622027 0.2350051
0.4262055 0.2675821 0.2370680
0.4581207 0.2737733 0.2394913
0.4901628 0.2802278 0.2420970
0.5226533 0.2870323 0.2449039
0.5506870 0.2952225 0.2479862
0.5852855 0.3030623 0.2515525
0.6147373 0.3100382 0.2548519
0.6399674 0.3162735 0.2580816
0.6699556 0.3239726 0.2619153
0.6951388 0.3307391 0.2655402
0.7203611 0.3377815 0.2691950
0.7460765 0.3452876 0.2732548
0.7715071 0.3530620 0.2775761
0.7976549 0.3614265 0.2820734
0.8175040 0.3680977 0.2859661
0.8430574 0.3770623 0.2909027
0.8621885 0.3841218 0.2949423
0.8811263 0.3914229 0.2991459
0.8989100 0.4004889 0.3039142
0.9161125 0.4077369 0.3081972
0.9332486 0.4153023 0.3126946
0.9453564 0.4209083 0.3162969
0.9609654 0.4283995 0.3207646
0.9761742 0.4360971 0.3255990
0.9868840 0.4417886 0.3293844
0.9972337 0.4475282 0.3333970
1.0000000 0.4553027 0.3383398
1.0000000 0.4610645 0.3424307
1.0000000 0.4668356 0.3466075
1.0000000 0.4728181 0.3507361
1.0000000 0.4787303 0.3551590
1.0000000 0.4845179 0.3592347
1.0000000 0.4903903 0.3637149
1.0000000 0.4976491 0.3682564
1.0000000 0.5014659 0.3712778
1.0000000 0.5071112 0.3757817
1.0000000 0.5126678 0.3799332
1.0000000 0.5163426 0.3829372
1.0000000 0.5217477 0.3870770
1.0000000 0.5253221 0.3900566
1.0000000 0.5306622 0.3942007
1.0000000 0.5342329 0.3975344
1.0000000 0.5394412 0.4017109
1.0000000 0.5428884 0.4047349
1.0000000 0.5462875 0.4077355
0.0260122 0.2677830 0.2252560
0.0255796 0.2648276 0.2248007
0.0251877 0.2618654 0.2243476
0.0318132 0.2626711 0.2246673
0.0417821 0.2638926 0.2251526
0.0548820 0.2655132 0.2257985
0.0724869 0.2706118 0.2271175
0.0936216 0.2732951 0.2282014
0.1192918 0.2766226 0.2295534
0.1468335 0.2802240 0.2303104
0.1728165 0.2837020 0.2310058
0.1995527 0.2873830 0.2319537
0.2258680 0.2911165 0.2331728
0.2541883 0.2952474 0.2346147
0.2831398 0.2996001 0.2362753
0.3116912 0.3040220 0.2380191
0.3418640 0.3088447 0.2400192
0.3699282 0.3134673 0.2419056
0.3993250 0.3184644 0.2439829
0.4275047 0.3234146 0.2461043
0.4550043 0.3284026 0.2482621
0.4858624 0.3342062 0.2509105
0.5174720 0.3403967 0.2539171
0.5497229 0.3495877 0.2576655
0.5788528 0.3557745 0.2609544
0.6074582 0.3620971 0.2643396
0.6373119 0.3689850 0.2681208
0.6667194 0.3760875 0.2721335
0.6914313 0.3823102 0.2756169
0.7161560 0.3888124 0.2794763
0.7413683 0.3957355 0.2836210
0.7663158 0.4028887 0.2877698
0.7869523 0.4090763 0.2914889
0.8114061 0.4167541 0.2962067
0.8315826 0.4233868 0.3002485
0.8552032 0.4315304 0.3051603
0.8737619 0.4382645 0.3093569
0.8914917 0.4449969 0.3135955
0.9083576 0.4517043 0.3178919
0.9210434 0.4569850 0.3215097
0.9370198 0.4639012 0.3261006
0.9518870 0.4729481 0.3312177
0.9631319 0.4783049 0.3351387
0.9772663 0.4852911 0.3398527
0.9874039 0.4905797 0.3438373
0.9973924 0.4959983 0.3479275
1.0000000 0.5030620 0.3529239
1.0000000 0.5083882 0.3571789
1.0000000 0.5139006 0.3612776
1.0000000 0.5193223 0.3653506
1.0000000 0.5246849 0.3697695
1.0000000 0.5300735 0.3739507
1.0000000 0.5336877 0.3773111
1.0000000 0.5389640 0.3814657
1.0000000 0.5441518 0.3855979
1.0000000 0.5492885 0.3897559
1.0000000 0.5526839 0.3927465
1.0000000 0.5577062 0.3972027
1.0000000 0.5627452 0.4005944
1.0000000 0.5676610 0.4047405
1.0000000 0.5709226 0.4077742
1.0000000 0.5757129 0.4119124
1.0000000 0.5788829 0.4149056
1.0000000 0.5820087 0.4178754
0.0345308 0.3224331 0.2340525
0.0340599 0.3195752 0.2335739
0.0335899 0.3167059 0.2330956
0.0400214 0.3202477 0.2338688
0.0492978 0.3213018 0.2343315
0.0619730 0.3227552 0.2349713
0.0787961 0.3247105 0.2358346
0.0991338 0.3270900 0.2365350
0.1234952 0.3299727 0.2369939
0.1502446 0.3332363 0.2378700
0.1773415 0.3366387 0.2389818
0.2014391 0.3397444 0.2400737
0.2289702 0.3433925 0.2415110
0.2565151 0.3471472 0.2430539
0.2847900 0.3511182 0.2447879
0.3154907 0.3555669 0.2467831
0.3421665 0.3595489 0.2485371
0.3696566 0.3637761 0.2504246
0.3982949 0.3683240 0.2525249
0.4253947 0.3727681 0.2545942
0.4563563 0.3780412 0.2573159
0.4866706 0.3834049 0.2601641
0.5177243 0.3891231 0.2632985
0.5450071 0.3968685 0.2667852
0.5780504 0.4034376 0.2705113
0.6061374 0.4092860 0.2740732
0.6354522 0.4156526 0.2779375
0.6593274 0.4210532 0.2812110
0.6838297 0.4268317 0.2849331
0.7128690 0.4339725 0.2892733
0.7376182 0.4403732 0.2934232
0.7568593 0.4455557 0.2968004
0.7823435 0.4527237 0.3014876
0.8063514 0.4598141 0.3060192
0.8261477 0.4659503 0.3100538
0.8448141 0.4719962 0.3140736
0.8629981 0.4781514 0.3181966
0.8806530 0.4844150 0.3225358
0.8972430 0.4905784 0.3268688
0.9138858 0.4970561 0.3314358
0.9295664 0.5034446 0.3358184
0.9407123 0.5082316 0.3396040
0.9555781 0.5148698 0.3445909
0.9656464 0.5217481 0.3487188
0.9789671 0.5282414 0.3537652
0.9887730 0.5332447 0.3576725
0.9980226 0.5381944 0.3618726
1.0000000 0.5430459 0.3657325
1.0000000 0.5481601 0.3701181
1.0000000 0.5532103 0.3742393
1.0000000 0.5581776 0.3783329
1.0000000 0.5631617 0.3827904
1.0000000 0.5681276 0.3869416
1.0000000 0.5730112 0.3910893
1.0000000 0.5778134 0.3952202
1.0000000 0.5810347 0.3985547
1.0000000 0.5857326 0.4026538
1.0000000 0.5888381 0.4055995
1.0000000 0.5934106 0.4097266
1.0000000 0.5979789 0.4138771
1.0000000 0.6010070 0.4168822
1.0000000 0.6040007 0.4198704
1.0000000 0.6083983 0.4239483
1.0000000 0.6129094 0.4274204
0.0443624 0.3783584 0.2438698
0.0436159 0.3743428 0.2431350
0.0428711 0.3703025 0.2424005
0.0482443 0.3708659 0.2426721
0.0568045 0.3717695 0.2431083
0.0699281 0.3771122 0.2444832
0.0862801 0.3788202 0.2445002
0.1057558 0.3809056 0.2448360
0.1287549 0.3834388 0.2455972
0.1562806 0.3865571 0.2467540
0.1812627 0.3894659 0.2479312
0.2062891 0.3924587 0.2492443
0.2330343 0.3957474 0.2507851
0.2597916 0.3991304 0.2523975
0.2873734 0.4027197 0.2541198
0.3173254 0.4067400 0.2560660
0.3433645 0.4103445 0.2578357
0.3733046 0.4146258 0.2599910
0.3981131 0.4182935 0.2619512
0.4241101 0.4222656 0.2642547
0.4546731 0.4270962 0.2670152
0.4838315 0.4318941 0.2699667
0.5140329 0.4370586 0.2731401
0.5453781 0.4426500 0.2766622
0.5731388 0.4478208 0.2800637
0.6006112 0.4531471 0.2835771
0.6294973 0.4589854 0.2873548
0.6575064 0.4683322 0.2921402
0.6815315 0.4736138 0.2956882
0.7049469 0.4789917 0.2995186
0.7294925 0.4848638 0.3035184
0.7530881 0.4907722 0.3075771
0.7780625 0.4973329 0.3120806
0.7968540 0.5025225 0.3159441
0.8209532 0.5094715 0.3207819
0.8392270 0.5150214 0.3248531
0.8570353 0.5206630 0.3288745
0.8743188 0.5264102 0.3332028
0.8905590 0.5320653 0.3375100
0.9068389 0.5380191 0.3422053
0.9221600 0.5439060 0.3469399
0.9330869 0.5482817 0.3504273
0.9476351 0.5543739 0.3553772
0.9578887 0.5588698 0.3591113
0.9675922 0.5633219 0.3631405
0.9805359 0.5694725 0.3681033
0.9895982 0.5740336 0.3722661
0.9981844 0.5785091 0.3761541
1.0000000 0.5832047 0.3802419
1.0000000 0.5904801 0.3853751
1.0000000 0.5950283 0.3894302
1.0000000 0.5995691 0.3935151
1.0000000 0.6041186 0.3976666
1.0000000 0.6086143 0.4021351
1.0000000 0.6115693 0.4050943
1.0000000 0.6159347 0.4091763
1.0000000 0.6202379 0.4132754
1.0000000 0.6230854 0.4162691
1.0000000 0.6272706 0.4203535
1.0000000 0.6300808 0.4233416
1.0000000 0.6342220 0.4274321
1.0000000 0.6369634 0.4304193
1.0000000 0.6409945 0.4345517
1.0000000 0.6436561 0.4375557
0.0564429 0.4388033 0.2555524
0.0555824 0.4347567 0.2547320
0.0555824 0.4347567 0.2547320
0.0602475 0.4351975 0.2549745
0.0682862 0.4359448 0.2550412
0.0802981 0.4370585 0.2548513
0.0954322 0.4385026 0.2550761
0.1147504 0.4403910 0.2556551
0.1376173 0.4426866 0.2566209
0.1630082 0.4453061 0.2578794
0.1888371 0.4480433 0.2592421
0.2132305 0.4507018 0.2606568
0.2390094 0.4535864 0.2621791
0.2649109 0.4565666 0.2637552
0.2917239 0.4597433 0.2654629
0.3208376 0.4633061 0.2674373
0.3490607 0.4668769 0.2694489
0.3753627 0.4703265 0.2716416
0.3993654 0.4735711 0.2737069
0.4280409 0.4775816 0.2763563
0.4542634 0.4813850 0.2789806
0.4864457 0.4862310 0.2822496
0.5159715 0.4908777 0.2855921
0.5423317 0.4951952 0.2887517
0.5737510 0.5005585 0.2926242
0.6006054 0.5053479 0.2960753
0.6288136 0.5140654 0.3008273
0.6514016 0.5184310 0.3040965
0.6797049 0.5241490 0.3084503
0.7025818 0.5289840 0.3120983
0.7265490 0.5342748 0.3160788
0.7495843 0.5396006 0.3201226
0.7692112 0.5443455 0.3238078
0.7923112 0.5501875 0.3282735
0.8111879 0.5552070 0.3323241
0.8336452 0.5614736 0.3372962
0.8510050 0.5665767 0.3414943
0.8678578 0.5717694 0.3458775
0.8837001 0.5768710 0.3500808
0.8956685 0.5809162 0.3538001
0.9108586 0.5862554 0.3584979
0.9251621 0.5915195 0.3629820
0.9358709 0.5956758 0.3670194
0.9493303 0.6010912 0.3717449
0.9587916 0.6051112 0.3757297
0.9683293 0.6092991 0.3795964
0.9802547 0.6147740 0.3845525
0.9886019 0.6188368 0.3887486
0.9970321 0.6230778 0.3927917
1.0000000 0.6272814 0.3968338
1.0000000 0.6314173 0.4008734
1.0000000 0.6381226 0.4060647
1.0000000 0.6422280 0.4101676
1.0000000 0.6449398 0.4131126
1.0000000 0.6489292 0.4171633
1.0000000 0.6528729 0.4212770
1.0000000 0.6554854 0.4242550
1.0000000 0.6593258 0.4283214
1.0000000 0.6631008 0.4323559
1.0000000 0.6656352 0.4353047
1.0000000 0.6693756 0.4394255
1.0000000 0.6718516 0.4424363
1.0000000 0.6742992 0.4454291
1.0000000 0.6778598 0.4490740
0.0694129 0.4954100 0.2672208
0.0683616 0.4911312 0.2663733
0.0674272 0.4872315 0.2655036
0.0713727 0.4875509 0.2652493
0.0791805 0.4881972 0.2649829
0.0905597 0.4891660 0.2650401
0.1051816 0.4904441 0.2655263
0.1238294 0.4921089 0.2662981
0.1454597 0.4940868 0.2673529
0.1712799 0.4965116 0.2687421
0.1972439 0.5027452 0.2710693
0.2210172 0.5050858 0.2724277
0.2438161 0.5073906 0.2737819
0.2709077 0.5102106 0.2755255
0.2969575 0.5130086 0.2772521
0.3252404 0.5161520 0.2793593
0.3527005 0.5193124 0.2815785
0.3783323 0.5223624 0.2837512
0.4047267 0.5256206 0.2863392
0.4297066 0.5288057 0.2888020
0.4584016 0.5326008 0.2918116
0.4857125 0.5363513 0.2947199
0.5143116 0.5404421 0.2980001
0.5444832 0.5449505 0.3016813
0.5706811 0.5490321 0.3049463
0.5971357 0.5533351 0.3085383
0.6244736 0.5579739 0.3122727
0.6510868 0.5627018 0.3160962
0.6742715 0.5670177 0.3198128
0.6962819 0.5712824 0.3233628
0.7199950 0.5760811 0.3273256
0.7423469 0.5808201 0.3312759
0.7662762 0.5861490 0.3357660
0.7844459 0.5903987 0.3395393
0.8072901 0.5959936 0.3443602
0.8249744 0.6005415 0.3482289
0.8419019 0.6051157 0.3524930
0.8582210 0.6130607 0.3578886
0.8739026 0.6176664 0.3620584
0.8893439 0.6224370 0.3666475
0.9041365 0.6272463 0.3714594
0.9180684 0.6319840 0.3759521
0.9285026 0.6357218 0.3799424
0.9416126 0.6405939 0.3846188
0.9508433 0.6441976 0.3883136
0.9601113 0.6479844 0.3925189
0.9688926 0.6516969 0.3963640
0.9798758 0.6565479 0.4012340
0.9880857 0.6603639 0.4052377
0.9958594 0.6641657 0.4096131
1.0000000 0.6678873 0.4136152
1.0000000 0.6716021 0.4176388
1.0000000 0.6741012 0.4205700
1.0000000 0.6777804 0.4246435
1.0000000 0.6813989 0.4287248
1.0000000 0.6849715 0.4327891
1.0000000 0.6873375 0.4357284
1.0000000 0.6908162 0.4397452
1.0000000 0.6931174 0.4426768
1.0000000 0.6965371 0.4467674
1.0000000 0.6988177 0.4497616
1.0000000 0.7021666 0.4538202
1.0000000 0.7043595 0.4563747
1.0000000 0.7065483 0.4593086
0.0826650 0.5454526 0.2779284
0.0826650 0.5454526 0.2779284
0.0814379 0.5411019 0.2769265
0.0843997 0.5413212 0.2768487
0.0916010 0.5418607 0.2768046
0.1027717 0.5427188 0.2771116
0.1162711 0.5437768 0.2776845
0.1347584 0.5452549 0.2785997
0.1552073 0.5469281 0.2796954
0.1798991 0.5490023 0.2810900
0.2043973 0.5511178 0.2824907
0.2290789 0.5533123 0.2839604
0.2511952 0.5553349 0.2853402
0.2772620 0.5577900 0.2870765
0.3025833 0.5602587 0.2890251
0.3300785 0.5630299 0.2912368
0.3568180 0.5658244 0.2936004
0.3818086 0.5685276 0.2959350
0.4074026 0.5713916 0.2984373
0.4319580 0.5742402 0.3010607
0.4595226 0.5775489 0.3039091
0.4856747 0.5808181 0.3069073
0.5136896 0.5844634 0.3102611
0.5431289 0.5884582 0.3137440
0.5728650 0.5926927 0.3176088
0.5989168 0.6003019 0.3221288
0.6255872 0.6044217 0.3258367
0.6471871 0.6079081 0.3290674
0.6741552 0.6124623 0.3333310
0.6956160 0.6162574 0.3368528
