Plugins/FilmEmulator/Content/LUTs/FE_Kodak_2302_Dev9_64.cube
TITLE "FE_Kodak_2302_Dev9_33"
LUT_3D_SIZE 8
0.0019023 0.0019023 0.0019023
0.0022066 0.0022066 0.0022066
0.0031059 0.0031059 0.0031059
0.0049602 0.0049602 0.0049602
0.0085175 0.0085175 0.0085175
0.0145114 0.0145114 0.0145114
0.0250790 0.0250790 0.0250790
0.0423541 0.0423541 0.0423541
0.0020286 0.0020286 0.0020286
0.0028026 0.0028026 0.0028026
0.0042739 0.0042739 0.0042739
0.0072970 0.0072970 0.0072970
0.0125446 0.0125446 0.0125446
0.0217035 0.0217035 0.0217035
0.0372182 0.0372182 0.0372182
0.0607551 0.0607551 0.0607551
0.0025473 0.0025473 0.0025473
0.0036769 0.0036769 0.0036769
0.0062033 0.0062033 0.0062033
0.0107202 0.0107202 0.0107202
0.0183810 0.0183810 0.0183810
0.0319021 0.0319021 0.0319021
0.0514455 0.0514455 0.0514455
0.0822165 0.0822165 0.0822165
0.0032659 0.0032659 0.0032659
0.0052607 0.0052607 0.0052607
0.0092301 0.0092301 0.0092301
0.0156210 0.0156210 0.0156210
0.0273444 0.0273444 0.0273444
0.0451996 0.0451996 0.0451996
0.0717251 0.0717251 0.0717251
0.1119528 0.1119528 0.1119528
0.0045559 0.0045559 0.0045559
0.0078595 0.0078595 0.0078595
0.0134927 0.0134927 0.0134927
0.0229968 0.0229968 0.0229968
0.0396802 0.0396802 0.0396802
0.0649410 0.0649410 0.0649410
0.1009681 0.1009681 0.1009681
0.1474968 0.1474968 0.1474968
0.0066545 0.0066545 0.0066545
0.0114475 0.0114475 0.0114475
0.0199353 0.0199353 0.0199353
0.0339342 0.0339342 0.0339342
0.0549471 0.0549471 0.0549471
0.0880853 0.0880853 0.0880853
0.1331849 0.1331849 0.1331849
0.1943491 0.1943491 0.1943491
0.0098211 0.0098211 0.0098211
0.0169459 0.0169459 0.0169459
0.0290730 0.0290730 0.0290730
0.0482266 0.0482266 0.0482266
0.0767060 0.0767060 0.0767060
0.1200661 0.1200661 0.1200661
0.1754502 0.1754502 0.1754502
0.2452656 0.2452656 0.2452656
0.0145114 0.0145114 0.0145114
0.0250790 0.0250790 0.0250790
0.0423541 0.0423541 0.0423541
0.0671333 0.0671333 0.0671333
0.1044404 0.1044404 0.1044404
0.1580286 0.1580286 0.1580286
0.2220536 0.2220536 0.2220536
0.3054742 0.3054742 0.3054742
0.0349965 0.0349965 0.0349965
0.0568225 0.0568225 0.0568225
0.0911594 0.0911594 0.0911594
0.1378200 0.1378200 0.1378200
0.1943491 0.1943491 0.1943491
0.2700616 0.2700616 0.2700616
0.3531403 0.3531403 0.3531403
0.4464061 0.4464061 0.4464061
0.0498114 0.0498114 0.0498114
0.0794176 0.0794176 0.0794176
0.1200661 0.1200661 0.1200661
0.1754502 0.1754502 0.1754502
0.2533571 0.2533571 0.2533571
0.3336539 0.3336539 0.3336539
0.4144320 0.4144320 0.4144320
0.5005629 0.5005629 0.5005629
0.0693941 0.0693941 0.0693941
0.1080784 0.1080784 0.1080784
0.1580286 0.1580286 0.1580286
0.2296124 0.2296124 0.2296124
0.3054742 0.3054742 0.3054742
0.3935571 0.3935571 0.3935571
0.4788302 0.4788302 0.4788302
0.5549389 0.5549389 0.5549389
0.0943298 0.0943298 0.0943298
0.1425899 0.1425899 0.1425899
0.2077838 0.2077838 0.2077838
0.2786692 0.2786692 0.2786692
0.3630745 0.3630745 0.3630745
0.4571774 0.4571774 0.4571774
0.5332388 0.5332388 0.5332388
0.6184874 0.6184874 0.6184874
0.1286824 0.1286824 0.1286824
0.1878833 0.1878833 0.1878833
0.2616232 0.2616232 0.2616232
0.3433312 0.3433312 0.3433312
0.4250239 0.4250239 0.4250239
0.5114335 0.5114335 0.5114335
0.5870757 0.5870757 0.5870757
0.6589295 0.6589295 0.6589295
0.1694809 0.1694809 0.1694809
0.2373500 0.2373500 0.2373500
0.3147201 0.3147201 0.3147201
0.4039185 0.4039185 0.4039185
0.4896914 0.4896914 0.4896914
0.5657160 0.5657160 0.5657160
0.6389452 0.6389452 0.6389452
0.7063809 0.7063809 0.7063809
0.2147536 0.2147536 0.2147536
0.2963799 0.2963799 0.2963799
0.3832908 0.3832908 0.3832908
0.4679888 0.4679888 0.4679888
0.5441097 0.5441097 0.5441097
0.6184874 0.6184874 0.6184874
0.6878601 0.6878601 0.6878601
0.7415762 0.7415762 0.7415762
0.2700616 0.2700616 0.2700616
0.3531403 0.3531403 0.3531403
0.4356852 0.4356852 0.4356852
0.5223359 0.5223359 0.5223359
0.5976389 0.5976389 0.5976389
0.6687188 0.6687188 0.6687188
0.7329993 0.7329993 0.7329993
0.7816994 0.7816994 0.7816994
0.4039185 0.4039185 0.4039185
0.4896914 0.4896914 0.4896914
0.5764318 0.5764318 0.5764318
0.6490028 0.6490028 0.6490028
0.7063809 0.7063809 0.7063809
0.7581835 0.7581835 0.7581835
0.8035213 0.8035213 0.8035213
0.8422735 0.8422735 0.8422735
0.4679888 0.4679888 0.4679888
0.5549389 0.5549389 0.5549389
0.6287646 0.6287646 0.6287646
0.6878601 0.6878601 0.6878601
0.7499716 0.7499716 0.7499716
0.7964361 0.7964361 0.7964361
0.8300936 0.8300936 0.8300936
0.8644962 0.8644962 0.8644962
0.5332388 0.5332388 0.5332388
0.6081123 0.6081123 0.6081123
0.6783642 0.6783642 0.6783642
0.7329993 0.7329993 0.7329993
0.7816994 0.7816994 0.7816994
0.8237283 0.8237283 0.8237283
0.8537341 0.8537341 0.8537341
0.8793387 0.8793387 0.8793387
0.5870757 0.5870757 0.5870757
0.6589295 0.6589295 0.6589295
0.7153963 0.7153963 0.7153963
0.7662095 0.7662095 0.7662095
0.8104387 0.8104387 0.8104387
0.8480926 0.8480926 0.8480926
0.8745580 0.8745580 0.8745580
0.8969161 0.8969161 0.8969161
0.6389452 0.6389452 0.6389452
0.6972006 0.6972006 0.6972006
0.7499716 0.7499716 0.7499716
0.7964361 0.7964361 0.7964361
0.8362744 0.8362744 0.8362744
0.8644962 0.8644962 0.8644962
0.8884298 0.8884298 0.8884298
0.9085740 0.9085740 0.9085740
0.6783642 0.6783642 0.6783642
0.7415762 0.7415762 0.7415762
0.7891622 0.7891622 0.7891622
0.8237283 0.8237283 0.8237283
0.8592011 0.8592011 0.8592011
0.8839616 0.8839616 0.8839616
0.9048260 0.9048260 0.9048260
0.9189541 0.9189541 0.9189541
0.7242435 0.7242435 0.7242435
0.7740484 0.7740484 0.7740484
0.8171769 0.8171769 0.8171769
0.8480926 0.8480926 0.8480926
0.8745580 0.8745580 0.8745580
0.8969161 0.8969161 0.8969161
0.9156328 0.9156328 0.9156328
0.9310769 0.9310769 0.9310769
0.7581835 0.7581835 0.7581835
0.8035213 0.8035213 0.8035213
0.8422735 0.8422735 0.8422735
0.8696158 0.8696158 0.8696158
0.8927467 0.8927467 0.8927467
0.9121886 0.9121886 0.9121886
0.9252411 0.9252411 0.9252411
0.9390435 0.9390435 0.9390435
0.8300936 0.8300936 0.8300936
0.8592011 0.8592011 0.8592011
0.8839616 0.8839616 0.8839616
0.9048260 0.9048260 0.9048260
0.9221556 0.9221556 0.9221556
0.9338342 0.9338342 0.9338342
0.9460903 0.9460903 0.9460903
0.9542489 0.9542489 0.9542489
0.8480926 0.8480926 0.8480926
0.8793387 0.8793387 0.8793387
0.9009414 0.9009414 0.9009414
0.9156328 0.9156328 0.9156328
0.9310769 0.9310769 0.9310769
0.9415020 0.9415020 0.9415020
0.9503280 0.9503280 0.9503280
0.9595819 0.9595819 0.9595819
0.8696158 0.8696158 0.8696158
0.8927467 0.8927467 0.8927467
0.9121886 0.9121886 0.9121886
0.9282138 0.9282138 0.9282138
0.9390435 0.9390435 0.9390435
0.9482502 0.9482502 0.9482502
0.9560969 0.9560969 0.9560969
0.9628054 0.9628054 0.9628054
0.8884298 0.8884298 0.8884298
0.9085740 0.9085740 0.9085740
0.9221556 0.9221556 0.9221556
0.9364887 0.9364887 0.9364887
0.9460903 0.9460903 0.9460903
0.9542489 0.9542489 0.9542489
0.9612233 0.9612233 0.9612233
0.9672126 0.9672126 0.9672126
0.9009414 0.9009414 0.9009414
0.9189541 0.9189541 0.9189541
0.9310769 0.9310769 0.9310769
0.9438457 0.9438457 0.9438457
0.9523267 0.9523267 0.9523267
0.9595819 0.9595819 0.9595819
0.9658026 0.9658026 0.9658026
0.9711132 0.9711132 0.9711132
0.9156328 0.9156328 0.9156328
0.9282138 0.9282138 0.9282138
0.9415020 0.9415020 0.9415020
0.9503280 0.9503280 0.9503280
0.9578739 0.9578739 0.9578739
0.9643342 0.9643342 0.9643342
0.9698657 0.9698657 0.9698657
0.9734594 0.9734594 0.9734594
0.9252411 0.9252411 0.9252411
0.9364887 0.9364887 0.9364887
0.9482502 0.9482502 0.9482502
0.9560969 0.9560969 0.9560969
0.9628054 0.9628054 0.9628054
0.9685662 0.9685662 0.9685662
0.9723104 0.9723104 0.9723104
0.9766086 0.9766086 0.9766086
0.9338342 0.9338342 0.9338342
0.9438457 0.9438457 0.9438457
0.9542489 0.9542489 0.9542489
0.9612233 0.9612233 0.9612233
0.9658026 0.9658026 0.9658026
0.9711132 0.9711132 0.9711132
0.9756199 0.9756199 0.9756199
0.9784701 0.9784701 0.9784701
0.9503280 0.9503280 0.9503280
0.9578739 0.9578739 0.9578739
0.9643342 0.9643342 0.9643342
0.9698657 0.9698657 0.9698657
0.9734594 0.9734594 0.9734594
0.9775582 0.9775582 0.9775582
0.9801865 0.9801865 0.9801865
0.9832266 0.9832266 0.9832266
0.9560969 0.9560969 0.9560969
0.9628054 0.9628054 0.9628054
0.9685662 0.9685662 0.9685662
0.9723104 0.9723104 0.9723104
0.9766086 0.9766086 0.9766086
0.9793458 0.9793458 0.9793458
0.9825125 0.9825125 0.9825125
0.9845379 0.9845379 0.9845379
0.9612233 0.9612233 0.9612233
0.9672126 0.9672126 0.9672126
0.9711132 0.9711132 0.9711132
0.9756199 0.9756199 0.9756199
0.9784701 0.9784701 0.9784701
0.9817687 0.9817687 0.9817687
0.9839120 0.9839120 0.9839120
0.9856890 0.9856890 0.9856890
0.9643342 0.9643342 0.9643342
0.9698657 0.9698657 0.9698657
0.9745619 0.9745619 0.9745619
0.9775582 0.9775582 0.9775582
0.9809937 0.9809937 0.9809937
0.9832266 0.9832266 0.9832266
0.9851244 0.9851244 0.9851244
0.9867557 0.9867557 0.9867557
0.9685662 0.9685662 0.9685662
0.9734594 0.9734594 0.9734594
0.9766086 0.9766086 0.9766086
0.9801865 0.9801865 0.9801865
0.9825125 0.9825125 0.9825125
0.9845379 0.9845379 0.9845379
0.9867557 0.9867557 0.9867557
0.9882102 0.9882102 0.9882102
0.9723104 0.9723104 0.9723104
0.9756199 0.9756199 0.9756199
0.9793458 0.9793458 0.9793458
0.9817687 0.9817687 0.9817687
0.9839120 0.9839120 0.9839120
0.9862325 0.9862325 0.9862325
0.9877438 0.9877438 0.9877438
0.9890910 0.9890910 0.9890910
0.9745619 0.9745619 0.9745619
0.9784701 0.9784701 0.9784701
0.9809937 0.9809937 0.9809937
0.9839120 0.9839120 0.9839120
0.9856890 0.9856890 0.9856890
0.9872591 0.9872591 0.9872591
0.9886590 0.9886590 0.9886590
0.9898566 0.9898566 0.9898566
0.9775582 0.9775582 0.9775582
0.9801865 0.9801865 0.9801865
0.9832266 0.9832266 0.9832266
0.9851244 0.9851244 0.9851244
0.9867557 0.9867557 0.9867557
0.9882102 0.9882102 0.9882102
0.9894937 0.9894937 0.9894937
0.9905457 0.9905457 0.9905457
0.9817687 0.9817687 0.9817687
0.9845379 0.9845379 0.9845379
0.9862325 0.9862325 0.9862325
0.9877438 0.9877438 0.9877438
0.9890910 0.9890910 0.9890910
0.9902071 0.9902071 0.9902071
0.9911884 0.9911884 0.9911884
0.9917877 0.9917877 0.9917877
0.9839120 0.9839120 0.9839120
0.9856890 0.9856890 0.9856890
0.9872591 0.9872591 0.9872591
0.9886590 0.9886590 0.9886590
0.9898566 0.9898566 0.9898566
0.9908726 0.9908726 0.9908726
0.9917877 0.9917877 0.9917877
0.9923466 0.9923466 0.9923466
0.9851244 0.9851244 0.9851244
0.9867557 0.9867557 0.9867557
0.9882102 0.9882102 0.9882102
0.9894937 0.9894937 0.9894937
0.9905457 0.9905457 0.9905457
0.9914933 0.9914933 0.9914933
0.9923466 0.9923466 0.9923466
0.9928493 0.9928493 0.9928493
0.9862325 0.9862325 0.9862325
0.9877438 0.9877438 0.9877438
0.9890910 0.9890910 0.9890910
0.9902071 0.9902071 0.9902071
0.9911884 0.9911884 0.9911884
0.9920721 0.9920721 0.9920721
0.9926118 0.9926118 0.9926118
0.9933019 0.9933019 0.9933019
0.9872591 0.9872591 0.9872591
0.9886590 0.9886590 0.9886590
0.9898566 0.9898566 0.9898566
0.9908726 0.9908726 0.9908726
0.9917877 0.9917877 0.9917877
0.9926118 0.9926118 0.9926118
0.9930793 0.9930793 0.9930793
0.9937260 0.9937260 0.9937260
0.9886590 0.9886590 0.9886590
0.9894937 0.9894937 0.9894937
0.9905457 0.9905457 0.9905457
0.9914933 0.9914933 0.9914933
0.9923466 0.9923466 0.9923466
0.9930793 0.9930793 0.9930793
0.9935174 0.9935174 0.9935174
0.9941235 0.9941235 0.9941235
0.9894937 0.9894937 0.9894937
0.9905457 0.9905457 0.9905457
0.9911884 0.9911884 0.9911884
0.9920721 0.9920721 0.9920721
0.9928493 0.9928493 0.9928493
0.9933019 0.9933019 0.9933019
0.9939280 0.9939280 0.9939280
0.9943126 0.9943126 0.9943126
0.9902071 0.9902071 0.9902071
0.9911884 0.9911884 0.9911884
0.9917877 0.9917877 0.9917877
0.9926118 0.9926118 0.9926118
0.9933019 0.9933019 0.9933019
0.9937260 0.9937260 0.9937260
0.9943126 0.9943126 0.9943126
0.9946731 0.9946731 0.9946731
0.9914933 0.9914933 0.9914933
0.9923466 0.9923466 0.9923466
0.9930793 0.9930793 0.9930793
0.9935174 0.9935174 0.9935174
0.9941235 0.9941235 0.9941235
0.9944958 0.9944958 0.9944958
0.9949904 0.9949904 0.9949904
0.9952850 0.9952850 0.9952850
0.9920721 0.9920721 0.9920721
0.9928493 0.9928493 0.9928493
0.9935174 0.9935174 0.9935174
0.9939280 0.9939280 0.9939280
0.9944958 0.9944958 0.9944958
0.9948363 0.9948363 0.9948363
0.9951399 0.9951399 0.9951399
0.9955624 0.9955624 0.9955624
0.9926118 0.9926118 0.9926118
0.9933019 0.9933019 0.9933019
0.9937260 0.9937260 0.9937260
0.9943126 0.9943126 0.9943126
0.9946731 0.9946731 0.9946731
0.9951399 0.9951399 0.9951399
0.9954258 0.9954258 0.9954258
0.9956949 0.9956949 0.9956949
0.9930793 0.9930793 0.9930793
0.9937260 0.9937260 0.9937260
0.9941235 0.9941235 0.9941235
0.9946731 0.9946731 0.9946731
0.9949904 0.9949904 0.9949904
0.9952850 0.9952850 0.9952850
0.9956949 0.9956949 0.9956949
0.9959483 0.9959483 0.9959483
0.9935174 0.9935174 0.9935174
0.9939280 0.9939280 0.9939280
0.9944958 0.9944958 0.9944958
0.9948363 0.9948363 0.9948363
0.9952850 0.9952850 0.9952850
0.9955624 0.9955624 0.9955624
0.9958235 0.9958235 0.9958235
0.9961824 0.9961824 0.9961824
0.9939280 0.9939280 0.9939280
0.9943126 0.9943126 0.9943126
0.9948363 0.9948363 0.9948363
0.9951399 0.9951399 0.9951399
0.9954258 0.9954258 0.9954258
0.9958235 0.9958235 0.9958235
0.9960693 0.9960693 0.9960693
0.9962837 0.9962837 0.9962837
0.9941235 0.9941235 0.9941235
0.9946731 0.9946731 0.9946731
0.9949904 0.9949904 0.9949904
0.9954258 0.9954258 0.9954258
0.9956949 0.9956949 0.9956949
0.9959483 0.9959483 0.9959483
0.9961824 0.9961824 0.9961824
0.9964783 0.9964783 0.9964783
0.9944958 0.9944958 0.9944958
0.9949904 0.9949904 0.9949904
0.9952850 0.9952850 0.9952850
0.9955624 0.9955624 0.9955624
0.9959483 0.9959483 0.9959483
0.9961824 0.9961824 0.9961824
0.9963822 0.9963822 0.9963822
0.9965717 0.9965717 0.9965717
0.9951399 0.9951399 0.9951399
0.9954258 0.9954258 0.9954258
0.9958235 0.9958235 0.9958235
0.9960693 0.9960693 0.9960693
0.9962837 0.9962837 0.9962837
0.9964783 0.9964783 0.9964783
0.9966627 0.9966627 0.9966627
0.9969215 0.9969215 0.9969215
0.9954258 0.9954258 0.9954258
0.9956949 0.9956949 0.9956949
0.9959483 0.9959483 0.9959483
0.9962837 0.9962837 0.9962837
0.9964783 0.9964783 0.9964783
0.9966627 0.9966627 0.9966627
0.9968376 0.9968376 0.9968376
0.9970033 0.9970033 0.9970033
0.9955624 0.9955624 0.9955624
0.9959483 0.9959483 0.9959483
0.9961824 0.9961824 0.9961824
0.9963822 0.9963822 0.9963822
0.9965717 0.9965717 0.9965717
0.9967513 0.9967513 0.9967513
0.9969215 0.9969215 0.9969215
0.9970828 0.9970828 0.9970828
0.9958235 0.9958235 0.9958235
0.9960693 0.9960693 0.9960693
0.9962837 0.9962837 0.9962837
0.9965717 0.9965717 0.9965717
0.9967513 0.9967513 0.9967513
0.9969215 0.9969215 0.9969215
0.9970828 0.9970828 0.9970828
0.9972240 0.9972240 0.9972240
0.9960693 0.9960693 0.9960693
0.9962837 0.9962837 0.9962837
0.9964783 0.9964783 0.9964783
0.9966627 0.9966627 0.9966627
0.9968376 0.9968376 0.9968376
0.9970033 0.9970033 0.9970033
0.9971543 0.9971543 0.9971543
0.9972920 0.9972920 0.9972920
0.9961824 0.9961824 0.9961824
0.9963822 0.9963822 0.9963822
0.9965717 0.9965717 0.9965717
0.9968376 0.9968376 0.9968376
0.9970033 0.9970033 0.9970033
0.9971543 0.9971543 0.9971543
0.9972920 0.9972920 0.9972920
0.9974231 0.9974231 0.9974231
0.9963822 0.9963822 0.9963822
0.9965717 0.9965717 0.9965717
0.9967513 0.9967513 0.9967513
0.9969215 0.9969215 0.9969215
0.9970828 0.9970828 0.9970828
0.9972240 0.9972240 0.9972240
0.9973584 0.9973584 0.9973584
0.9974862 0.9974862 0.9974862
0.9964783 0.9964783 0.9964783
0.9966627 0.9966627 0.9966627
0.9968376 0.9968376 0.9968376
0.9970033 0.9970033 0.9970033
0.9971543 0.9971543 0.9971543
0.9972920 0.9972920 0.9972920
0.9974231 0.9974231 0.9974231
0.9975479 0.9975479 0.9975479
