Plugins/FilmEmulator/Content/LUTs/FE_Kodak_5384_64.cube
TITLE "FE_Kodak_5384_33"
LUT_3D_SIZE 4
0.0156960 0.0221025 0.0343437
0.7791604 0.2318319 0.1023479
1.0000000 0.4292849 0.2679099
1.0000000 0.5610238 0.4423259
0.1223955 0.7978722 0.3522192
0.7146733 0.8614376 0.4762422
0.9458493 0.9158298 0.6252151
0.9909463 0.9432845 0.7371974
0.3111825 0.9854753 0.6334062
0.7693552 0.9825669 0.7140396
0.9447144 0.9878212 0.8022515
0.9808469 0.9911079 0.8607319
0.4514576 1.0000000 0.7815734
0.8058665 1.0000000 0.8301858
0.9544495 0.9992878 0.8831725
0.9828292 0.9991649 0.9171005
0.8152128 0.7718714 0.9802656
0.9604971 0.8611727 0.9797769
0.9940966 0.9080085 0.9820821
1.0000000 0.9339941 0.9848216
0.8600479 0.9627651 0.9841577
0.9611737 0.9768026 0.9862311
0.9852504 0.9838912 0.9885247
0.9928342 0.9877716 0.9903131
0.8884290 0.9884135 0.9891634
0.9689584 0.9922376 0.9904754
0.9878204 0.9946309 0.9921271
0.9935810 0.9959198 0.9933695
0.9053219 0.9959052 0.9923407
0.9742409 0.9967706 0.9932230
0.9898911 0.9977512 0.9943073
0.9946701 0.9983091 0.9952127
0.9672457 0.9681294 0.9987609
0.9862508 0.9776478 0.9982017
0.9928364 0.9834872 0.9981796
0.9955931 0.9867222 0.9982496
0.9754779 0.9907029 0.9984038
0.9890596 0.9934991 0.9983193
0.9937860 0.9949803 0.9984471
0.9958607 0.9959717 0.9985754
0.9804860 0.9962258 0.9986887
0.9912636 0.9973155 0.9986810
0.9950502 0.9979385 0.9987736
0.9966490 0.9983423 0.9989091
0.9839870 0.9982023 0.9989591
0.9928915 0.9986930 0.9989640
0.9959279 0.9990007 0.9990463
0.9972175 0.9991712 0.9991296
0.9898742 0.9916578 0.9996703
0.9938838 0.9934229 0.9995416
0.9957473 0.9945922 0.9994902
0.9969214 0.9954918 0.9994689
0.9921668 0.9968746 0.9995636
0.9952372 0.9975271 0.9995154
0.9966244 0.9979622 0.9995111
0.9974613 0.9982533 0.9995186
0.9937720 0.9985288 0.9995994
0.9961774 0.9988495 0.9995808
0.9973108 0.9990512 0.9995863
0.9979606 0.9991799 0.9995959
0.9947182 0.9991764 0.9996514
0.9968067 0.9993511 0.9996403
0.9977571 0.9994673 0.9996489
0.9982992 0.9995417 0.9996563
