Plugins/FilmEmulator/Content/LUTs/FE_Kodak_Vision_500T_5279_64.cube
# FilmEmulator LUT (resampled to 64)
LUT_3D_SIZE 64
0.002136 0.000000 0.000000
0.014785 0.001503 0.000728
0.027341 0.003015 0.001411
0.037014 0.004767 0.000683
0.046504 0.006559 0.000054
0.053262 0.008962 0.000922
0.060144 0.011324 0.001960
0.068220 0.013292 0.004642
0.076358 0.015215 0.007384
0.084930 0.016811 0.010546
0.093759 0.018386 0.013686
0.103974 0.019843 0.016709
0.114079 0.021379 0.019383
0.123705 0.023254 0.020546
0.133444 0.025123 0.021542
0.143581 0.026967 0.021945
0.153780 0.028766 0.022266
0.164166 0.030424 0.022344
0.174700 0.032100 0.022561
0.185613 0.033821 0.023135
0.196729 0.035517 0.023941
0.208292 0.037161 0.025258
0.219936 0.038735 0.026858
0.231732 0.040176 0.028997
0.244133 0.041280 0.031409
0.257542 0.041823 0.034277
0.270793 0.042453 0.036837
0.283814 0.043213 0.038945
0.297086 0.044094 0.040877
0.310680 0.045133 0.042582
0.324645 0.046230 0.044462
0.339030 0.047393 0.046539
0.353802 0.048640 0.048461
0.368962 0.049973 0.050228
0.383850 0.051109 0.051986
0.398498 0.052070 0.053738
0.413278 0.052943 0.055515
0.428159 0.053750 0.057314
0.443840 0.054675 0.059268
0.460070 0.055683 0.061330
0.476493 0.056865 0.063460
0.493033 0.058152 0.065630
0.509704 0.060069 0.067912
0.526445 0.062317 0.070253
0.543037 0.063158 0.072614
0.559562 0.063359 0.074986
0.575930 0.062669 0.077213
0.592236 0.061631 0.079383
0.608741 0.061673 0.081309
0.625312 0.062076 0.083154
0.642210 0.064514 0.084986
0.659199 0.067521 0.086815
0.676742 0.073135 0.088783
0.694413 0.079351 0.090783
0.711757 0.084024 0.093044
0.729041 0.088411 0.095353
0.745375 0.092051 0.097812
0.761573 0.095586 0.100292
0.775398 0.097280 0.102997
0.788976 0.098783 0.105725
0.801611 0.100287 0.108381
0.814182 0.101790 0.111032
0.826603 0.102753 0.114058
0.839020 0.103699 0.117096
0.002462 0.011657 0.001581
0.013158 0.013081 0.002955
0.023860 0.014502 0.004283
0.034745 0.015789 0.004169
0.045429 0.017117 0.004149
0.053093 0.019047 0.005544
0.060823 0.020958 0.007025
0.069199 0.022691 0.009337
0.077624 0.024394 0.011689
0.086401 0.025888 0.014324
0.095376 0.027370 0.016922
0.105426 0.028788 0.019322
0.115422 0.030243 0.021463
0.125182 0.031858 0.022476
0.135035 0.033466 0.023385
0.145220 0.035043 0.023922
0.155466 0.036591 0.024419
0.165899 0.038052 0.024795
0.176500 0.039534 0.025281
0.187531 0.041066 0.026043
0.198768 0.042598 0.027025
0.210457 0.044131 0.028493
0.222249 0.045605 0.030188
0.234234 0.046968 0.032319
0.246715 0.048103 0.034591
0.260021 0.048858 0.037097
0.273288 0.049656 0.039393
0.286498 0.050518 0.041383
0.299858 0.051540 0.043162
0.313413 0.052768 0.044671
0.327413 0.054120 0.046331
0.341916 0.055613 0.048164
0.356715 0.057050 0.049940
0.371812 0.058430 0.051660
0.386755 0.059596 0.053401
0.401561 0.060573 0.055161
0.416524 0.061467 0.056968
0.431610 0.062297 0.058814
0.447384 0.063209 0.060783
0.463629 0.064177 0.062836
0.480049 0.065300 0.064948
0.496572 0.066515 0.067095
0.513182 0.068104 0.069333
0.529836 0.069887 0.071618
0.546412 0.070723 0.073941
0.562952 0.071130 0.076281
0.579415 0.071148 0.078545
0.595848 0.071015 0.080778
0.612461 0.071768 0.082909
0.629134 0.072817 0.085005
0.646251 0.075586 0.086973
0.663492 0.078837 0.088904
0.681223 0.084222 0.090904
0.699067 0.090099 0.092919
0.716046 0.094314 0.095176
0.732865 0.098221 0.097478
0.749135 0.101540 0.100060
0.765325 0.104775 0.102682
0.779484 0.106712 0.105386
0.793433 0.108515 0.108098
0.806172 0.110797 0.110701
0.818830 0.113111 0.113297
0.831215 0.114565 0.116290
0.843592 0.115991 0.119297
0.002792 0.023223 0.003209
0.011562 0.024570 0.005201
0.020433 0.025900 0.007144
0.032435 0.026732 0.007602
0.044224 0.027604 0.008151
0.052833 0.029066 0.010068
0.061449 0.030532 0.011990
0.070146 0.032033 0.013961
0.078877 0.033519 0.015950
0.087849 0.034912 0.018062
0.096965 0.036301 0.020125
0.106856 0.037679 0.021916
0.116747 0.039054 0.023534
0.126639 0.040417 0.024405
0.136605 0.041770 0.025232
0.146837 0.043087 0.025902
0.157132 0.044393 0.026572
0.167617 0.045665 0.027242
0.178289 0.046958 0.027992
0.189435 0.048305 0.028944
0.200791 0.049676 0.030102
0.212606 0.051102 0.031714
0.224544 0.052480 0.033499
0.236719 0.053767 0.035618
0.249283 0.054935 0.037747
0.262494 0.055905 0.039894
0.275777 0.056872 0.041929
0.289165 0.057836 0.043798
0.302611 0.058996 0.045425
0.316130 0.060407 0.046740
0.330164 0.062005 0.048185
0.344780 0.063817 0.049778
0.359607 0.065438 0.051411
0.374643 0.066866 0.053084
0.389640 0.068063 0.054808
0.404603 0.069055 0.056577
0.419750 0.069971 0.058414
0.435039 0.070829 0.060306
0.450905 0.071730 0.062290
0.467166 0.072662 0.064337
0.483583 0.073729 0.066433
0.500094 0.074877 0.068558
0.516642 0.076148 0.070752
0.533211 0.077482 0.072983
0.549772 0.078328 0.075266
0.566329 0.078952 0.077573
0.582888 0.079664 0.079874
0.599448 0.080411 0.082172
0.616169 0.081853 0.084504
0.632944 0.083527 0.086848
0.650278 0.086626 0.088950
0.667767 0.090124 0.090985
0.685674 0.095275 0.093018
0.703678 0.100809 0.095051
0.720306 0.104584 0.097309
0.736678 0.108032 0.099608
0.752889 0.111040 0.102309
0.769076 0.113984 0.105068
0.783563 0.116156 0.107770
0.797875 0.118249 0.110466
0.810715 0.121294 0.113019
0.823458 0.124401 0.115562
0.835807 0.126352 0.118520
0.848145 0.128264 0.121491
0.003273 0.031997 0.006294
0.010940 0.033272 0.008009
0.018686 0.034529 0.009663
0.028821 0.035204 0.009396
0.038995 0.035908 0.009289
0.049753 0.037056 0.011561
0.060413 0.038226 0.013858
0.070134 0.039608 0.016404
0.079748 0.040980 0.018850
0.088618 0.042286 0.020600
0.097654 0.043594 0.022323
0.107593 0.044917 0.023893
0.117535 0.046238 0.025347
0.127498 0.047553 0.026297
0.137528 0.048866 0.027208
0.147800 0.050167 0.027980
0.158175 0.051471 0.028758
0.168865 0.052783 0.029554
0.179697 0.054089 0.030456
0.190891 0.055380 0.031629
0.202313 0.056704 0.032932
0.214239 0.058098 0.034519
0.226320 0.059466 0.036233
0.238700 0.060785 0.038186
0.251444 0.062073 0.040121
0.264797 0.063310 0.042023
0.278100 0.064478 0.043833
0.291331 0.065545 0.045505
0.304726 0.066765 0.046984
0.318332 0.068184 0.048212
0.332400 0.069757 0.049552
0.346994 0.071506 0.051018
0.361808 0.073142 0.052577
0.376844 0.074666 0.054227
0.391917 0.075902 0.055965
0.407021 0.076886 0.057780
0.422327 0.077888 0.059652
0.437790 0.078903 0.061568
0.453736 0.079892 0.063585
0.470012 0.080862 0.065672
0.486480 0.081979 0.067807
0.503061 0.083182 0.069971
0.519577 0.084498 0.072137
0.536059 0.085872 0.074304
0.552658 0.087152 0.076514
0.569310 0.088390 0.078742
0.585997 0.089343 0.081105
0.602699 0.090184 0.083522
0.619532 0.091638 0.085960
0.636410 0.093296 0.088407
0.653870 0.096650 0.090630
0.671493 0.100478 0.092790
0.689215 0.105283 0.094924
0.706959 0.110312 0.097052
0.723639 0.114214 0.099457
0.740121 0.117907 0.101914
0.756463 0.120903 0.104621
0.772784 0.123800 0.107364
0.787405 0.125975 0.110028
0.801850 0.128076 0.112685
0.814721 0.131358 0.115265
0.827487 0.134717 0.117839
0.839784 0.137346 0.120661
0.852066 0.139952 0.123491
0.003745 0.040683 0.009354
0.010345 0.041890 0.010753
0.016999 0.043075 0.012079
0.025329 0.043600 0.011134
0.033929 0.044146 0.010407
0.046584 0.044999 0.012955
0.059068 0.045890 0.015556
0.069895 0.047160 0.018688
0.080473 0.048425 0.021609
0.089308 0.049649 0.023056
0.098322 0.050880 0.024491
0.108303 0.052148 0.025856
0.118295 0.053417 0.027159
0.128332 0.054693 0.028194
0.138427 0.055971 0.029193
0.148729 0.057258 0.030061
0.159180 0.058561 0.030943
0.170078 0.059911 0.031866
0.181073 0.061229 0.032915
0.192317 0.062466 0.034287
0.203810 0.063741 0.035722
0.215853 0.065097 0.037296
0.228077 0.066452 0.038942
0.240649 0.067801 0.040725
0.253564 0.069205 0.042465
0.267051 0.070700 0.044131
0.280377 0.072064 0.045721
0.293467 0.073236 0.047202
0.306819 0.074519 0.048535
0.320507 0.075945 0.049679
0.334612 0.077495 0.050916
0.349189 0.079186 0.052259
0.363998 0.080838 0.053744
0.379038 0.082450 0.055370
0.394186 0.083731 0.057120
0.409430 0.084720 0.058979
0.424888 0.085807 0.060884
0.440511 0.086970 0.062823
0.456532 0.088046 0.064875
0.472825 0.089062 0.067004
0.489347 0.090233 0.069181
0.506008 0.091496 0.071387
0.522496 0.092854 0.073527
0.538895 0.094263 0.075634
0.555526 0.095947 0.077771
0.572262 0.097756 0.079921
0.589073 0.098965 0.082340
0.605913 0.099939 0.084864
0.622855 0.101416 0.087399
0.639833 0.103062 0.089938
0.657419 0.106652 0.092287
0.675175 0.110787 0.094582
0.692721 0.115263 0.096821
0.710218 0.119818 0.099046
0.726943 0.123838 0.101594
0.743524 0.127760 0.104202
0.759991 0.130743 0.106916
0.776442 0.133593 0.109645
0.791196 0.135782 0.112276
0.805774 0.137903 0.114898
0.818675 0.141419 0.117505
0.831464 0.145029 0.120111
0.843708 0.148310 0.122804
0.855934 0.151581 0.125499
0.004102 0.048062 0.012035
0.010142 0.049221 0.012513
0.016227 0.050359 0.012947
0.023659 0.050861 0.012010
0.031300 0.051385 0.011234
0.042074 0.052237 0.012867
0.053072 0.053128 0.014712
0.066245 0.054382 0.018591
0.078999 0.055632 0.022240
0.088818 0.056848 0.024278
0.098660 0.058065 0.026215
0.108626 0.059285 0.027604
0.118629 0.060530 0.028961
0.128792 0.061876 0.030176
0.138963 0.063212 0.031316
0.149162 0.064507 0.032184
0.159603 0.065821 0.033102
0.170769 0.067195 0.034166
0.181979 0.068517 0.035282
0.193301 0.069707 0.036528
0.204920 0.070912 0.037921
0.217191 0.072151 0.039637
0.229566 0.073433 0.041292
0.242137 0.074798 0.042831
0.255061 0.076253 0.044371
0.268572 0.077858 0.045910
0.281960 0.079348 0.047378
0.295168 0.080670 0.048741
0.308589 0.082037 0.049984
0.322285 0.083463 0.051072
0.336442 0.085025 0.052240
0.351122 0.086739 0.053496
0.366013 0.088403 0.054926
0.381116 0.090015 0.056528
0.396348 0.091400 0.058259
0.411695 0.092586 0.060102
0.427188 0.093764 0.062013
0.442796 0.094935 0.063975
0.458820 0.096098 0.066088
0.475128 0.097256 0.068304
0.491780 0.098553 0.070563
0.508637 0.099934 0.072848
0.525178 0.101313 0.075000
0.541553 0.102690 0.077083
0.558122 0.104315 0.079169
0.574780 0.106054 0.081257
0.591636 0.107746 0.083618
0.608570 0.109421 0.086086
0.625578 0.111097 0.088572
0.642611 0.112774 0.091065
0.660313 0.116328 0.093612
0.678204 0.120408 0.096175
0.695724 0.124842 0.098579
0.713157 0.129357 0.100946
0.729812 0.133365 0.103563
0.746323 0.137278 0.106225
0.762836 0.140226 0.108960
0.779350 0.143037 0.111705
0.794224 0.145400 0.114367
0.808929 0.147718 0.117020
0.821845 0.151446 0.119658
0.834641 0.155268 0.122296
0.846824 0.158808 0.124959
0.858988 0.162339 0.127622
0.004485 0.055419 0.014373
0.009982 0.056534 0.013988
0.015510 0.057630 0.013586
0.022014 0.058116 0.012661
0.028672 0.058625 0.011845
0.037649 0.059470 0.012668
0.047206 0.060352 0.013837
0.062371 0.061595 0.018343
0.077007 0.062833 0.022620
0.087937 0.064045 0.025293
0.098733 0.065252 0.027777
0.108806 0.066431 0.029240
0.118920 0.067655 0.030693
0.129216 0.069069 0.032107
0.139470 0.070460 0.033404
0.149574 0.071772 0.034285
0.160010 0.073103 0.035246
0.171440 0.074495 0.036448
0.182867 0.075819 0.037629
0.194286 0.076970 0.038759
0.206035 0.078116 0.040108
0.218510 0.079250 0.041939
0.231022 0.080468 0.043592
0.243608 0.081845 0.044905
0.256547 0.083345 0.046259
0.270076 0.085049 0.047682
0.283523 0.086662 0.049037
0.296850 0.088141 0.050294
0.310349 0.089600 0.051455
0.324068 0.091034 0.052494
0.338286 0.092608 0.053594
0.353071 0.094340 0.054764
0.368041 0.096008 0.056135
0.383197 0.097611 0.057709
0.398499 0.099088 0.059414
0.413930 0.100453 0.061234
0.429458 0.101719 0.063151
0.445063 0.102908 0.065142
0.461093 0.104162 0.067312
0.477413 0.105460 0.069603
0.494177 0.106885 0.071933
0.511208 0.108386 0.074286
0.527810 0.109808 0.076455
0.544188 0.111187 0.078526
0.560714 0.112786 0.080570
0.577306 0.114483 0.082602
0.594209 0.116632 0.084909
0.611232 0.118957 0.087324
0.628308 0.120835 0.089770
0.645401 0.122563 0.092225
0.663210 0.126087 0.094962
0.681221 0.130115 0.097778
0.698713 0.134485 0.100331
0.716085 0.138935 0.102823
0.732682 0.142927 0.105510
0.749137 0.146833 0.108233
0.765693 0.149758 0.110995
0.782263 0.152542 0.113762
0.797240 0.155088 0.116456
0.812053 0.157610 0.119143
0.824983 0.161538 0.121807
0.837787 0.165560 0.124470
0.849910 0.169344 0.127103
0.862011 0.173119 0.129734
0.005120 0.062565 0.013397
0.010223 0.063672 0.012705
0.015332 0.064762 0.012007
0.020608 0.065311 0.011137
0.026053 0.065874 0.010384
0.034054 0.066641 0.011388
0.042592 0.067454 0.012670
0.056333 0.068720 0.016633
0.070013 0.069983 0.020567
0.083274 0.071227 0.024303
0.096238 0.072463 0.027771
0.107601 0.073658 0.029793
0.118802 0.074900 0.031768
0.129295 0.076345 0.033535
0.139697 0.077783 0.035139
0.149778 0.079197 0.036163
0.160253 0.080596 0.037252
0.171911 0.081948 0.038540
0.183580 0.083257 0.039779
0.195275 0.084456 0.040894
0.207201 0.085641 0.042185
0.219636 0.086799 0.043866
0.232174 0.088024 0.045405
0.244909 0.089378 0.046671
0.257927 0.090860 0.047984
0.271417 0.092556 0.049375
0.284895 0.094260 0.050715
0.298356 0.095976 0.051979
0.312003 0.097602 0.053145
0.325886 0.099114 0.054183
0.340255 0.100712 0.055243
0.355174 0.102405 0.056326
0.370188 0.104006 0.057615
0.385296 0.105514 0.059110
0.400530 0.106955 0.060728
0.415874 0.108337 0.062454
0.431431 0.109671 0.064373
0.447154 0.110970 0.066443
0.463218 0.112344 0.068626
0.479515 0.113768 0.070886
0.496235 0.115329 0.073184
0.513211 0.116972 0.075506
0.529965 0.118659 0.077731
0.546603 0.120369 0.079904
0.563258 0.122244 0.081991
0.579922 0.124194 0.084039
0.596872 0.126532 0.086328
0.613935 0.129023 0.088712
0.631103 0.131125 0.091196
0.648306 0.133097 0.093715
0.666128 0.136650 0.096552
0.684123 0.140645 0.099478
0.701573 0.144755 0.102019
0.718898 0.148890 0.104472
0.735554 0.152832 0.107253
0.752087 0.156739 0.110094
0.768653 0.159752 0.112939
0.785224 0.162639 0.115785
0.800137 0.165444 0.118537
0.814878 0.168241 0.121279
0.827811 0.172261 0.123917
0.840623 0.176362 0.126548
0.852693 0.180239 0.129142
0.864739 0.184110 0.131734
0.005661 0.069772 0.012700
0.010344 0.070861 0.011693
0.015012 0.071936 0.010694
0.019235 0.072567 0.009962
0.023633 0.073202 0.009349
0.030674 0.073908 0.010524
0.038210 0.074666 0.011912
0.050539 0.075942 0.015359
0.063218 0.077219 0.018943
0.078358 0.078500 0.023493
0.093114 0.079775 0.027721
0.105801 0.081015 0.030216
0.118147 0.082298 0.032633
0.129014 0.083763 0.034713
0.139727 0.085237 0.036608
0.149895 0.086741 0.037835
0.160480 0.088199 0.039098
0.172319 0.089520 0.040471
0.184190 0.090817 0.041774
0.196145 0.092054 0.042897
0.208251 0.093274 0.044158
0.220692 0.094455 0.045724
0.233280 0.095687 0.047176
0.246148 0.097015 0.048408
0.259246 0.098473 0.049693
0.272729 0.100150 0.051065
0.286263 0.101922 0.052395
0.299873 0.103833 0.053664
0.313675 0.105607 0.054830
0.327721 0.107206 0.055864
0.342237 0.108839 0.056885
0.357285 0.110511 0.057893
0.372344 0.112061 0.059108
0.387413 0.113489 0.060532
0.402586 0.114902 0.062073
0.417849 0.116303 0.063719
0.433437 0.117719 0.065643
0.449279 0.119145 0.067782
0.465377 0.120644 0.069979
0.481651 0.122191 0.072217
0.498327 0.123879 0.074489
0.515245 0.125650 0.076781
0.532136 0.127575 0.079055
0.549012 0.129581 0.081320
0.565798 0.131721 0.083444
0.582542 0.133920 0.085504
0.599552 0.136441 0.087784
0.616666 0.139087 0.090150
0.633928 0.141436 0.092678
0.651240 0.143685 0.095260
0.669066 0.147247 0.098182
0.687037 0.151177 0.101199
0.704443 0.155039 0.103734
0.721717 0.158885 0.106158
0.738437 0.162782 0.109016
0.755054 0.166688 0.111954
0.771642 0.169827 0.114883
0.788226 0.172856 0.117809
0.803057 0.175895 0.120608
0.817707 0.178935 0.123394
0.830633 0.183037 0.126010
0.843445 0.187209 0.128615
0.855458 0.191180 0.131178
0.867446 0.195144 0.133740
0.005537 0.077414 0.013956
0.009613 0.078409 0.012578
0.013700 0.079398 0.011243
0.018096 0.080242 0.011228
0.022604 0.081081 0.011293
0.028802 0.081849 0.012570
0.035451 0.082657 0.014020
0.046457 0.083846 0.017136
0.057819 0.085057 0.020315
0.071675 0.086416 0.023936
0.085590 0.087797 0.027359
0.099829 0.089289 0.029720
0.113738 0.090766 0.032034
0.126218 0.092177 0.034146
0.138381 0.093608 0.036205
0.149406 0.095112 0.038070
0.160596 0.096576 0.039829
0.172277 0.097920 0.041273
0.184077 0.099227 0.042677
0.196181 0.100441 0.043981
0.208491 0.101654 0.045407
0.221256 0.102867 0.047099
0.234061 0.104104 0.048654
0.246944 0.105384 0.049950
0.260135 0.106774 0.051298
0.273838 0.108349 0.052732
0.287605 0.110025 0.054094
0.301468 0.111849 0.055347
0.315476 0.113637 0.056487
0.329673 0.115377 0.057481
0.344312 0.117134 0.058482
0.359455 0.118908 0.059489
0.374568 0.120517 0.060693
0.389653 0.121960 0.062092
0.404812 0.123406 0.063636
0.420036 0.124855 0.065305
0.435674 0.126433 0.067239
0.451633 0.128111 0.069378
0.467770 0.129772 0.071604
0.484028 0.131422 0.073889
0.500655 0.133168 0.076169
0.517502 0.134970 0.078445
0.534425 0.136943 0.080719
0.551388 0.139004 0.082991
0.568303 0.141323 0.085113
0.585197 0.143759 0.087165
0.602345 0.146408 0.089500
0.619594 0.149141 0.091944
0.636960 0.151895 0.094545
0.654366 0.154656 0.097198
0.672151 0.158091 0.100098
0.690044 0.161713 0.103068
0.707377 0.165428 0.105633
0.724580 0.169164 0.108104
0.741396 0.173043 0.110923
0.758139 0.176950 0.113806
0.774832 0.180461 0.116817
0.791518 0.183915 0.119846
0.806145 0.187008 0.122619
0.820559 0.190064 0.125365
0.833411 0.194181 0.127986
0.846159 0.198369 0.130599
0.858094 0.202432 0.133193
0.870004 0.206491 0.135786
0.005369 0.085165 0.015025
0.008873 0.086065 0.013463
0.012408 0.086969 0.011969
0.016918 0.088005 0.012591
0.021486 0.089027 0.013261
0.026924 0.089860 0.014633
0.032763 0.090718 0.016137
0.042480 0.091823 0.018907
0.052571 0.092967 0.021681
0.065277 0.094386 0.024482
0.078420 0.095849 0.027196
0.093929 0.097553 0.029435
0.109153 0.099198 0.031636
0.123138 0.100590 0.033674
0.136671 0.102003 0.035777
0.148590 0.103497 0.038110
0.160459 0.104957 0.040264
0.172178 0.106316 0.041883
0.184021 0.107636 0.043459
0.196186 0.108852 0.044926
0.208621 0.110080 0.046502
0.221647 0.111331 0.048319
0.234655 0.112589 0.049996
0.247627 0.113858 0.051406
0.260955 0.115211 0.052845
0.274877 0.116705 0.054330
0.288882 0.118300 0.055721
0.303007 0.120044 0.056973
0.317240 0.121836 0.058107
0.331609 0.123690 0.059086
0.346386 0.125552 0.060082
0.361625 0.127425 0.061097
0.376798 0.129089 0.062297
0.391905 0.130543 0.063683
0.407065 0.132019 0.065239
0.422272 0.133513 0.066946
0.437960 0.135231 0.068893
0.454023 0.137122 0.071027
0.470196 0.138940 0.073280
0.486445 0.140708 0.075614
0.503026 0.142519 0.077909
0.519806 0.144355 0.080180
0.536753 0.146381 0.082452
0.553788 0.148505 0.084724
0.570827 0.150987 0.086844
0.587869 0.153632 0.088895
0.605148 0.156424 0.091280
0.622519 0.159272 0.093796
0.639998 0.162384 0.096469
0.657513 0.165583 0.099193
0.675278 0.168901 0.102054
0.693114 0.172253 0.104953
0.710379 0.175843 0.107539
0.727511 0.179488 0.110053
0.744398 0.183368 0.112841
0.761239 0.187291 0.115680
0.778043 0.191146 0.118766
0.794841 0.194990 0.121887
0.809285 0.198203 0.124671
0.823486 0.201351 0.127420
0.836242 0.205459 0.130038
0.848901 0.209631 0.132646
0.860744 0.213772 0.135267
0.872562 0.217912 0.137887
0.004966 0.093505 0.015087
0.008076 0.094310 0.014344
0.011224 0.095125 0.013650
0.015529 0.096239 0.014485
0.019885 0.097340 0.015357
0.025008 0.098244 0.016785
0.030459 0.099160 0.018298
0.039074 0.100194 0.020643
0.048146 0.101270 0.023017
0.060418 0.102641 0.025590
0.073158 0.104064 0.028101
0.088423 0.105759 0.030285
0.103620 0.107431 0.032321
0.118518 0.108995 0.033714
0.133003 0.110530 0.035214
0.146008 0.111961 0.037098
0.158964 0.113366 0.039100
0.171769 0.114694 0.041460
0.184276 0.116033 0.043585
0.196024 0.117399 0.045115
0.208151 0.118751 0.046772
0.221115 0.120073 0.048706
0.234247 0.121442 0.050596
0.247699 0.122901 0.052400
0.261407 0.124384 0.054079
0.275541 0.125909 0.055549
0.289804 0.127504 0.056962
0.304252 0.129200 0.058293
0.318797 0.130949 0.059522
0.333466 0.132763 0.060620
0.348453 0.134642 0.061701
0.363803 0.136593 0.062763
0.379058 0.138288 0.064006
0.394220 0.139727 0.065431
0.409460 0.141217 0.067065
0.424770 0.142750 0.068882
0.440516 0.144485 0.070860
0.456602 0.146376 0.072962
0.472799 0.148316 0.075235
0.489071 0.150288 0.077624
0.505631 0.152206 0.079974
0.522364 0.154089 0.082301
0.539290 0.156198 0.084560
0.556316 0.158425 0.086785
0.573451 0.160982 0.088911
0.590635 0.163690 0.090994
0.607999 0.166697 0.093410
0.625433 0.169821 0.095958
0.643069 0.173032 0.098698
0.660773 0.176270 0.101501
0.678629 0.179536 0.104226
0.696528 0.182808 0.106928
0.713747 0.186396 0.109490
0.730809 0.190057 0.112019
0.747638 0.194033 0.114823
0.764424 0.198066 0.117678
0.781365 0.202106 0.120793
0.798328 0.206148 0.123945
0.812710 0.209836 0.126947
0.826824 0.213487 0.129932
0.839360 0.217457 0.132498
0.851792 0.221449 0.135035
0.863468 0.225592 0.137661
0.875119 0.229739 0.140290
0.004587 0.101845 0.015404
0.007361 0.102576 0.015405
0.010176 0.103321 0.015437
0.014269 0.104484 0.016463
0.018410 0.105635 0.017516
0.023273 0.106612 0.018976
0.028384 0.107587 0.020479
0.035892 0.108553 0.022382
0.043945 0.109564 0.024339
0.055815 0.110893 0.026669
0.068181 0.112278 0.028970
0.083228 0.113964 0.031121
0.098392 0.115655 0.033033
0.114065 0.117365 0.033910
0.129362 0.119010 0.034907
0.143316 0.120425 0.036334
0.157224 0.121816 0.038116
0.170997 0.123138 0.040969
0.184182 0.124507 0.043496
0.195865 0.125998 0.045193
0.207895 0.127472 0.046988
0.220684 0.128911 0.049001
0.233817 0.130413 0.051049
0.247603 0.132037 0.053164
0.261616 0.133638 0.055052
0.276004 0.135200 0.056562
0.290557 0.136789 0.058049
0.305350 0.138416 0.059500
0.320238 0.140104 0.060870
0.335246 0.141869 0.062136
0.350489 0.143754 0.063355
0.366000 0.145775 0.064522
0.381393 0.147524 0.065840
0.396666 0.149002 0.067309
0.412008 0.150523 0.069009
0.427410 0.152081 0.070915
0.443197 0.153829 0.072918
0.459283 0.155726 0.074998
0.475481 0.157784 0.077286
0.491755 0.159951 0.079715
0.508305 0.162003 0.082113
0.525020 0.163986 0.084492
0.541948 0.166189 0.086739
0.558987 0.168507 0.088918
0.576214 0.171134 0.091057
0.593527 0.173900 0.093178
0.610946 0.177081 0.095614
0.628406 0.180423 0.098174
0.646161 0.183723 0.100943
0.664015 0.187008 0.103781
0.681971 0.190246 0.106384
0.699955 0.193471 0.108920
0.717126 0.197080 0.111451
0.734110 0.200777 0.113982
0.750904 0.204868 0.116807
0.767663 0.209030 0.119686
0.784739 0.213281 0.122855
0.801860 0.217544 0.126065
0.816187 0.221665 0.129270
0.830225 0.225772 0.132474
0.842574 0.229650 0.135024
0.854809 0.233512 0.137531
0.866326 0.237661 0.140179
0.877819 0.241819 0.142832
0.004307 0.110184 0.016830
0.006995 0.110931 0.017248
0.009718 0.111689 0.017688
0.013567 0.112774 0.018808
0.017478 0.113856 0.019945
0.022317 0.114911 0.021343
0.027301 0.115952 0.022740
0.033684 0.116863 0.024132
0.040719 0.117823 0.025603
0.052321 0.119129 0.027625
0.064444 0.120491 0.029678
0.079380 0.122162 0.031892
0.094487 0.123844 0.033864
0.110333 0.125577 0.034788
0.125842 0.127282 0.035713
0.140142 0.128886 0.036643
0.154424 0.130445 0.037910
0.168654 0.131869 0.040189
0.182579 0.133316 0.042476
0.195727 0.134823 0.044786
0.208558 0.136406 0.046974
0.220695 0.138160 0.048892
0.233296 0.139891 0.050862
0.246783 0.141578 0.052930
0.260770 0.143241 0.054895
0.275592 0.144866 0.056688
0.290581 0.146425 0.058464
0.305815 0.147887 0.060215
0.321174 0.149440 0.061922
0.336694 0.151111 0.063574
0.352391 0.152961 0.065164
0.368288 0.155013 0.066686
0.384050 0.156916 0.068212
0.399677 0.158669 0.069744
0.415214 0.160298 0.071470
0.430672 0.161817 0.073367
0.446426 0.163566 0.075376
0.462410 0.165495 0.077472
0.478510 0.167654 0.079752
0.494689 0.169971 0.082158
0.511272 0.172280 0.084571
0.528098 0.174586 0.086990
0.545131 0.176931 0.089225
0.562273 0.179297 0.091363
0.579580 0.181965 0.093539
0.596964 0.184771 0.095731
0.614306 0.187940 0.098137
0.631632 0.191250 0.100626
0.649342 0.194601 0.103259
0.667181 0.197965 0.105939
0.685274 0.201288 0.108483
0.703440 0.204600 0.110988
0.720556 0.208327 0.113462
0.737429 0.212151 0.115929
