Plugins/FilmEmulator/Content/LUTs/FE_Kodak_5384_64.cube
TITLE "FE_Kodak_5384_33"
LUT_3D_SIZE 64
0.0156960 0.0221025 0.0343437
0.0085415 0.0208126 0.0341273
0.0015942 0.0195667 0.0339189
0.0000000 0.0188053 0.0337921
0.0038583 0.0199720 0.0339867
0.0541360 0.0291500 0.0355443
0.1022359 0.0382639 0.0371400
0.1481475 0.0477423 0.0388482
0.1902888 0.0584003 0.0409443
0.2349865 0.0693897 0.0437776
0.2881734 0.0821579 0.0473065
0.3412621 0.0953062 0.0512060
0.3950506 0.1089548 0.0554113
0.4486472 0.1231700 0.0599046
0.4977003 0.1368048 0.0643680
0.5417372 0.1496428 0.0686983
0.5873420 0.1635492 0.0735333
0.6330502 0.1782580 0.0789088
0.6734779 0.1920297 0.0846125
0.7116081 0.2057289 0.0905037
0.7476689 0.2193593 0.0964324
0.7791604 0.2318319 0.1023479
0.8105550 0.2450098 0.1089244
0.8364574 0.2563375 0.1152343
0.8663986 0.2702767 0.1221474
0.8916850 0.2827141 0.1289771
0.9159856 0.2953675 0.1361384
0.9358324 0.3062944 0.1438801
0.9580259 0.3193268 0.1519907
0.9744967 0.3295804 0.1601041
0.9898224 0.3396133 0.1683452
1.0000000 0.3490256 0.1771456
1.0000000 0.3563419 0.1852805
1.0000000 0.3652586 0.1933697
1.0000000 0.3723669 0.2019887
1.0000000 0.3811548 0.2103208
1.0000000 0.3880029 0.2179899
1.0000000 0.3948703 0.2258079
1.0000000 0.4020188 0.2342307
1.0000000 0.4092047 0.2426140
1.0000000 0.4163694 0.2516092
1.0000000 0.4219372 0.2602597
1.0000000 0.4292849 0.2679099
1.0000000 0.4348453 0.2772090
1.0000000 0.4424366 0.2855567
1.0000000 0.4483048 0.2949479
1.0000000 0.4542951 0.3030860
1.0000000 0.4603376 0.3111820
1.0000000 0.4683262 0.3199685
1.0000000 0.4751101 0.3283366
1.0000000 0.4819725 0.3367990
1.0000000 0.4887301 0.3451549
1.0000000 0.4939879 0.3528607
1.0000000 0.5011168 0.3615824
1.0000000 0.5082362 0.3702298
1.0000000 0.5146569 0.3766388
1.0000000 0.5199487 0.3848619
1.0000000 0.5268759 0.3945413
1.0000000 0.5330288 0.4015660
1.0000000 0.5381899 0.4103334
1.0000000 0.5444560 0.4175781
1.0000000 0.5498533 0.4276020
1.0000000 0.5559182 0.4352204
1.0000000 0.5610238 0.4423259
0.0156263 0.0293371 0.0360160
0.0085511 0.0283477 0.0358654
0.0015981 0.0273166 0.0357044
0.0000000 0.0266759 0.0356044
0.0028918 0.0277042 0.0357797
0.0540072 0.0369370 0.0373590
0.1020423 0.0458800 0.0389206
0.1479144 0.0545711 0.0404528
0.1879226 0.0623486 0.0425256
0.2348204 0.0717968 0.0452454
0.2880625 0.0830371 0.0487013
0.3412362 0.0948173 0.0523852
0.3951219 0.1073571 0.0563779
0.4488427 0.1205052 0.0605907
0.4980369 0.1331584 0.0647475
0.5422083 0.1451513 0.0689994
0.5835283 0.1569631 0.0735246
0.6288669 0.1707269 0.0788299
0.6744089 0.1854980 0.0847975
0.7126961 0.1986401 0.0907560
0.7488830 0.2119653 0.0967822
0.7804933 0.2241256 0.1029521
0.8119911 0.2371659 0.1096463
0.8379844 0.2484716 0.1156565
0.8680028 0.2624131 0.1228077
0.8933468 0.2749106 0.1297956
0.9176820 0.2876838 0.1373205
0.9375443 0.2987632 0.1453827
0.9596937 0.3121073 0.1544176
0.9761822 0.3224827 0.1626990
0.9914382 0.3328406 0.1717547
1.0000000 0.3424091 0.1806273
1.0000000 0.3502685 0.1882812
1.0000000 0.3600005 0.1977757
1.0000000 0.3676547 0.2056396
1.0000000 0.3776242 0.2143486
1.0000000 0.3862068 0.2226977
1.0000000 0.3946837 0.2315153
1.0000000 0.4034311 0.2403857
1.0000000 0.4125930 0.2500071
1.0000000 0.4193931 0.2590357
1.0000000 0.4287142 0.2673151
1.0000000 0.4380421 0.2779375
1.0000000 0.4454685 0.2861060
1.0000000 0.4543110 0.2948105
1.0000000 0.4618429 0.3052228
1.0000000 0.4687740 0.3136028
1.0000000 0.4765735 0.3222135
1.0000000 0.4853885 0.3313767
1.0000000 0.4929507 0.3400654
1.0000000 0.5000188 0.3485296
1.0000000 0.5073825 0.3570666
1.0000000 0.5137823 0.3654214
1.0000000 0.5208583 0.3721092
1.0000000 0.5280540 0.3807406
1.0000000 0.5352832 0.3897483
1.0000000 0.5407695 0.3965130
1.0000000 0.5488154 0.4064978
1.0000000 0.5557816 0.4159970
1.0000000 0.5609676 0.4227602
1.0000000 0.5679038 0.4334172
1.0000000 0.5730386 0.4406053
1.0000000 0.5795224 0.4483064
1.0000000 0.5846926 0.4579558
0.0156577 0.0259353 0.0352284
0.0087318 0.0239948 0.0348577
0.0016952 0.0219214 0.0344591
0.0000000 0.0203376 0.0341431
0.0029446 0.0204319 0.0341026
0.0525185 0.0285766 0.0354292
0.1022707 0.0370716 0.0367983
0.1461626 0.0450047 0.0387950
0.1882839 0.0527325 0.0411541
0.2352702 0.0620225 0.0440520
0.2886235 0.0731818 0.0474948
0.3419107 0.0849156 0.0511876
0.3959128 0.0974913 0.0551485
0.4497481 0.1107522 0.0593013
0.4990147 0.1237504 0.0636227
0.5432630 0.1358796 0.0681173
0.5846438 0.1478401 0.0730606
0.6300244 0.1619952 0.0787314
0.6756212 0.1771541 0.0847155
0.7138578 0.1910867 0.0911317
0.7499680 0.2052116 0.0977230
0.7814928 0.2182556 0.1038473
0.8127496 0.2327621 0.1111245
0.8383519 0.2460533 0.1179685
0.8679988 0.2618932 0.1251881
0.8928399 0.2763799 0.1337662
0.9125792 0.2895098 0.1423645
0.9357219 0.3051527 0.1520112
0.9536618 0.3184467 0.1611433
0.9731642 0.3327403 0.1714335
0.9878252 0.3451635 0.1799964
1.0000000 0.3569733 0.1901376
1.0000000 0.3659801 0.1981236
1.0000000 0.3775378 0.2085082
1.0000000 0.3864602 0.2168126
1.0000000 0.3977765 0.2261185
1.0000000 0.4065382 0.2350348
1.0000000 0.4152482 0.2438846
1.0000000 0.4256498 0.2539205
1.0000000 0.4348220 0.2621976
1.0000000 0.4422894 0.2713901
1.0000000 0.4516984 0.2802368
1.0000000 0.4622621 0.2913721
1.0000000 0.4699770 0.2995991
1.0000000 0.4795502 0.3088939
1.0000000 0.4873324 0.3194872
1.0000000 0.4949017 0.3280299
1.0000000 0.5025631 0.3367079
1.0000000 0.5118034 0.3461050
1.0000000 0.5192212 0.3546928
1.0000000 0.5266730 0.3632786
1.0000000 0.5338874 0.3700960
1.0000000 0.5396493 0.3781843
1.0000000 0.5470574 0.3868991
1.0000000 0.5544589 0.3959817
1.0000000 0.5616299 0.4034822
1.0000000 0.5662549 0.4121540
1.0000000 0.5731649 0.4194329
1.0000000 0.5804122 0.4292687
1.0000000 0.5859788 0.4367201
1.0000000 0.5919448 0.4469224
1.0000000 0.5973194 0.4541289
1.0000000 0.6041399 0.4644598
1.0000000 0.6082937 0.4715894
0.0157740 0.0151394 0.0327447
0.0089085 0.0132860 0.0323985
0.0017874 0.0111870 0.0320001
0.0000000 0.0097899 0.0317307
0.0030407 0.0099647 0.0317075
0.0527061 0.0184774 0.0330255
0.1005707 0.0277056 0.0351986
0.1464078 0.0369139 0.0377945
0.1885412 0.0456859 0.0405666
0.2354663 0.0572418 0.0441050
0.2849243 0.0699375 0.0479981
0.3418462 0.0848839 0.0525588
0.3913829 0.0990450 0.0569089
0.4447029 0.1152471 0.0619341
0.4936664 0.1301994 0.0670564
0.5418892 0.1464456 0.0727690
0.5827764 0.1612914 0.0785614
0.6277142 0.1773080 0.0850286
0.6727068 0.1949940 0.0920374
0.7103994 0.2109845 0.0990531
0.7413274 0.2247478 0.1057624
0.7768664 0.2420139 0.1133389
0.8077548 0.2571599 0.1206541
0.8331121 0.2705542 0.1276515
0.8620974 0.2878249 0.1370527
0.8865792 0.3028882 0.1453113
0.9060812 0.3160740 0.1541854
0.9286239 0.3328587 0.1653703
0.9463612 0.3461109 0.1742018
0.9653903 0.3612042 0.1847860
0.9796758 0.3739228 0.1952503
0.9923449 0.3858606 0.2042670
1.0000000 0.3958188 0.2140973
1.0000000 0.4071794 0.2232938
1.0000000 0.4179015 0.2323723
1.0000000 0.4289668 0.2421507
1.0000000 0.4370793 0.2508247
1.0000000 0.4461600 0.2588045
1.0000000 0.4555053 0.2688040
1.0000000 0.4648881 0.2787480
1.0000000 0.4725694 0.2869265
1.0000000 0.4822485 0.2977884
1.0000000 0.4916248 0.3067110
1.0000000 0.4993134 0.3152688
1.0000000 0.5075792 0.3242719
1.0000000 0.5156764 0.3348939
1.0000000 0.5235615 0.3436668
1.0000000 0.5314293 0.3525009
1.0000000 0.5378869 0.3607664
1.0000000 0.5470767 0.3701020
1.0000000 0.5547527 0.3771263
1.0000000 0.5612818 0.3856214
1.0000000 0.5676112 0.3938432
1.0000000 0.5754173 0.4030875
1.0000000 0.5816852 0.4102954
1.0000000 0.5893553 0.4201896
1.0000000 0.5939351 0.4265287
1.0000000 0.6017632 0.4365951
1.0000000 0.6078897 0.4443904
1.0000000 0.6143216 0.4546233
1.0000000 0.6202387 0.4621690
1.0000000 0.6262705 0.4695646
1.0000000 0.6321301 0.4799544
1.0000000 0.6379865 0.4876208
0.0156930 0.0223840 0.0344087
0.0089602 0.0229094 0.0346054
0.0017388 0.0242226 0.0349882
0.0000000 0.0252835 0.0352814
0.0022117 0.0288628 0.0359776
0.0523043 0.0406632 0.0387062
0.0999228 0.0514248 0.0416393
0.1454505 0.0636785 0.0452159
0.1872806 0.0744169 0.0487406
0.2339230 0.0864292 0.0525337
0.2830188 0.1004485 0.0568540
0.3356662 0.1151863 0.0613459
0.3885783 0.1323369 0.0666497
0.4414884 0.1485901 0.0720652
0.4899684 0.1643690 0.0778890
0.5377788 0.1806116 0.0840412
0.5782526 0.1958328 0.0903661
0.6224316 0.2143752 0.0976591
0.6669257 0.2321664 0.1051878
0.7041742 0.2482955 0.1125923
0.7346554 0.2626467 0.1193977
0.7698283 0.2794615 0.1272404
0.8002193 0.2950974 0.1349575
0.8250616 0.3090737 0.1434051
0.8497969 0.3234588 0.1514885
0.8779643 0.3402249 0.1615630
0.8971328 0.3535380 0.1705523
0.9199497 0.3676565 0.1808515
0.9373070 0.3810757 0.1908987
0.9560537 0.3958646 0.2021348
0.9702102 0.4082845 0.2113755
0.9826202 0.4202456 0.2206930
0.9914982 0.4305223 0.2307961
1.0000000 0.4405684 0.2397629
1.0000000 0.4503118 0.2490608
1.0000000 0.4614043 0.2574752
1.0000000 0.4694342 0.2665238
1.0000000 0.4789847 0.2766124
1.0000000 0.4890329 0.2868273
1.0000000 0.4971796 0.2952893
1.0000000 0.5053598 0.3037848
1.0000000 0.5137684 0.3141602
1.0000000 0.5235200 0.3235890
1.0000000 0.5317667 0.3325038
1.0000000 0.5403211 0.3415945
1.0000000 0.5490270 0.3506395
1.0000000 0.5558792 0.3610201
1.0000000 0.5643159 0.3682035
1.0000000 0.5709170 0.3765025
1.0000000 0.5806314 0.3863152
1.0000000 0.5871335 0.3948229
1.0000000 0.5940759 0.4033006
1.0000000 0.6004039 0.4097670
1.0000000 0.6068411 0.4193227
1.0000000 0.6149940 0.4294339
1.0000000 0.6211302 0.4365152
1.0000000 0.6276418 0.4459842
1.0000000 0.6335673 0.4537353
1.0000000 0.6396067 0.4639368
1.0000000 0.6459548 0.4715564
1.0000000 0.6516806 0.4789935
1.0000000 0.6562632 0.4887464
1.0000000 0.6623003 0.4965084
1.0000000 0.6677189 0.5040715
0.0154562 0.0598920 0.0431985
0.0088553 0.0603402 0.0433770
0.0016947 0.0641319 0.0443600
0.0000000 0.0670542 0.0450218
0.0021309 0.0715483 0.0465425
0.0502318 0.0835820 0.0498302
0.0990582 0.0960121 0.0535676
0.1442272 0.1080886 0.0573614
0.1856865 0.1198103 0.0612119
0.2290338 0.1321309 0.0652485
0.2805482 0.1464381 0.0698659
0.3326802 0.1613165 0.0746959
0.3851800 0.1768649 0.0800256
0.4375364 0.1933076 0.0858447
0.4854878 0.2092583 0.0919594
0.5285355 0.2244837 0.0982979
0.5729893 0.2388032 0.1044960
0.6168948 0.2554631 0.1117230
0.6608718 0.2731590 0.1195689
0.6976150 0.2895212 0.1274774
0.7276530 0.3041089 0.1347426
0.7626621 0.3190418 0.1423050
0.7882607 0.3330146 0.1501086
0.8170613 0.3487882 0.1593975
0.8416577 0.3617540 0.1682922
0.8651181 0.3771355 0.1780198
0.8879751 0.3928089 0.1888766
0.9104401 0.4066660 0.1991711
0.9274265 0.4203618 0.2088650
0.9462214 0.4334558 0.2196596
0.9599561 0.4463428 0.2293841
0.9698420 0.4554154 0.2378582
0.9809581 0.4680687 0.2476487
0.9916723 0.4782137 0.2572351
0.9988636 0.4887177 0.2668475
1.0000000 0.4984576 0.2766246
1.0000000 0.5086771 0.2870151
1.0000000 0.5166137 0.2949492
1.0000000 0.5271122 0.3058866
1.0000000 0.5352331 0.3145032
1.0000000 0.5439851 0.3249316
1.0000000 0.5522230 0.3338679
1.0000000 0.5603003 0.3428689
1.0000000 0.5688416 0.3518999
1.0000000 0.5769064 0.3608750
1.0000000 0.5835106 0.3693272
1.0000000 0.5921139 0.3784994
1.0000000 0.5986458 0.3868066
1.0000000 0.6050769 0.3952925
1.0000000 0.6146758 0.4051660
1.0000000 0.6209718 0.4135519
1.0000000 0.6257247 0.4193259
1.0000000 0.6337501 0.4295333
1.0000000 0.6398180 0.4366986
1.0000000 0.6459637 0.4459804
1.0000000 0.6520100 0.4554062
1.0000000 0.6584362 0.4632733
1.0000000 0.6641363 0.4709018
1.0000000 0.6698315 0.4808582
1.0000000 0.6741464 0.4876274
1.0000000 0.6795488 0.4952372
1.0000000 0.6838757 0.5049012
1.0000000 0.6898841 0.5126125
1.0000000 0.6950879 0.5200365
0.0156330 0.1097258 0.0553570
0.0092614 0.1107291 0.0556740
0.0020772 0.1136553 0.0563898
0.0000000 0.1170968 0.0577456
0.0025730 0.1219885 0.0597904
0.0502367 0.1323135 0.0630859
0.0986419 0.1453461 0.0671846
0.1434033 0.1579540 0.0713270
0.1844707 0.1700875 0.0755630
0.2274510 0.1805363 0.0792292
0.2784541 0.1950785 0.0840896
0.3299999 0.2108715 0.0895756
0.3820076 0.2247885 0.0950111
0.4337386 0.2417302 0.1014965
0.4812819 0.2557245 0.1075598
0.5237809 0.2714486 0.1142878
0.5674280 0.2879386 0.1215929
0.6109397 0.3027779 0.1287017
0.6541783 0.3214758 0.1369734
0.6906688 0.3358664 0.1442162
0.7201267 0.3512972 0.1520670
0.7503184 0.3646622 0.1602651
0.7795689 0.3808770 0.1690556
0.8081468 0.3947824 0.1791186
0.8318302 0.4100941 0.1889463
0.8552509 0.4231790 0.1990194
0.8781912 0.4365023 0.2081484
0.8996711 0.4525402 0.2198848
0.9167714 0.4640862 0.2290050
0.9346192 0.4792089 0.2408877
0.9485532 0.4898846 0.2500988
0.9583151 0.4984618 0.2584423
0.9691612 0.5109096 0.2689795
0.9796848 0.5206571 0.2784724
0.9873103 0.5287960 0.2876395
0.9938490 0.5391141 0.2981446
1.0000000 0.5483040 0.3067127
1.0000000 0.5560738 0.3166522
1.0000000 0.5660459 0.3260649
1.0000000 0.5737460 0.3345442
1.0000000 0.5802240 0.3444067
1.0000000 0.5881470 0.3534074
1.0000000 0.5980332 0.3631551
1.0000000 0.6043726 0.3713784
1.0000000 0.6107591 0.3797800
1.0000000 0.6183440 0.3887210
1.0000000 0.6245081 0.3969091
1.0000000 0.6326185 0.4061313
1.0000000 0.6387821 0.4145546
1.0000000 0.6447486 0.4210285
1.0000000 0.6507918 0.4292974
1.0000000 0.6568083 0.4387098
1.0000000 0.6626114 0.4458093
1.0000000 0.6684420 0.4549699
1.0000000 0.6759872 0.4627215
1.0000000 0.6816918 0.4727917
1.0000000 0.6860365 0.4797519
1.0000000 0.6916581 0.4896796
1.0000000 0.6970945 0.4970684
1.0000000 0.7013878 0.5041070
1.0000000 0.7067894 0.5143223
1.0000000 0.7109253 0.5212688
1.0000000 0.7149899 0.5281099
1.0000000 0.7199627 0.5353892
0.0159785 0.1637851 0.0691358
0.0103353 0.1656151 0.0696666
0.0032170 0.1672355 0.0705695
0.0000000 0.1720469 0.0727754
0.0030926 0.1756208 0.0747442
0.0510217 0.1898102 0.0793961
0.0970505 0.2005858 0.0831726
0.1413038 0.2144766 0.0878808
0.1817863 0.2246986 0.0917534
0.2263285 0.2389485 0.0966268
0.2767503 0.2514565 0.1015067
0.3276595 0.2677410 0.1075615
0.3789704 0.2815268 0.1135483
0.4299937 0.2989029 0.1204209
0.4768423 0.3126868 0.1270539
0.5186839 0.3288294 0.1344553
0.5619106 0.3426655 0.1409687
0.6047622 0.3569961 0.1484833
0.6426331 0.3736012 0.1565915
0.6833074 0.3887451 0.1644918
0.7126642 0.4010650 0.1724676
0.7419796 0.4167622 0.1812587
0.7711415 0.4298671 0.1902602
0.7993011 0.4431345 0.1995336
0.8230760 0.4552953 0.2091982
0.8456653 0.4702448 0.2201023
0.8681856 0.4828581 0.2307093
0.8899098 0.4957021 0.2404619
0.9066728 0.5067976 0.2509049
0.9212160 0.5199199 0.2611488
0.9351296 0.5301549 0.2702825
0.9475152 0.5399150 0.2798959
0.9588509 0.5493571 0.2893548
0.9686202 0.5608482 0.3000035
0.9762181 0.5684274 0.3079739
0.9832938 0.5761122 0.3174682
0.9919757 0.5849032 0.3262497
0.9981860 0.5923679 0.3364164
1.0000000 0.5998586 0.3448721
1.0000000 0.6072963 0.3552387
1.0000000 0.6155577 0.3643402
1.0000000 0.6229802 0.3731515
1.0000000 0.6302446 0.3819058
1.0000000 0.6362374 0.3901693
1.0000000 0.6424186 0.3984630
1.0000000 0.6497732 0.4073159
1.0000000 0.6558147 0.4157063
1.0000000 0.6618315 0.4241034
1.0000000 0.6676599 0.4305816
1.0000000 0.6734506 0.4387690
1.0000000 0.6792775 0.4481162
1.0000000 0.6849300 0.4552025
1.0000000 0.6905605 0.4642926
1.0000000 0.6980643 0.4721162
1.0000000 0.7038961 0.4822510
1.0000000 0.7095113 0.4899326
1.0000000 0.7140672 0.4992601
1.0000000 0.7194426 0.5066715
1.0000000 0.7237122 0.5137148
1.0000000 0.7289980 0.5238721
1.0000000 0.7340684 0.5313822
1.0000000 0.7361429 0.5373196
1.0000000 0.7401233 0.5440617
1.0000000 0.7449397 0.5515030
0.0165414 0.2275099 0.0866927
0.0125515 0.2269285 0.0867126
0.0056691 0.2327848 0.0892863
0.0016279 0.2356362 0.0911396
0.0055740 0.2396361 0.0935175
0.0529906 0.2535092 0.0983225
0.0984500 0.2640300 0.1023649
0.1422164 0.2779914 0.1073433
0.1821790 0.2879608 0.1113340
0.2261494 0.2987819 0.1157615
0.2758989 0.3108729 0.1209593
0.3261594 0.3267165 0.1274977
0.3767647 0.3396778 0.1335033
0.4272314 0.3531427 0.1398463
0.4734441 0.3663473 0.1464112
0.5147214 0.3821890 0.1541625
0.5572956 0.3954291 0.1614842
0.5995245 0.4090729 0.1687639
0.6371616 0.4220663 0.1760885
0.6725830 0.4379930 0.1847941
0.7058426 0.4507292 0.1933720
0.7351203 0.4627435 0.2021028
0.7638415 0.4752319 0.2112139
0.7915443 0.4878740 0.2211808
0.8149498 0.4994571 0.2309446
0.8371627 0.5139531 0.2423823
0.8593785 0.5258205 0.2518734
0.8807818 0.5378232 0.2616038
0.8973052 0.5482067 0.2721178
0.9122356 0.5581111 0.2812206
0.9259397 0.5677528 0.2908852
0.9381250 0.5771096 0.3004016
0.9492997 0.5862108 0.3086450
0.9594707 0.5950968 0.3188367
0.9668513 0.6025726 0.3282962
0.9732193 0.6123488 0.3375245
0.9816856 0.6207321 0.3482174
0.9878900 0.6277559 0.3565317
0.9940403 0.6348617 0.3650308
0.9981014 0.6407939 0.3749542
1.0000000 0.6478086 0.3836294
1.0000000 0.6552134 0.3925168
1.0000000 0.6613333 0.4008759
1.0000000 0.6684986 0.4097587
1.0000000 0.6745519 0.4179892
1.0000000 0.6816025 0.4270012
1.0000000 0.6873685 0.4335649
1.0000000 0.6931611 0.4418705
1.0000000 0.6988381 0.4500561
1.0000000 0.7043693 0.4572096
1.0000000 0.7099516 0.4664073
1.0000000 0.7155111 0.4754961
1.0000000 0.7187371 0.4813893
1.0000000 0.7241839 0.4913508
1.0000000 0.7294947 0.4989392
1.0000000 0.7346945 0.5064162
1.0000000 0.7389137 0.5154775
1.0000000 0.7439016 0.5230132
1.0000000 0.7478656 0.5300176
1.0000000 0.7527471 0.5398718
1.0000000 0.7574356 0.5471680
1.0000000 0.7611625 0.5538065
1.0000000 0.7648513 0.5606207
1.0000000 0.7674929 0.5669597
0.0183357 0.2876646 0.1049446
0.0160876 0.2910449 0.1061566
0.0091567 0.2938085 0.1080964
0.0052053 0.2969693 0.1102417
0.0091904 0.3011819 0.1128190
0.0546348 0.3145651 0.1177962
0.1009802 0.3246350 0.1218949
0.1440972 0.3344136 0.1258270
0.1835620 0.3438249 0.1301505
0.2269815 0.3542625 0.1348201
0.2725204 0.3652734 0.1402764
0.3257306 0.3813400 0.1472011
0.3756297 0.3937021 0.1536513
0.4253829 0.4064424 0.1602269
0.4709396 0.4188039 0.1669664
0.5118446 0.4306045 0.1735280
0.5538520 0.4430332 0.1804922
0.5954911 0.4558435 0.1879016
0.6325602 0.4682937 0.1959803
0.6677749 0.4808142 0.2039508
0.7001486 0.4963435 0.2148119
0.7289551 0.5079077 0.2237056
0.7572127 0.5197138 0.2334753
0.7844827 0.5316298 0.2435078
0.8075496 0.5425360 0.2525084
0.8299111 0.5536001 0.2629223
0.8517851 0.5648245 0.2724432
0.8728215 0.5763088 0.2823794
0.8890525 0.5865204 0.2917511
0.9035938 0.5963488 0.3027695
0.9170430 0.6058144 0.3111603
0.9289848 0.6148605 0.3208035
0.9398768 0.6236248 0.3310388
0.9498670 0.6321110 0.3410995
0.9571604 0.6392591 0.3492750
0.9639842 0.6463351 0.3593637
0.9723663 0.6543144 0.3682773
0.9784474 0.6610892 0.3766882
0.9844471 0.6680071 0.3854722
0.9884174 0.6738198 0.3952846
0.9938214 0.6805034 0.4038961
0.9992678 0.6873176 0.4127463
1.0000000 0.6905919 0.4197366
1.0000000 0.6972250 0.4283924
1.0000000 0.7027871 0.4348922
1.0000000 0.7093112 0.4437706
1.0000000 0.7147081 0.4519268
1.0000000 0.7200687 0.4600086
1.0000000 0.7252934 0.4670762
1.0000000 0.7304981 0.4761100
1.0000000 0.7356250 0.4830375
1.0000000 0.7407304 0.4918716
1.0000000 0.7436982 0.4982758
1.0000000 0.7487000 0.5080732
1.0000000 0.7535779 0.5154406
1.0000000 0.7584271 0.5249376
1.0000000 0.7622334 0.5317996
1.0000000 0.7668168 0.5392635
1.0000000 0.7705365 0.5484067
1.0000000 0.7731650 0.5546859
1.0000000 0.7766998 0.5612449
1.0000000 0.7810396 0.5685226
1.0000000 0.7846782 0.5752493
1.0000000 0.7889952 0.5823658
0.0215619 0.3465652 0.1242319
0.0202420 0.3464015 0.1243314
0.0134175 0.3492073 0.1264085
0.0096633 0.3523939 0.1287613
0.0133480 0.3603370 0.1325281
0.0586491 0.3700204 0.1366798
0.1044475 0.3799100 0.1409295
0.1470376 0.3895235 0.1452890
0.1860172 0.3987802 0.1499538
0.2288661 0.4087309 0.1549769
0.2737960 0.4191888 0.1605422
0.3262390 0.4310893 0.1669973
0.3754781 0.4428207 0.1734038
0.4245583 0.4548873 0.1798096
0.4694729 0.4667878 0.1869559
0.5097820 0.4785058 0.1938472
0.5511445 0.4907682 0.2012379
0.5921035 0.5033546 0.2095377
0.6285918 0.5153397 0.2174800
0.6631956 0.5273032 0.2271116
0.6954209 0.5390369 0.2362182
0.7237577 0.5501261 0.2458268
0.7515914 0.5613791 0.2547149
0.7784065 0.5727402 0.2650636
0.8010501 0.5831786 0.2753282
0.8230517 0.5937796 0.2847127
0.8445212 0.6045350 0.2944646
0.8651950 0.6153640 0.3043026
0.8811894 0.6247646 0.3139544
0.8955836 0.6337687 0.3235731
0.9088094 0.6425050 0.3332040
0.9211811 0.6481612 0.3420714
0.9320089 0.6562352 0.3505992
0.9418905 0.6640921 0.3607088
0.9491140 0.6707214 0.3690448
0.9558954 0.6772678 0.3788803
0.9624185 0.6837218 0.3872102
0.9702102 0.6909893 0.3963100
0.9761860 0.6973507 0.4048542
0.9801725 0.7026930 0.4144435
0.9861977 0.7065659 0.4218610
0.9916302 0.7128751 0.4304790
0.9953120 0.7180488 0.4367259
1.0000000 0.7241468 0.4453155
1.0000000 0.7293082 0.4534616
1.0000000 0.7352986 0.4620833
1.0000000 0.7402543 0.4700001
1.0000000 0.7431548 0.4759103
1.0000000 0.7481403 0.4848599
1.0000000 0.7531588 0.4917831
1.0000000 0.7581955 0.5006118
1.0000000 0.7631098 0.5080585
1.0000000 0.7658925 0.5166800
1.0000000 0.7706650 0.5240355
1.0000000 0.7754457 0.5335128
1.0000000 0.7800678 0.5409592
1.0000000 0.7837886 0.5478845
1.0000000 0.7862973 0.5541964
1.0000000 0.7899439 0.5631782
1.0000000 0.7942068 0.5702670
1.0000000 0.7976556 0.5769885
1.0000000 0.8021061 0.5842959
1.0000000 0.8036411 0.5898223
1.0000000 0.8079327 0.5968957
0.0256910 0.4005125 0.1434168
0.0255553 0.4004968 0.1434122
0.0189217 0.4040787 0.1458572
0.0153459 0.4079987 0.1485319
0.0188013 0.4126935 0.1513054
0.0635923 0.4221611 0.1555915
0.1070939 0.4315906 0.1601940
0.1509266 0.4411842 0.1651232
0.1894374 0.4502148 0.1700268
0.2291030 0.4595085 0.1753869
0.2760753 0.4699562 0.1812265
0.3242487 0.4808129 0.1874654
0.3763265 0.4926748 0.1943689
0.4246761 0.5042940 0.2011871
0.4689128 0.5155696 0.2085150
0.5086126 0.5263413 0.2155284
0.5493429 0.5376037 0.2228554
0.5896602 0.5491649 0.2314550
0.6255677 0.5601832 0.2400149
0.6596525 0.5711523 0.2489828
0.6916344 0.5787493 0.2570473
0.7195685 0.5890043 0.2666476
0.7469679 0.5994310 0.2767103
0.7734175 0.6099424 0.2860553
0.7957367 0.6196344 0.2962455
0.8174276 0.6293894 0.3056598
0.8385992 0.6392797 0.3151827
0.8589728 0.6492453 0.3252731
0.8752494 0.6552291 0.3335366
0.8894768 0.6635710 0.3430740
0.9025369 0.6716748 0.3531995
0.9142334 0.6793575 0.3616532
0.9248914 0.6868128 0.3716533
0.9326751 0.6930856 0.3798908
0.9423860 0.6977888 0.3889042
0.9491459 0.7039304 0.3971437
0.9555428 0.7102172 0.4057450
0.9632001 0.7172198 0.4147605
0.9674299 0.7224915 0.4226741
0.9730393 0.7285437 0.4312610
0.9789817 0.7320880 0.4384804
0.9843168 0.7381645 0.4470311
0.9878652 0.7432287 0.4550356
0.9926387 0.7490897 0.4637030
0.9959561 0.7540768 0.4717470
1.0000000 0.7576089 0.4774019
1.0000000 0.7624451 0.4860157
1.0000000 0.7672473 0.4949026
1.0000000 0.7723194 0.5019356
1.0000000 0.7748959 0.5094147
1.0000000 0.7798697 0.5169538
1.0000000 0.7847997 0.5267523
1.0000000 0.7895640 0.5341685
1.0000000 0.7920002 0.5402018
1.0000000 0.7967177 0.5498848
1.0000000 0.8012767 0.5574405
1.0000000 0.8049977 0.5643303
1.0000000 0.8072619 0.5704229
1.0000000 0.8108919 0.5792824
1.0000000 0.8150808 0.5865701
1.0000000 0.8185129 0.5932364
1.0000000 0.8205782 0.5991447
1.0000000 0.8240457 0.6056879
1.0000000 0.8281354 0.6126375
0.0315446 0.4554532 0.1641533
0.0315446 0.4554532 0.1641533
0.0258306 0.4589263 0.1666310
0.0224158 0.4626255 0.1692772
0.0252377 0.4669515 0.1721126
0.0686473 0.4755620 0.1764495
0.1129173 0.4843717 0.1812451
0.1543440 0.4929685 0.1861179
0.1917669 0.4974425 0.1897985
0.2328502 0.5062775 0.1955007
0.2791851 0.5159658 0.2014889
0.3266943 0.5260436 0.2079082
0.3742518 0.5363756 0.2144073
0.4217578 0.5469871 0.2211803
0.4654480 0.5573151 0.2281827
0.5084276 0.5678360 0.2358312
0.5446457 0.5742214 0.2423323
0.5883496 0.5856227 0.2511973
0.6237704 0.5958215 0.2599579
0.6573879 0.6059766 0.2692738
0.6886709 0.6159511 0.2788882
0.7161856 0.6255147 0.2886804
0.7434756 0.6322404 0.2963560
0.7695271 0.6423401 0.3057156
0.7915034 0.6516511 0.3161804
0.8128560 0.6609991 0.3255516
0.8336765 0.6704594 0.3355014
0.8537124 0.6799632 0.3456694
0.8697152 0.6854445 0.3538523
0.8837246 0.6934204 0.3626015
