Plugins/FilmEmulator/Content/LUTs/FE_Kodak_Vision2_250D_5205_64.cube
# FilmEmulator LUT (resampled to 64)
LUT_3D_SIZE 4
0.000916 0.000916 0.000000
0.232636 0.000000 0.000000
0.483409 0.037699 0.000000
0.685150 0.098450 0.000000
0.105560 0.204590 0.000000
0.360460 0.279847 0.000000
0.605540 0.303989 0.000000
0.774811 0.309886 0.000081
0.354503 0.507497 0.004527
0.463742 0.560262 0.084683
0.609551 0.582754 0.060788
0.816274 0.570109 0.021627
0.436096 0.720795 0.040955
0.547231 0.753886 0.086741
0.705882 0.793447 0.045420
0.855896 0.813965 0.086060
0.000000 0.054016 0.172852
0.212134 0.039283 0.203851
0.475515 0.000000 0.199934
0.675445 0.003286 0.184285
0.000000 0.261068 0.291592
0.312143 0.283168 0.251371
0.558046 0.291427 0.248903
0.766900 0.273465 0.214793
0.214542 0.522932 0.321313
0.424090 0.537990 0.302176
0.607060 0.556731 0.307738
0.837795 0.552612 0.253831
0.349507 0.736623 0.311676
0.520762 0.767527 0.287326
0.698602 0.814704 0.314263
0.880157 0.838898 0.279073
0.000000 0.101715 0.329122
0.064504 0.101074 0.339223
0.413374 0.071900 0.377465
0.677063 0.076070 0.404816
0.000000 0.276448 0.464257
0.199482 0.312005 0.462341
0.518060 0.304834 0.462622
0.770708 0.271542 0.446682
0.054294 0.530978 0.564307
0.330634 0.551061 0.542184
0.600608 0.567911 0.546163
0.855157 0.567572 0.533993
0.160929 0.758850 0.585521
0.394470 0.792219 0.595262
0.667477 0.852508 0.623172
0.888703 0.882843 0.639180
0.000000 0.132538 0.457886
0.007304 0.116710 0.424357
0.240570 0.130829 0.506989
0.592102 0.124756 0.561584
0.007304 0.258921 0.585154
0.043898 0.246602 0.570696
0.263879 0.270810 0.608561
0.671804 0.290233 0.651377
0.029470 0.487722 0.711751
0.097955 0.504283 0.714430
0.413466 0.564887 0.759338
0.803843 0.577271 0.771037
0.084198 0.718414 0.788757
0.201518 0.756164 0.802043
0.517894 0.846232 0.854574
0.937164 0.912292 0.908081
