Plugins/FilmEmulator/Content/LUTs/FE_Kodak_EXR_5248_64.cube
TITLE "FE_Kodak_EXR_5248_33"
LUT_3D_SIZE 64
0.0010210 0.0007672 0.0010671
0.0030838 0.0007694 0.0010563
0.0084061 0.0007718 0.0010467
0.0156376 0.0007951 0.0010457
0.0238540 0.0008442 0.0010638
0.0329568 0.0008977 0.0011293
0.0425927 0.0009667 0.0012173
0.0531719 0.0010696 0.0013436
0.0641564 0.0011884 0.0014882
0.0748132 0.0013552 0.0017030
0.0871279 0.0015454 0.0019487
0.0982551 0.0017569 0.0021944
0.1106528 0.0019973 0.0024709
0.1245675 0.0022722 0.0027880
0.1359827 0.0025049 0.0030589
0.1482855 0.0027613 0.0033560
0.1617024 0.0030447 0.0036831
0.1761228 0.0033634 0.0040533
0.1861396 0.0037145 0.0044618
0.2024626 0.0039702 0.0047544
0.2139964 0.0042425 0.0050676
0.2258158 0.0046963 0.0055789
0.2449314 0.0050272 0.0059451
0.2581490 0.0053802 0.0063371
0.2647224 0.0057567 0.0067569
0.2787688 0.0061618 0.0072030
0.2935091 0.0063773 0.0074357
0.3084785 0.0068283 0.0079285
0.3158872 0.0073095 0.0084563
0.3317395 0.0075648 0.0087292
0.3477563 0.0080992 0.0093071
0.3559112 0.0083803 0.0096102
0.3638994 0.0089686 0.0102522
0.3809018 0.0092801 0.0105850
0.3893930 0.0096005 0.0109319
0.4065901 0.0102747 0.0116597
0.4152869 0.0106292 0.0120414
0.4240419 0.0109958 0.0124355
0.4328431 0.0113749 0.0128424
0.4414027 0.0121706 0.0137003
0.4594679 0.0125937 0.0141424
0.4684127 0.0130294 0.0146031
0.4773830 0.0134800 0.0150786
0.4863735 0.0139460 0.0155693
0.4953782 0.0144280 0.0160759
0.5043913 0.0149263 0.0165987
0.5134067 0.0154418 0.0171383
0.5224186 0.0159747 0.0176952
0.5315188 0.0165259 0.0182699
0.5406033 0.0170959 0.0188629
0.5496652 0.0176872 0.0194742
0.5586988 0.0182997 0.0201045
0.5584188 0.0189306 0.0207613
0.5676983 0.0189332 0.0207549
0.5766588 0.0195882 0.0214259
0.5855737 0.0202655 0.0221183
0.5944378 0.0209659 0.0228326
0.6032453 0.0216901 0.0235696
0.6029728 0.0224360 0.0243375
0.6119910 0.0224388 0.0243299
0.6209306 0.0232130 0.0251140
0.6299230 0.0240135 0.0259227
0.6296568 0.0248389 0.0267659
0.6388307 0.0248419 0.0267572
0.0009774 0.0031837 0.0011076
0.0035691 0.0034117 0.0010975
0.0088462 0.0036530 0.0010977
0.0159055 0.0039089 0.0011316
0.0234810 0.0041811 0.0012013
0.0324406 0.0044788 0.0012940
0.0419385 0.0047974 0.0014463
0.0524119 0.0051380 0.0015904
0.0633766 0.0053201 0.0018148
0.0740464 0.0056972 0.0020786
0.0864958 0.0058982 0.0023342
0.0977136 0.0063179 0.0026242
0.1103701 0.0065420 0.0029573
0.1207391 0.0070065 0.0032422
0.1361000 0.0072543 0.0035502
0.1487065 0.0075099 0.0038938
0.1624517 0.0077739 0.0041459
0.1719773 0.0083243 0.0045600
0.1874439 0.0086163 0.0048550
0.1983222 0.0089172 0.0053352
0.2158889 0.0092291 0.0056805
0.2281659 0.0095504 0.0060498
0.2409425 0.0098828 0.0064430
0.2542160 0.0102267 0.0068617
0.2678304 0.0109451 0.0073148
0.2822050 0.0113246 0.0075511
0.2894558 0.0117165 0.0080467
0.3047649 0.0117221 0.0085645
0.3203063 0.0121282 0.0088408
0.3281132 0.0125495 0.0094205
0.3442912 0.0129860 0.0097243
0.3524023 0.0134366 0.0103648
0.3691631 0.0139036 0.0107013
0.3775434 0.0143844 0.0110520
0.3859991 0.0148831 0.0117810
0.4034075 0.0153995 0.0121630
0.4123472 0.0154032 0.0125500
0.4210818 0.0159352 0.0129606
0.4298643 0.0164853 0.0133846
0.4478174 0.0170581 0.0142600
0.4569939 0.0170620 0.0147114
0.4659294 0.0176525 0.0151904
0.4748919 0.0182641 0.0156849
0.4838760 0.0188966 0.0161952
0.4931540 0.0189009 0.0167071
0.5021645 0.0195550 0.0172503
0.5111783 0.0202315 0.0178108
0.5204688 0.0202360 0.0183730
0.5295699 0.0209356 0.0189695
0.5386571 0.0216591 0.0195842
0.5480047 0.0216618 0.0195781
0.5570440 0.0224098 0.0202117
0.5567637 0.0231803 0.0208720
0.5660459 0.0231852 0.0215277
0.5750138 0.0239849 0.0222233
0.5839373 0.0248125 0.0229410
0.5930858 0.0248155 0.0229339
0.6019014 0.0256731 0.0236741
0.6018974 0.0256754 0.0244238
0.6106519 0.0265621 0.0252112
0.6198711 0.0265653 0.0252031
0.6288724 0.0274822 0.0260147
0.6286051 0.0284265 0.0268608
0.6377855 0.0284325 0.0277007
0.0009703 0.0093569 0.0012245
0.0041907 0.0097124 0.0012241
0.0094629 0.0100665 0.0012393
0.0164795 0.0104277 0.0012696
0.0243522 0.0107993 0.0013683
0.0326000 0.0111826 0.0015310
0.0421879 0.0115786 0.0017164
0.0527721 0.0119883 0.0019579
0.0618174 0.0124114 0.0021874
0.0746909 0.0124238 0.0025260
0.0845754 0.0128601 0.0027559
0.0956587 0.0133130 0.0031096
0.1080784 0.0137806 0.0034051
0.1220266 0.0142645 0.0037285
0.1334689 0.0147638 0.0040935
0.1458703 0.0152791 0.0043585
0.1595398 0.0152883 0.0047839
0.1741010 0.0158218 0.0050933
0.1843379 0.0163719 0.0054245
0.2007942 0.0169428 0.0057756
0.2124253 0.0175333 0.0061511
0.2247453 0.0175406 0.0065451
0.2373830 0.0181528 0.0069704
0.2505184 0.0187860 0.0074242
0.2644215 0.0187939 0.0079022
0.2786762 0.0194474 0.0081574
0.2934089 0.0201251 0.0086900
0.3008319 0.0208235 0.0092600
0.3164942 0.0208304 0.0095501
0.3242488 0.0215528 0.0101769
0.3405735 0.0215600 0.0104980
0.3486439 0.0223052 0.0108422
0.3653164 0.0230805 0.0115540
0.3739159 0.0230854 0.0119218
0.3911092 0.0238852 0.0123084
0.3996848 0.0247100 0.0127113
0.4085919 0.0247175 0.0135366
0.4172988 0.0255724 0.0139794
0.4354019 0.0255808 0.0144176
0.4442458 0.0264648 0.0148873
0.4531306 0.0273788 0.0153720
0.4623284 0.0273845 0.0158582
0.4712794 0.0283294 0.0163742
0.4805331 0.0283352 0.0168917
0.4895270 0.0293122 0.0174408
0.4988124 0.0293182 0.0179915
0.5078247 0.0303282 0.0185759
0.5171167 0.0303343 0.0191619
0.5262206 0.0313784 0.0197828
0.5355915 0.0313848 0.0204048
0.5446647 0.0324639 0.0210648
0.5539949 0.0324676 0.0210583
0.5630119 0.0335829 0.0217391
0.5630075 0.0335860 0.0224285
0.5719882 0.0347386 0.0231528
0.5812001 0.0347456 0.0238788
0.5900925 0.0359365 0.0238926
0.5991979 0.0359436 0.0246414
0.6079710 0.0371776 0.0254357
0.6079670 0.0371810 0.0262399
0.6169418 0.0384528 0.0262548
0.6262325 0.0384605 0.0270758
0.6354363 0.0384681 0.0279223
0.6351705 0.0397818 0.0288295
0.0011501 0.0172215 0.0015204
0.0048316 0.0178772 0.0015517
0.0102568 0.0179098 0.0015664
0.0172830 0.0185529 0.0016176
0.0247198 0.0192111 0.0016573
0.0331262 0.0192311 0.0018383
0.0428652 0.0199147 0.0020963
0.0536114 0.0206198 0.0023528
0.0628549 0.0206356 0.0026396
0.0735153 0.0213606 0.0028814
0.0858934 0.0221129 0.0032516
0.0972285 0.0221267 0.0035573
0.1098624 0.0229017 0.0038966
0.1204159 0.0229143 0.0042771
0.1317286 0.0237124 0.0045539
0.1483860 0.0245432 0.0050014
0.1575141 0.0245525 0.0053216
0.1719234 0.0254095 0.0056662
0.1875505 0.0254218 0.0060275
0.1985266 0.0263060 0.0064194
0.2100571 0.0272203 0.0068367
0.2222754 0.0272309 0.0072743
0.2348124 0.0281767 0.0077492
0.2480554 0.0281852 0.0079924
0.2616542 0.0291633 0.0085144
0.2760274 0.0291748 0.0090621
0.2906758 0.0301838 0.0093545
0.2982866 0.0301925 0.0099589
0.3136349 0.0312357 0.0102808
0.3296671 0.0312452 0.0106051
0.3375973 0.0323233 0.0113050
0.3542698 0.0323332 0.0116614
0.3624949 0.0334447 0.0120434
0.3710608 0.0334544 0.0128258
0.3881995 0.0346070 0.0132415
0.3970161 0.0346138 0.0136624
0.4056377 0.0358042 0.0141093
0.4236090 0.0358151 0.0145515
0.4323892 0.0370455 0.0150255
0.4414923 0.0370527 0.0155009
0.4503644 0.0383242 0.0160054
0.4595514 0.0383317 0.0165114
0.4687716 0.0383392 0.0170331
0.4777399 0.0396533 0.0175869
0.4870077 0.0396610 0.0181421
0.4960103 0.0410188 0.0187314
0.5053007 0.0410267 0.0193222
0.5143129 0.0424295 0.0199483
0.5236989 0.0424377 0.0205755
0.5330738 0.0424460 0.0212221
0.5421519 0.0438954 0.0219082
0.5514857 0.0439038 0.0225959
0.5605153 0.0453971 0.0226089
0.5697820 0.0454057 0.0233182
0.5695016 0.0469474 0.0240782
0.5787265 0.0469564 0.0248327
0.5879059 0.0469611 0.0248249
0.5967540 0.0485582 0.0256251
0.6058137 0.0485674 0.0264270
0.6058095 0.0485717 0.0272621
0.6148005 0.0502219 0.0272776
0.6241103 0.0502316 0.0281303
0.6330712 0.0519430 0.0290348
0.6330712 0.0519430 0.0290348
0.0014532 0.0267828 0.0020668
0.0054323 0.0268664 0.0020969
0.0111595 0.0278385 0.0021412
0.0182167 0.0278755 0.0022596
0.0260528 0.0288599 0.0023209
0.0349084 0.0288830 0.0023831
0.0437279 0.0298932 0.0024508
0.0530143 0.0299179 0.0027487
0.0640970 0.0309693 0.0030959
0.0750314 0.0309904 0.0033860
0.0849646 0.0320707 0.0037077
0.0991986 0.0320930 0.0040606
0.1087025 0.0332054 0.0043235
0.1228368 0.0332261 0.0047442
0.1343455 0.0343768 0.0050511
0.1470143 0.0343954 0.0055441
0.1606281 0.0355886 0.0059030
0.1703731 0.0356016 0.0062813
0.1857228 0.0368353 0.0066877
0.1967880 0.0368489 0.0071159
0.2142493 0.0381248 0.0075768
0.2266500 0.0381356 0.0078146
0.2393631 0.0394508 0.0083251
0.2527805 0.0394656 0.0088607
0.2668341 0.0394769 0.0091385
0.2738272 0.0408328 0.0097377
0.2886282 0.0408445 0.0100428
0.3036772 0.0422500 0.0107009
0.3114920 0.0422579 0.0110418
0.3272202 0.0437062 0.0114002
0.3353657 0.0437184 0.0121413
0.3519834 0.0437311 0.0125238
0.3601826 0.0452233 0.0129337
0.3773663 0.0452364 0.0133409
0.3858216 0.0467778 0.0137774
0.3946131 0.0467909 0.0146697
0.4034840 0.0467998 0.0151339
0.4211530 0.0483970 0.0156219
0.4301920 0.0484061 0.0161159
0.4392833 0.0484152 0.0166253
0.4481441 0.0500653 0.0171660
0.4573222 0.0500747 0.0177082
0.4662555 0.0517813 0.0182836
0.4754962 0.0517909 0.0188606
0.4847595 0.0518007 0.0194554
0.4937578 0.0535632 0.0200859
0.5030510 0.0535684 0.0200797
0.5123438 0.0535784 0.0207111
0.5214498 0.0553985 0.0213810
0.5308281 0.0554088 0.0220524
0.5401900 0.0554191 0.0227446
0.5492497 0.0572985 0.0234790
0.5585645 0.0573040 0.0234717
0.5678393 0.0573147 0.0242076
0.5767964 0.0592549 0.0249883
0.5767919 0.0592602 0.0257787
0.5859821 0.0592659 0.0257707
0.5948410 0.0612685 0.0266007
0.6039141 0.0612797 0.0274327
0.6131840 0.0612911 0.0282902
0.6129152 0.0633467 0.0283154
0.6222418 0.0633585 0.0291997
0.6314838 0.0633703 0.0301110
0.6312196 0.0654915 0.0301378
0.0018800 0.0375660 0.0027701
0.0061266 0.0376705 0.0028212
0.0121787 0.0390214 0.0028889
0.0192401 0.0390664 0.0029643
0.0266328 0.0404329 0.0030494
0.0356835 0.0404647 0.0031350
0.0447400 0.0404906 0.0032249
0.0541793 0.0418891 0.0032221
0.0655577 0.0419201 0.0035230
0.0766587 0.0433743 0.0038566
0.0868752 0.0434001 0.0042291
0.0983291 0.0434222 0.0044975
0.1111228 0.0449237 0.0049395
0.1217846 0.0449431 0.0052543
0.1332077 0.0464872 0.0055943
0.1457854 0.0465117 0.0061406
0.1594505 0.0465322 0.0065321
0.1740057 0.0481246 0.0067401
0.1844004 0.0481417 0.0071717
0.2009520 0.0497967 0.0076363
0.2127718 0.0498146 0.0081279
0.2251067 0.0498326 0.0086509
0.2377599 0.0515365 0.0089302
0.2511152 0.0515552 0.0095046
0.2651067 0.0515694 0.0098023
0.2793796 0.0533347 0.0104425
0.2868103 0.0533445 0.0107752
0.3020388 0.0533593 0.0111150
0.3174926 0.0551830 0.0118448
0.3255058 0.0551932 0.0122218
0.3418704 0.0552085 0.0126068
0.3499536 0.0570817 0.0130195
0.3583816 0.0570973 0.0138647
0.3752656 0.0590367 0.0143138
0.3839643 0.0590475 0.0147669
0.3927436 0.0590583 0.0152341
0.4102581 0.0610607 0.0157254
0.4192397 0.0610718 0.0162226
0.4282668 0.0610830 0.0167354
0.4373471 0.0610941 0.0172641
0.4461989 0.0631555 0.0178254
0.4553685 0.0631671 0.0183881
0.4645745 0.0631786 0.0189682
0.4827935 0.0653122 0.0195780
0.4920701 0.0653240 0.0201943
0.5013578 0.0653359 0.0208291
0.5103687 0.0675316 0.0215029
0.5103687 0.0675316 0.0215029
0.5197573 0.0675438 0.0221781
0.5288564 0.0698114 0.0228946
0.5382224 0.0698240 0.0236127
0.5475670 0.0698366 0.0243529
0.5566076 0.0721746 0.0243671
0.5658906 0.0721877 0.0251305
0.5751331 0.0722006 0.0259172
0.5751289 0.0722069 0.0267364
0.5840526 0.0746188 0.0267520
0.5931962 0.0746322 0.0275886
0.6022806 0.0746455 0.0284511
0.6112931 0.0771399 0.0293659
0.6112931 0.0771399 0.0293659
0.6206337 0.0771539 0.0302823
0.6298909 0.0771679 0.0312264
0.6387997 0.0797335 0.0312441
0.0023906 0.0491504 0.0035391
0.0069237 0.0492729 0.0036127
0.0128903 0.0510220 0.0037062
0.0197110 0.0510762 0.0038055
0.0281867 0.0528556 0.0039134
0.0365506 0.0528880 0.0039041
0.0458216 0.0529211 0.0040173
0.0554768 0.0547417 0.0041417
0.0671144 0.0547674 0.0041344
0.0761210 0.0547944 0.0043968
0.0889114 0.0566773 0.0046786
0.1006066 0.0567105 0.0051337
0.1103696 0.0567344 0.0054608
0.1245768 0.0586763 0.0058127
0.1363535 0.0587011 0.0061834
0.1492511 0.0587263 0.0065776
0.1630356 0.0607281 0.0070031
0.1728993 0.0607491 0.0074514
0.1886263 0.0607755 0.0079284
0.1997146 0.0628326 0.0081845
0.2114793 0.0628547 0.0087112
0.2237589 0.0628769 0.0092715
0.2365569 0.0628936 0.0095621
0.2496581 0.0650240 0.0101859
0.2635950 0.0650413 0.0105057
0.2780409 0.0650588 0.0108371
0.2927501 0.0672583 0.0115488
0.3003971 0.0672703 0.0119164
0.3160467 0.0672884 0.0122919
0.3237921 0.0695546 0.0131022
0.3401118 0.0695733 0.0135146
0.3484271 0.0695858 0.0139442
0.3650951 0.0719293 0.0143958
0.3736921 0.0719421 0.0148515
0.3823757 0.0719549 0.0153214
0.3999867 0.0719743 0.0158012
0.4086289 0.0743860 0.0163155
0.4175989 0.0743992 0.0168312
0.4266155 0.0744125 0.0173629
0.4354103 0.0769000 0.0179274
0.4445290 0.0769136 0.0184933
0.4628957 0.0769342 0.0190709
0.4721265 0.0769477 0.0196723
0.4811006 0.0795137 0.0203097
0.4903747 0.0795278 0.0209482
0.4996607 0.0795417 0.0216063
0.5086706 0.0821875 0.0223048
0.5180598 0.0822020 0.0230048
0.5274465 0.0822094 0.0229976
0.5274422 0.0822166 0.0237263
0.5365294 0.0849442 0.0244919
0.5458783 0.0849591 0.0252590
0.5552044 0.0849666 0.0252512
0.5644929 0.0849815 0.0260416
0.5734643 0.0877932 0.0268803
0.5826685 0.0878086 0.0277208
0.5826685 0.0878086 0.0277208
0.5918206 0.0878239 0.0285874
0.6006420 0.0907215 0.0295068
0.6099414 0.0907297 0.0294973
0.6099371 0.0907376 0.0304276
0.6192892 0.0907536 0.0313762
0.6282973 0.0937315 0.0313939
0.6374806 0.0937480 0.0323718
0.0029616 0.0620888 0.0044063
0.0078365 0.0622294 0.0045062
0.0136572 0.0644028 0.0046302
0.0208867 0.0644649 0.0046122
0.0289359 0.0645189 0.0047448
0.0374758 0.0667242 0.0048886
0.0469759 0.0667597 0.0048784
0.0569199 0.0667961 0.0050247
0.0667027 0.0668276 0.0051770
0.0779979 0.0690883 0.0051740
0.0883807 0.0691158 0.0053324
0.1000142 0.0691496 0.0056707
0.1130373 0.0714962 0.0060361
0.1238601 0.0715258 0.0064209
0.1355783 0.0715555 0.0068302
0.1484139 0.0715856 0.0072653
0.1621339 0.0740039 0.0077361
0.1770462 0.0740287 0.0079765
0.1876144 0.0740540 0.0084899
0.1986532 0.0765438 0.0090443
0.2103733 0.0765634 0.0093278
0.2289178 0.0765963 0.0099245
0.2419257 0.0766161 0.0102353
0.2484099 0.0791792 0.0109095
0.2623000 0.0791998 0.0112535
0.2766997 0.0792205 0.0116083
0.2913641 0.0818712 0.0123702
0.2989894 0.0818854 0.0127637
0.3145965 0.0819069 0.0131656
0.3306600 0.0819283 0.0135801
0.3386063 0.0846476 0.0140243
0.3468991 0.0846698 0.0149325
0.3637918 0.0846919 0.0154003
0.3723753 0.0847066 0.0158873
0.3895363 0.0875182 0.0163994
0.3983647 0.0875333 0.0169177
0.4072652 0.0875486 0.0174521
0.4162257 0.0875638 0.0180032
0.4249588 0.0904541 0.0185882
0.4431364 0.0904775 0.0191687
0.4522926 0.0904932 0.0197732
0.4614870 0.0905089 0.0203955
0.4704369 0.0934795 0.0204076
0.4796888 0.0934957 0.0210490
0.4889602 0.0935118 0.0217103
0.4982450 0.0935279 0.0223920
0.5072541 0.0965967 0.0231155
0.5166441 0.0966133 0.0238404
0.5260321 0.0966217 0.0238329
0.5354033 0.0966384 0.0245799
0.5351173 0.0997942 0.0253804
0.5444695 0.0998113 0.0261748
0.5537999 0.0998199 0.0261667
0.5630941 0.0998370 0.0269852
0.5720714 0.1030956 0.0278538
0.5812829 0.1031132 0.0287245
0.5904475 0.1031220 0.0287155
0.5904433 0.1031308 0.0296217
0.5995461 0.1031485 0.0305462
0.6085830 0.1064949 0.0305637
0.6179466 0.1065134 0.0315164
0.6179423 0.1065225 0.0325087
0.6272284 0.1065318 0.0324981
0.6361586 0.1099857 0.0335393
0.0035647 0.0757046 0.0053380
0.0085921 0.0758584 0.0054636
0.0149694 0.0784819 0.0056139
0.0221542 0.0785508 0.0055936
0.0297040 0.0786098 0.0057563
0.0385063 0.0786564 0.0057424
0.0482065 0.0813116 0.0059184
0.0583985 0.0813482 0.0059078
0.0684199 0.0813859 0.0060869
0.0800756 0.0814167 0.0060779
0.0906220 0.0841394 0.0062698
0.1025538 0.0841725 0.0064618
0.1124866 0.0841994 0.0066616
0.1270527 0.0842403 0.0070840
0.1389429 0.0870436 0.0073096
0.1520692 0.0870794 0.0077760
0.1613852 0.0871085 0.0082766
0.1762394 0.0871446 0.0088066
0.1866049 0.0900297 0.0090910
0.2035499 0.0900674 0.0096727
0.2154876 0.0900900 0.0099757
0.2279378 0.0901205 0.0106176
0.2407037 0.0930957 0.0109625
0.2542373 0.0931193 0.0113082
0.2683411 0.0931511 0.0120396
0.2755834 0.0931670 0.0124227
0.2902143 0.0962337 0.0128256
0.3055510 0.0962581 0.0132294
0.3133895 0.0962829 0.0140882
0.3294194 0.0963075 0.0145313
0.3373497 0.0994626 0.0150048
0.3540165 0.0994878 0.0154748
0.3624943 0.0995048 0.0159642
0.3710644 0.0995218 0.0164689
0.3882001 0.1027802 0.0169995
0.3970171 0.1027977 0.0175365
0.4059070 0.1028152 0.0180902
0.4148574 0.1028327 0.0186611
0.4329154 0.1028588 0.0192439
0.4417436 0.1062061 0.0198685
0.4508934 0.1062241 0.0204938
0.4600825 0.1062420 0.0211380
0.4693044 0.1062601 0.0218020
0.4782759 0.1096968 0.0218149
0.4875450 0.1097153 0.0224998
0.4968278 0.1097338 0.0232059
0.5061190 0.1097522 0.0239336
0.5155090 0.1097708 0.0246837
0.5246160 0.1133084 0.0246982
0.5339895 0.1133275 0.0254716
0.5433446 0.1133466 0.0262689
0.5526742 0.1133657 0.0270905
0.5523937 0.1169959 0.0271148
0.5616931 0.1170155 0.0279625
0.5709546 0.1170351 0.0288365
0.5801721 0.1170547 0.0297371
0.5893432 0.1170644 0.0297278
0.5890637 0.1208090 0.0306925
0.5981756 0.1208291 0.0316496
0.6074937 0.1208393 0.0316395
0.6168662 0.1208599 0.0326248
0.6168662 0.1208599 0.0326248
0.6258913 0.1247211 0.0336700
0.6350983 0.1247422 0.0347168
0.0041659 0.0891501 0.0064628
0.0094200 0.0922372 0.0064204
0.0158955 0.0923509 0.0065931
0.0227673 0.0924242 0.0065713
0.0315329 0.0924993 0.0067601
0.0395231 0.0955713 0.0067521
0.0495195 0.0956285 0.0069524
0.0599743 0.0956707 0.0069400
0.0702491 0.0957143 0.0071502
0.0796706 0.0957428 0.0071417
0.0930067 0.0989105 0.0073647
0.1020474 0.0989328 0.0073582
0.1154185 0.0989713 0.0075832
0.1264440 0.0989940 0.0075764
0.1382833 0.1022526 0.0080688
0.1513592 0.1022852 0.0083194
0.1654553 0.1023267 0.0088521
0.1754378 0.1023603 0.0094216
0.1912689 0.1057099 0.0097227
0.2026517 0.1057448 0.0103476
0.2145497 0.1057708 0.0106724
0.2269602 0.1058060 0.0113632
0.2398889 0.1058322 0.0117214
0.2531809 0.1092751 0.0121018
0.2672491 0.1093023 0.0124831
0.2818202 0.1093389 0.0132897
0.2892911 0.1093572 0.0137122
0.3043629 0.1129022 0.0141565
0.3121875 0.1129210 0.0146062
0.3281836 0.1129491 0.0150639
0.3363477 0.1129679 0.0155404
0.3529898 0.1129962 0.0160270
0.3611979 0.1166359 0.0165486
0.3784027 0.1166649 0.0170663
0.3871309 0.1166844 0.0176054
0.3959386 0.1167038 0.0181612
0.4048198 0.1167233 0.0187343
0.4224837 0.1204784 0.0193368
0.4315303 0.1204984 0.0199465
0.4406287 0.1205184 0.0205741
0.4497736 0.1205383 0.0212208
0.4589580 0.1205584 0.0218874
0.4678955 0.1244112 0.0225949
0.4771407 0.1244316 0.0233038
0.4864117 0.1244418 0.0232966
0.4956935 0.1244623 0.0240272
0.5049838 0.1244827 0.0247802
0.5140914 0.1284449 0.0255792
0.5234820 0.1284555 0.0255712
0.5328572 0.1284766 0.0263715
0.5422149 0.1284977 0.0271963
0.5515479 0.1285190 0.0280464
0.5512672 0.1325702 0.0280716
0.5605707 0.1325920 0.0289489
0.5698373 0.1326137 0.0298529
0.5790645 0.1326244 0.0298436
0.5882377 0.1326463 0.0307749
0.5970819 0.1368286 0.0317628
0.5970819 0.1368286 0.0317628
0.6064039 0.1368513 0.0327521
0.6157854 0.1368740 0.0337711
0.6250909 0.1368855 0.0337601
0.6248200 0.1411693 0.0348519
0.6340375 0.1411927 0.0359344
0.0048683 0.1047499 0.0075827
0.0103473 0.1049198 0.0075304
0.0168784 0.1084248 0.0075034
0.0241723 0.1085187 0.0077166
0.0324026 0.1085885 0.0076957
0.0419841 0.1086602 0.0079224
0.0509194 0.1087073 0.0079081
0.0615900 0.1122645 0.0081540
0.0721280 0.1123053 0.0081418
0.0817892 0.1123476 0.0083923
0.0926343 0.1123807 0.0083823
0.1048372 0.1124139 0.0083723
0.1148552 0.1160542 0.0086402
0.1296920 0.1160889 0.0086299
0.1419904 0.1161250 0.0088979
0.1507898 0.1161526 0.0091768
0.1648445 0.1161890 0.0094616
0.1797928 0.1199477 0.0100761
0.1905826 0.1199764 0.0103917
0.2019338 0.1200154 0.0110627
0.2138001 0.1200444 0.0114115
0.2261817 0.1200735 0.0117713
0.2388743 0.1239332 0.0125439
0.2523366 0.1239632 0.0129389
0.2663734 0.1239935 0.0133463
0.2809173 0.1240236 0.0137663
0.2959546 0.1240539 0.0141994
0.3034128 0.1280153 0.0151325
0.3191517 0.1280463 0.0156064
0.3271923 0.1280674 0.0161000
0.3436034 0.1280986 0.0166038
0.3519608 0.1281195 0.0171285
0.3601574 0.1321821 0.0176854
0.3773407 0.1322142 0.0182382
0.3860590 0.1322358 0.0188137
0.3948572 0.1322573 0.0194071
0.4126683 0.1322895 0.0200128
0.4213783 0.1364627 0.0206611
0.4304225 0.1364735 0.0206548
0.4395150 0.1364956 0.0213039
0.4486543 0.1365179 0.0219731
0.4578345 0.1365400 0.0226629
0.4667684 0.1408262 0.0233950
0.4760107 0.1408489 0.0241286
0.4852795 0.1408601 0.0241211
0.4945596 0.1408828 0.0248770
0.5038493 0.1409056 0.0256561
0.5132394 0.1409284 0.0264590
0.5223485 0.1453198 0.0264744
0.5317255 0.1453432 0.0273024
0.5410857 0.1453667 0.0281558
0.5504218 0.1453901 0.0290357
0.5597326 0.1454016 0.0290266
0.5594491 0.1499107 0.0299691
0.5687205 0.1499348 0.0309042
0.5779533 0.1499466 0.0308946
0.5871329 0.1499706 0.0318578
0.5962572 0.1499947 0.0328503
0.5962572 0.1499947 0.0328503
0.6053138 0.1546355 0.0339026
0.6147040 0.1546607 0.0349564
0.6240193 0.1546732 0.0349450
0.6240152 0.1546858 0.0360420
0.6332445 0.1546984 0.0360303
0.0055199 0.1227463 0.0086281
0.0109876 0.1229248 0.0085737
0.0179399 0.1230633 0.0088082
0.0256895 0.1231581 0.0087791
0.0333298 0.1232378 0.0090380
0.0431789 0.1233076 0.0090163
0.0523033 0.1272715 0.0090082
0.0613361 0.1273273 0.0092824
0.0718335 0.1273727 0.0092685
0.0840445 0.1274290 0.0095505
0.0951618 0.1274657 0.0095391
0.1043202 0.1315182 0.0095392
0.1179547 0.1315674 0.0098323
0.1291912 0.1315963 0.0098234
0.1414510 0.1316255 0.0098145
0.1547781 0.1316660 0.0101189
0.1642355 0.1316857 0.0101128
0.1791395 0.1358742 0.0107701
0.1898984 0.1359061 0.0111098
0.2070753 0.1359486 0.0114566
0.2191645 0.1359921 0.0121976
0.2317723 0.1360243 0.0125819
0.2446897 0.1403077 0.0129900
0.2584383 0.1403412 0.0133989
0.2655002 0.1403753 0.0142685
0.2800133 0.1404088 0.0147173
0.2950209 0.1404424 0.0151783
0.3027038 0.1404648 0.0156585
0.3181799 0.1448673 0.0161633
0.3262071 0.1448906 0.0166742
0.3425924 0.1449251 0.0171958
0.3509378 0.1449483 0.0177389
0.3679217 0.1449830 0.0182932
0.3762848 0.1494933 0.0188875
0.3849933 0.1495171 0.0194832
0.4026499 0.1495526 0.0200913
0.4115761 0.1495765 0.0207234
0.4205528 0.1496003 0.0213747
0.4295875 0.1496242 0.0220460
0.4384028 0.1542430 0.0220591
0.4475369 0.1542674 0.0227515
0.4567122 0.1542919 0.0234653
0.4659230 0.1543163 0.0242011
0.4751626 0.1543408 0.0249594
0.4844296 0.1543528 0.0249517
0.4934265 0.1591056 0.0257562
0.5027153 0.1591306 0.0265622
0.5121058 0.1591558 0.0273929
0.5214977 0.1591682 0.0273843
0.5308756 0.1591935 0.0282403
0.5402377 0.1592187 0.0291227
0.5492958 0.1640949 0.0300589
0.5586106 0.1641076 0.0300495
0.5678856 0.1641335 0.0309871
0.5678813 0.1641466 0.0319631
0.5771183 0.1641593 0.0319532
0.5863025 0.1641852 0.0329485
0.5951627 0.1691724 0.0329676
0.6044988 0.1691992 0.0339933
0.6044948 0.1692126 0.0350612
0.6138958 0.1692261 0.0350498
0.6232141 0.1692532 0.0361382
0.6232098 0.1692667 0.0372715
0.6321821 0.1743795 0.0372924
0.0062716 0.1348312 0.0098010
0.0120675 0.1392398 0.0097511
0.0190689 0.1393847 0.0100206
0.0264273 0.1394806 0.0099904
0.0342839 0.1395579 0.0099663
0.0444066 0.1396471 0.0102600
0.0538333 0.1397055 0.0102415
0.0630525 0.1441045 0.0102355
0.0738335 0.1441667 0.0105467
0.0837067 0.1442073 0.0105340
0.0947819 0.1442599 0.0108583
0.1072704 0.1443010 0.0108452
0.1176092 0.1443322 0.0108354
0.1326265 0.1488571 0.0111808
0.1409119 0.1488788 0.0111740
0.1541986 0.1489114 0.0111638
0.1685140 0.1489565 0.0115124
0.1786500 0.1489784 0.0115055
0.1949727 0.1490240 0.0118645
0.2063463 0.1536514 0.0122495
0.2184067 0.1536869 0.0126354
0.2309797 0.1537352 0.0134519
0.2440701 0.1537709 0.0138753
0.2577950 0.1538068 0.0143118
0.2718127 0.1585580 0.0147752
0.2791151 0.1585829 0.0152428
0.2940930 0.1586198 0.0157201
0.3095508 0.1586568 0.0162122
0.3174477 0.1586946 0.0172584
0.3335966 0.1587317 0.0177980
