Plugins/FilmEmulator/Content/LUTs/FE_Kodak_2302_64.cube
TITLE "FE_Kodak_2302_33"
LUT_3D_SIZE 4
0.0019024 0.0019024 0.0019024
0.0043344 0.0043344 0.0043344
0.0151146 0.0151146 0.0151146
0.0494149 0.0494149 0.0494149
0.0030597 0.0030597 0.0030597
0.0108625 0.0108625 0.0108625
0.0355899 0.0355899 0.0355899
0.0978036 0.0978036 0.0978036
0.0074797 0.0074797 0.0074797
0.0259059 0.0259059 0.0259059
0.0741852 0.0741852 0.0741852
0.1741021 0.1741021 0.1741021
0.0176852 0.0176852 0.0176852
0.0564187 0.0564187 0.0564187
0.1378489 0.1378489 0.1378489
0.2728356 0.2728356 0.2728356
0.5034303 0.5034303 0.5034303
0.6359927 0.6359927 0.6359927
0.7460176 0.7460176 0.7460176
0.8182233 0.8182233 0.8182233
0.5962957 0.5962957 0.5962957
0.7206689 0.7206689 0.7206689
0.7986094 0.7986094 0.7986094
0.8562578 0.8562578 0.8562578
0.6844137 0.6844137 0.6844137
0.7771254 0.7771254 0.7771254
0.8408366 0.8408366 0.8408366
0.8827654 0.8827654 0.8827654
0.7540559 0.7540559 0.7540559
0.8298283 0.8298283 0.8298283
0.8746075 0.8746075 0.8746075
0.9045256 0.9045256 0.9045256
0.9359568 0.9359568 0.9359568
0.9483153 0.9483153 0.9483153
0.9569489 0.9569489 0.9569489
0.9641071 0.9641071 0.9641071
0.9450348 0.9450348 0.9450348
0.9542731 0.9542731 0.9542731
0.9618585 0.9618585 0.9618585
0.9687977 0.9687977 0.9687977
0.9514100 0.9514100 0.9514100
0.9606840 0.9606840 0.9606840
0.9664307 0.9664307 0.9664307
0.9730564 0.9730564 0.9730564
0.9582302 0.9582302 0.9582302
0.9651831 0.9651831 0.9651831
0.9710028 0.9710028 0.9710028
0.9767854 0.9767854 0.9767854
0.9823867 0.9823867 0.9823867
0.9853929 0.9853929 0.9853929
0.9873019 0.9873019 0.9873019
0.9889643 0.9889643 0.9889643
0.9843349 0.9843349 0.9843349
0.9868491 0.9868491 0.9868491
0.9885700 0.9885700 0.9885700
0.9899974 0.9899974 0.9899974
0.9863804 0.9863804 0.9863804
0.9881619 0.9881619 0.9881619
0.9896641 0.9896641 0.9896641
0.9909347 0.9909347 0.9909347
0.9877394 0.9877394 0.9877394
0.9893199 0.9893199 0.9893199
0.9906324 0.9906324 0.9906324
0.9917849 0.9917849 0.9917849
