Plugins/FilmEmulator/Content/LUTs/FE_Kodak_TriX_400_Dev9_64.cube
TITLE "FE_Kodak_TriX_400_Dev9_33"
LUT_3D_SIZE 8
0.0013594 0.0013594 0.0013594
0.0081127 0.0081127 0.0081127
0.0233660 0.0233660 0.0233660
0.0425183 0.0425183 0.0425183
0.0644699 0.0644699 0.0644699
0.0889032 0.0889032 0.0889032
0.1124034 0.1124034 0.1124034
0.1414597 0.1414597 0.1414597
0.0233660 0.0233660 0.0233660
0.0425183 0.0425183 0.0425183
0.0644699 0.0644699 0.0644699
0.0889032 0.0889032 0.0889032
0.1124034 0.1124034 0.1124034
0.1414597 0.1414597 0.1414597
0.1685222 0.1685222 0.1685222
0.1953139 0.1953139 0.1953139
0.0644699 0.0644699 0.0644699
0.0889032 0.0889032 0.0889032
0.1124034 0.1124034 0.1124034
0.1414597 0.1414597 0.1414597
0.1685222 0.1685222 0.1685222
0.1953139 0.1953139 0.1953139
0.2200601 0.2200601 0.2200601
0.2470579 0.2470579 0.2470579
0.1124034 0.1124034 0.1124034
0.1414597 0.1414597 0.1414597
0.1685222 0.1685222 0.1685222
0.1953139 0.1953139 0.1953139
0.2200601 0.2200601 0.2200601
0.2470579 0.2470579 0.2470579
0.2760859 0.2760859 0.2760859
0.3005853 0.3005853 0.3005853
0.1685222 0.1685222 0.1685222
0.1953139 0.1953139 0.1953139
0.2200601 0.2200601 0.2200601
0.2470579 0.2470579 0.2470579
0.2760859 0.2760859 0.2760859
0.3005853 0.3005853 0.3005853
0.3262788 0.3262788 0.3262788
0.3524672 0.3524672 0.3524672
0.2200601 0.2200601 0.2200601
0.2470579 0.2470579 0.2470579
0.2760859 0.2760859 0.2760859
0.3005853 0.3005853 0.3005853
0.3262788 0.3262788 0.3262788
0.3524672 0.3524672 0.3524672
0.3726273 0.3726273 0.3726273
0.3932399 0.3932399 0.3932399
0.2760859 0.2760859 0.2760859
0.3005853 0.3005853 0.3005853
0.3262788 0.3262788 0.3262788
0.3524672 0.3524672 0.3524672
0.3726273 0.3726273 0.3726273
0.3932399 0.3932399 0.3932399
0.4139931 0.4139931 0.4139931
0.4349309 0.4349309 0.4349309
0.3262788 0.3262788 0.3262788
0.3524672 0.3524672 0.3524672
0.3726273 0.3726273 0.3726273
0.3932399 0.3932399 0.3932399
0.4139931 0.4139931 0.4139931
0.4349309 0.4349309 0.4349309
0.4561031 0.4561031 0.4561031
0.4773718 0.4773718 0.4773718
0.0437314 0.0437314 0.0437314
0.0662491 0.0662491 0.0662491
0.0912716 0.0912716 0.0912716
0.1153293 0.1153293 0.1153293
0.1414597 0.1414597 0.1414597
0.1685222 0.1685222 0.1685222
0.1953139 0.1953139 0.1953139
0.2252855 0.2252855 0.2252855
0.0912716 0.0912716 0.0912716
0.1153293 0.1153293 0.1153293
0.1414597 0.1414597 0.1414597
0.1685222 0.1685222 0.1685222
0.1953139 0.1953139 0.1953139
0.2252855 0.2252855 0.2252855
0.2527169 0.2527169 0.2527169
0.2760859 0.2760859 0.2760859
0.1414597 0.1414597 0.1414597
0.1685222 0.1685222 0.1685222
0.1953139 0.1953139 0.1953139
0.2252855 0.2252855 0.2252855
0.2527169 0.2527169 0.2527169
0.2760859 0.2760859 0.2760859
0.3069005 0.3069005 0.3069005
0.3262788 0.3262788 0.3262788
0.1953139 0.1953139 0.1953139
0.2252855 0.2252855 0.2252855
0.2527169 0.2527169 0.2527169
0.2760859 0.2760859 0.2760859
0.3069005 0.3069005 0.3069005
0.3262788 0.3262788 0.3262788
0.3524672 0.3524672 0.3524672
0.3726273 0.3726273 0.3726273
0.2527169 0.2527169 0.2527169
0.2760859 0.2760859 0.2760859
0.3069005 0.3069005 0.3069005
0.3262788 0.3262788 0.3262788
0.3524672 0.3524672 0.3524672
0.3726273 0.3726273 0.3726273
0.4002004 0.4002004 0.4002004
0.4209417 0.4209417 0.4209417
0.3069005 0.3069005 0.3069005
0.3262788 0.3262788 0.3262788
0.3524672 0.3524672 0.3524672
0.3726273 0.3726273 0.3726273
0.4002004 0.4002004 0.4002004
0.4209417 0.4209417 0.4209417
0.4349309 0.4349309 0.4349309
0.4561031 0.4561031 0.4561031
0.3524672 0.3524672 0.3524672
0.3726273 0.3726273 0.3726273
0.4002004 0.4002004 0.4002004
0.4209417 0.4209417 0.4209417
0.4349309 0.4349309 0.4349309
0.4561031 0.4561031 0.4561031
0.4773718 0.4773718 0.4773718
0.4914528 0.4914528 0.4914528
0.4002004 0.4002004 0.4002004
0.4209417 0.4209417 0.4209417
0.4349309 0.4349309 0.4349309
0.4561031 0.4561031 0.4561031
0.4773718 0.4773718 0.4773718
0.4914528 0.4914528 0.4914528
0.5125926 0.5125926 0.5125926
0.5266653 0.5266653 0.5266653
0.1183212 0.1183212 0.1183212
0.1450772 0.1450772 0.1450772
0.1727748 0.1727748 0.1727748
0.2000800 0.2000800 0.2000800
0.2252855 0.2252855 0.2252855
0.2527169 0.2527169 0.2527169
0.2820941 0.2820941 0.2820941
0.3069005 0.3069005 0.3069005
0.1727748 0.1727748 0.1727748
0.2000800 0.2000800 0.2000800
0.2252855 0.2252855 0.2252855
0.2527169 0.2527169 0.2527169
0.2820941 0.2820941 0.2820941
0.3069005 0.3069005 0.3069005
0.3328193 0.3328193 0.3328193
0.3524672 0.3524672 0.3524672
0.2252855 0.2252855 0.2252855
0.2527169 0.2527169 0.2527169
0.2820941 0.2820941 0.2820941
0.3069005 0.3069005 0.3069005
0.3328193 0.3328193 0.3328193
0.3524672 0.3524672 0.3524672
0.3794509 0.3794509 0.3794509
0.4002004 0.4002004 0.4002004
0.2820941 0.2820941 0.2820941
0.3069005 0.3069005 0.3069005
0.3328193 0.3328193 0.3328193
0.3524672 0.3524672 0.3524672
0.3794509 0.3794509 0.3794509
0.4002004 0.4002004 0.4002004
0.4209417 0.4209417 0.4209417
0.4419658 0.4419658 0.4419658
0.3328193 0.3328193 0.3328193
0.3524672 0.3524672 0.3524672
0.3794509 0.3794509 0.3794509
0.4002004 0.4002004 0.4002004
0.4209417 0.4209417 0.4209417
0.4419658 0.4419658 0.4419658
0.4561031 0.4561031 0.4561031
0.4773718 0.4773718 0.4773718
0.3794509 0.3794509 0.3794509
0.4002004 0.4002004 0.4002004
0.4209417 0.4209417 0.4209417
0.4419658 0.4419658 0.4419658
0.4561031 0.4561031 0.4561031
0.4773718 0.4773718 0.4773718
0.4914528 0.4914528 0.4914528
0.5125926 0.5125926 0.5125926
0.4209417 0.4209417 0.4209417
0.4419658 0.4419658 0.4419658
0.4561031 0.4561031 0.4561031
0.4773718 0.4773718 0.4773718
0.4914528 0.4914528 0.4914528
0.5125926 0.5125926 0.5125926
0.5266653 0.5266653 0.5266653
0.5406960 0.5406960 0.5406960
0.4561031 0.4561031 0.4561031
0.4773718 0.4773718 0.4773718
0.4914528 0.4914528 0.4914528
0.5125926 0.5125926 0.5125926
0.5266653 0.5266653 0.5266653
0.5406960 0.5406960 0.5406960
0.5544780 0.5544780 0.5544780
0.5680853 0.5680853 0.5680853
0.2000800 0.2000800 0.2000800
0.2305984 0.2305984 0.2305984
0.2584608 0.2584608 0.2584608
0.2820941 0.2820941 0.2820941
0.3069005 0.3069005 0.3069005
0.3328193 0.3328193 0.3328193
0.3591332 0.3591332 0.3591332
0.3794509 0.3794509 0.3794509
0.2584608 0.2584608 0.2584608
0.2820941 0.2820941 0.2820941
0.3069005 0.3069005 0.3069005
0.3328193 0.3328193 0.3328193
0.3591332 0.3591332 0.3591332
0.3794509 0.3794509 0.3794509
0.4002004 0.4002004 0.4002004
0.4209417 0.4209417 0.4209417
0.3069005 0.3069005 0.3069005
0.3328193 0.3328193 0.3328193
0.3591332 0.3591332 0.3591332
0.3794509 0.3794509 0.3794509
0.4002004 0.4002004 0.4002004
0.4209417 0.4209417 0.4209417
0.4419658 0.4419658 0.4419658
0.4632000 0.4632000 0.4632000
0.3591332 0.3591332 0.3591332
0.3794509 0.3794509 0.3794509
0.4002004 0.4002004 0.4002004
0.4209417 0.4209417 0.4209417
0.4419658 0.4419658 0.4419658
0.4632000 0.4632000 0.4632000
0.4773718 0.4773718 0.4773718
0.4984996 0.4984996 0.4984996
0.4002004 0.4002004 0.4002004
0.4209417 0.4209417 0.4209417
0.4419658 0.4419658 0.4419658
0.4632000 0.4632000 0.4632000
0.4773718 0.4773718 0.4773718
0.4984996 0.4984996 0.4984996
0.5125926 0.5125926 0.5125926
0.5266653 0.5266653 0.5266653
0.4419658 0.4419658 0.4419658
0.4632000 0.4632000 0.4632000
0.4773718 0.4773718 0.4773718
0.4984996 0.4984996 0.4984996
0.5125926 0.5125926 0.5125926
0.5266653 0.5266653 0.5266653
0.5406960 0.5406960 0.5406960
0.5544780 0.5544780 0.5544780
0.4773718 0.4773718 0.4773718
0.4984996 0.4984996 0.4984996
0.5125926 0.5125926 0.5125926
0.5266653 0.5266653 0.5266653
0.5406960 0.5406960 0.5406960
0.5544780 0.5544780 0.5544780
0.5680853 0.5680853 0.5680853
0.5815905 0.5815905 0.5815905
0.5125926 0.5125926 0.5125926
0.5266653 0.5266653 0.5266653
0.5406960 0.5406960 0.5406960
0.5544780 0.5544780 0.5544780
0.5680853 0.5680853 0.5680853
0.5815905 0.5815905 0.5815905
0.5949746 0.5949746 0.5949746
0.6082191 0.6082191 0.6082191
0.2820941 0.2820941 0.2820941
0.3069005 0.3069005 0.3069005
0.3328193 0.3328193 0.3328193
0.3591332 0.3591332 0.3591332
0.3794509 0.3794509 0.3794509
0.4002004 0.4002004 0.4002004
0.4209417 0.4209417 0.4209417
0.4419658 0.4419658 0.4419658
0.3328193 0.3328193 0.3328193
0.3591332 0.3591332 0.3591332
0.3794509 0.3794509 0.3794509
0.4002004 0.4002004 0.4002004
0.4209417 0.4209417 0.4209417
0.4419658 0.4419658 0.4419658
0.4632000 0.4632000 0.4632000
0.4773718 0.4773718 0.4773718
0.3794509 0.3794509 0.3794509
0.4002004 0.4002004 0.4002004
0.4209417 0.4209417 0.4209417
0.4419658 0.4419658 0.4419658
0.4632000 0.4632000 0.4632000
0.4773718 0.4773718 0.4773718
0.4984996 0.4984996 0.4984996
0.5125926 0.5125926 0.5125926
0.4209417 0.4209417 0.4209417
0.4419658 0.4419658 0.4419658
0.4632000 0.4632000 0.4632000
0.4773718 0.4773718 0.4773718
0.4984996 0.4984996 0.4984996
0.5125926 0.5125926 0.5125926
0.5266653 0.5266653 0.5266653
0.5406960 0.5406960 0.5406960
0.4632000 0.4632000 0.4632000
0.4773718 0.4773718 0.4773718
0.4984996 0.4984996 0.4984996
0.5125926 0.5125926 0.5125926
0.5266653 0.5266653 0.5266653
0.5406960 0.5406960 0.5406960
0.5544780 0.5544780 0.5544780
0.5680853 0.5680853 0.5680853
0.4984996 0.4984996 0.4984996
0.5125926 0.5125926 0.5125926
0.5266653 0.5266653 0.5266653
0.5406960 0.5406960 0.5406960
0.5544780 0.5544780 0.5544780
0.5680853 0.5680853 0.5680853
0.5815905 0.5815905 0.5815905
0.5949746 0.5949746 0.5949746
0.5266653 0.5266653 0.5266653
0.5406960 0.5406960 0.5406960
0.5544780 0.5544780 0.5544780
0.5680853 0.5680853 0.5680853
0.5815905 0.5815905 0.5815905
0.5949746 0.5949746 0.5949746
0.6082191 0.6082191 0.6082191
0.6211327 0.6211327 0.6211327
0.5544780 0.5544780 0.5544780
0.5680853 0.5680853 0.5680853
0.5815905 0.5815905 0.5815905
0.5949746 0.5949746 0.5949746
0.6082191 0.6082191 0.6082191
0.6211327 0.6211327 0.6211327
0.6274408 0.6274408 0.6274408
0.6399260 0.6399260 0.6399260
0.3591332 0.3591332 0.3591332
0.3794509 0.3794509 0.3794509
0.4070783 0.4070783 0.4070783
0.4279218 0.4279218 0.4279218
0.4419658 0.4419658 0.4419658
0.4632000 0.4632000 0.4632000
0.4773718 0.4773718 0.4773718
0.4984996 0.4984996 0.4984996
0.4070783 0.4070783 0.4070783
0.4279218 0.4279218 0.4279218
0.4419658 0.4419658 0.4419658
0.4632000 0.4632000 0.4632000
0.4773718 0.4773718 0.4773718
0.4984996 0.4984996 0.4984996
0.5125926 0.5125926 0.5125926
0.5266653 0.5266653 0.5266653
0.4419658 0.4419658 0.4419658
0.4632000 0.4632000 0.4632000
0.4773718 0.4773718 0.4773718
0.4984996 0.4984996 0.4984996
0.5125926 0.5125926 0.5125926
0.5266653 0.5266653 0.5266653
0.5476424 0.5476424 0.5476424
0.5612932 0.5612932 0.5612932
0.4773718 0.4773718 0.4773718
0.4984996 0.4984996 0.4984996
0.5125926 0.5125926 0.5125926
0.5266653 0.5266653 0.5266653
0.5476424 0.5476424 0.5476424
0.5612932 0.5612932 0.5612932
0.5748520 0.5748520 0.5748520
0.5815905 0.5815905 0.5815905
0.5125926 0.5125926 0.5125926
0.5266653 0.5266653 0.5266653
0.5476424 0.5476424 0.5476424
0.5612932 0.5612932 0.5612932
0.5748520 0.5748520 0.5748520
0.5815905 0.5815905 0.5815905
0.5949746 0.5949746 0.5949746
0.6082191 0.6082191 0.6082191
0.5476424 0.5476424 0.5476424
0.5612932 0.5612932 0.5612932
0.5748520 0.5748520 0.5748520
0.5815905 0.5815905 0.5815905
0.5949746 0.5949746 0.5949746
0.6082191 0.6082191 0.6082191
0.6211327 0.6211327 0.6211327
0.6274408 0.6274408 0.6274408
0.5748520 0.5748520 0.5748520
0.5815905 0.5815905 0.5815905
0.5949746 0.5949746 0.5949746
0.6082191 0.6082191 0.6082191
0.6211327 0.6211327 0.6211327
0.6274408 0.6274408 0.6274408
0.6399260 0.6399260 0.6399260
0.6522247 0.6522247 0.6522247
0.5949746 0.5949746 0.5949746
0.6082191 0.6082191 0.6082191
0.6211327 0.6211327 0.6211327
0.6274408 0.6274408 0.6274408
0.6399260 0.6399260 0.6399260
0.6522247 0.6522247 0.6522247
0.6582999 0.6582999 0.6582999
0.6702943 0.6702943 0.6702943
0.4279218 0.4279218 0.4279218
0.4490242 0.4490242 0.4490242
0.4632000 0.4632000 0.4632000
0.4844091 0.4844091 0.4844091
0.4984996 0.4984996 0.4984996
0.5125926 0.5125926 0.5125926
0.5336874 0.5336874 0.5336874
0.5476424 0.5476424 0.5476424
0.4632000 0.4632000 0.4632000
0.4844091 0.4844091 0.4844091
0.4984996 0.4984996 0.4984996
0.5125926 0.5125926 0.5125926
0.5336874 0.5336874 0.5336874
0.5476424 0.5476424 0.5476424
0.5612932 0.5612932 0.5612932
0.5748520 0.5748520 0.5748520
0.4984996 0.4984996 0.4984996
0.5125926 0.5125926 0.5125926
0.5336874 0.5336874 0.5336874
0.5476424 0.5476424 0.5476424
0.5612932 0.5612932 0.5612932
0.5748520 0.5748520 0.5748520
0.5882989 0.5882989 0.5882989
0.5949746 0.5949746 0.5949746
0.5336874 0.5336874 0.5336874
0.5476424 0.5476424 0.5476424
0.5612932 0.5612932 0.5612932
0.5748520 0.5748520 0.5748520
0.5882989 0.5882989 0.5882989
0.5949746 0.5949746 0.5949746
0.6082191 0.6082191 0.6082191
0.6211327 0.6211327 0.6211327
0.5612932 0.5612932 0.5612932
0.5748520 0.5748520 0.5748520
0.5882989 0.5882989 0.5882989
0.5949746 0.5949746 0.5949746
0.6082191 0.6082191 0.6082191
0.6211327 0.6211327 0.6211327
0.6337059 0.6337059 0.6337059
0.6399260 0.6399260 0.6399260
0.5882989 0.5882989 0.5882989
0.5949746 0.5949746 0.5949746
0.6082191 0.6082191 0.6082191
0.6211327 0.6211327 0.6211327
0.6337059 0.6337059 0.6337059
0.6399260 0.6399260 0.6399260
0.6522247 0.6522247 0.6522247
0.6582999 0.6582999 0.6582999
0.6082191 0.6082191 0.6082191
0.6211327 0.6211327 0.6211327
0.6337059 0.6337059 0.6337059
0.6399260 0.6399260 0.6399260
0.6522247 0.6522247 0.6522247
0.6582999 0.6582999 0.6582999
0.6702943 0.6702943 0.6702943
0.6762106 0.6762106 0.6762106
0.6337059 0.6337059 0.6337059
0.6399260 0.6399260 0.6399260
0.6522247 0.6522247 0.6522247
0.6582999 0.6582999 0.6582999
0.6702943 0.6702943 0.6702943
0.6762106 0.6762106 0.6762106
0.6819440 0.6819440 0.6819440
0.6931208 0.6931208 0.6931208
0.4844091 0.4844091 0.4844091
0.4984996 0.4984996 0.4984996
0.5196329 0.5196329 0.5196329
0.5336874 0.5336874 0.5336874
0.5476424 0.5476424 0.5476424
0.5612932 0.5612932 0.5612932
0.5748520 0.5748520 0.5748520
0.5882989 0.5882989 0.5882989
0.5196329 0.5196329 0.5196329
0.5336874 0.5336874 0.5336874
0.5476424 0.5476424 0.5476424
0.5612932 0.5612932 0.5612932
0.5748520 0.5748520 0.5748520
0.5882989 0.5882989 0.5882989
0.6016154 0.6016154 0.6016154
0.6082191 0.6082191 0.6082191
0.5476424 0.5476424 0.5476424
0.5612932 0.5612932 0.5612932
0.5748520 0.5748520 0.5748520
0.5882989 0.5882989 0.5882989
0.6016154 0.6016154 0.6016154
0.6082191 0.6082191 0.6082191
0.6211327 0.6211327 0.6211327
0.6337059 0.6337059 0.6337059
0.5748520 0.5748520 0.5748520
0.5882989 0.5882989 0.5882989
0.6016154 0.6016154 0.6016154
0.6082191 0.6082191 0.6082191
0.6211327 0.6211327 0.6211327
0.6337059 0.6337059 0.6337059
0.6399260 0.6399260 0.6399260
0.6522247 0.6522247 0.6522247
0.6016154 0.6016154 0.6016154
0.6082191 0.6082191 0.6082191
0.6211327 0.6211327 0.6211327
0.6337059 0.6337059 0.6337059
0.6399260 0.6399260 0.6399260
0.6522247 0.6522247 0.6522247
0.6582999 0.6582999 0.6582999
0.6702943 0.6702943 0.6702943
0.6211327 0.6211327 0.6211327
0.6337059 0.6337059 0.6337059
0.6399260 0.6399260 0.6399260
0.6522247 0.6522247 0.6522247
0.6582999 0.6582999 0.6582999
0.6702943 0.6702943 0.6702943
0.6762106 0.6762106 0.6762106
0.6875595 0.6875595 0.6875595
0.6399260 0.6399260 0.6399260
0.6522247 0.6522247 0.6522247
0.6582999 0.6582999 0.6582999
0.6702943 0.6702943 0.6702943
0.6762106 0.6762106 0.6762106
0.6875595 0.6875595 0.6875595
0.6931208 0.6931208 0.6931208
0.6986263 0.6986263 0.6986263
0.6582999 0.6582999 0.6582999
0.6702943 0.6702943 0.6702943
0.6762106 0.6762106 0.6762106
0.6875595 0.6875595 0.6875595
0.6931208 0.6931208 0.6931208
0.6986263 0.6986263 0.6986263
0.7094666 0.7094666 0.7094666
0.7147997 0.7147997 0.7147997
