Plugins/FilmEmulator/Content/LUTs/FE_Kodak_Portra_Endura_64.cube
TITLE "FE_Kodak_Portra_Endura_33"
LUT_3D_SIZE 8
0.0013672 0.0089930 0.0172631
0.3055708 0.0618902 0.0254701
0.8495870 0.2092825 0.0616588
1.0000000 0.3316223 0.1070399
1.0000000 0.4107392 0.1451436
1.0000000 0.4618199 0.1772834
1.0000000 0.4921631 0.2066761
1.0000000 0.5186529 0.2324737
0.0347060 0.5173891 0.0769489
0.4372278 0.5378784 0.0887783
0.8586293 0.5973814 0.1283076
1.0000000 0.6421918 0.1691279
1.0000000 0.6687196 0.2060013
1.0000000 0.6846288 0.2383527
1.0000000 0.6885299 0.2614534
1.0000000 0.6873930 0.2854317
0.1848887 0.8951316 0.2371010
0.5836723 0.9011655 0.2504755
0.8586893 0.9130298 0.2820355
0.9525253 0.9223266 0.3097157
0.9910220 0.9259238 0.3442785
1.0000000 0.9279342 0.3756949
1.0000000 0.9276452 0.4025606
1.0000000 0.9264908 0.4261414
0.3376769 0.9762176 0.4000197
0.7059157 0.9765067 0.4140303
0.8857080 0.9801168 0.4343912
0.9474705 0.9835547 0.4495897
0.9727728 0.9851397 0.4607579
0.9838431 0.9850913 0.4787259
0.9893593 0.9844197 0.5042270
0.9932556 0.9830929 0.5274384
0.4756996 0.9940434 0.5248640
0.7883082 0.9927325 0.5371681
0.9113151 0.9945624 0.5529817
0.9545169 0.9961740 0.5643042
0.9722197 0.9970641 0.5690393
0.9797241 0.9977756 0.5690625
0.9833398 0.9981090 0.5685246
0.9864017 0.9971632 0.5891391
0.5913122 0.9961193 0.6321902
0.8424019 0.9952309 0.6404987
0.9299195 0.9966774 0.6490804
0.9621575 0.9979192 0.6553433
0.9753178 0.9987903 0.6572690
0.9808642 0.9994739 0.6539020
0.9836525 0.9999223 0.6503190
0.9852892 1.0000000 0.6439972
0.6837372 0.9945543 0.7259820
0.8803819 0.9944475 0.7297145
0.9444636 0.9956967 0.7355683
0.9687402 0.9968646 0.7364540
0.9790024 0.9976674 0.7368289
0.9832249 0.9982888 0.7319598
0.9855361 0.9986945 0.7280556
0.9867746 0.9991882 0.7206984
0.7676330 0.9927502 0.7964711
0.9071348 0.9931968 0.7998571
0.9552566 0.9944744 0.8024751
0.9741760 0.9954353 0.8031021
0.9820010 0.9960842 0.8015223
0.9854177 0.9965556 0.7978344
0.9873536 0.9970121 0.7932408
0.9884580 0.9973655 0.7880980
0.0218619 0.1070520 0.7162828
0.5732733 0.2118912 0.6971768
0.9470631 0.3400270 0.6867537
1.0000000 0.4295346 0.6863856
1.0000000 0.4884185 0.6867219
1.0000000 0.5302229 0.6857491
1.0000000 0.5580602 0.6791595
1.0000000 0.5812097 0.6753963
0.1997141 0.6948751 0.7892864
0.6762320 0.7296660 0.7815067
0.9141409 0.7634048 0.7770912
0.9989343 0.7814717 0.7771220
1.0000000 0.7926143 0.7742069
1.0000000 0.7966989 0.7694881
1.0000000 0.7957182 0.7656273
1.0000000 0.7902774 0.7577816
0.4284501 0.9202397 0.8580487
0.7809918 0.9277406 0.8545347
0.9194084 0.9368302 0.8527964
0.9699335 0.9426961 0.8536674
0.9910008 0.9458113 0.8533864
1.0000000 0.9459735 0.8490352
1.0000000 0.9458580 0.8459177
1.0000000 0.9452127 0.8422578
0.5828136 0.9655964 0.8990954
0.8459763 0.9684654 0.8973595
0.9364523 0.9724917 0.8979877
0.9707029 0.9749864 0.8983847
0.9847460 0.9766353 0.8979915
0.9909244 0.9771336 0.8963187
0.9940299 0.9774812 0.8941460
0.9962519 0.9773738 0.8915212
0.6884695 0.9784439 0.9255015
0.8839260 0.9801680 0.9256555
0.9493582 0.9826004 0.9259921
0.9741572 0.9842848 0.9261392
0.9843993 0.9852526 0.9256052
0.9889827 0.9857438 0.9243284
0.9915814 0.9858897 0.9225387
0.9931538 0.9860371 0.9205143
0.7693845 0.9832767 0.9434796
0.9115183 0.9847634 0.9426298
0.9585055 0.9865847 0.9437065
0.9774706 0.9878129 0.9436189
0.9853253 0.9885045 0.9429577
0.9887550 0.9888409 0.9427253
0.9909099 0.9890604 0.9413468
0.9922128 0.9891846 0.9397652
0.8283239 0.9859709 0.9558372
0.9290315 0.9873170 0.9552467
0.9651586 0.9887083 0.9559967
0.9799259 0.9896507 0.9558498
0.9860577 0.9901615 0.9559910
0.9889206 0.9904690 0.9550675
0.9908379 0.9906504 0.9539761
0.9918500 0.9907337 0.9534473
0.8687069 0.9876128 0.9637614
0.9429954 0.9889082 0.9639536
0.9705906 0.9900719 0.9645152
0.9819927 0.9908508 0.9643435
0.9866310 0.9912300 0.9643585
0.9892009 0.9914542 0.9636155
0.9907767 0.9916310 0.9633436
0.9916475 0.9916950 0.9623268
0.2606784 0.3685995 0.9953933
0.7554372 0.4626911 0.9768475
0.9567812 0.5383921 0.9673718
1.0000000 0.5865902 0.9614970
1.0000000 0.6156763 0.9588091
1.0000000 0.6449624 0.9565085
1.0000000 0.6660792 0.9547043
1.0000000 0.6846409 0.9520392
0.4853079 0.8272242 0.9726707
0.8159415 0.8525389 0.9648262
0.9349528 0.8705156 0.9622590
0.9816331 0.8795202 0.9605925
1.0000000 0.8853938 0.9600750
1.0000000 0.8851859 0.9595683
1.0000000 0.8843338 0.9583113
1.0000000 0.8812972 0.9577028
0.6557841 0.9469557 0.9736556
0.8732862 0.9544264 0.9699463
0.9456714 0.9600371 0.9692523
0.9743309 0.9634973 0.9691801
0.9863572 0.9651972 0.9691168
0.9919674 0.9656882 0.9684265
0.9951949 0.9657166 0.9681068
0.9972776 0.9654171 0.9677071
0.7606034 0.9732265 0.9771099
0.9070520 0.9767553 0.9754136
0.9566586 0.9794536 0.9751967
0.9764230 0.9813171 0.9753065
0.9849885 0.9821573 0.9753208
0.9889170 0.9826021 0.9748672
0.9913008 0.9826825 0.9746573
0.9926603 0.9827619 0.9744036
0.8267116 0.9818293 0.9799512
0.9283903 0.9840638 0.9789805
0.9642583 0.9859040 0.9789618
0.9793506 0.9871156 0.9791112
0.9854556 0.9877245 0.9791455
0.9885716 0.9879662 0.9790627
0.9904944 0.9881375 0.9786670
0.9915669 0.9882112 0.9784791
0.8690503 0.9855272 0.9822425
0.9422030 0.9872522 0.9816591
0.9700619 0.9886684 0.9817104
0.9815355 0.9895494 0.9818394
0.9861743 0.9900296 0.9818647
0.9886895 0.9902561 0.9815860
0.9903207 0.9904113 0.9814882
0.9912503 0.9904801 0.9813393
0.8983738 0.9877441 0.9839255
0.9531130 0.9892026 0.9835918
0.9742022 0.9903467 0.9836856
0.9830006 0.9910058 0.9837896
0.9867792 0.9913378 0.9837983
0.9890112 0.9915466 0.9837598
0.9903369 0.9917001 0.9836853
0.9911109 0.9917547 0.9835476
0.9200600 0.9891995 0.9853222
0.9610917 0.9904919 0.9851619
0.9774840 0.9913948 0.9852694
0.9842101 0.9918997 0.9853526
0.9873279 0.9921930 0.9853623
0.9892799 0.9923693 0.9853191
0.9904109 0.9924663 0.9852349
0.9910830 0.9925386 0.9851276
0.5520980 0.5952843 1.0000000
0.8590330 0.6583607 1.0000000
0.9696035 0.6969233 0.9953648
1.0000000 0.7207975 0.9925348
1.0000000 0.7319728 0.9911037
1.0000000 0.7348959 0.9904488
1.0000000 0.7334241 0.9901301
1.0000000 0.7492990 0.9888581
0.7137526 0.8966017 0.9901621
0.8912660 0.9114262 0.9860905
0.9549803 0.9218752 0.9847407
0.9813049 0.9268383 0.9841246
0.9932273 0.9287125 0.9838266
0.9989649 0.9284812 0.9836336
1.0000000 0.9275041 0.9834664
1.0000000 0.9257950 0.9833121
0.8093067 0.9625947 0.9876117
0.9218556 0.9683264 0.9859262
0.9620711 0.9718103 0.9854299
0.9788476 0.9738319 0.9853032
0.9862276 0.9747504 0.9852425
0.9897757 0.9749918 0.9851615
0.9921404 0.9753134 0.9850865
0.9934447 0.9750323 0.9849652
0.8631808 0.9790322 0.9879044
0.9398074 0.9819067 0.9869407
0.9690912 0.9839934 0.9867709
0.9808768 0.9850842 0.9868768
0.9858932 0.9856749 0.9868838
0.9887165 0.9860027 0.9868532
0.9904767 0.9860490 0.9867855
0.9914343 0.9860896 0.9867039
0.8962929 0.9848626 0.9884576
0.9521929 0.9868374 0.9878923
0.9737386 0.9882289 0.9878438
0.9827126 0.9890365 0.9878902
0.9865644 0.9894312 0.9879032
0.9887719 0.9896748 0.9879794
0.9901646 0.9898109 0.9879460
0.9909757 0.9898664 0.9878900
0.9192898 0.9875941 0.9888583
0.9607316 0.9891832 0.9885501
0.9769204 0.9902077 0.9885685
0.9839972 0.9908082 0.9886295
0.9871456 0.9911170 0.9887221
0.9891288 0.9913152 0.9887258
0.9902093 0.9914117 0.9887006
0.9909408 0.9914656 0.9886581
0.9350987 0.9893146 0.9892622
0.9669541 0.9906196 0.9891152
0.9797797 0.9914487 0.9891706
0.9850715 0.9918879 0.9892195
0.9877127 0.9921378 0.9893032
0.9893872 0.9923269 0.9893075
0.9903306 0.9924073 0.9892818
0.9909559 0.9924515 0.9892434
0.9469734 0.9904727 0.9895276
0.9715483 0.9915416 0.9895201
0.9816130 0.9922324 0.9896000
0.9858563 0.9925801 0.9896566
0.9881589 0.9927931 0.9897335
0.9896295 0.9929533 0.9897508
0.9904222 0.9930215 0.9897398
0.9910167 0.9930674 0.9897212
0.7618529 0.7509686 1.0000000
0.9183089 0.7829458 0.9985250
0.9790327 0.8038515 0.9957988
1.0000000 0.8137689 0.9945177
1.0000000 0.8168676 0.9940003
1.0000000 0.8150530 0.9938959
1.0000000 0.8132469 0.9939226
1.0000000 0.8084473 0.9940750
0.8427527 0.9353371 0.9914078
0.9325333 0.9430588 0.9895066
0.9688636 0.9486517 0.9887713
0.9838941 0.9514383 0.9884959
0.9906451 0.9516136 0.9884484
0.9944548 0.9516486 0.9883726
0.9972162 0.9506246 0.9883204
0.9989467 0.9491776 0.9883393
0.8899281 0.9726129 0.9900203
0.9491554 0.9761071 0.9891624
0.9729000 0.9783540 0.9889869
0.9826190 0.9796901 0.9889575
0.9870552 0.9800861 0.9889413
0.9897509 0.9802227 0.9889634
0.9913414 0.9803722 0.9889452
0.9923431 0.9801353 0.9889043
0.9166058 0.9829501 0.9900353
0.9596666 0.9851699 0.9896013
0.9765261 0.9864731 0.9895871
0.9837267 0.9872482 0.9896216
0.9871070 0.9876397 0.9896425
0.9892325 0.9878871 0.9896903
0.9904638 0.9878858 0.9896722
0.9912010 0.9879184 0.9896884
0.9341199 0.9869222 0.9901799
0.9665725 0.9885297 0.9899560
0.9793507 0.9895205 0.9900117
0.9848599 0.9900541 0.9900630
0.9876158 0.9903494 0.9901253
0.9893640 0.9905380 0.9901456
0.9903495 0.9906304 0.9901469
0.9909990 0.9906820 0.9901671
0.9466891 0.9890692 0.9903494
0.9714600 0.9903585 0.9902596
0.9815536 0.9911173 0.9903440
0.9858238 0.9915056 0.9903967
0.9881593 0.9917394 0.9904580
0.9895787 0.9918797 0.9904745
0.9904336 0.9919914 0.9904810
0.9910021 0.9920359 0.9905006
0.9565936 0.9904597 0.9905108
0.9753203 0.9914823 0.9905008
0.9830971 0.9920629 0.9905705
0.9865448 0.9923696 0.9906456
0.9885723 0.9925891 0.9906857
0.9897981 0.9927089 0.9907275
0.9905314 0.9927724 0.9907315
0.9910620 0.9928131 0.9907289
0.9633192 0.9913844 0.9906572
0.9780959 0.9922098 0.9907113
0.9842678 0.9926962 0.9907845
0.9871970 0.9929501 0.9908334
0.9890436 0.9931468 0.9908952
0.9900070 0.9932340 0.9909075
0.9906413 0.9932898 0.9909316
0.9911419 0.9933496 0.9909330
0.8674544 0.8470979 0.9972466
0.9501342 0.8634316 0.9944720
0.9844046 0.8724771 0.9932672
1.0000000 0.8762828 0.9927307
1.0000000 0.8759328 0.9926263
1.0000000 0.8742666 0.9926047
1.0000000 0.8714556 0.9926693
1.0000000 0.8678065 0.9928337
0.9062287 0.9561257 0.9909251
0.9559375 0.9612648 0.9900360
0.9769641 0.9638073 0.9897285
0.9857456 0.9651283 0.9896531
0.9900438 0.9654750 0.9896117
0.9928523 0.9654620 0.9896078
0.9944834 0.9649692 0.9895857
0.9957706 0.9637167 0.9895653
0.9304091 0.9785479 0.9905056
0.9646902 0.9809661 0.9901201
0.9791095 0.9825976 0.9900814
0.9850815 0.9832263 0.9900836
0.9881305 0.9836287 0.9901152
0.9900892 0.9836586 0.9901105
0.9911494 0.9837053 0.9901035
0.9919376 0.9835060 0.9901006
0.9454373 0.9855819 0.9906179
0.9710062 0.9872458 0.9904599
0.9814249 0.9881425 0.9904960
0.9857233 0.9886132 0.9905342
0.9882061 0.9889013 0.9905803
0.9897826 0.9890664 0.9905986
0.9906346 0.9891270 0.9906170
0.9912508 0.9891477 0.9906111
0.9561686 0.9885289 0.9907538
0.9751656 0.9897292 0.9907085
0.9830457 0.9904179 0.9907776
0.9865601 0.9907706 0.9908235
0.9886373 0.9910393 0.9908782
0.9898299 0.9911584 0.9908958
0.9905922 0.9912260 0.9909176
0.9911462 0.9912637 0.9909186
0.9632640 0.9902293 0.9908984
0.9781029 0.9911657 0.9909139
0.9842708 0.9917173 0.9909955
0.9871191 0.9919859 0.9910401
0.9890144 0.9921764 0.9910911
0.9900044 0.9922669 0.9911064
0.9906573 0.9923207 0.9911268
0.9911712 0.9923904 0.9911339
0.9689962 0.9913220 0.9910181
0.9804741 0.9920669 0.9910711
0.9853051 0.9924926 0.9911519
0.9877203 0.9927145 0.9911988
0.9892997 0.9928696 0.9912458
0.9901886 0.9929759 0.9912684
0.9907551 0.9930242 0.9912878
0.9912370 0.9930614 0.9912945
0.9731922 0.9920752 0.9911321
0.9823400 0.9926897 0.9912035
0.9860929 0.9930193 0.9912779
0.9882740 0.9932181 0.9913252
0.9895810 0.9933615 0.9913701
0.9903278 0.9934288 0.9913858
0.9908666 0.9934940 0.9914086
0.9912835 0.9935261 0.9914140
0.9206197 0.9018386 0.9935229
0.9669668 0.9109604 0.9921818
0.9872606 0.9158983 0.9915943
0.9959076 0.9170940 0.9914178
1.0000000 0.9167394 0.9913705
1.0000000 0.9146253 0.9914051
1.0000000 0.9127851 0.9914618
1.0000000 0.9093987 0.9915756
0.9406062 0.9678296 0.9906946
0.9699267 0.9711057 0.9902925
0.9817791 0.9727439 0.9901860
0.9871448 0.9733920 0.9901689
0.9901844 0.9735706 0.9901551
0.9920834 0.9734502 0.9901560
0.9932468 0.9731031 0.9901417
0.9941723 0.9726816 0.9901395
0.9544842 0.9825522 0.9906937
0.9742517 0.9841517 0.9905630
0.9830227 0.9851862 0.9905856
0.9866981 0.9855110 0.9906012
0.9889915 0.9858005 0.9906323
0.9903717 0.9859419 0.9906442
0.9912392 0.9858349 0.9906462
0.9918590 0.9858267 0.9906533
0.9626958 0.9874762 0.9908790
0.9779266 0.9886677 0.9908717
0.9840930 0.9892849 0.9909167
0.9871982 0.9896299 0.9909664
0.9890911 0.9898430 0.9910061
0.9901886 0.9899452 0.9910220
0.9908713 0.9899890 0.9910371
0.9913912 0.9899365 0.9910312
0.9688594 0.9897562 0.9910413
0.9804608 0.9906269 0.9910775
0.9851802 0.9910666 0.9911401
0.9877776 0.9913319 0.9911848
0.9893776 0.9915001 0.9912254
0.9902390 0.9915777 0.9912487
0.9908632 0.9916679 0.9912627
0.9913272 0.9916953 0.9912754
0.9732372 0.9911208 0.9911742
0.9821699 0.9917811 0.9912410
0.9861192 0.9921333 0.9913000
0.9882388 0.9923387 0.9913501
0.9895786 0.9925004 0.9913850
0.9903434 0.9925690 0.9914083
0.9909298 0.9926181 0.9914269
0.9913529 0.9926462 0.9914330
0.9767060 0.9919969 0.9912866
0.9835576 0.9925075 0.9913619
0.9868061 0.9927923 0.9914262
0.9887378 0.9929985 0.9914737
0.9898033 0.9930990 0.9915065
0.9905092 0.9931616 0.9915226
0.9910192 0.9932263 0.9915437
0.9913862 0.9932516 0.9915560
0.9792449 0.9925992 0.9913893
0.9846787 0.9930100 0.9914603
0.9874341 0.9932690 0.9915252
0.9890965 0.9934247 0.9915733
0.9900246 0.9935281 0.9916002
0.9906339 0.9935820 0.9916214
0.9910900 0.9936366 0.9916338
0.9914528 0.9936643 0.9916472
0.9508943 0.9352742 0.9916601
0.9765674 0.9404774 0.9910473
0.9881393 0.9421922 0.9908410
0.9937224 0.9421526 0.9907751
0.9971339 0.9422095 0.9907445
0.9994336 0.9408182 0.9907598
1.0000000 0.9390650 0.9908026
1.0000000 0.9371358 0.9908550
0.9605836 0.9752510 0.9906510
0.9773263 0.9771357 0.9904990
0.9846792 0.9780299 0.9904786
0.9882559 0.9785963 0.9904886
0.9904941 0.9786476 0.9904878
0.9917856 0.9784772 0.9904883
0.9926799 0.9781969 0.9904785
0.9934185 0.9778670 0.9904741
0.9681308 0.9853077 0.9908621
0.9800254 0.9863537 0.9908448
0.9852580 0.9869667 0.9908841
0.9879258 0.9872845 0.9909186
0.9896668 0.9874818 0.9909413
0.9906234 0.9874411 0.9909482
0.9913166 0.9874643 0.9909525
0.9918346 0.9874522 0.9909586
0.9730086 0.9889019 0.9910774
0.9821216 0.9897121 0.9911240
0.9860350 0.9901192 0.9911705
0.9883434 0.9903727 0.9912151
0.9897156 0.9905150 0.9912406
0.9905087 0.9905807 0.9912593
0.9910862 0.9906167 0.9912726
0.9915344 0.9906331 0.9912767
0.9763371 0.9906470 0.9912345
0.9835526 0.9912529 0.9912997
0.9867393 0.9915579 0.9913496
0.9887310 0.9918012 0.9914007
0.9898803 0.9919133 0.9914268
0.9905617 0.9919694 0.9914455
0.9910914 0.9920074 0.9914604
0.9915003 0.9920290 0.9914669
0.9793071 0.9917685 0.9913660
0.9847172 0.9922149 0.9914309
0.9873855 0.9924639 0.9914860
0.9890850 0.9926592 0.9915348
0.9900340 0.9927493 0.9915585
0.9906579 0.9928039 0.9915780
0.9911569 0.9928440 0.9915941
0.9914963 0.9928901 0.9916040
0.9812313 0.9924655 0.9914680
0.9855493 0.9928180 0.9915318
0.9879726 0.9930616 0.9915917
0.9893769 0.9931961 0.9916323
0.9902206 0.9932950 0.9916581
0.9907735 0.9933425 0.9916766
0.9912064 0.9933771 0.9916915
0.9915209 0.9934174 0.9917009
0.9829441 0.9929844 0.9915565
0.9864055 0.9932696 0.9916183
0.9884123 0.9934684 0.9916729
0.9896448 0.9935855 0.9917113
0.9903665 0.9936673 0.9917344
0.9908882 0.9937137 0.9917532
0.9912913 0.9937456 0.9917634
0.9915799 0.9937817 0.9917765
