Plugins/FilmEmulator/Content/LUTs/FE_Kodak_Aerocolor_2460_64.cube
TITLE "FE_Kodak_Aerocolor_2460_33"
LUT_3D_SIZE 8
0.0002109 0.0002360 0.0002998
0.0509730 0.0007617 0.0016773
0.1902664 0.0023550 0.0055106
0.3663435 0.0049755 0.0116056
0.5348047 0.0084757 0.0195465
0.6714810 0.0131645 0.0297542
0.7573809 0.0184493 0.0407454
0.8203307 0.0249717 0.0537079
0.0004893 0.0461362 0.0038736
0.0583106 0.0603013 0.0093529
0.2056653 0.0703015 0.0171291
0.3873038 0.0802027 0.0269806
0.5566459 0.0930367 0.0387548
0.6798614 0.1041769 0.0518080
0.7635467 0.1126548 0.0649755
0.8247803 0.1247933 0.0792464
0.0016630 0.1554094 0.0134681
0.0633395 0.1806133 0.0224845
0.2152330 0.1998417 0.0332360
0.3919508 0.2183581 0.0472698
0.5611337 0.2301930 0.0609328
0.6927345 0.2480814 0.0762794
0.7741519 0.2659061 0.0926247
0.8272333 0.2767177 0.1090037
0.0037885 0.3058943 0.0286010
0.0684854 0.3324213 0.0396235
0.2239890 0.3607364 0.0545249
0.4045335 0.3770551 0.0682248
0.5752400 0.3928283 0.0850240
0.6953624 0.4074827 0.1027741
0.7762103 0.4213164 0.1208826
0.8348531 0.4432767 0.1386447
0.0067769 0.4576593 0.0479782
0.0737762 0.4753392 0.0616885
0.2322250 0.4953169 0.0770162
0.4163170 0.5122687 0.0932539
0.5774362 0.5281269 0.1125333
0.7060542 0.5430101 0.1322883
0.7848924 0.5565503 0.1510988
0.8360168 0.5696796 0.1726408
0.0110433 0.5719561 0.0712161
0.0793096 0.5946658 0.0863379
0.2404474 0.6132515 0.1043374
0.4180350 0.6203797 0.1222145
0.5900180 0.6345712 0.1397707
0.7075438 0.6477402 0.1595794
0.7861087 0.6602866 0.1820980
0.8369241 0.6638745 0.2014874
0.0160544 0.6689653 0.0961217
0.0850863 0.6799191 0.1126321
0.2485310 0.6959056 0.1322411
0.4291741 0.7018496 0.1506263
0.5914318 0.7141598 0.1719169
0.7087569 0.7256281 0.1957965
0.7869969 0.7291885 0.2166830
0.8433340 0.7393269 0.2401535
0.0221843 0.7317612 0.1243656
0.0882875 0.7458847 0.1385077
0.2566029 0.7534305 0.1617340
0.4410048 0.7648290 0.1844738
0.6032722 0.7688963 0.2040620
0.7182677 0.7783082 0.2263125
0.7946427 0.7814284 0.2499539
0.8439362 0.7894636 0.2693436
0.0016831 0.0061709 0.0634364
0.0710486 0.0100577 0.0794505
0.2261057 0.0142295 0.0935646
0.3995721 0.0193035 0.1096763
0.5721589 0.0253071 0.1283175
0.6926239 0.0310587 0.1489210
0.7743503 0.0378648 0.1684563
0.8277999 0.0458692 0.1850727
0.0026105 0.0867053 0.1013862
0.0787702 0.1015195 0.1168527
0.2396002 0.1140779 0.1345878
0.4175788 0.1269239 0.1548730
0.5800469 0.1404661 0.1733085
0.6990267 0.1508983 0.1935851
0.7792283 0.1617021 0.2156653
0.8373307 0.1773677 0.2345167
0.0041623 0.2213248 0.1329945
0.0854365 0.2471948 0.1527160
0.2498971 0.2671780 0.1704472
0.4321623 0.2792382 0.1896930
0.5948380 0.2982482 0.2115094
0.7110692 0.3098289 0.2345999
0.7890056 0.3287818 0.2543543
0.8393756 0.3399394 0.2746507
0.0075159 0.3813248 0.1648733
0.0892036 0.4050673 0.1879967
0.2593526 0.4222424 0.2091476
0.4350026 0.4365470 0.2262978
0.5976504 0.4596974 0.2512442
0.7134782 0.4729185 0.2713588
0.7908583 0.4856929 0.2924937
0.8408756 0.4980857 0.3146058
0.0118258 0.5167648 0.1998050
0.0962903 0.5391896 0.2219384
0.2685245 0.5565325 0.2458287
0.4478103 0.5709078 0.2653749
0.6103368 0.5845170 0.2862065
0.7150677 0.5886086 0.3073703
0.7921469 0.6009102 0.3301754
0.8474089 0.6129417 0.3544599
0.0171695 0.6245862 0.2335989
0.1038046 0.6441805 0.2583573
0.2774314 0.6515140 0.2781462
0.4601047 0.6648066 0.2995987
0.6118907 0.6768320 0.3219938
0.7249749 0.6882047 0.3455811
0.7999784 0.6916416 0.3696793
0.8482587 0.7019993 0.3952181
0.0237262 0.7058697 0.2701181
0.1079108 0.7143341 0.2905467
0.2863815 0.7277993 0.3125503
0.4615362 0.7390807 0.3354760
0.6236893 0.7431196 0.3590866
0.7260213 0.7527643 0.3843051
0.8008211 0.7557533 0.4094903
0.8489349 0.7640460 0.4273052
0.0302276 0.7621238 0.3097014
0.1160293 0.7743661 0.3250096
0.2872869 0.7797084 0.3477986
0.4733913 0.7894841 0.3726573
0.6247483 0.7928373 0.3975519
0.7351808 0.8007916 0.4151990
0.8015450 0.8032151 0.4407741
0.8495181 0.8102959 0.4584424
0.0068594 0.0230737 0.2075689
0.0943463 0.0303714 0.2281850
0.2570359 0.0375316 0.2496741
0.4335176 0.0445730 0.2721982
0.5968245 0.0525566 0.2962765
0.7125911 0.0615735 0.3140379
0.7833318 0.0699403 0.3395275
0.8406577 0.0791732 0.3577325
0.0088321 0.1295069 0.2615090
0.1037511 0.1480503 0.2833022
0.2697708 0.1604357 0.3060743
0.4505389 0.1722514 0.3223614
0.6135219 0.1896423 0.3476540
0.7174391 0.2028816 0.3732531
0.7940831 0.2161880 0.3907817
0.8435752 0.2298501 0.4086199
0.0112076 0.2856774 0.3068773
0.1088392 0.3046264 0.3302613
0.2805594 0.3262360 0.3473515
0.4650466 0.3395085 0.3722707
0.6170799 0.3599304 0.3903416
0.7287624 0.3724053 0.4157445
0.7963735 0.3838403 0.4332355
0.8454357 0.4039708 0.4517271
0.0136147 0.4362115 0.3503497
0.1176733 0.4665934 0.3679026
0.2906251 0.4830471 0.3934250
0.4677685 0.4970145 0.4108251
0.6300219 0.5103239 0.4282227
0.7308176 0.5232219 0.4542854
0.7980584 0.5350190 0.4720959
0.8520647 0.5467852 0.4899987
0.0183433 0.5705925 0.3856181
0.1225192 0.5826629 0.4108360
0.3002263 0.5979396 0.4282318
0.4804412 0.6112683 0.4458286
0.6318216 0.6237043 0.4635834
0.7323440 0.6358571 0.4900211
0.8059141 0.6470296 0.5078750
0.8529721 0.6496597 0.5247484
0.0244520 0.6649759 0.4191447
0.1318524 0.6824809 0.4450531
0.3097607 0.6883625 0.4620245
0.4820530 0.6999159 0.4798674
0.6436698 0.7109218 0.4977827
0.7416392 0.7138416 0.5148588
0.8068417 0.7233562 0.5324853
0.8537906 0.7325179 0.5500498
0.0311684 0.7334863 0.4595789
0.1370321 0.7473843 0.4773901
0.3191901 0.7525136 0.4945334
0.4941395 0.7623568 0.5124494
0.6448599 0.7714873 0.5301077
0.7426376 0.7739892 0.5469233
0.8076534 0.7819490 0.5643805
0.8543687 0.7834995 0.5726955
0.0393587 0.7848597 0.4911301
0.1423016 0.7961151 0.5090412
0.3201495 0.8003964 0.5261133
0.5060686 0.8089628 0.5436840
0.6457629 0.8111347 0.5520723
0.7513459 0.8184388 0.5694845
0.8146470 0.8202850 0.5860304
0.8600473 0.8266995 0.6030867
0.0162149 0.0495696 0.3808469
0.1211047 0.0598924 0.4004558
0.2896056 0.0687888 0.4197057
0.4679175 0.0784446 0.4391338
0.6203175 0.0890774 0.4585780
0.7310883 0.0980628 0.4774634
0.7983679 0.1076105 0.4964367
0.8471066 0.1176960 0.5070148
0.0191140 0.1754841 0.4283154
0.1278053 0.1978731 0.4558726
0.3022594 0.2131811 0.4742120
0.4840481 0.2278038 0.4841692
0.6356128 0.2430106 0.5025802
0.7349634 0.2518786 0.5202321
0.8014780 0.2673636 0.5386394
0.8495589 0.2835999 0.5569990
0.0223223 0.3379151 0.4731729
0.1385252 0.3646362 0.4916967
0.3133896 0.3791654 0.5093956
0.4873640 0.3923977 0.5270908
0.6387271 0.4140511 0.5455552
0.7375997 0.4257416 0.5547519
0.8100406 0.4376173 0.5722102
0.8563699 0.4491782 0.5895237
0.0258736 0.4954924 0.5129912
0.1445388 0.5149732 0.5306389
0.3239760 0.5301995 0.5482314
0.5007234 0.5431881 0.5573819
0.6509697 0.5561236 0.5748024
0.7473921 0.5682049 0.5920690
0.8114365 0.5706104 0.6002530
0.8574861 0.5819871 0.6172044
0.0288557 0.6094752 0.5399992
0.1504483 0.6276935 0.5575446
0.3341213 0.6337961 0.5741970
0.5133080 0.6465226 0.5914646
0.6525923 0.6577164 0.6004118
0.7487463 0.6687716 0.6173644
0.8126286 0.6787263 0.6261141
0.8583667 0.6812426 0.6419205
0.0321361 0.6985735 0.5735323
0.1616240 0.7067347 0.5818083
0.3444167 0.7190441 0.5989724
0.5149128 0.7297982 0.6159294
0.6633323 0.7327219 0.6239519
0.7575698 0.7421795 0.6405082
0.8196907 0.7440721 0.6483189
0.8640785 0.7527925 0.6643993
0.0405357 0.7612463 0.5966607
0.1677652 0.7680091 0.6129114
0.3455625 0.7778199 0.6216598
0.5268574 0.7812828 0.6375450
0.6644834 0.7893264 0.6460692
0.7584139 0.7916791 0.6615059
0.8204552 0.7987815 0.6697673
0.8646179 0.8006467 0.6846923
0.0477449 0.8027469 0.6178527
0.1740005 0.8133305 0.6344835
0.3554582 0.8166964 0.6423523
0.5279666 0.8243341 0.6585123
0.6746145 0.8264871 0.6661454
0.7592345 0.8329701 0.6817808
0.8210338 0.8343533 0.6891462
0.8651425 0.8403525 0.7038649
0.0295058 0.0820626 0.5252005
0.1495846 0.0948873 0.5364677
0.3240577 0.1053415 0.5553868
0.5020221 0.1163163 0.5741784
0.6424404 0.1278193 0.5845862
0.7404454 0.1403093 0.6030896
0.8124785 0.1533974 0.6132823
0.8532219 0.1629763 0.6227198
0.0332522 0.2264212 0.5690193
0.1571871 0.2456236 0.5870988
0.3369834 0.2628412 0.5968295
0.5175121 0.2805630 0.6146098
0.6560223 0.2904953 0.6233975
0.7516272 0.3081137 0.6407353
0.8150681 0.3254165 0.6498292
0.8603950 0.3351547 0.6580945
0.0371003 0.3996463 0.6035248
0.1698048 0.4178733 0.6204678
0.3487559 0.4318450 0.6292048
0.5205649 0.4452308 0.6456960
0.6587988 0.4574217 0.6541867
0.7539324 0.4779391 0.6631231
0.8168421 0.4898417 0.6785519
0.8618101 0.5009615 0.6864766
0.0399117 0.5413329 0.6316720
0.1767361 0.5509303 0.6473829
0.3598438 0.5649914 0.6558434
0.5335924 0.5776680 0.6642094
0.6701384 0.5901377 0.6796023
0.7630923 0.6013656 0.6875021
0.8242394 0.6120884 0.6952965
0.8628136 0.6229088 0.7099087
0.0442239 0.6445362 0.6559888
0.1837069 0.6610936 0.6719210
0.3614615 0.6658324 0.6792315
0.5353597 0.6773295 0.6871403
0.6717196 0.6885324 0.7019731
0.7643912 0.6985226 0.7095680
0.8251963 0.7005891 0.7164044
0.8684545 0.7096646 0.7237654
0.0474012 0.7212641 0.6780760
0.1903198 0.7349877 0.6859825
0.3720086 0.7395963 0.7001805
0.5477613 0.7494065 0.7077874
0.6821576 0.7584225 0.7152821
0.7653396 0.7608355 0.7286971
0.8260423 0.7688586 0.7358611
0.8690588 0.7704639 0.7423116
0.0524866 0.7798744 0.6982672
0.1969205 0.7855566 0.7052569
0.3825184 0.7946932 0.7127695
0.5488830 0.7977089 0.7262580
0.6831419 0.8052826 0.7334444
0.7735279 0.8070992 0.7399331
0.8266962 0.8136707 0.7468884
0.8695774 0.8154058 0.7592057
0.0580257 0.8184717 0.7164029
0.2098984 0.8279839 0.7237241
0.3928572 0.8309193 0.7303617
0.5609790 0.8376597 0.7374599
0.6929710 0.8398729 0.7502097
0.7743064 0.8456141 0.7569640
0.8331470 0.8468990 0.7629452
0.8700807 0.8521039 0.7692779
0.0438586 0.1215177 0.6327526
0.1830911 0.1361201 0.6500771
0.3610242 0.1462114 0.6589342
0.5361424 0.1607051 0.6683583
0.6719633 0.1718350 0.6842716
0.7571380 0.1876687 0.6933590
0.8195236 0.1992626 0.7016723
0.8640100 0.2112616 0.7097140
0.0491180 0.2788239 0.6693466
0.1914031 0.3005536 0.6853306
0.3742371 0.3200509 0.6938580
0.5401992 0.3312168 0.7015817
0.6755986 0.3501657 0.7098677
0.7674866 0.3610801 0.7173760
0.8217422 0.3720992 0.7310420
0.8657886 0.3913527 0.7386526
0.0529892 0.4433808 0.6979274
0.1992251 0.4691238 0.7062612
0.3769349 0.4830390 0.7138047
0.5541195 0.4967009 0.7279037
0.6871073 0.5089868 0.7349711
0.7694699 0.5205113 0.7418542
0.8293683 0.5318059 0.7486219
0.8670061 0.5425641 0.7552649
0.0569807 0.5763742 0.7215474
0.2066667 0.5927802 0.7288427
0.3882576 0.6061273 0.7360199
0.5561727 0.6182799 0.7429437
0.6889039 0.6297627 0.7496852
0.7708495 0.6322291 0.7557218
0.8304705 0.6426433 0.7622376
0.8726448 0.6532809 0.7743546
0.0611559 0.6759604 0.7356910
0.2141174 0.6905499 0.7427547
0.3992844 0.6954224 0.7550139
0.5687479 0.7060636 0.7615315
0.6903058 0.7158151 0.7679297
0.7792509 0.7181427 0.7736642
0.8313950 0.7268857 0.7798327
0.8733742 0.7354622 0.7858813
0.0677455 0.7482902 0.7541795
0.2214479 0.7540200 0.7601450
0.4102476 0.7641417 0.7665702
0.5700269 0.7669039 0.7723297
0.7002980 0.7753224 0.7785142
0.7802522 0.7829490 0.7845725
0.8378927 0.7846112 0.7900116
0.8739534 0.7915949 0.7958403
0.0726514 0.7963883 0.7645243
0.2288406 0.8012164 0.7703186
0.4113244 0.8096141 0.7765368
0.5820227 0.8124826 0.7876054
0.7012465 0.8194719 0.7934843
0.7809333 0.8210509 0.7987592
0.8385103 0.8273613 0.8044075
0.8743925 0.8285269 0.8094717
0.0753335 0.8321720 0.7795827
0.2363909 0.8407400 0.7856032
0.4219225 0.8433986 0.7910265
0.5937703 0.8455623 0.7963493
0.7107518 0.8513898 0.8020321
0.7886161 0.8527420 0.8071433
0.8390310 0.8578840 0.8125966
0.8793623 0.8589785 0.8174410
0.0628837 0.1640690 0.7185983
0.2140449 0.1822675 0.7269003
0.3902382 0.1951020 0.7344638
0.5594657 0.2080511 0.7418947
0.6912643 0.2216655 0.7492353
0.7729235 0.2353994 0.7564373
0.8263015 0.2494232 0.7634994
0.8694094 0.2640147 0.7704208
0.0681427 0.3298481 0.7416716
0.2230828 0.3527297 0.7490788
0.4032690 0.3655456 0.7557430
0.5740943 0.3863467 0.7628926
0.6943586 0.3980120 0.7693064
0.7753794 0.4093021 0.7755985
0.8341893 0.4294178 0.7823382
0.8709487 0.4403580 0.7883110
0.0735391 0.4952283 0.7653047
0.2316433 0.5115129 0.7716559
0.4155216 0.5252944 0.7778878
0.5766259 0.5378610 0.7839918
0.7053528 0.5498856 0.7899708
0.7843130 0.5611326 0.7957653
0.8355383 0.5719036 0.8013183
0.8766755 0.5826156 0.8067582
0.0790988 0.6170869 0.7788601
0.2398477 0.6239327 0.7844048
0.4173742 0.6365764 0.7903785
0.5893508 0.6484264 0.7962311
0.7069629 0.6592885 0.8019005
0.7856284 0.6695240 0.8073308
0.8365271 0.6714762 0.8121617
0.8774547 0.6811671 0.8173761
0.0821916 0.7043028 0.7902462
0.2480358 0.7103604 0.7955832
0.4286621 0.7212849 0.8013166
0.5909185 0.7312567 0.8068691
0.7081892 0.7337308 0.8117099
0.7866263 0.7424772 0.8169239
0.8430351 0.7508768 0.8220255
0.8780931 0.7523823 0.8265694
0.0881118 0.7659318 0.8052337
0.2563214 0.7769112 0.8106881
0.4405046 0.7802113 0.8154576
0.6029137 0.7885277 0.8205786
0.7178427 0.7906234 0.8251530
0.7943856 0.7978553 0.8300613
0.8436476 0.7989197 0.8300625
0.8786500 0.8055471 0.8348603
0.0945179 0.8113148 0.8139014
0.2644646 0.8155547 0.8186082
0.4416019 0.8232654 0.8236616
0.6038553 0.8255199 0.8281756
0.7187569 0.8320416 0.8330125
0.7950329 0.8335198 0.8373344
0.8442435 0.8391894 0.8419531
0.8834851 0.8400841 0.8419541
0.1016194 0.8444695 0.8216305
0.2727570 0.8480077 0.8261852
0.4531869 0.8544724 0.8310573
0.6154003 0.8564065 0.8354214
0.7279230 0.8618705 0.8400851
0.7956560 0.8630329 0.8442590
0.8501573 0.8679597 0.8487180
0.8838807 0.8688887 0.8527068
0.0821844 0.2128271 0.7781806
0.2486221 0.2289357 0.7792674
0.4200943 0.2443404 0.7856700
0.5932852 0.2601055 0.7919382
0.7098486 0.2758075 0.7980713
0.7808590 0.2847110 0.8035831
0.8385530 0.3012054 0.8094884
0.8745916 0.3179091 0.8152577
0.0888179 0.3857878 0.7963992
0.2584613 0.4011598 0.8019679
0.4340076 0.4231860 0.8079419
0.5965236 0.4358581 0.8132720
0.7125124 0.4473651 0.8137821
0.7900684 0.4587228 0.8189703
0.8403122 0.4785812 0.8245153
0.8759520 0.4894409 0.8294685
0.0959921 0.5366083 0.8101157
0.2678701 0.5521101 0.8153751
0.4469801 0.5652370 0.8205225
0.6095275 0.5775853 0.8255582
0.7144879 0.5889310 0.8304812
0.7916707 0.5993780 0.8309308
0.8415282 0.6098872 0.8357324
0.8813544 0.6119837 0.8399971
0.1000334 0.6472506 0.8210558
0.2769926 0.6615031 0.8260815
0.4487249 0.6654144 0.8305470
0.6112233 0.6766366 0.8353611
0.7244090 0.6870263 0.8400649
0.7996148 0.6968224 0.8446594
0.8478854 0.6982092 0.8446606
0.8821087 0.7072992 0.8491467
0.1076968 0.7234855 0.8301247
0.2781445 0.7354927 0.8349382
0.4610020 0.7457056 0.8396427
0.6231776 0.7486398 0.8438283
0.7255834 0.7572598 0.8483257
0.8005577 0.7654869 0.8527163
0.8486460 0.7666696 0.8527175
0.8827215 0.7742302 0.8568702
0.1158101 0.7820105 0.8425162
0.2869757 0.7915424 0.8429205
0.4728721 0.7945985 0.8470373
0.6243852 0.8023839 0.8514476
0.7347633 0.8043589 0.8553790
0.8012896 0.8110926 0.8594579
0.8493090 0.8175251 0.8634402
0.8874785 0.8185135 0.8634411
0.1202593 0.8248454 0.8497419
0.2957294 0.8285028 0.8537120
0.4739771 0.8352260 0.8540791
0.6357298 0.8373699 0.8579540
0.7356361 0.8432817 0.8619599
0.8084511 0.8446672 0.8655322
0.8550742 0.8500190 0.8693569
0.8878698 0.8507599 0.8693577
0.1290473 0.8558066 0.8562320
0.3046136 0.8588369 0.8600598
0.4856947 0.8645864 0.8604140
0.6366086 0.8663033 0.8640215
0.7362720 0.8676395 0.8675495
0.8090434 0.8725113 0.8713262
0.8554817 0.8734953 0.8746920
0.8882517 0.8776783 0.8750115
