Plugins/FilmEmulator/Content/LUTs/FE_Kodak_5250_64.cube
TITLE "FE_Kodak_5250_33"
LUT_3D_SIZE 8
0.0007634 0.0010129 0.0008219
0.0745142 0.0040596 0.0037290
0.2339359 0.0121193 0.0114918
0.3855933 0.0226372 0.0224891
0.5251653 0.0402396 0.0355381
0.6301006 0.0595404 0.0520997
0.7025676 0.0794535 0.0657605
0.7564558 0.1024890 0.0845608
0.0010140 0.0845842 0.0018115
0.0591484 0.1074205 0.0042451
0.2110831 0.1299046 0.0101211
0.3578968 0.1511037 0.0209850
0.4986925 0.1754465 0.0346230
0.6080555 0.1981077 0.0493509
0.6847792 0.2231183 0.0657820
0.7415615 0.2447341 0.0818113
0.0022928 0.2345767 0.0048903
0.0512716 0.2539266 0.0080510
0.1933088 0.2702115 0.0135162
0.3421894 0.2942919 0.0194601
0.4812987 0.3132539 0.0320899
0.5919854 0.3399093 0.0473435
0.6788231 0.3605945 0.0634466
0.7367378 0.3746719 0.0784252
0.0045941 0.3751445 0.0095770
0.0454764 0.3866819 0.0129541
0.1839047 0.4058880 0.0190926
0.3291541 0.4192686 0.0263972
0.4661555 0.4403202 0.0334821
0.5873472 0.4543968 0.0438876
0.6674042 0.4693799 0.0609026
0.7331951 0.4845688 0.0770004
0.0075291 0.4844885 0.0155897
0.0405741 0.4976609 0.0187190
0.1707131 0.5111216 0.0259111
0.3173667 0.5256687 0.0337672
0.4620688 0.5402932 0.0417809
0.5743282 0.5542498 0.0510560
0.6641320 0.5610156 0.0598382
0.7231908 0.5750874 0.0734178
0.0119500 0.5748982 0.0227618
0.0351110 0.5876593 0.0254523
0.1637719 0.5925199 0.0329895
0.3067170 0.6055964 0.0408791
0.4494742 0.6118538 0.0499149
0.5713825 0.6254792 0.0587149
0.6538149 0.6321163 0.0682513
0.7207745 0.6456734 0.0780377
0.0169057 0.6449058 0.0303791
0.0312142 0.6509731 0.0322845
0.1524477 0.6624297 0.0411657
0.2967277 0.6681483 0.0502344
0.4371816 0.6741199 0.0590357
0.5598466 0.6801738 0.0669054
0.6513578 0.6915670 0.0762860
0.7115145 0.6969844 0.0874693
0.0223736 0.7022594 0.0390465
0.0267963 0.7020432 0.0402438
0.1467818 0.7055067 0.0490894
0.2873532 0.7156206 0.0578732
0.4349957 0.7203833 0.0672326
0.5576668 0.7252678 0.0765953
0.6418738 0.7302477 0.0854464
0.7099341 0.7352148 0.0952370
0.0034985 0.0021750 0.1039245
0.1007080 0.0042592 0.1216644
0.2643292 0.0087215 0.1396132
0.4116670 0.0186989 0.1593847
0.5454529 0.0338406 0.1766935
0.6467585 0.0524140 0.1944979
0.7100322 0.0709421 0.2126906
0.7633613 0.0931255 0.2320269
0.0022523 0.0776617 0.1068516
0.0806090 0.0977227 0.1235236
0.2372356 0.1235689 0.1439054
0.3818032 0.1438278 0.1624345
0.5177448 0.1671017 0.1785219
0.6251104 0.1888602 0.1997445
0.6990881 0.2129357 0.2131383
0.7550885 0.2338096 0.2317694
0.0042890 0.2238060 0.1067748
0.0698200 0.2427695 0.1230934
0.2197666 0.2645760 0.1429778
0.3653003 0.2883570 0.1613866
0.5097129 0.3069857 0.1770801
0.6095344 0.3265250 0.1982030
0.6857343 0.3538196 0.2158381
0.7431198 0.3749510 0.2298032
0.0066839 0.3609239 0.1081042
0.0614534 0.3795638 0.1215758
0.2104944 0.3991333 0.1411340
0.3522269 0.4124771 0.1593179
0.4945029 0.4333896 0.1788805
0.6046107 0.4474236 0.1958502
0.6818109 0.4619426 0.2130870
0.7396184 0.4848768 0.2315931
0.0103053 0.4768197 0.1064243
0.0544349 0.4899766 0.1196674
0.1978164 0.5035732 0.1388012
0.3405151 0.5181969 0.1568963
0.4808269 0.5330256 0.1761331
0.5918373 0.5473219 0.1928979
0.6709096 0.5613648 0.2101765
0.7370247 0.5681762 0.2282306
0.0142601 0.5679106 0.1045551
0.0484452 0.5805038 0.1149226
0.1845089 0.5856307 0.1328970
0.3298829 0.5988119 0.1541069
0.4679656 0.6121234 0.1731712
0.5890236 0.6186548 0.1895973
0.6683103 0.6323636 0.2069003
0.7276443 0.6390197 0.2247645
0.0195158 0.6381137 0.1025695
0.0421818 0.6440238 0.1128176
0.1773856 0.6557369 0.1303537
0.3197044 0.6615940 0.1511399
0.4556821 0.6743205 0.1700831
0.5773985 0.6803713 0.1862757
0.6586506 0.6860472 0.2034705
0.7257869 0.6914622 0.2210878
0.0249050 0.6967216 0.1005736
0.0379198 0.7018654 0.1107268
0.1657392 0.7055811 0.1276928
0.3099602 0.7102388 0.1480982
0.4538271 0.7150862 0.1667847
0.5665008 0.7200629 0.1827282
0.6569714 0.7250713 0.2041402
0.7168275 0.7353951 0.2219175
0.0120571 0.0051368 0.2473563
0.1283673 0.0087549 0.2647297
0.2923712 0.0131292 0.2829379
0.4379087 0.0171533 0.3006952
0.5654123 0.0282979 0.3145280
0.6629466 0.0460720 0.3347391
0.7250981 0.0650911 0.3487192
0.7766755 0.0844903 0.3686241
0.0067396 0.0689224 0.2539989
0.1066327 0.0886145 0.2702579
0.2606943 0.1140551 0.2881297
0.4071001 0.1366835 0.3059131
0.5462145 0.1589114 0.3240317
0.6407069 0.1843343 0.3367359
0.7067852 0.2030189 0.3556300
0.7616546 0.2284877 0.3686940
0.0073249 0.2130972 0.2596461
0.0956080 0.2315919 0.2754673
0.2472557 0.2586910 0.2928734
0.3901553 0.2760057 0.3102368
0.5286987 0.3005826 0.3222513
0.6259091 0.3198852 0.3405188
0.7005196 0.3468826 0.3532674
0.7565907 0.3678211 0.3723003
0.0109091 0.3534516 0.2570847
0.0840879 0.3721218 0.2729458
0.2315927 0.3921537 0.2899304
0.3846613 0.4053799 0.3072766
0.5138108 0.4262499 0.3249886
0.6210453 0.4402209 0.3370532
0.6887616 0.4620912 0.3557810
0.7464542 0.4772323 0.3684292
0.0149601 0.4688143 0.2589861
0.0771415 0.4819467 0.2749990
0.2232728 0.4958219 0.2919011
0.3724735 0.5104428 0.3035817
0.5098563 0.5253008 0.3210238
0.6092569 0.5401747 0.3390915
0.6855793 0.5542452 0.3514741
0.7436531 0.5683140 0.3703488
0.0196778 0.5677378 0.2551443
0.0685374 0.5731187 0.2710625
0.2104190 0.5856676 0.2877661
0.3613296 0.5917915 0.3051591
0.4969015 0.6051933 0.3226342
0.6062011 0.6187617 0.3346474
0.6756610 0.6254802 0.3529990
0.7413925 0.6391055 0.3656396
0.0250826 0.6380523 0.2562656
0.0610984 0.6437770 0.2668517
0.2036718 0.6489232 0.2832180
0.3506394 0.6616406 0.3006840
0.4845328 0.6677167 0.3180684
0.5952687 0.6738718 0.3358650
0.6733203 0.6861450 0.3481832
0.7325807 0.6915891 0.3668815
0.0319779 0.6909705 0.2571472
0.0545436 0.6960064 0.2679304
0.1924718 0.6999899 0.2842968
0.3407384 0.7102869 0.3017568
0.4726549 0.7151933 0.3191621
0.5841978 0.7201601 0.3309410
0.6641754 0.7251980 0.3491515
0.7311231 0.7302006 0.3615556
0.0263631 0.0101152 0.3781184
0.1576776 0.0146105 0.3918206
0.3198876 0.0187510 0.4056463
0.4605325 0.0253689 0.4205570
0.5907626 0.0326914 0.4354753
0.6711926 0.0416825 0.4505799
0.7327963 0.0595730 0.4595678
0.7827678 0.0794970 0.4752044
0.0170772 0.0629339 0.3824964
0.1345702 0.0829540 0.4021297
0.2885511 0.1069990 0.4161958
0.4331206 0.1298086 0.4238087
0.5648611 0.1510409 0.4382427
0.6564204 0.1754478 0.4528955
0.7215229 0.1981685 0.4675224
0.7741196 0.2231880 0.4822376
0.0130839 0.2026524 0.3899895
0.1210631 0.2260680 0.4022596
0.2730360 0.2471108 0.4153553
0.4155289 0.2699223 0.4289826
0.5471282 0.2941992 0.4431292
0.6416101 0.3132648 0.4572937
0.7080432 0.3400051 0.4717736
0.7632218 0.3607330 0.4791330
0.0157796 0.3461053 0.3938776
0.1107169 0.3646874 0.4060385
0.2609222 0.3850874 0.4189799
0.4098787 0.3982881 0.4322563
0.5416464 0.4190256 0.4462304
0.6365386 0.4402629 0.4534283
0.7040087 0.4545199 0.4675186
0.7599025 0.4695004 0.4817007
0.0207001 0.4608870 0.3898808
0.1019541 0.4739012 0.4020564
0.2452227 0.4957992 0.4149491
0.3971036 0.5104473 0.4280233
0.5281984 0.5253408 0.4417325
0.6249307 0.5402175 0.4557064
0.6930414 0.5543296 0.4698036
0.7504901 0.5611901 0.4838087
0.0262747 0.5602856 0.3918712
0.0906382 0.5728571 0.4042855
0.2371912 0.5784773 0.4167944
0.3856542 0.5917959 0.4298657
0.5157454 0.6052293 0.4435683
0.6221859 0.6116835 0.4573483
0.6905398 0.6255112 0.4644715
0.7482745 0.6321983 0.4784600
0.0322452 0.6308792 0.3933117
0.0837480 0.6365392 0.3992912
0.2296139 0.6488711 0.4118868
0.3749211 0.6548570 0.4247563
0.5036904 0.6677485 0.4381813
0.6116855 0.6739072 0.4519265
0.6807194 0.6801698 0.4658436
0.7393787 0.6916565 0.4799757
0.0391000 0.6908610 0.3946192
0.0746593 0.6957390 0.4007910
0.2173457 0.6999419 0.4131863
0.3646705 0.7047316 0.4260327
0.5017651 0.7096744 0.4392613
0.6015730 0.7201950 0.4531650
0.6788518 0.7252331 0.4670494
0.7379448 0.7302627 0.4740194
0.0454569 0.0159299 0.4883006
0.1927042 0.0205139 0.4953711
0.3486177 0.0273888 0.5097270
0.4858721 0.0351366 0.5174578
0.6054972 0.0432241 0.5315204
0.6835899 0.0524553 0.5390448
0.7462637 0.0614504 0.5463642
0.7889849 0.0709093 0.5536208
0.0328251 0.0552390 0.4895965
0.1684283 0.0739364 0.5034068
0.3201331 0.0971328 0.5111937
0.4622545 0.1232182 0.5254815
0.5834023 0.1435430 0.5327532
0.6718692 0.1668933 0.5466001
0.7290435 0.1887425 0.5538014
0.7800498 0.2128440 0.5609846
0.0259675 0.1972439 0.4981607
0.1519731 0.2154277 0.5041640
0.3029236 0.2414169 0.5175656
0.4432186 0.2638925 0.5244298
0.5655261 0.2878688 0.5378878
0.6570983 0.3066927 0.5446912
0.7230498 0.3263144 0.5580151
0.7693334 0.3536883 0.5650322
0.0218546 0.3388380 0.4956421
0.1392532 0.3573315 0.5082901
0.2899800 0.3777081 0.5213121
0.4276514 0.3982919 0.5279810
0.5600674 0.4118525 0.5410357
0.6443924 0.4330384 0.5478291
0.7115368 0.4472303 0.5544691
0.7660724 0.4618053 0.5675725
0.0276134 0.4605856 0.4984031
0.1284207 0.4736549 0.5110916
0.2717298 0.4879301 0.5173920
0.4235450 0.5026115 0.5303915
0.5467054 0.5175505 0.5369624
0.6407011 0.5326226 0.5500928
0.7082126 0.5470853 0.5567286
0.7631849 0.5611838 0.5633547
0.0337837 0.5528107 0.5003678
0.1188010 0.5653644 0.5066875
0.2618474 0.5784085 0.5194824
0.4109746 0.5846530 0.5257592
0.5342755 0.5981967 0.5388350
0.6298994 0.6117314 0.5454335
0.6982468 0.6184815 0.5583979
0.7548627 0.6322408 0.5650259
0.0394429 0.6307101 0.5020876
0.1100931 0.6362524 0.5084080
0.2529314 0.6419191 0.5210146
0.3996843 0.6548290 0.5274630
0.5316205 0.6609830 0.5403510
0.6273819 0.6739188 0.5469548
0.6959736 0.6801691 0.5534310
0.7530892 0.6859013 0.5663551
0.0459551 0.6847514 0.5033370
0.0987595 0.6897576 0.5098284
0.2446014 0.6998569 0.5159748
0.3891580 0.7047060 0.5287732
0.5201894 0.7096778 0.5351201
0.6176643 0.7147570 0.5480509
0.6943803 0.7198420 0.5544850
0.7448994 0.7249750 0.5674189
0.0666166 0.0229538 0.5683687
0.2198894 0.0307082 0.5756823
0.3701006 0.0377678 0.5828652
0.5119043 0.0462460 0.5900946
0.6202809 0.0560286 0.6035955
0.6961389 0.0633416 0.6103931
0.7514577 0.0730615 0.6173117
0.7984424 0.0818034 0.6237680
0.0510738 0.0484424 0.5666549
0.1961829 0.0677851 0.5742136
0.3534638 0.0880931 0.5881038
0.4921031 0.1136713 0.5957102
0.6017803 0.1363632 0.6029194
0.6796998 0.1586903 0.6099755
0.7434123 0.1796469 0.6168447
0.7858912 0.2028548 0.6237147
0.0424231 0.1874586 0.5755044
0.1825714 0.2101892 0.5817117
0.3269120 0.2303789 0.5882677
0.4722404 0.2579354 0.6013658
0.5931143 0.2754039 0.6078444
0.6723039 0.3001873 0.6145433
0.7303379 0.3196023 0.6210728
0.7807597 0.3466532 0.6277299
0.0361828 0.3314000 0.5799345
0.1679720 0.3500742 0.5857407
0.3131151 0.3704035 0.5920851
0.4564584 0.3911673 0.5985241
0.5783961 0.4046956 0.6110725
0.6598461 0.4257774 0.6175580
0.7262019 0.4399033 0.6238657
0.7717299 0.4618319 0.6303376
0.0355063 0.4529489 0.5764406
0.1555187 0.4656768 0.5884697
0.3015773 0.4800344 0.5946071
0.4427126 0.4947874 0.6008719
0.5651575 0.5097297 0.6071804
0.6562394 0.5248230 0.6197159
0.7157034 0.5398554 0.6260434
0.7690890 0.5539933 0.6323105
0.0411931 0.5526027 0.5785671
0.1443957 0.5579268 0.5842212
0.2909997 0.5711312 0.5966443
0.4296636 0.5846333 0.6028785
0.5619330 0.5910529 0.6089725
0.6456189 0.6047199 0.6153013
0.7130716 0.6184574 0.6216213
0.7669789 0.6251985 0.6338724
0.0478900 0.6234747 0.5800883
0.1341059 0.6290350 0.5858960
0.2812257 0.6418065 0.5919819
0.4270841 0.6479172 0.6043365
0.5498569 0.6609633 0.6106116
0.6431519 0.6672366 0.6167552
0.7110975 0.6735457 0.6229094
0.7591820 0.6859236 0.6292116
0.0544923 0.6846022 0.5814919
0.1245303 0.6895134 0.5874227
0.2721236 0.6940906 0.5932942
0.4154421 0.6990276 0.5993484
0.5384563 0.7096658 0.6118499
0.6333185 0.7147468 0.6179665
0.7018249 0.7198660 0.6240966
0.7578080 0.7249572 0.6302047
0.0928899 0.0331089 0.6320112
0.2510069 0.0406083 0.6382148
0.4004399 0.0494509 0.6446310
0.5384417 0.0579558 0.6508635
0.6353938 0.0672017 0.6570794
0.7085717 0.0752718 0.6630898
0.7633920 0.0846165 0.6691019
0.8023606 0.0962578 0.6697274
0.0721610 0.0423437 0.6278560
0.2252899 0.0621190 0.6350693
0.3787088 0.0801853 0.6418495
0.5121729 0.1066343 0.6488977
0.6199275 0.1294872 0.6554339
0.6946808 0.1507980 0.6617422
0.7503718 0.1752463 0.6680343
0.7914274 0.1979986 0.6741385
0.0613028 0.1781512 0.6367170
0.2109090 0.2001670 0.6423663
0.3591672 0.2249387 0.6483874
0.4921411 0.2463731 0.6543187
0.6111039 0.2693015 0.6602445
0.6798778 0.2937880 0.6662244
0.7444427 0.3129186 0.6719887
0.7863917 0.3397169 0.6779035
0.0536011 0.3241659 0.6410691
0.1952791 0.3429236 0.6463388
0.3450265 0.3631113 0.6519881
0.4856370 0.3840839 0.6577122
0.5965641 0.3975674 0.6632967
0.6750106 0.4185361 0.6690494
0.7332097 0.4399150 0.6747872
0.7830840 0.4542053 0.6803308
0.0460714 0.4453077 0.6382166
0.1867054 0.4578313 0.6488978
0.3332017 0.4721379 0.6543629
0.4714535 0.4946992 0.6600711
0.5831682 0.5096983 0.6656513
0.6637123 0.5248382 0.6712467
0.7300324 0.5398196 0.6768090
0.7747211 0.5540029 0.6769705
0.0484236 0.5451865 0.6402992
0.1735969 0.5576934 0.6454103
0.3218566 0.5709968 0.6508588
0.4585283 0.5774013 0.6562610
0.5799874 0.5910161 0.6618279
0.6608114 0.6046920 0.6674339
0.7205232 0.6113410 0.6728830
0.7726472 0.6252074 0.6784428
0.0570178 0.6161986 0.6417281
0.1617967 0.6288114 0.6469921
0.3117136 0.6347266 0.6522596
0.4460195 0.6478780 0.6578112
0.5683060 0.6541343 0.6632192
0.6507524 0.6672506 0.6688194
0.7183354 0.6735568 0.6742423
0.7651691 0.6798833 0.6796585
0.0649424 0.6778713 0.6430557
0.1509338 0.6832849 0.6482877
0.2941493 0.6940222 0.6536722
0.4342229 0.6989973 0.6590220
0.5569506 0.7040676 0.6644027
0.6489838 0.7092123 0.6698039
0.7165654 0.7198375 0.6753358
0.7636168 0.7249708 0.6807259
0.1207045 0.0437285 0.6781347
0.2726793 0.0528996 0.6845715
0.4235046 0.0618691 0.6909472
0.5548881 0.0692807 0.6971017
0.6490223 0.0798070 0.7034144
0.7214519 0.0904146 0.7039256
0.7684455 0.0995196 0.7099985
0.8062160 0.1129956 0.7161832
0.0986020 0.0422806 0.6780745
0.2543792 0.0546555 0.6788681
0.4046020 0.0735738 0.6860731
0.5419817 0.0967984 0.6931704
0.6366985 0.1229146 0.7001006
0.7097089 0.1432914 0.7065215
0.7640110 0.1666727 0.7128958
0.8022782 0.1885305 0.7135087
0.0840524 0.1692483 0.6805179
0.2378923 0.1952525 0.6862846
0.3841916 0.2144471 0.6923741
0.5215241 0.2406810 0.6986256
0.6277381 0.2632890 0.7047245
0.6945988 0.2874328 0.7108246
0.7514018 0.3063475 0.7111199
0.7921405 0.3260400 0.7170323
0.0734174 0.3170981 0.6847697
0.2218044 0.3358631 0.6900098
0.3693204 0.3559204 0.6958948
0.5052831 0.3767473 0.7018099
0.6139433 0.3975271 0.7077073
0.6898499 0.4113226 0.7078163
0.7472240 0.4325906 0.7137208
0.7886767 0.4468780 0.7194431
0.0672489 0.4375082 0.6873879
0.2133351 0.4503111 0.6924126
0.3568124 0.4720496 0.6982653
0.4910552 0.4868586 0.7040068
0.6013173 0.5018470 0.7040713
0.6788261 0.5170019 0.7098650
0.7372352 0.5322132 0.7156209
0.7859632 0.5467300 0.7213038
0.0597094 0.5373358 0.6894280
0.2006615 0.5502749 0.6944073
0.3455421 0.5637223 0.7000635
0.4874593 0.5773009 0.7000316
0.5981438 0.5838627 0.7056537
0.6759597 0.5976186 0.7114104
0.7347097 0.6113032 0.7171294
0.7784210 0.6181375 0.7226729
0.0655385 0.6160542 0.6909503
0.1939952 0.6215153 0.6904070
0.3351111 0.6346397 0.6957386
0.4751247 0.6408740 0.7013336
0.5863117 0.6540935 0.7070867
0.6661199 0.6604835 0.7126913
0.7254731 0.6735638 0.7184030
0.7765405 0.6798576 0.7239136
0.0746976 0.6777298 0.6868962
0.1812240 0.6830646 0.6917686
0.3253250 0.6881674 0.6969101
0.4628833 0.6989104 0.7026064
0.5750638 0.7040302 0.7081863
0.6641209 0.7091832 0.7137440
0.7239435 0.7143909 0.7192889
0.7695366 0.7195821 0.7192904
