Plugins/FilmEmulator/Content/LUTs/FE_Kodak_5293_64.cube
TITLE "FE_Kodak_5293_33"
LUT_3D_SIZE 8
0.0007620 0.0004238 0.0006158
0.0811779 0.0019179 0.0019496
0.1988175 0.0058070 0.0047479
0.2980936 0.0119886 0.0085592
0.3833061 0.0197318 0.0140075
0.4483413 0.0295559 0.0205798
0.5016400 0.0412608 0.0285146
0.5435786 0.0535382 0.0369059
0.0028019 0.0756583 0.0018421
0.0834192 0.0907779 0.0038234
0.1905494 0.1084299 0.0071113
0.2909119 0.1253778 0.0120864
0.3723067 0.1403096 0.0180987
0.4336467 0.1567320 0.0257765
0.4890862 0.1747340 0.0344125
0.5331133 0.1893149 0.0427831
0.0072156 0.2211863 0.0043607
0.0931960 0.2382168 0.0070758
0.1963759 0.2564959 0.0105692
0.2928296 0.2692715 0.0157406
0.3683270 0.2886622 0.0222893
0.4356083 0.3019157 0.0307004
0.4856213 0.3223896 0.0395402
0.5299932 0.3364701 0.0489949
0.0142653 0.3647197 0.0078832
0.1056234 0.3786761 0.0114044
0.2049279 0.3931817 0.0159452
0.2978664 0.4005533 0.0211237
0.3736419 0.4154332 0.0272829
0.4351381 0.4298453 0.0363553
0.4854739 0.4440231 0.0450951
0.5300808 0.4511952 0.0556599
0.0237596 0.4727246 0.0123407
0.1175675 0.4868048 0.0171616
0.2153263 0.4939507 0.0220201
0.3041857 0.5072349 0.0284076
0.3806572 0.5139086 0.0354683
0.4367658 0.5205865 0.0426863
0.4870881 0.5338823 0.0512567
0.5315955 0.5405501 0.0611733
0.0343364 0.5539016 0.0179517
0.1282190 0.5602465 0.0236894
0.2268413 0.5726715 0.0295415
0.3119486 0.5788381 0.0368509
0.3832388 0.5849757 0.0429336
0.4449197 0.5911210 0.0515101
0.4898377 0.5972220 0.0579484
0.5342049 0.6033300 0.0690789
0.0446428 0.6155405 0.0247531
0.1399424 0.6212973 0.0307283
0.2392700 0.6270903 0.0382501
0.3204745 0.6326998 0.0444973
0.3921909 0.6382983 0.0517516
0.4481043 0.6438789 0.0599423
0.4929583 0.6494176 0.0673707
0.5372048 0.6549349 0.0778632
0.0575254 0.6605700 0.0320328
0.1528566 0.6658040 0.0385012
0.2471321 0.6711175 0.0461188
0.3294402 0.6764206 0.0535539
0.3957927 0.6817049 0.0619906
0.4518791 0.6817173 0.0696074
0.5023787 0.6859205 0.0781066
0.5408722 0.6901044 0.0875841
0.0030512 0.0014164 0.1015509
0.0939961 0.0039699 0.1131239
0.2072452 0.0092720 0.1238771
0.3092364 0.0167786 0.1388429
0.3898573 0.0259316 0.1510909
0.4498301 0.0362951 0.1636032
0.5036575 0.0487940 0.1764695
0.5457882 0.0630188 0.1856455
0.0070444 0.0862103 0.1145455
0.0960864 0.1029029 0.1262460
0.2015190 0.1190236 0.1364807
0.2992152 0.1332881 0.1516070
0.3750389 0.1530820 0.1638763
0.4425430 0.1661096 0.1761195
0.4924481 0.1849127 0.1848486
0.5361737 0.2053785 0.1985336
0.0135886 0.2338724 0.1229428
0.1045824 0.2515362 0.1354245
0.2078600 0.2639530 0.1461150
0.3011825 0.2832047 0.1578936
0.3774867 0.2961824 0.1700207
0.4389678 0.3163393 0.1826483
0.4894224 0.3302041 0.1959805
0.5337812 0.3443787 0.2052954
0.0224429 0.3732307 0.1308211
0.1156885 0.3872796 0.1441406
0.2168848 0.4017843 0.1554539
0.3061982 0.4165541 0.1675919
0.3829904 0.4238312 0.1798101
0.4389673 0.4378742 0.1929294
0.4893959 0.4520229 0.2020842
0.5339628 0.4591467 0.2165069
0.0324150 0.4812187 0.1386388
0.1288660 0.4880670 0.1527994
0.2279167 0.5017564 0.1647186
0.3133671 0.5083238 0.1767608
0.3845829 0.5215493 0.1896003
0.4464281 0.5281405 0.1984854
0.4913858 0.5347590 0.2126354
0.5355562 0.5479474 0.2226495
0.0434524 0.5616255 0.1466499
0.1403838 0.5676382 0.1575186
0.2400126 0.5737002 0.1736191
0.3214356 0.5797760 0.1817416
0.3930383 0.5919681 0.1948586
0.4490339 0.5980324 0.2087263
0.4939459 0.6040657 0.2184667
0.5382363 0.6100863 0.2338556
0.0544702 0.6165268 0.1548906
0.1532220 0.6222327 0.1664011
0.2477248 0.6279596 0.1783613
0.3302048 0.6335260 0.1911120
0.3966821 0.6390867 0.2047035
0.4526032 0.6446111 0.2141712
0.4974253 0.6501254 0.2293323
0.5415874 0.6555880 0.2398167
0.0676590 0.6668025 0.1635004
0.1631503 0.6719596 0.1751800
0.2558642 0.6718732 0.1875022
0.3393416 0.6771343 0.2007630
0.4057139 0.6823651 0.2100034
0.4561815 0.6865443 0.2248514
0.5010803 0.6906862 0.2351690
0.5451241 0.6947996 0.2458261
0.0080330 0.0041032 0.2589385
0.1043726 0.0069021 0.2687467
0.2180580 0.0133391 0.2820628
0.3170550 0.0219578 0.2957289
0.3922033 0.0329051 0.3097007
0.4582258 0.0443155 0.3170763
0.5066956 0.0573668 0.3301435
0.5491601 0.0715405 0.3431580
0.0137114 0.0945167 0.2759254
0.1083096 0.1125607 0.2856399
0.2139976 0.1262471 0.2974516
0.3084713 0.1451267 0.3101746
0.3849673 0.1619187 0.3233263
0.4464751 0.1803210 0.3297181
0.4966882 0.1952055 0.3420832
0.5402982 0.2165096 0.3485742
0.0222182 0.2400907 0.2854140
0.1180209 0.2581280 0.2955675
0.2205341 0.2772871 0.3075818
0.3104973 0.2966106 0.3203236
0.3817858 0.3099436 0.3330370
0.4436263 0.3236146 0.3390287
0.4937151 0.3447691 0.3515539
0.5379602 0.3587673 0.3578324
0.0328583 0.3808334 0.2935200
0.1272035 0.3950387 0.3042068
0.2302526 0.4096397 0.3163235
0.3159418 0.4243237 0.3291745
0.3877256 0.4312755 0.3351065
0.4436869 0.4453644 0.3473521
0.4940773 0.4595630 0.3598632
0.5385317 0.4666754 0.3660699
0.0438353 0.4888495 0.3010522
0.1415200 0.4957290 0.3120596
0.2368777 0.5088544 0.3244575
0.3232949 0.5154068 0.3369163
0.3951002 0.5285921 0.3428036
0.4511920 0.5351800 0.3550611
0.4961195 0.5417705 0.3676086
0.5401497 0.5549142 0.3739794
0.0547444 0.5683883 0.3148514
0.1503531 0.5742725 0.3197409
0.2488119 0.5802888 0.3322046
0.3315178 0.5863403 0.3441964
0.3981465 0.5923824 0.3500737
0.4541160 0.5984275 0.3624506
0.4989950 0.6044428 0.3686578
0.5431417 0.6104439 0.3814152
0.0661537 0.6229100 0.3220035
0.1638885 0.6284928 0.3271182
0.2567279 0.6339998 0.3393923
0.3403912 0.6395133 0.3512912
0.4013341 0.6450117 0.3572664
0.4573556 0.6504952 0.3697560
0.5022411 0.6559387 0.3760133
0.5462303 0.6613574 0.3888719
0.0791708 0.6672088 0.3291258
0.1745440 0.6723557 0.3344952
0.2701502 0.6775597 0.3462607
0.3438957 0.6827704 0.3583665
0.4104542 0.6869013 0.3643409
0.4611856 0.6868842 0.3768767
0.5061601 0.6910086 0.3831639
0.5445433 0.6951221 0.3961370
0.0152368 0.0084322 0.3981847
0.1185166 0.0120908 0.4022805
0.2293566 0.0186014 0.4092350
0.3254304 0.0278254 0.4231214
0.4014204 0.0388820 0.4306120
0.4616081 0.0521659 0.4381089
0.5104128 0.0652136 0.4453962
0.5527251 0.0810221 0.4588984
0.0230970 0.1064322 0.4158186
0.1219989 0.1229170 0.4197536
0.2269297 0.1374539 0.4254420
0.3181813 0.1534772 0.4316792
0.3895741 0.1710776 0.4447472
0.4510428 0.1903088 0.4514447
0.5012213 0.2058186 0.4581062
0.5450246 0.2222683 0.4644141
0.0325770 0.2523923 0.4198709
0.1297042 0.2711053 0.4305101
0.2342765 0.2838809 0.4359913
0.3205714 0.3034742 0.4421589
0.3924680 0.3169703 0.4484231
0.4482169 0.3378884 0.4615892
0.4986380 0.3520210 0.4676901
0.5427191 0.3660611 0.4738428
0.0431684 0.3883062 0.4286162
0.1398531 0.4026464 0.4330193
0.2394524 0.4173539 0.4451311
0.3261479 0.4315938 0.4511670
0.3927403 0.4385825 0.4573438
0.4543987 0.4527070 0.4637349
0.4990508 0.4669392 0.4698561
0.5433350 0.4740678 0.4758621
0.0552853 0.4962891 0.4365889
0.1517068 0.5026308 0.4411661
0.2506098 0.5157420 0.4467984
0.3336526 0.5222952 0.4593185
0.4004516 0.5288597 0.4655084
0.4562317 0.5420356 0.4715230
0.5011210 0.5485978 0.4775163
0.5452665 0.5551463 0.4835248
0.0666322 0.5686239 0.4440408
0.1649694 0.5745330 0.4488171
0.2580538 0.5866657 0.4545694
0.3419732 0.5926771 0.4605319
0.4030236 0.5986981 0.4667662
0.4590996 0.6047115 0.4788555
0.5039932 0.6106946 0.4848531
0.5425008 0.6166527 0.4909041
0.0774828 0.6289520 0.4448557
0.1753290 0.6343585 0.4563642
0.2712558 0.6398157 0.4620292
0.3451903 0.6452910 0.4681016
0.4118016 0.6507450 0.4738868
0.4623398 0.6561794 0.4798247
0.5075363 0.6561520 0.4857080
0.5458848 0.6615592 0.4917558
0.0900237 0.6727659 0.4519610
0.1865402 0.6778829 0.4570844
0.2801462 0.6777776 0.4627016
0.3544159 0.6829858 0.4749769
0.4156515 0.6871188 0.4807962
0.4662316 0.6912350 0.4867224
0.5111977 0.6953276 0.4927014
0.5496809 0.6953077 0.4986452
0.0252663 0.0138252 0.4945377
0.1316583 0.0186169 0.4988713
0.2415854 0.0243181 0.5050194
0.3337429 0.0352336 0.5122338
0.4046684 0.0474051 0.5189007
0.4651498 0.0612426 0.5252509
0.5142734 0.0739060 0.5313569
0.5568027 0.0888738 0.5374975
0.0327905 0.1162201 0.5108744
0.1341025 0.1301231 0.5148425
0.2405294 0.1494556 0.5204928
0.3278502 0.1666435 0.5260529
0.4000905 0.1806011 0.5314456
0.4557629 0.2006680 0.5371408
0.5058796 0.2168109 0.5427274
0.5495222 0.2338808 0.5428649
0.0441184 0.2650480 0.5149904
0.1426350 0.2777650 0.5191013
0.2434457 0.2970498 0.5245347
0.3309484 0.3103535 0.5297818
0.3972710 0.3310079 0.5352002
0.4590559 0.3451662 0.5405314
0.5037096 0.3591689 0.5459805
0.5476122 0.3733367 0.5514244
0.0545530 0.3957380 0.5235323
0.1536188 0.4102131 0.5278773
0.2533637 0.4248337 0.5327377
0.3366562 0.4388073 0.5377626
0.4033885 0.4529221 0.5429963
0.4595412 0.4600005 0.5481992
0.5041267 0.4742692 0.5536147
0.5482501 0.4813989 0.5534272
0.0672511 0.5030617 0.5313101
0.1663546 0.5094320 0.5352631
0.2599761 0.5225530 0.5399572
0.3387230 0.5290802 0.5393867
0.4054596 0.5356352 0.5444793
0.4613424 0.5487877 0.5497914
0.5062429 0.5553337 0.5550618
0.5447259 0.5618690 0.5603685
0.0780776 0.5749247 0.5323165
0.1765578 0.5808358 0.5364318
0.2678457 0.5868326 0.5410569
0.3471255 0.5928481 0.5459774
0.4136113 0.6049015 0.5511727
0.4641931 0.6108763 0.5563869
0.5091333 0.6168257 0.5616377
0.5474803 0.6227373 0.5614752
0.0905909 0.6290975 0.5387669
0.1876086 0.6345105 0.5428033
0.2813745 0.6399728 0.5474277
0.3558567 0.6454350 0.5469080
0.4171393 0.6508923 0.5520272
0.4677114 0.6563245 0.5572354
0.5126377 0.6617231 0.5624794
0.5508536 0.6670877 0.5677588
0.1020996 0.6728984 0.5393843
0.1989867 0.6780272 0.5435326
0.2898912 0.6831842 0.5482145
0.3650269 0.6872963 0.5531558
0.4208040 0.6914034 0.5582867
0.4772546 0.6913665 0.5633332
0.5164600 0.6954618 0.5685824
0.5547152 0.6995178 0.5683943
0.0365136 0.0206094 0.5640941
0.1430909 0.0260427 0.5679089
0.2488796 0.0329818 0.5730212
0.3429644 0.0415860 0.5781187
0.4142517 0.0556821 0.5790029
0.4691811 0.0694958 0.5844775
0.5182247 0.0836385 0.5898142
0.5605925 0.1001624 0.5951658
0.0444050 0.1267025 0.5781403
0.1470871 0.1415469 0.5815094
0.2499182 0.1579353 0.5809048
0.3380983 0.1759353 0.5855010
0.4046380 0.1955879 0.5903407
0.4663258 0.2114153 0.5950801
0.5106429 0.2281784 0.5952094
0.5540799 0.2458908 0.6000682
0.0557564 0.2715456 0.5819971
0.1564921 0.2907085 0.5855100
0.2572926 0.3105343 0.5895650
0.3412581 0.3241837 0.5938743
0.4083146 0.3381717 0.5936490
0.4642658 0.3523017 0.5982568
0.5088490 0.3663442 0.6029286
0.5525642 0.3806340 0.6075891
0.0663022 0.4105777 0.5896348
0.1684452 0.4177660 0.5926044
0.2628653 0.4319601 0.5918463
0.3417898 0.4459988 0.5961670
0.4084500 0.4601618 0.6006380
0.4647004 0.4672589 0.6050680
0.5093074 0.4815472 0.6050081
0.5477492 0.4887042 0.6095538
0.0788181 0.5097733 0.5910671
0.1780660 0.5161659 0.5942346
0.2698872 0.5226658 0.5981222
0.3492404 0.5358073 0.5976929
0.4161361 0.5423521 0.6020252
0.4667765 0.5489045 0.6064813
0.5114323 0.5620092 0.6110834
0.5497584 0.5682746 0.6109284
0.0912225 0.5811558 0.5967791
0.1887956 0.5870568 0.5953652
0.2829553 0.5930302 0.5992556
0.3576331 0.5990251 0.6034667
0.4190216 0.6050144 0.6078165
0.4696510 0.6109774 0.6075678
0.5145792 0.6169251 0.6120427
0.5527695 0.6228463 0.6165460
0.1026770 0.6347902 0.5975245
0.2000049 0.6401837 0.6009369
0.2912191 0.6456168 0.6048619
0.3609523 0.6510478 0.6044052
0.4223100 0.6564656 0.6087483
0.4728990 0.6618567 0.6131694
0.5177190 0.6672039 0.6129630
0.5561546 0.6671803 0.6173525
0.1155351 0.6782852 0.6028380
0.2119552 0.6833749 0.6016440
0.3000579 0.6832820 0.6055179
0.3704253 0.6873981 0.6097312
0.4319062 0.6914901 0.6093668
0.4825257 0.6955734 0.6137662
0.5215937 0.6996369 0.6182318
0.5599922 0.6996145 0.6225993
0.0488444 0.0288607 0.6136548
0.1555577 0.0352788 0.6169627
0.2622279 0.0416075 0.6212192
0.3520348 0.0506008 0.6214048
0.4184514 0.0632767 0.6259029
0.4790519 0.0786797 0.6265293
0.5222398 0.0944418 0.6310217
0.5648018 0.1094233 0.6353358
0.0561249 0.1340387 0.6254363
0.1611382 0.1537897 0.6240683
0.2587721 0.1713702 0.6282008
0.3429051 0.1856291 0.6318287
0.4154353 0.2061067 0.6318691
0.4712158 0.2225630 0.6357885
0.5154406 0.2399574 0.6359137
0.5532194 0.2583025 0.6399423
0.0677544 0.2845089 0.6292132
0.1674320 0.3039905 0.6324136
0.2669053 0.3174248 0.6316558
0.3464420 0.3312438 0.6351632
0.4133977 0.3453975 0.6388152
0.4691262 0.3664524 0.6388256
0.5137041 0.3807419 0.6426342
0.5517739 0.3952543 0.6426379
0.0778238 0.4180709 0.6314982
0.1802824 0.4251550 0.6345180
0.2726322 0.4390940 0.6377097
0.3523796 0.4531774 0.6373160
0.4194844 0.4602401 0.6408115
0.4698812 0.4745006 0.6445495
0.5145225 0.4888142 0.6444921
0.5527773 0.4959778 0.6481793
0.0898624 0.5098380 0.6373622
0.1904088 0.5228634 0.6360720
0.2798551 0.5293652 0.6391811
0.3597980 0.5424993 0.6426236
0.4213253 0.5490279 0.6422979
0.4719856 0.5555639 0.6458976
0.5169269 0.5620811 0.6457081
0.5548236 0.5745178 0.6494831
0.1034974 0.5812103 0.6383049
0.2012681 0.5932290 0.6410142
0.2928655 0.5991743 0.6402676
0.3627778 0.6051464 0.6436748
0.4242394 0.6111044 0.6471726
0.4748804 0.6170358 0.6469348
0.5196828 0.6229488 0.6505523
0.5578492 0.6287366 0.6504007
0.1134574 0.6348494 0.6390708
0.2132297 0.6402495 0.6417217
0.3014580 0.6456888 0.6448642
0.3719551 0.6511199 0.6444288
0.4334579 0.6565361 0.6479220
0.4840602 0.6619253 0.6514887
0.5230950 0.6672772 0.6513292
0.5612215 0.6725964 0.6549649
0.1274613 0.6783398 0.6434925
0.2257645 0.6834370 0.6424012
0.3103034 0.6875240 0.6455756
0.3813594 0.6916096 0.6489430
0.4372323 0.6956773 0.6486356
0.4880473 0.6956431 0.6520987
0.5269696 0.6997049 0.6557067
0.5651180 0.7037294 0.6555328
0.0610638 0.0377348 0.6507972
0.1693781 0.0444651 0.6495774
0.2701378 0.0522759 0.6531049
0.3555399 0.0613192 0.6531691
0.4286150 0.0717357 0.6571638
0.4835784 0.0862943 0.6576597
0.5266780 0.1032207 0.6619781
0.5636058 0.1194320 0.6624327
0.0700601 0.1457040 0.6568818
0.1723556 0.1624390 0.6556960
0.2732591 0.1808375 0.6590213
0.3534818 0.1957124 0.6588109
0.4202244 0.2170385 0.6626459
0.4760627 0.2341197 0.6664173
0.5202679 0.2521454 0.6665382
0.5582123 0.2646815 0.6705491
0.0794175 0.2975726 0.6604851
0.1833853 0.3107646 0.6628751
0.2767801 0.3243801 0.6622478
0.3567800 0.3455041 0.6657626
0.4238566 0.3594795 0.6655536
0.4743200 0.3736438 0.6691890
0.5189378 0.3880419 0.6691509
0.5567966 0.4026687 0.6731267
0.0910120 0.4254166 0.6625463
0.1927528 0.4322192 0.6649348
0.2826716 0.4462255 0.6680591
0.3630021 0.4603584 0.6676872
0.4246919 0.4674467 0.6710877
0.4751123 0.4817295 0.6709909
0.5197127 0.4960718 0.6748965
0.5578589 0.5026621 0.6747576
0.1018831 0.5164996 0.6675642
0.2029850 0.5295334 0.6664251
0.2950703 0.5360298 0.6694243
0.3652495 0.5425547 0.6690105
0.4265636 0.5556689 0.6725057
0.4772300 0.5621890 0.6762348
0.5220490 0.5684478 0.6760502
0.5601729 0.5745834 0.6799719
0.1142617 0.5873668 0.6685119
0.2145781 0.5932772 0.6710665
0.3031648 0.5992303 0.6704024
0.3738342 0.6052027 0.6736785
0.4354425 0.6111528 0.6733651
0.4801444 0.6230434 0.6772233
0.5248266 0.6288250 0.6770365
0.5629333 0.6344106 0.6809474
0.1282094 0.6404536 0.6691971
0.2269435 0.6458344 0.6718447
0.3117133 0.6512443 0.6749146
0.3772308 0.6566434 0.6745390
0.4387644 0.6620209 0.6781639
0.4893609 0.6673619 0.6779341
0.5282295 0.6726803 0.6818359
0.5665691 0.6726478 0.6815911
0.1403378 0.6836288 0.6734917
0.2349206 0.6876596 0.6725247
0.3155565 0.6875797 0.6755399
0.3869492 0.6916578 0.6751080
0.4428067 0.6957334 0.6787505
0.4934029 0.6997774 0.6785022
0.5321667 0.7038090 0.6823821
0.5650209 0.7037826 0.6821724
