Plugins/FilmEmulator/Content/LUTs/FE_Kodak_5247_64.cube
TITLE "FE_Kodak_5247_33"
LUT_3D_SIZE 4
0.0016041 0.0004935 0.0006585
0.2935679 0.0031952 0.0083644
0.5764755 0.0123009 0.0268181
0.7176879 0.0262786 0.0551750
0.0040482 0.2927011 0.0024426
0.2394493 0.2941301 0.0068571
0.5249314 0.2942327 0.0145275
0.6827118 0.2940826 0.0287900
0.0118189 0.5150655 0.0080283
0.2248047 0.5165073 0.0140281
0.5048475 0.5167996 0.0241488
0.6657591 0.5168273 0.0371376
0.0253714 0.6318129 0.0172331
0.2147221 0.6328707 0.0240482
0.4985553 0.6332450 0.0372914
0.6601512 0.6333334 0.0528980
0.0169476 0.0062668 0.5365510
0.3437563 0.0172192 0.5459719
0.5987148 0.0317172 0.5630411
0.7256306 0.0498854 0.5843264
0.0129378 0.3127272 0.3666922
0.3008700 0.3203143 0.4117255
0.5586252 0.3207591 0.4521348
0.6970056 0.3209554 0.4917764
0.0246252 0.5239449 0.3309525
0.2786098 0.5254321 0.3726757
0.5406757 0.5259662 0.4118512
0.6878545 0.5321088 0.4499930
0.0412413 0.6342341 0.3181213
0.2676960 0.6353312 0.3488404
0.5352846 0.6358512 0.3869628
0.6770411 0.6360644 0.4251541
0.0610929 0.0232210 0.8001009
0.3955117 0.0383785 0.8047659
0.6263193 0.0581136 0.8085026
0.7367532 0.0788341 0.8139269
0.0463442 0.3426264 0.7042050
0.3577552 0.3438278 0.7346095
0.5935148 0.3442789 0.7521001
0.7184007 0.3507424 0.7671502
0.0462729 0.5407485 0.6782864
0.3412697 0.5420759 0.7017915
0.5764560 0.5425777 0.7206011
0.7045925 0.5428391 0.7376793
0.0660363 0.6427012 0.6656297
0.3293257 0.6437029 0.6884204
0.5639437 0.6441728 0.7077181
0.7002977 0.6444330 0.7253488
0.1176696 0.0477213 0.8968850
0.4523489 0.0654241 0.8979557
0.6485575 0.0885236 0.9014469
0.7488983 0.1119362 0.9019178
0.0994384 0.3667718 0.8511625
0.4106538 0.3677168 0.8637470
0.6205543 0.3742091 0.8691268
0.7339354 0.3744324 0.8785810
0.0873401 0.5514758 0.8360291
0.4019121 0.5525545 0.8498399
0.6048476 0.5530017 0.8561111
0.7211869 0.5532717 0.8617069
0.0946530 0.6519076 0.8274539
0.3893509 0.6528572 0.8362551
0.5999824 0.6532608 0.8482066
0.7170575 0.6535104 0.8540556
