Plugins/FilmEmulator/Content/LUTs/FE_Kodak_Gold_200_64.cube
TITLE "FE_Kodak_Gold_200_33"
LUT_3D_SIZE 64
0.0019029 0.0024473 0.0027910
0.0028709 0.0024467 0.0027895
0.0060985 0.0024457 0.0027868
0.0110467 0.0024452 0.0027847
0.0178513 0.0024451 0.0027831
0.0252288 0.0025086 0.0022598
0.0343758 0.0026047 0.0021136
0.0436558 0.0027190 0.0021148
0.0535062 0.0028429 0.0021542
0.0653966 0.0030345 0.0022481
0.0771379 0.0032222 0.0023529
0.0879148 0.0034113 0.0024796
0.1033437 0.0036118 0.0026131
0.1136949 0.0038714 0.0027877
0.1289859 0.0041602 0.0029812
0.1415990 0.0043908 0.0031351
0.1552316 0.0046852 0.0033352
0.1699948 0.0049992 0.0035480
0.1859198 0.0052206 0.0036974
0.1971086 0.0055798 0.0039434
0.2149944 0.0058579 0.0041408
0.2275750 0.0062998 0.0044558
0.2407352 0.0066131 0.0046789
0.2544238 0.0069418 0.0049131
0.2686298 0.0073016 0.0051850
0.2833617 0.0076876 0.0054857
0.2986757 0.0080940 0.0058037
0.3144761 0.0085216 0.0061400
0.3308069 0.0087444 0.0063153
0.3390382 0.0092054 0.0066813
0.3559380 0.0097280 0.0071194
0.3645364 0.0100002 0.0073490
0.3820738 0.0105676 0.0078306
0.3909711 0.0108631 0.0080830
0.4089980 0.0114789 0.0086124
0.4181166 0.0117996 0.0088899
0.4272975 0.0121292 0.0091762
0.4458112 0.0128623 0.0097959
0.4551364 0.0132498 0.0101231
0.4644972 0.0136489 0.0104611
0.4738881 0.0140599 0.0108103
0.4928254 0.0144837 0.0111708
0.5021813 0.0153676 0.0119289
0.5116301 0.0158296 0.0123267
0.5210761 0.0163054 0.0127376
0.5305111 0.0168044 0.0131613
0.5399264 0.0173373 0.0135975
0.5493186 0.0178869 0.0140480
0.5586991 0.0184536 0.0145132
0.5680793 0.0190380 0.0149937
0.5774159 0.0196406 0.0154899
0.5867029 0.0202619 0.0160023
0.5959335 0.0209026 0.0165314
0.6051925 0.0209031 0.0165308
0.6142918 0.0215636 0.0170772
0.6142020 0.0222444 0.0176420
0.6232275 0.0229466 0.0182246
0.6321720 0.0236769 0.0188289
0.6410313 0.0244302 0.0194530
0.6497997 0.0252069 0.0200974
0.6585976 0.0252071 0.0200967
0.6585115 0.0260077 0.0207629
0.6671216 0.0268335 0.0214500
0.6756258 0.0276848 0.0221594
0.0018893 0.0043914 0.0028428
0.0029968 0.0046852 0.0028469
0.0062234 0.0048905 0.0028481
0.0113237 0.0051055 0.0028498
0.0176794 0.0053341 0.0022882
0.0258626 0.0055805 0.0021655
0.0340438 0.0058587 0.0021671
0.0432352 0.0061504 0.0022076
0.0548172 0.0064564 0.0023025
0.0648076 0.0066147 0.0024071
0.0764609 0.0069436 0.0025360
0.0900783 0.0071176 0.0026697
0.1025032 0.0074941 0.0028465
0.1128327 0.0076896 0.0029908
0.1280510 0.0080963 0.0031963
0.1406301 0.0083072 0.0033961
0.1542034 0.0087469 0.0035400
0.1689559 0.0089747 0.0037613
0.1848401 0.0092083 0.0040063
0.1960537 0.0094662 0.0042042
0.2138523 0.0100047 0.0044156
0.2264802 0.0102847 0.0046337
0.2396485 0.0105717 0.0049789
0.2533458 0.0108673 0.0052507
0.2675640 0.0111719 0.0054010
0.2823205 0.0114840 0.0057098
0.2976644 0.0118048 0.0060362
0.3134999 0.0121344 0.0063812
0.3297935 0.0124922 0.0065640
0.3380750 0.0128679 0.0069643
0.3550270 0.0132553 0.0074148
0.3636087 0.0136548 0.0076545
0.3812048 0.0140655 0.0081494
0.3900874 0.0144892 0.0084127
0.4081713 0.0149260 0.0086842
0.4172854 0.0153739 0.0092455
0.4264542 0.0158364 0.0095509
0.4451395 0.0158360 0.0098605
0.4544616 0.0163121 0.0101898
0.4638271 0.0168100 0.0108718
0.4732107 0.0173432 0.0112352
0.4921399 0.0178937 0.0116104
0.5016813 0.0178926 0.0119864
0.5111246 0.0184596 0.0123867
0.5205658 0.0190444 0.0128003
0.5299977 0.0196473 0.0132265
0.5395164 0.0196460 0.0136513
0.5489100 0.0202676 0.0141036
0.5582917 0.0209087 0.0145706
0.5676739 0.0215696 0.0150530
0.5771133 0.0215680 0.0155358
0.5864019 0.0222494 0.0160497
0.5956347 0.0229518 0.0165803
0.6049043 0.0229501 0.0171115
0.6140049 0.0236807 0.0176769
0.6139058 0.0244361 0.0176945
0.6230313 0.0244341 0.0182608
0.6319773 0.0252110 0.0188663
0.6409349 0.0252089 0.0194723
0.6497043 0.0260099 0.0201174
0.6584091 0.0268382 0.0201366
0.6584172 0.0268358 0.0207835
0.6670284 0.0276872 0.0214713
0.6756258 0.0276848 0.0221594
0.0018709 0.0097559 0.0029152
0.0031238 0.0100266 0.0029158
0.0065313 0.0103047 0.0027964
0.0116015 0.0108940 0.0023251
0.0181392 0.0111990 0.0021990
0.0256374 0.0115111 0.0022190
0.0349370 0.0118318 0.0022695
0.0443766 0.0121613 0.0023655
0.0543928 0.0125184 0.0024564
0.0664867 0.0128944 0.0026193
0.0758934 0.0132823 0.0027612
0.0894127 0.0136820 0.0029014
0.1017799 0.0140930 0.0030987
0.1156786 0.0145170 0.0032560
0.1271942 0.0149532 0.0034600
0.1397404 0.0149508 0.0036733
0.1532772 0.0154009 0.0038262
0.1679502 0.0158633 0.0040760
0.1837488 0.0163403 0.0042776
0.1949091 0.0168392 0.0045968
0.2126801 0.0173735 0.0048242
0.2253188 0.0173715 0.0050580
0.2384262 0.0179220 0.0053346
0.2520664 0.0184896 0.0056404
0.2662330 0.0190749 0.0059636
0.2810083 0.0190739 0.0061289
0.2962983 0.0196774 0.0064799
0.3120809 0.0202996 0.0068509
0.3283281 0.0209426 0.0070727
0.3366773 0.0209392 0.0075233
0.3535820 0.0216021 0.0077667
0.3621503 0.0222832 0.0082695
0.3797989 0.0222819 0.0085284
0.3886633 0.0229861 0.0088043
0.4067256 0.0237168 0.0093736
0.4159152 0.0237149 0.0096742
0.4343731 0.0244704 0.0099977
0.4436454 0.0252467 0.0106675
0.4530572 0.0252446 0.0110132
0.4624041 0.0260474 0.0113814
0.4718854 0.0260453 0.0117501
0.4908086 0.0268732 0.0121424
0.5002450 0.0277264 0.0125480
0.5097908 0.0277242 0.0129540
0.5192319 0.0286039 0.0133855
0.5287682 0.0286014 0.0138154
0.5381861 0.0295082 0.0142731
0.5476852 0.0295057 0.0147312
0.5570706 0.0304404 0.0152189
0.5665588 0.0304377 0.0157070
0.5759023 0.0314012 0.0162266
0.5851966 0.0323957 0.0167633
0.5945366 0.0323929 0.0173002
0.6037140 0.0334187 0.0178718
0.6129229 0.0334158 0.0184437
0.6219498 0.0344762 0.0184615
0.6219584 0.0344730 0.0190553
0.6309142 0.0355627 0.0196868
0.6398824 0.0355594 0.0203188
0.6486624 0.0366823 0.0209915
0.6574733 0.0366824 0.0209907
0.6574814 0.0366789 0.0216646
0.6661038 0.0378360 0.0223810
0.6747127 0.0378325 0.0230978
0.0018582 0.0168990 0.0029664
0.0032234 0.0174353 0.0027296
0.0066745 0.0179898 0.0023475
0.0119204 0.0185585 0.0022268
0.0186652 0.0185524 0.0022584
0.0263750 0.0191375 0.0023208
0.0347234 0.0197413 0.0024027
0.0441059 0.0203635 0.0025270
0.0540832 0.0203585 0.0026581
0.0661103 0.0210004 0.0028020
0.0779977 0.0216618 0.0029926
0.0889471 0.0216577 0.0031416
0.1012546 0.0223397 0.0033678
0.1150865 0.0230448 0.0035082
0.1265923 0.0230402 0.0037244
0.1434293 0.0237723 0.0039578
0.1572783 0.0245286 0.0041331
0.1671837 0.0245233 0.0044373
0.1829208 0.0253028 0.0046569
0.1998798 0.0252991 0.0048825
0.2118128 0.0261028 0.0051241
0.2243438 0.0269311 0.0054045
0.2374839 0.0269268 0.0057085
0.2581185 0.0277805 0.0060356
0.2725897 0.0277762 0.0063749
0.2799541 0.0286584 0.0065583
0.2952082 0.0295656 0.0069338
0.3110453 0.0295604 0.0073755
0.3272621 0.0304976 0.0076142
0.3355968 0.0304922 0.0080992
0.3524739 0.0314581 0.0083612
0.3698787 0.0314555 0.0086229
0.3786534 0.0324495 0.0091809
0.3966289 0.0324468 0.0094681
0.4056399 0.0334750 0.0097814
0.4148301 0.0334688 0.0104264
0.4332740 0.0345284 0.0107749
0.4426336 0.0345253 0.0111241
0.4519381 0.0356172 0.0114960
0.4613833 0.0356140 0.0118684
0.4802544 0.0367393 0.0122646
0.4897800 0.0367360 0.0126616
0.4992152 0.0378955 0.0130844
0.5087609 0.0378920 0.0135067
0.5182019 0.0390868 0.0139544
0.5277395 0.0390832 0.0144023
0.5371591 0.0403142 0.0148794
0.5466611 0.0403105 0.0153567
0.5561526 0.0403067 0.0158491
0.5655423 0.0415748 0.0163734
0.5749924 0.0415709 0.0168980
0.5842915 0.0428773 0.0174566
0.5936373 0.0428733 0.0180154
0.6028208 0.0442202 0.0186104
0.6120370 0.0442160 0.0192083
0.6211698 0.0442159 0.0192076
0.6210796 0.0456059 0.0198448
0.6301410 0.0456015 0.0204818
0.6390195 0.0470331 0.0211599
0.6478963 0.0470328 0.0211591
0.6566293 0.0485074 0.0218592
0.6566373 0.0485030 0.0225604
0.6653631 0.0484982 0.0232829
0.6738809 0.0500214 0.0233052
0.0018829 0.0262242 0.0025994
0.0034186 0.0262211 0.0023448
0.0068340 0.0270478 0.0022648
0.0122674 0.0278983 0.0022940
0.0185726 0.0278882 0.0023659
0.0262450 0.0287677 0.0024491
0.0357731 0.0287576 0.0025882
0.0454325 0.0296648 0.0027251
0.0556956 0.0296567 0.0028800
0.0658220 0.0305917 0.0030758
0.0776597 0.0315571 0.0032320
0.0885659 0.0315503 0.0034056
0.1008245 0.0325463 0.0036191
0.1146468 0.0325388 0.0038420
0.1301030 0.0335681 0.0040021
0.1428949 0.0335605 0.0042752
0.1567016 0.0346210 0.0044868
0.1716939 0.0346152 0.0047041
0.1822645 0.0357084 0.0049370
0.1991805 0.0357000 0.0053066
0.2110779 0.0368286 0.0054593
0.2236477 0.0368222 0.0057664
0.2434358 0.0379819 0.0060967
0.2573498 0.0379754 0.0064395
0.2717927 0.0379689 0.0068015
0.2867291 0.0391669 0.0069969
0.2944563 0.0391598 0.0074428
0.3101750 0.0403936 0.0076836
0.3264642 0.0403860 0.0081728
0.3431065 0.0416571 0.0084372
0.3516449 0.0416494 0.0089742
0.3689348 0.0429588 0.0092643
0.3777889 0.0429548 0.0095543
0.3957484 0.0429506 0.0098604
0.4047609 0.0442964 0.0105211
0.4139360 0.0442921 0.0108622
0.4323678 0.0456847 0.0112251
0.4417225 0.0456804 0.0115888
0.4510221 0.0471150 0.0119761
0.4604638 0.0471105 0.0123639
0.4794424 0.0471014 0.0131771
0.4888625 0.0485787 0.0136161
0.4984005 0.0485740 0.0140533
0.5078416 0.0500954 0.0145189
0.5173869 0.0500906 0.0149848
0.5269255 0.0500858 0.0154655
0.5363461 0.0516524 0.0159773
0.5458413 0.0516521 0.0159768
0.5553357 0.0516471 0.0164889
0.5647281 0.0532602 0.0170341
0.5741822 0.0532550 0.0175796
0.5834858 0.0549158 0.0181605
0.5928366 0.0549104 0.0187415
0.6021259 0.0549050 0.0193435
0.6112391 0.0566198 0.0193622
0.6203870 0.0566142 0.0199838
0.6203955 0.0566090 0.0206259
0.6293653 0.0583689 0.0213087
0.6383488 0.0583630 0.0219918
0.6472325 0.0583625 0.0219909
0.6559728 0.0601739 0.0227181
0.6559808 0.0601684 0.0234464
0.6647063 0.0601679 0.0234455
0.6732406 0.0620289 0.0242198
0.0019411 0.0358859 0.0023374
0.0035522 0.0370109 0.0022945
0.0072522 0.0369913 0.0023213
0.0126390 0.0381454 0.0024073
0.0191554 0.0381310 0.0024892
0.0270630 0.0393239 0.0026153
0.0356389 0.0393098 0.0027857
0.0452638 0.0405402 0.0029574
0.0554903 0.0405295 0.0031043
0.0655804 0.0418000 0.0032620
0.0774065 0.0417897 0.0034371
0.0912093 0.0417788 0.0036487
0.1037974 0.0430867 0.0038773
0.1142868 0.0430772 0.0041162
0.1297016 0.0444274 0.0043144
0.1424573 0.0444193 0.0045234
0.1562317 0.0458100 0.0048611
0.1711875 0.0458019 0.0050964
0.1817936 0.0457943 0.0053499
0.1986077 0.0472286 0.0056565
0.2105516 0.0472201 0.0059746
0.2294919 0.0487010 0.0061463
0.2428461 0.0486923 0.0064919
0.2567372 0.0486836 0.0068568
0.2710704 0.0502091 0.0070538
0.2860729 0.0501992 0.0075031
0.3015307 0.0517648 0.0079889
0.3094868 0.0517598 0.0082392
0.3257486 0.0517543 0.0084972
0.3423795 0.0533662 0.0090469
0.3509009 0.0533610 0.0093302
0.3682700 0.0533555 0.0096220
0.3770286 0.0550148 0.0102631
0.3949740 0.0550089 0.0105956
0.4040711 0.0550034 0.0109391
0.4131404 0.0567166 0.0113049
0.4316636 0.0567106 0.0116708
0.4409207 0.0584687 0.0124518
0.4503198 0.0584629 0.0128548
0.4692226 0.0584566 0.0132703
0.4786200 0.0602715 0.0137123
0.4881427 0.0602654 0.0141526
0.4976800 0.0602595 0.0146069
0.5071207 0.0621239 0.0150906
0.5166665 0.0621177 0.0155747
0.5262055 0.0621116 0.0160740
0.5356280 0.0640299 0.0166057
0.5451249 0.0640293 0.0166052
0.5546213 0.0640229 0.0171371
0.5640169 0.0659966 0.0177035
0.5734743 0.0659901 0.0182701
0.5828835 0.0659835 0.0188546
0.5921370 0.0680139 0.0194796
0.6014313 0.0680070 0.0201051
0.6106494 0.0680063 0.0201043
0.6198024 0.0679994 0.0207495
0.6287779 0.0700877 0.0214362
0.6287861 0.0700814 0.0221242
0.6377670 0.0700806 0.0221233
0.6465691 0.0722286 0.0228548
0.6554115 0.0722213 0.0235865
0.6641520 0.0722139 0.0243412
0.6640581 0.0744304 0.0243653
0.6726931 0.0744227 0.0251444
0.0020223 0.0474868 0.0023245
0.0036955 0.0474656 0.0023471
0.0074593 0.0489308 0.0024450
0.0126002 0.0489080 0.0025378
0.0197635 0.0504234 0.0026712
0.0269814 0.0504057 0.0028093
0.0367704 0.0503872 0.0029791
0.0451293 0.0519529 0.0031815
0.0553269 0.0519391 0.0033395
0.0676285 0.0519245 0.0035317
0.0797709 0.0535382 0.0037529
0.0909506 0.0535249 0.0039840
0.1035044 0.0551904 0.0041499
0.1176632 0.0551755 0.0044496
0.1293916 0.0551652 0.0046651
0.1420720 0.0568791 0.0048959
0.1558653 0.0568687 0.0051330
0.1707924 0.0568582 0.0053881
0.1868009 0.0586209 0.0056969
0.1981643 0.0586101 0.0060173
0.2100881 0.0585993 0.0063557
0.2289978 0.0604180 0.0065382
0.2423317 0.0604070 0.0069057
0.2562031 0.0603954 0.0073196
0.2705176 0.0622636 0.0075565
0.2855008 0.0622512 0.0080377
0.3010190 0.0622442 0.0082894
0.3088871 0.0641615 0.0088260
0.3251314 0.0641544 0.0091021
0.3418307 0.0641474 0.0093869
0.3502597 0.0661195 0.0100014
0.3676144 0.0661121 0.0103254
0.3764551 0.0661054 0.0106602
0.3942911 0.0681391 0.0110165
0.4033823 0.0681322 0.0113735
0.4217781 0.0681184 0.0121222
0.4309694 0.0702108 0.0125272
0.4403163 0.0702037 0.0129327
0.4497125 0.0701966 0.0133511
0.4685073 0.0723478 0.0137953
0.4780066 0.0723405 0.0142382
0.4875281 0.0723332 0.0146952
0.4970646 0.0723260 0.0151667
0.5065051 0.0745387 0.0156688
0.5160509 0.0745312 0.0161711
0.5255908 0.0745236 0.0166894
0.5350140 0.0767988 0.0172412
0.5445213 0.0767910 0.0177932
0.5540109 0.0767902 0.0177926
0.5635118 0.0767824 0.0183621
0.5728691 0.0791214 0.0189684
0.5822818 0.0791133 0.0195776
0.5916402 0.0791052 0.0202061
0.6008288 0.0815167 0.0202255
0.6100600 0.0815084 0.0208744
0.6192178 0.0815000 0.0215439
0.6282964 0.0814917 0.0222344
0.6282073 0.0839555 0.0229702
0.6371935 0.0839544 0.0229693
0.6460975 0.0839458 0.0237047
0.6548510 0.0864723 0.0244872
0.6635898 0.0864712 0.0244863
0.6635980 0.0864635 0.0252702
0.6722386 0.0864546 0.0260776
0.0021143 0.0589354 0.0023980
0.0038446 0.0607410 0.0024814
0.0076782 0.0607071 0.0025575
0.0129971 0.0606746 0.0027232
0.0197112 0.0625324 0.0028665
0.0278551 0.0625071 0.0030503
0.0366743 0.0624872 0.0032016
0.0465716 0.0644057 0.0033639
0.0570703 0.0643872 0.0035575
0.0674562 0.0643696 0.0037764
0.0795701 0.0663436 0.0040128
0.0907222 0.0663309 0.0041757
0.1032879 0.0663127 0.0044772
0.1173762 0.0683467 0.0046986
0.1290797 0.0683338 0.0049261
0.1417832 0.0683210 0.0051645
0.1555000 0.0704139 0.0054267
0.1703996 0.0703995 0.0057319
0.1864404 0.0703852 0.0060541
0.1977868 0.0703720 0.0063945
0.2158062 0.0725225 0.0067606
0.2285771 0.0725148 0.0069479
0.2418943 0.0725007 0.0073643
0.2556717 0.0747115 0.0078412
0.2700471 0.0747028 0.0080868
0.2850067 0.0746943 0.0083399
0.3005159 0.0746792 0.0088707
0.3164212 0.0769584 0.0091574
0.3246054 0.0769440 0.0097400
0.3412909 0.0769352 0.0100520
0.3497058 0.0792789 0.0103884
0.3670478 0.0792698 0.0107249
0.3758909 0.0792545 0.0114316
0.3938148 0.0792454 0.0118016
0.4028025 0.0816541 0.0121960
0.4211811 0.0816447 0.0125905
0.4304701 0.0816364 0.0129980
0.4397126 0.0841037 0.0134319
0.4491057 0.0840952 0.0138653
0.4679992 0.0840856 0.0143100
0.4774973 0.0840771 0.0147693
0.4869143 0.0866079 0.0152583
0.4964501 0.0865992 0.0157477
0.5059944 0.0865903 0.0162525
0.5155405 0.0865816 0.0167733
0.5249771 0.0891813 0.0173278
0.5345051 0.0891723 0.0178826
0.5440139 0.0891633 0.0184549
0.5535052 0.0891621 0.0184542
0.5629054 0.0918325 0.0190634
0.5723682 0.0918231 0.0196757
0.5817835 0.0918138 0.0203073
0.5911449 0.0918044 0.0209589
0.6003374 0.0945550 0.0209788
0.6095723 0.0945453 0.0216516
0.6187342 0.0945356 0.0223455
0.6278170 0.0945260 0.0230612
0.6277195 0.0973517 0.0230840
0.6367186 0.0973418 0.0238230
0.6456276 0.0973318 0.0245851
0.6544809 0.0973217 0.0253711
0.6631309 0.1002216 0.0253951
0.6631389 0.1002128 0.0262075
0.6717855 0.1002023 0.0270554
0.0022292 0.0729394 0.0025154
0.0040293 0.0729026 0.0026082
0.0079070 0.0728565 0.0027766
0.0134172 0.0728201 0.0029227
0.0203604 0.0750248 0.0030701
0.0287677 0.0749941 0.0032747
0.0365926 0.0749721 0.0034372
0.0464693 0.0772443 0.0036521
0.0569462 0.0772213 0.0038766
0.0673097 0.0772046 0.0040338
0.0793993 0.0795429 0.0042970
0.0905302 0.0795260 0.0045050
0.1030721 0.0795039 0.0048361
0.1171759 0.0794872 0.0050701
0.1288168 0.0818964 0.0053209
0.1459547 0.0818785 0.0056060
0.1552466 0.0818630 0.0059213
0.1701262 0.0818461 0.0062541
0.1860807 0.0843179 0.0064336
0.1974102 0.0843022 0.0067953
0.2154725 0.0842851 0.0071770
0.2281582 0.0868209 0.0074093
0.2414588 0.0868032 0.0078811
0.2552904 0.0867930 0.0081279
0.2696582 0.0867754 0.0086452
0.2845212 0.0893798 0.0089247
0.3000072 0.0893694 0.0092039
0.3159931 0.0893515 0.0097892
0.3241640 0.0893423 0.0101030
0.3407459 0.0920168 0.0104408
0.3578520 0.0919979 0.0111286
0.3665873 0.0919884 0.0114892
0.3843280 0.0919777 0.0118611
0.3932338 0.0947251 0.0122574
0.4023162 0.0947155 0.0126542
0.4206877 0.0947044 0.0130633
0.4299736 0.0946948 0.0134860
0.4392132 0.0975158 0.0139350
0.4580265 0.0975045 0.0143819
0.4674936 0.0974946 0.0148435
0.4769901 0.0974847 0.0153197
0.4864063 0.1003807 0.0158267
0.4959413 0.1003706 0.0163341
0.5054855 0.1003604 0.0168574
0.5150314 0.1003502 0.0173974
0.5244688 0.1033227 0.0179722
0.5339978 0.1033122 0.0185473
0.5435075 0.1033018 0.0191406
0.5530004 0.1033003 0.0191399
0.5625051 0.1032898 0.0197546
0.5718677 0.1063402 0.0204089
0.5812857 0.1063293 0.0210637
0.5906499 0.1063185 0.0217391
0.5999457 0.1063169 0.0217383
0.6090845 0.1094470 0.0224571
0.6182504 0.1094359 0.0231764
0.6273375 0.1094247 0.0239182
0.6273375 0.1094247 0.0239182
0.6363406 0.1094135 0.0246833
0.6451579 0.1126238 0.0254976
0.6540080 0.1126220 0.0254966
0.6627652 0.1126105 0.0263111
0.6627733 0.1126006 0.0271632
0.6713240 0.1159018 0.0271889
0.0023830 0.0847620 0.0026907
0.0042300 0.0847205 0.0027930
0.0081423 0.0872287 0.0029423
0.0138618 0.0871822 0.0031377
0.0210390 0.0871464 0.0032926
0.0287139 0.0871169 0.0034556
0.0377826 0.0897110 0.0036714
0.0479900 0.0896824 0.0038970
0.0568430 0.0896578 0.0041367
0.0694341 0.0923301 0.0043193
0.0792592 0.0923043 0.0046369
0.0933641 0.0922828 0.0048610
0.1062560 0.0922633 0.0050961
0.1169326 0.0950112 0.0053482
0.1327038 0.0949902 0.0056347
0.1457118 0.0949705 0.0059515
0.1598168 0.0949508 0.0062859
0.1697935 0.0977712 0.0066460
0.1857843 0.0977586 0.0068299
0.2029499 0.0977388 0.0072135
0.2151361 0.0977271 0.0074394
0.2278847 0.0977071 0.0079132
0.2410936 0.1006081 0.0081692
0.2549170 0.1005877 0.0086891
0.2692644 0.1005759 0.0089610
0.2842034 0.1005556 0.0095310
0.2995932 0.1035326 0.0098388
0.3155593 0.1035204 0.0101539
0.3237240 0.1035097 0.0104832
0.3403940 0.1034884 0.0111738
0.3573892 0.1065429 0.0115471
0.3661193 0.1065320 0.0119211
0.3838503 0.1065195 0.0123068
0.3928500 0.1065085 0.0127052
0.4018303 0.1096442 0.0131294
0.4201945 0.1096314 0.0135538
0.4294773 0.1096202 0.0139911
0.4388156 0.1096091 0.0144403
0.4576254 0.1095964 0.0149032
0.4669879 0.1128121 0.0153966
0.4764833 0.1128006 0.0158903
0.4860016 0.1127892 0.0163997
0.4955364 0.1127778 0.0169252
0.5050800 0.1127664 0.0174672
0.5145225 0.1160624 0.0180444
0.5240639 0.1160507 0.0186218
0.5430954 0.1160372 0.0192167
0.5525893 0.1160355 0.0192160
0.5619935 0.1194156 0.0198527
0.5620022 0.1194053 0.0204907
0.5714691 0.1193932 0.0211480
0.5808891 0.1193811 0.0218261
0.5902472 0.1193793 0.0218253
0.5994545 0.1228447 0.0225469
0.6086961 0.1228322 0.0232690
0.6178651 0.1228197 0.0240138
0.6269473 0.1228178 0.0240129
0.6359542 0.1228053 0.0247809
0.6358657 0.1263594 0.0255993
0.6447755 0.1263574 0.0255983
0.6536382 0.1263445 0.0264160
0.6623993 0.1263314 0.0272704
0.6623993 0.1263314 0.0272704
0.6709630 0.1299717 0.0281853
0.0025360 0.0982633 0.0028812
0.0044408 0.0982154 0.0030050
0.0086575 0.1010846 0.0031554
0.0143266 0.1010333 0.0033650
0.0210000 0.1009936 0.0035444
0.0296661 0.1009544 0.0037617
0.0377139 0.1039219 0.0039967
0.0479025 0.1038946 0.0041584
0.0586770 0.1038624 0.0044415
0.0693364 0.1038380 0.0046562
0.0817959 0.1038138 0.0048813
0.0931997 0.1068678 0.0051225
0.1060712 0.1068454 0.0053702
0.1167732 0.1068238 0.0056581
0.1325262 0.1067996 0.0059760
0.1454693 0.1099322 0.0063182
0.1595548 0.1099096 0.0066731
0.1747700 0.1098872 0.0070480
0.1855493 0.1098750 0.0072431
0.2026339 0.1130850 0.0077119
0.2148061 0.1130715 0.0079534
0.2275402 0.1130486 0.0084597
0.2408089 0.1130352 0.0087245
0.2546214 0.1130124 0.0092795
0.2688776 0.1163136 0.0095793
0.2837961 0.1162999 0.0098789
0.2992583 0.1162862 0.0101952
0.3152217 0.1162622 0.0108670
0.3316486 0.1162484 0.0112189
0.3399425 0.1196344 0.0115940
0.3570209 0.1196203 0.0119692
0.3657468 0.1196081 0.0123567
0.3834704 0.1195940 0.0127564
0.3923772 0.1230548 0.0136092
0.4105932 0.1230404 0.0140478
0.4198107 0.1230279 0.0144988
0.4290910 0.1230155 0.0149641
0.4384272 0.1230031 0.0154441
0.4571308 0.1265588 0.0159547
0.4665858 0.1265569 0.0159542
0.4760799 0.1265441 0.0164656
0.4855974 0.1265313 0.0169931
0.4951313 0.1265187 0.0175373
0.5045714 0.1301645 0.0181167
0.5236502 0.1301494 0.0186958
0.5331803 0.1301363 0.0192937
0.5426923 0.1301232 0.0199132
0.5521876 0.1301212 0.0199125
0.5615931 0.1338565 0.0205720
0.5710618 0.1338429 0.0212319
0.5710705 0.1338316 0.0219134
0.5804928 0.1338181 0.0226156
0.5898532 0.1338160 0.0226148
0.5991629 0.1338025 0.0233390
0.6083076 0.1376284 0.0241097
0.6174712 0.1376262 0.0241088
0.6265654 0.1376123 0.0248799
0.6355760 0.1375984 0.0256751
0.6355844 0.1375868 0.0264963
0.6444011 0.1415169 0.0265214
0.6532679 0.1415025 0.0273791
0.6620338 0.1414879 0.0282698
0.6706859 0.1414856 0.0282686
0.6706940 0.1414734 0.0291887
0.0027362 0.1136760 0.0031219
0.0046621 0.1136265 0.0032227
0.0089221 0.1135636 0.0033806
0.0148124 0.1135101 0.0035603
0.0216995 0.1167910 0.0037821
0.0296112 0.1167488 0.0040140
0.0389702 0.1167094 0.0042603
0.0478335 0.1166797 0.0044605
0.0585922 0.1166498 0.0046759
0.0692132 0.1200236 0.0050244
0.0816522 0.1199959 0.0052671
0.0930715 0.1199704 0.0055286
0.1059279 0.1199430 0.0058392
0.1203874 0.1199159 0.0061672
0.1323027 0.1233924 0.0063442
0.1452771 0.1233671 0.0067006
0.1593472 0.1233420 0.0070770
0.1745421 0.1233260 0.0072726
0.1853158 0.1233010 0.0077358
0.2023785 0.1268622 0.0079858
0.2145447 0.1268366 0.0084942
0.2272616 0.1268216 0.0087600
0.2473524 0.1267939 0.0093170
0.2614129 0.1267791 0.0096084
0.2759342 0.1304299 0.0099188
0.2834794 0.1304055 0.0105689
0.2989312 0.1303899 0.0109112
0.3148771 0.1303744 0.0112645
0.3312941 0.1303589 0.0116291
0.3395834 0.1341006 0.0120178
0.3566611 0.1340734 0.0128085
0.3653829 0.1340598 0.0132230
0.3830991 0.1340440 0.0136504
0.3920918 0.1340305 0.0140908
0.4102035 0.1378604 0.0145571
0.4194184 0.1378465 0.0150243
0.4286960 0.1378327 0.0155062
0.4474060 0.1378167 0.0160029
0.4568324 0.1378029 0.0165158
0.4661924 0.1417270 0.0170619
0.4756765 0.1417248 0.0170614
0.4851931 0.1417106 0.0176077
0.4947265 0.1416965 0.0181714
0.5138071 0.1416801 0.0187522
0.5233489 0.1416660 0.0193519
0.5327764 0.1456832 0.0199931
0.5422892 0.1456686 0.0206347
0.5517857 0.1456663 0.0206340
0.5612951 0.1456517 0.0212958
0.5707650 0.1456371 0.0219785
0.5800875 0.1497492 0.0227052
0.5800875 0.1497492 0.0227052
0.5894591 0.1497342 0.0234323
0.5987714 0.1497191 0.0241822
0.6080182 0.1497042 0.0249556
0.6171842 0.1497018 0.0249546
0.6261827 0.1539428 0.0257778
0.6351967 0.1539274 0.0266012
0.6351967 0.1539274 0.0266012
0.6441215 0.1539118 0.0274614
0.6529916 0.1538962 0.0283547
0.6617522 0.1538936 0.0283535
0.6703230 0.1582331 0.0293041
0.6703312 0.1582197 0.0302570
0.0029239 0.1275011 0.0033445
0.0047742 0.1274499 0.0034527
0.0091949 0.1273772 0.0036491
0.0147907 0.1273180 0.0038719
0.0224306 0.1309496 0.0040316
0.0306036 0.1309029 0.0042788
0.0389129 0.1308670 0.0044796
0.0494164 0.1308225 0.0048082
0.0605026 0.1307894 0.0050403
0.0714459 0.1345252 0.0052892
0.0815368 0.1344968 0.0055517
0.0929419 0.1344662 0.0058636
0.1057823 0.1344360 0.0061929
0.1202243 0.1344057 0.0065406
0.1321716 0.1343881 0.0067215
0.1450852 0.1382155 0.0071061
0.1591404 0.1381863 0.0075318
0.1743197 0.1381672 0.0077674
0.1906535 0.1381369 0.0082617
0.2021938 0.1381205 0.0085202
0.2142836 0.1420389 0.0090714
0.2335416 0.1420196 0.0093549
0.2470566 0.1420030 0.0096475
0.2611126 0.1419746 0.0102684
0.2757045 0.1419577 0.0106010
0.2908097 0.1459798 0.0109553
0.2985970 0.1459650 0.0113103
0.3145325 0.1459477 0.0116764
0.3309475 0.1459183 0.0124449
0.3393241 0.1459035 0.0128477
