Plugins/FilmEmulator/Content/LUTs/FE_Kodak_5250_64.cube
TITLE "FE_Kodak_5250_33"
LUT_3D_SIZE 4
0.0007634 0.0010129 0.0008219
0.2854412 0.0152791 0.0145324
0.5962382 0.0523804 0.0464539
0.7564558 0.1024890 0.0845608
0.0029822 0.2810553 0.0064110
0.2403906 0.3277516 0.0172389
0.5542449 0.3754945 0.0411697
0.7353288 0.4173377 0.0787102
0.0102292 0.5534850 0.0200916
0.2169069 0.5706502 0.0329032
0.5359844 0.5973867 0.0527378
0.7215289 0.6247107 0.0737245
0.0223736 0.7022594 0.0390465
0.1976735 0.7106566 0.0519554
0.5209106 0.7254130 0.0725112
0.7099341 0.7352148 0.0952370
0.0162108 0.0066304 0.2979264
0.3540411 0.0162118 0.3297949
0.6419234 0.0375549 0.3705455
0.7766116 0.0845032 0.4069604
0.0098216 0.2565572 0.3061472
0.3004341 0.3081822 0.3409586
0.5989627 0.3544684 0.3787005
0.7553942 0.4034614 0.4116106
0.0204820 0.5384843 0.3058329
0.2696952 0.5638070 0.3403299
0.5806228 0.5907102 0.3775301
0.7422339 0.6109256 0.4097102
0.0343335 0.6909330 0.3026938
0.2447106 0.7053000 0.3373870
0.5571002 0.7148691 0.3678775
0.7310387 0.7302415 0.4061596
0.0582529 0.0200611 0.5418220
0.4119087 0.0377359 0.5635757
0.6677331 0.0578004 0.5847371
0.7936221 0.0772764 0.6050693
0.0342765 0.2383773 0.5516185
0.3643067 0.2887815 0.5707804
0.6401829 0.3404815 0.5905727
0.7738763 0.3894173 0.6102108
0.0363521 0.5223603 0.5586708
0.3384507 0.5491745 0.5769995
0.6153133 0.5765029 0.5959811
0.7618299 0.6039956 0.6087488
0.0526209 0.6846238 0.5557734
0.3094352 0.6995336 0.5742656
0.6017799 0.7093619 0.5928832
0.7516155 0.7249762 0.6117184
0.1207045 0.0437285 0.6781347
0.4693228 0.0636330 0.6910048
0.7003098 0.0847516 0.7036243
0.8062160 0.1129956 0.7161832
0.0801844 0.2214243 0.6822457
0.4235057 0.2701142 0.6938036
0.6712756 0.3200087 0.7059623
0.7906829 0.3751539 0.7180519
0.0621098 0.5061159 0.6887920
0.3953373 0.5417317 0.6995280
0.6544178 0.5692443 0.7109103
0.7790356 0.5969599 0.7222651
0.0746976 0.6777298 0.6868962
0.3727373 0.6936542 0.6969262
0.6333432 0.7093325 0.7138128
0.7695366 0.7195821 0.7192904
