Plugins/FilmEmulator/Content/LUTs/FE_Kodak_Supra_Endura_64.cube
TITLE "FE_Kodak_Supra_Endura_33"
LUT_3D_SIZE 8
0.0048897 0.0000000 0.0237039
0.2433673 0.0406969 0.0296382
0.8216506 0.1882121 0.0588676
1.0000000 0.3600183 0.1196218
1.0000000 0.4630669 0.1726047
1.0000000 0.5078999 0.2038572
1.0000000 0.5237474 0.2192541
1.0000000 0.5328988 0.2341250
0.0220202 0.4537082 0.0615922
0.3782848 0.4687232 0.0716391
0.8629870 0.5413216 0.1120147
1.0000000 0.6256415 0.1773111
1.0000000 0.6635365 0.2225215
1.0000000 0.6742339 0.2462829
1.0000000 0.6713945 0.2603049
1.0000000 0.6631299 0.2753742
0.1889005 0.9305701 0.2364615
0.5590060 0.9299291 0.2485951
0.8725750 0.9394385 0.2900782
0.9807606 0.9477186 0.3394459
1.0000000 0.9517481 0.3782573
1.0000000 0.9503871 0.4013644
1.0000000 0.9475195 0.4168920
1.0000000 0.9440933 0.4297626
0.3417343 1.0000000 0.3921176
0.6931993 1.0000000 0.4078161
0.9067119 1.0000000 0.4440434
0.9680576 1.0000000 0.4795799
0.9825822 1.0000000 0.4961056
0.9867907 1.0000000 0.5090080
0.9891135 1.0000000 0.5254889
0.9905711 0.9993896 0.5406514
0.4609798 1.0000000 0.5107040
0.7804133 1.0000000 0.5245683
0.9349107 1.0000000 0.5554965
0.9723843 1.0000000 0.5784544
0.9816728 1.0000000 0.5865585
0.9838885 1.0000000 0.5837496
0.9849353 1.0000000 0.5815246
0.9860965 1.0000000 0.5982273
0.5731680 1.0000000 0.6231254
0.8509763 1.0000000 0.6342446
0.9558670 1.0000000 0.6572365
0.9780394 1.0000000 0.6673970
0.9840838 1.0000000 0.6685107
0.9855942 1.0000000 0.6632415
0.9860668 1.0000000 0.6566890
0.9861615 1.0000000 0.6490618
0.6739481 1.0000000 0.7198439
0.8993630 1.0000000 0.7292514
0.9679109 1.0000000 0.7424241
0.9832346 1.0000000 0.7479898
0.9869268 1.0000000 0.7456363
0.9881061 1.0000000 0.7405878
0.9884107 1.0000000 0.7340162
0.9884710 1.0000000 0.7269871
0.7531202 0.9981363 0.7960731
0.9297624 0.9976259 0.8043019
0.9765949 0.9986762 0.8133053
0.9869757 0.9993789 0.8141057
0.9894395 0.9997517 0.8115124
0.9903539 1.0000000 0.8073293
0.9905503 1.0000000 0.8003949
0.9906806 1.0000000 0.7950177
0.0000000 0.0726324 0.6880686
0.5244835 0.1730288 0.6702152
0.9800474 0.3354287 0.6623943
1.0000000 0.4673986 0.6667833
1.0000000 0.5318576 0.6723109
1.0000000 0.5558396 0.6681922
1.0000000 0.5688887 0.6643391
1.0000000 0.5763643 0.6559713
0.1493071 0.6627669 0.7862544
0.6377540 0.6931913 0.7727276
0.9504631 0.7453137 0.7702996
1.0000000 0.7827324 0.7733026
1.0000000 0.7950587 0.7716371
1.0000000 0.7923242 0.7652400
1.0000000 0.7868451 0.7578262
1.0000000 0.7776591 0.7490010
0.4083222 0.9460403 0.8753421
0.7736397 0.9492004 0.8688502
0.9480593 0.9587919 0.8718397
0.9911837 0.9639739 0.8728514
1.0000000 0.9651891 0.8724467
1.0000000 0.9642661 0.8668571
1.0000000 0.9627350 0.8600812
1.0000000 0.9607930 0.8529325
0.5703539 0.9811906 0.9234732
0.8576149 0.9811426 0.9208395
0.9646515 0.9848487 0.9228576
0.9878789 0.9868335 0.9240668
0.9940743 0.9875637 0.9220139
0.9958879 0.9876589 0.9198372
0.9967555 0.9875926 0.9171203
0.9972516 0.9874746 0.9125236
0.6781532 0.9873478 0.9537202
0.9062948 0.9874367 0.9514613
0.9743606 0.9898108 0.9522213
0.9893315 0.9910040 0.9522932
0.9930537 0.9914300 0.9510551
0.9944158 0.9915378 0.9491319
0.9950010 0.9915912 0.9468834
0.9954005 0.9915805 0.9432706
0.7583731 0.9892597 0.9702544
0.9345831 0.9898978 0.9685365
0.9802964 0.9917124 0.9688933
0.9902687 0.9925493 0.9694295
0.9928780 0.9928160 0.9685410
0.9939305 0.9929154 0.9673366
0.9943861 0.9929408 0.9659187
0.9947197 0.9929532 0.9643748
0.8289356 0.9902671 0.9791941
0.9558789 0.9915087 0.9781733
0.9841194 0.9928871 0.9784061
0.9909974 0.9934829 0.9786909
0.9928088 0.9936507 0.9780809
0.9936433 0.9937155 0.9772868
0.9940241 0.9937267 0.9763803
0.9943389 0.9937316 0.9754244
0.8817376 0.9910530 0.9839584
0.9686888 0.9926087 0.9836842
0.9867658 0.9936529 0.9838077
0.9913833 0.9940548 0.9836542
0.9928394 0.9941984 0.9835489
0.9934547 0.9942405 0.9830689
0.9937938 0.9942489 0.9825147
0.9940619 0.9942601 0.9822229
0.1599348 0.3124153 1.0000000
0.7116591 0.4259809 1.0000000
0.9936599 0.5558704 0.9985613
1.0000000 0.6304655 0.9912114
1.0000000 0.6620589 0.9876534
1.0000000 0.6761639 0.9861004
1.0000000 0.6844867 0.9849483
1.0000000 0.6921571 0.9838547
0.4279631 0.8358885 0.9984342
0.8147508 0.8621521 0.9890589
0.9674239 0.8893697 0.9844190
1.0000000 0.9011019 0.9833214
1.0000000 0.9018059 0.9826725
1.0000000 0.8994874 0.9824371
1.0000000 0.8939488 0.9819481
1.0000000 0.8896186 0.9816839
0.6451023 0.9677507 0.9916190
0.8938209 0.9726973 0.9874189
0.9722362 0.9781327 0.9863514
0.9892218 0.9805616 0.9863826
0.9938012 0.9808481 0.9861476
0.9956204 0.9805016 0.9859962
0.9964100 0.9801263 0.9858137
0.9971072 0.9793487 0.9854107
0.7520108 0.9845805 0.9919238
0.9321371 0.9867017 0.9893326
0.9788846 0.9892791 0.9890078
0.9895811 0.9904548 0.9891377
0.9922324 0.9907270 0.9891216
0.9933662 0.9907621 0.9889153
0.9938514 0.9907041 0.9887977
0.9942235 0.9906149 0.9886701
0.8272063 0.9886723 0.9921243
0.9552733 0.9905525 0.9905437
0.9832562 0.9921968 0.9905788
0.9903267 0.9929045 0.9907160
0.9922197 0.9930824 0.9906328
0.9930344 0.9931633 0.9905837
0.9933924 0.9931465 0.9905022
0.9937060 0.9931409 0.9903277
0.8818803 0.9904345 0.9922034
0.9684839 0.9922922 0.9913424
0.9861889 0.9934382 0.9914586
0.9909229 0.9938962 0.9915160
0.9923423 0.9940479 0.9915271
0.9929657 0.9940881 0.9914963
0.9932876 0.9941074 0.9914526
0.9935383 0.9941179 0.9914050
0.9182616 0.9916085 0.9923207
0.9759480 0.9932843 0.9919124
0.9881698 0.9941500 0.9920511
0.9913290 0.9944590 0.9921244
0.9924852 0.9945800 0.9921399
0.9929464 0.9946165 0.9920737
0.9932650 0.9946402 0.9920451
0.9934663 0.9946492 0.9920099
0.9428167 0.9924658 0.9924975
0.9808137 0.9939063 0.9923652
0.9895090 0.9945850 0.9925060
0.9917038 0.9947984 0.9925298
0.9925879 0.9948885 0.9925344
0.9929734 0.9949234 0.9925169
0.9932574 0.9949470 0.9924947
0.9934368 0.9949579 0.9924669
0.4832913 0.5373603 1.0000000
0.8774340 0.6294050 1.0000000
1.0000000 0.7021487 1.0000000
1.0000000 0.7329802 1.0000000
1.0000000 0.7402980 1.0000000
1.0000000 0.7389257 1.0000000
1.0000000 0.7339469 1.0000000
1.0000000 0.7449263 1.0000000
0.6834071 0.9115798 0.9997179
0.9174232 0.9303157 0.9940548
0.9814515 0.9415597 0.9923389
0.9970167 0.9456727 0.9919590
1.0000000 0.9446560 0.9919139
1.0000000 0.9423762 0.9919315
1.0000000 0.9402005 0.9919547
1.0000000 0.9369010 0.9920183
0.8129658 0.9777336 0.9945630
0.9521687 0.9825760 0.9923044
0.9828352 0.9853005 0.9920503
0.9907309 0.9863929 0.9920810
0.9928553 0.9865311 0.9920824
0.9938809 0.9862589 0.9920549
0.9943650 0.9860225 0.9920239
0.9947780 0.9857630 0.9919910
0.8789962 0.9872452 0.9937280
0.9672053 0.9899357 0.9926226
0.9860620 0.9914361 0.9926336
0.9908422 0.9920081 0.9927078
0.9923524 0.9921402 0.9927272
0.9930195 0.9921496 0.9927230
0.9933627 0.9921564 0.9927132
0.9936379 0.9921020 0.9926950
0.9177492 0.9902031 0.9934180
0.9758328 0.9922678 0.9928890
0.9881331 0.9932705 0.9929798
0.9912865 0.9936171 0.9930456
0.9924311 0.9937257 0.9930663
0.9929143 0.9937708 0.9930676
0.9932290 0.9937932 0.9930614
0.9934463 0.9937763 0.9930475
0.9433120 0.9918039 0.9933014
0.9808683 0.9934026 0.9931097
0.9894984 0.9941269 0.9932247
0.9916260 0.9943504 0.9932753
0.9925476 0.9944484 0.9932942
0.9929182 0.9944649 0.9932908
0.9932178 0.9944883 0.9932874
0.9933883 0.9944947 0.9932783
0.9616880 0.9928903 0.9932590
0.9842841 0.9940693 0.9932582
0.9903372 0.9946076 0.9933691
0.9919493 0.9947752 0.9934137
0.9926358 0.9948475 0.9934403
0.9929684 0.9948779 0.9934445
0.9932293 0.9949000 0.9934461
0.9933714 0.9949074 0.9934424
0.9716883 0.9935849 0.9932879
0.9869299 0.9945182 0.9933732
0.9908816 0.9948796 0.9934653
0.9921859 0.9950163 0.9935119
0.9927212 0.9950786 0.9935298
0.9930282 0.9951086 0.9935379
0.9932527 0.9951293 0.9935427
0.9933730 0.9951373 0.9935428
0.7384101 0.7183970 1.0000000
0.9604778 0.7793277 1.0000000
1.0000000 0.8086253 1.0000000
1.0000000 0.8184420 1.0000000
1.0000000 0.8159696 1.0000000
1.0000000 0.8105902 1.0000000
1.0000000 0.8037893 1.0000000
1.0000000 0.7969185 1.0000000
0.8548251 0.9515014 0.9954029
0.9639320 0.9616801 0.9930668
0.9881538 0.9657972 0.9926421
0.9950460 0.9665184 0.9925746
0.9974562 0.9657768 0.9925708
0.9987398 0.9644833 0.9925817
0.9996606 0.9629258 0.9926065
1.0000000 0.9606727 0.9926413
0.9130884 0.9838710 0.9936321
0.9745422 0.9873209 0.9928790
0.9880906 0.9888281 0.9928945
0.9916118 0.9892219 0.9929331
0.9929413 0.9892642 0.9929456
0.9935074 0.9890374 0.9929329
0.9938973 0.9888876 0.9929239
0.9941785 0.9887008 0.9929154
0.9426702 0.9895961 0.9933859
0.9807426 0.9916649 0.9931329
0.9894468 0.9925063 0.9932193
0.9917268 0.9927834 0.9932705
0.9926540 0.9928521 0.9932930
0.9930584 0.9928763 0.9932995
0.9933674 0.9928458 0.9932984
0.9935548 0.9927953 0.9932925
0.9609488 0.9918329 0.9933270
0.9843366 0.9931991 0.9932983
0.9903057 0.9937814 0.9933973
0.9919634 0.9939687 0.9934459
0.9926713 0.9940447 0.9934661
0.9930157 0.9940544 0.9934712
0.9932935 0.9940753 0.9934803
0.9934316 0.9940748 0.9934800
0.9713718 0.9930179 0.9933563
0.9870431 0.9940535 0.9934289
0.9909146 0.9944303 0.9935141
0.9921886 0.9945673 0.9935558
0.9927338 0.9946222 0.9935722
0.9930468 0.9946492 0.9935802
0.9932754 0.9946663 0.9935883
0.9933984 0.9946691 0.9935886
0.9778950 0.9937606 0.9934180
0.9887485 0.9945507 0.9935288
0.9913573 0.9948075 0.9935969
0.9923807 0.9949165 0.9936332
0.9928010 0.9949583 0.9936460
0.9930994 0.9949865 0.9936545
0.9932841 0.9950014 0.9936616
0.9933934 0.9950064 0.9936621
0.9822553 0.9942370 0.9934832
0.9898030 0.9948369 0.9936026
0.9916996 0.9950274 0.9936576
0.9925218 0.9951210 0.9936896
0.9928770 0.9951575 0.9937005
0.9931513 0.9951850 0.9937086
0.9933051 0.9951976 0.9937147
0.9933981 0.9952089 0.9937158
0.8893635 0.8399705 1.0000000
0.9862958 0.8684505 0.9978799
1.0000000 0.8788882 0.9967092
1.0000000 0.8790159 0.9965577
1.0000000 0.8761273 0.9966639
1.0000000 0.8715603 0.9969079
1.0000000 0.8656153 0.9972363
1.0000000 0.8603524 0.9975345
0.9356195 0.9716433 0.9934988
0.9799709 0.9768144 0.9927989
0.9910102 0.9784229 0.9927248
0.9939172 0.9783148 0.9927222
0.9952965 0.9777398 0.9927154
0.9959744 0.9771944 0.9927087
0.9966363 0.9761490 0.9927041
0.9971666 0.9749819 0.9926968
0.9597055 0.9878967 0.9932284
0.9842044 0.9898692 0.9931142
0.9904910 0.9906167 0.9931794
0.9922705 0.9907880 0.9932063
0.9930354 0.9907951 0.9932168
0.9934123 0.9907221 0.9932126
0.9937406 0.9906248 0.9932061
0.9939159 0.9904953 0.9931983
0.9711825 0.9914832 0.9933228
0.9868959 0.9927194 0.9933680
0.9909251 0.9931406 0.9934398
0.9922851 0.9933022 0.9934778
0.9928412 0.9933265 0.9934870
0.9931567 0.9933457 0.9934920
0.9934019 0.9933195 0.9934937
0.9935337 0.9933059 0.9934915
0.9779672 0.9929613 0.9934158
0.9886829 0.9938295 0.9935138
0.9913555 0.9941146 0.9935778
0.9924052 0.9942316 0.9936114
0.9928368 0.9942726 0.9936235
0.9931448 0.9942817 0.9936314
0.9933420 0.9942915 0.9936350
0.9934489 0.9942882 0.9936348
0.9824108 0.9938163 0.9935056
0.9898627 0.9944469 0.9936169
0.9917335 0.9946418 0.9936695
0.9925467 0.9947288 0.9936978
0.9928920 0.9947606 0.9937080
0.9931707 0.9947853 0.9937181
0.9933277 0.9947941 0.9937211
0.9934231 0.9947950 0.9937214
0.9854418 0.9943385 0.9935812
0.9905185 0.9947963 0.9936837
0.9920140 0.9949522 0.9937302
0.9926410 0.9950189 0.9937536
0.9929510 0.9950494 0.9937639
0.9932067 0.9950742 0.9937740
0.9933343 0.9950830 0.9937771
0.9934188 0.9950937 0.9937794
0.9877564 0.9947007 0.9936501
0.9910613 0.9950086 0.9937322
0.9922420 0.9951376 0.9937723
0.9927269 0.9951886 0.9937896
0.9930211 0.9952188 0.9938015
0.9932328 0.9952393 0.9938086
0.9933469 0.9952535 0.9938139
0.9934226 0.9952576 0.9938150
0.9560827 0.9143098 0.9957558
0.9925577 0.9243172 0.9945214
1.0000000 0.9266071 0.9942402
1.0000000 0.9248423 0.9942730
1.0000000 0.9217889 0.9943950
1.0000000 0.9169172 0.9946133
1.0000000 0.9130661 0.9947928
1.0000000 0.9075774 0.9950602
0.9693193 0.9815900 0.9930398
0.9872739 0.9837193 0.9929183
0.9918569 0.9843345 0.9929335
0.9935466 0.9843587 0.9929399
0.9943271 0.9839243 0.9929294
0.9948551 0.9833871 0.9929169
0.9952365 0.9830094 0.9929073
0.9955465 0.9823333 0.9928918
0.9776179 0.9902661 0.9932469
0.9887486 0.9913805 0.9933048
0.9915316 0.9917422 0.9933559
0.9926407 0.9918156 0.9933767
0.9931064 0.9917846 0.9933792
0.9934488 0.9917333 0.9933800
0.9936638 0.9916577 0.9933749
0.9937856 0.9916228 0.9933738
0.9824088 0.9926407 0.9934199
0.9898305 0.9933634 0.9935139
0.9917683 0.9935877 0.9935636
0.9926143 0.9936588 0.9935846
0.9929737 0.9936882 0.9935950
0.9932647 0.9937083 0.9936017
0.9934316 0.9936865 0.9936024
0.9935325 0.9936755 0.9936017
0.9855391 0.9937109 0.9935400
0.9905707 0.9941958 0.9936323
0.9920284 0.9943556 0.9936758
0.9926702 0.9944233 0.9936956
0.9929876 0.9944510 0.9937062
0.9932501 0.9944719 0.9937133
0.9933814 0.9944739 0.9937167
0.9934710 0.9944535 0.9937141
0.9877063 0.9943461 0.9936351
0.9910520 0.9946708 0.9937140
0.9922482 0.9947988 0.9937515
0.9927396 0.9948492 0.9937693
0.9930384 0.9948770 0.9937785
0.9932532 0.9948949 0.9937863
0.9933698 0.9949001 0.9937883
0.9934470 0.9948990 0.9937900
0.9891760 0.9947218 0.9937059
0.9914772 0.9949498 0.9937698
0.9924246 0.9950574 0.9938025
0.9928147 0.9950975 0.9938174
0.9930958 0.9951247 0.9938266
0.9932758 0.9951401 0.9938335
0.9933751 0.9951456 0.9938369
0.9934478 0.9951476 0.9938373
0.9900981 0.9949395 0.9937554
0.9918305 0.9951174 0.9938094
0.9925504 0.9951988 0.9938352
0.9928830 0.9952357 0.9938487
0.9931530 0.9952660 0.9938602
0.9932966 0.9952812 0.9938646
0.9933850 0.9952921 0.9938687
0.9934527 0.9952980 0.9938697
0.9779558 0.9513030 0.9935914
0.9940735 0.9551452 0.9932401
0.9985535 0.9551510 0.9931967
1.0000000 0.9532462 0.9932389
1.0000000 0.9506565 0.9933128
1.0000000 0.9486117 0.9933720
1.0000000 0.9455878 0.9934718
1.0000000 0.9423367 0.9935839
0.9817339 0.9865360 0.9930861
0.9902231 0.9876436 0.9931139
0.9924215 0.9878237 0.9931345
0.9933851 0.9877625 0.9931388
0.9938694 0.9874420 0.9931269
0.9942737 0.9872243 0.9931186
0.9945092 0.9869531 0.9931078
0.9947208 0.9864923 0.9930862
0.9852923 0.9917217 0.9933719
0.9906018 0.9923406 0.9934497
0.9921809 0.9924936 0.9934826
0.9928319 0.9925575 0.9934991
0.9931920 0.9925306 0.9935023
0.9934668 0.9924834 0.9935017
0.9936113 0.9924613 0.9935020
0.9937165 0.9923835 0.9934953
0.9877625 0.9934117 0.9935444
0.9911087 0.9937739 0.9936162
0.9923210 0.9938922 0.9936489
0.9927995 0.9939387 0.9936637
0.9931230 0.9939650 0.9936730
0.9933401 0.9939767 0.9936792
0.9934561 0.9939529 0.9936785
0.9935373 0.9939445 0.9936786
0.9891365 0.9941951 0.9936396
0.9915263 0.9944454 0.9937022
0.9924454 0.9945456 0.9937357
0.9928435 0.9945837 0.9937493
0.9931415 0.9946101 0.9937628
0.9933145 0.9946191 0.9937681
0.9934161 0.9946191 0.9937736
0.9934909 0.9946149 0.9937748
0.9901565 0.9946544 0.9937004
0.9918348 0.9948382 0.9937555
0.9925781 0.9949178 0.9937821
0.9928989 0.9949492 0.9937971
0.9931724 0.9949748 0.9938074
0.9933181 0.9949839 0.9938124
0.9934079 0.9949864 0.9938181
0.9934768 0.9949856 0.9938197
0.9907463 0.9949235 0.9937386
0.9920960 0.9950636 0.9937831
0.9926756 0.9951251 0.9938080
0.9929811 0.9951555 0.9938200
0.9932106 0.9951774 0.9938291
0.9933318 0.9951931 0.9938378
0.9934102 0.9951965 0.9938404
0.9934767 0.9951990 0.9938456
0.9912072 0.9950602 0.9937451
0.9923148 0.9951806 0.9937904
0.9927490 0.9952286 0.9938079
0.9930572 0.9952655 0.9938213
0.9932428 0.9952866 0.9938350
0.9933521 0.9952978 0.9938397
0.9934250 0.9953054 0.9938484
0.9934855 0.9953129 0.9938514
