Plugins/FilmEmulator/Content/LUTs/FE_Kodak_5207_64.cube
TITLE "FE_Kodak_5207_33"
LUT_3D_SIZE 64
0.0016864 0.0010798 0.0015275
0.0054704 0.0011228 0.0015343
0.0121811 0.0012008 0.0015858
0.0208538 0.0013639 0.0017425
0.0301327 0.0015687 0.0019984
0.0407515 0.0017741 0.0022521
0.0514788 0.0019641 0.0024781
0.0627707 0.0021870 0.0027212
0.0739069 0.0024047 0.0029643
0.0868219 0.0027010 0.0032675
0.0985801 0.0029641 0.0035429
0.1083077 0.0032000 0.0038085
0.1226032 0.0035480 0.0041939
0.1343815 0.0038336 0.0045192
0.1470846 0.0041957 0.0049664
0.1560987 0.0044668 0.0052892
0.1704788 0.0049063 0.0058130
0.1806541 0.0052230 0.0061905
0.1912888 0.0055913 0.0066465
0.2022462 0.0062430 0.0073980
0.2139756 0.0064798 0.0079340
0.2260494 0.0069731 0.0082291
0.2386256 0.0075055 0.0088359
0.2516867 0.0080851 0.0095140
0.2582222 0.0087222 0.0102532
0.2721702 0.0090618 0.0106392
0.2864138 0.0097771 0.0114617
0.2937127 0.0101555 0.0118963
0.3009441 0.0109545 0.0128188
0.3163077 0.0113802 0.0133029
0.3240556 0.0118158 0.0138144
0.3319106 0.0122588 0.0143449
0.3479166 0.0131948 0.0154671
0.3560612 0.0136889 0.0160603
0.3642950 0.0142014 0.0166760
0.3726148 0.0147329 0.0173149
0.3810556 0.0152840 0.0179780
0.3895739 0.0158554 0.0186661
0.3981660 0.0164480 0.0193801
0.4068263 0.0170622 0.0200772
0.4155490 0.0177032 0.0207992
0.4243307 0.0183679 0.0215467
0.4331658 0.0190572 0.0223206
0.4420496 0.0197720 0.0231217
0.4509758 0.0205131 0.0239511
0.4599392 0.0212816 0.0248096
0.4689368 0.0220783 0.0256982
0.4687136 0.0229008 0.0266260
0.4779612 0.0229043 0.0266180
0.4870054 0.0237607 0.0275700
0.4960636 0.0246483 0.0285328
0.5051286 0.0255718 0.0295171
0.5051286 0.0255718 0.0295171
0.5141955 0.0265309 0.0305345
0.5232580 0.0275252 0.0315861
0.5323106 0.0285560 0.0326730
0.5323106 0.0285560 0.0326730
0.5413471 0.0296244 0.0337961
0.5503614 0.0307318 0.0349568
0.5503614 0.0307318 0.0349568
0.5593334 0.0318795 0.0361561
0.5682425 0.0330689 0.0373954
0.5682425 0.0330689 0.0373954
0.5771125 0.0343014 0.0386757
0.0016909 0.0042182 0.0016272
0.0054267 0.0045059 0.0016681
0.0121892 0.0049605 0.0017880
0.0202053 0.0052913 0.0020352
0.0292455 0.0057043 0.0022891
0.0396044 0.0061470 0.0025075
0.0500732 0.0066223 0.0027454
0.0611178 0.0071327 0.0029657
0.0720133 0.0076821 0.0032644
0.0847669 0.0079835 0.0035212
0.0963070 0.0086182 0.0038508
0.1058352 0.0093019 0.0042379
0.1200055 0.0096688 0.0045483
0.1315713 0.0104349 0.0049720
0.1441999 0.0108439 0.0052893
0.1531453 0.0112693 0.0058040
0.1673627 0.0121409 0.0061817
0.1774827 0.0126034 0.0068368
0.1880851 0.0130807 0.0073324
0.2049839 0.0135780 0.0078614
0.2107749 0.0140897 0.0084333
0.2227187 0.0151641 0.0090551
0.2353179 0.0157337 0.0093907
0.2484240 0.0163284 0.0101041
0.2620277 0.0169453 0.0108713
0.2689237 0.0175824 0.0112834
0.2832533 0.0182503 0.0121394
0.2905070 0.0189358 0.0125991
0.2978844 0.0196467 0.0130760
0.3133655 0.0196619 0.0140598
0.3210761 0.0203996 0.0145998
0.3288906 0.0211645 0.0151603
0.3450201 0.0219609 0.0157373
0.3531371 0.0227887 0.0169513
0.3613379 0.0236416 0.0176008
0.3698399 0.0236506 0.0182523
0.3782528 0.0245350 0.0189508
0.3867435 0.0254553 0.0196759
0.3953088 0.0264108 0.0203838
0.4041670 0.0264205 0.0210905
0.4128693 0.0274114 0.0218484
0.4216324 0.0284385 0.0226331
0.4304505 0.0295033 0.0234454
0.4395471 0.0295140 0.0242563
0.4484607 0.0306180 0.0251257
0.4574060 0.0317551 0.0251493
0.4666254 0.0317666 0.0260178
0.4756424 0.0329525 0.0269489
0.4756492 0.0329598 0.0278866
0.4846878 0.0341888 0.0288605
0.4937347 0.0354547 0.0288874
0.5030308 0.0354670 0.0298468
0.5028041 0.0367835 0.0308847
0.5121042 0.0367963 0.0319087
0.5211605 0.0381613 0.0319386
0.5302150 0.0395836 0.0330374
0.5302218 0.0395921 0.0341410
0.5392547 0.0410572 0.0341729
0.5485064 0.0410714 0.0353027
0.5482807 0.0425927 0.0365248
0.5574835 0.0425983 0.0365138
0.5663990 0.0441798 0.0377651
0.5664058 0.0441891 0.0390215
0.5752766 0.0458177 0.0390579
0.0018067 0.0110047 0.0017549
0.0054415 0.0114689 0.0018953
0.0119409 0.0119350 0.0021299
0.0204846 0.0124091 0.0023577
0.0296555 0.0133726 0.0025811
0.0388682 0.0138901 0.0028217
0.0491909 0.0144246 0.0030433
0.0601007 0.0149778 0.0032817
0.0708832 0.0155501 0.0035398
0.0834538 0.0161450 0.0038473
0.0949109 0.0167588 0.0041289
0.1044026 0.0174003 0.0045380
0.1184064 0.0180667 0.0049172
0.1299451 0.0187573 0.0053941
0.1424430 0.0194701 0.0057380
0.1512996 0.0202109 0.0062960
0.1655015 0.0209786 0.0067238
0.1756568 0.0209936 0.0072024
0.1861718 0.0217881 0.0077244
0.2029371 0.0226153 0.0082816
0.2146951 0.0234702 0.0088814
0.2206930 0.0243535 0.0095378
0.2333706 0.0243658 0.0098844
0.2463991 0.0252894 0.0106352
0.2599255 0.0262491 0.0114425
0.2667837 0.0272343 0.0118761
0.2812246 0.0272544 0.0127608
0.2884448 0.0282765 0.0132439
0.3034343 0.0293400 0.0137436
0.3112071 0.0293579 0.0147872
0.3188866 0.0304569 0.0153549
0.3266711 0.0315960 0.0159441
0.3429507 0.0316120 0.0165300
0.3510358 0.0327931 0.0171637
0.3592193 0.0340251 0.0184864
0.3676989 0.0340377 0.0191701
0.3760892 0.0353067 0.0199034
0.3845590 0.0366230 0.0206194
0.3933261 0.0366360 0.0213342
0.4019448 0.0380040 0.0221008
0.4108551 0.0380175 0.0228660
0.4196036 0.0394353 0.0236867
0.4286297 0.0394405 0.0236796
0.4374869 0.0409096 0.0245288
0.4466202 0.0409240 0.0253764
0.4555641 0.0424463 0.0262852
0.4647770 0.0424612 0.0271921
0.4737877 0.0440385 0.0281645
0.4737877 0.0440385 0.0281645
0.4828212 0.0456719 0.0291480
0.4921051 0.0456874 0.0301159
0.5011657 0.0473794 0.0311536
0.5011657 0.0473794 0.0311536
0.5102317 0.0491312 0.0322261
0.5195297 0.0491478 0.0332934
0.5285863 0.0509622 0.0344374
0.5285863 0.0509622 0.0344374
0.5376289 0.0528404 0.0356197
0.5468849 0.0528582 0.0367959
0.5466508 0.0547982 0.0368416
0.5558656 0.0548166 0.0380568
0.5647792 0.0568320 0.0380926
0.5647860 0.0568439 0.0393596
0.5739008 0.0568627 0.0406497
0.0020722 0.0190594 0.0020123
0.0055146 0.0198424 0.0022113
0.0121950 0.0206460 0.0024419
0.0202234 0.0214607 0.0026687
0.0293050 0.0222977 0.0029192
0.0384439 0.0223268 0.0030959
0.0486591 0.0231877 0.0034014
0.0594567 0.0240758 0.0036678
0.0701298 0.0249959 0.0039114
0.0825769 0.0259572 0.0042964
0.0939998 0.0259814 0.0046051
0.1067520 0.0269690 0.0048389
0.1172918 0.0279977 0.0053082
0.1288338 0.0280190 0.0056396
0.1412428 0.0290868 0.0061863
0.1546536 0.0301884 0.0065805
0.1642605 0.0302093 0.0070489
0.1742235 0.0313501 0.0075599
0.1901417 0.0325369 0.0081054
0.2014757 0.0325595 0.0086816
0.2131690 0.0337865 0.0093102
0.2191344 0.0350547 0.0100150
0.2317472 0.0350717 0.0103789
0.2447113 0.0363931 0.0111670
0.2583498 0.0364192 0.0119993
0.2651797 0.0377801 0.0124539
0.2795589 0.0377985 0.0129054
0.2867576 0.0392183 0.0138902
0.3016933 0.0406854 0.0144196
0.3094340 0.0407001 0.0149546
0.3170943 0.0422253 0.0161092
0.3250564 0.0422405 0.0167062
0.3410864 0.0438165 0.0173415
0.3493592 0.0438322 0.0179834
0.3575163 0.0454595 0.0186721
0.3659775 0.0454758 0.0193626
0.3743498 0.0471616 0.0201033
0.3830220 0.0471779 0.0208005
0.3915541 0.0489234 0.0215483
0.4003815 0.0489402 0.0222947
0.4090549 0.0507481 0.0230952
0.4180176 0.0507655 0.0238941
0.4270404 0.0507829 0.0247202
0.4358889 0.0526556 0.0256060
0.4450142 0.0526737 0.0264900
0.4539497 0.0546264 0.0274381
0.4631498 0.0546331 0.0274298
0.4721541 0.0566548 0.0284108
0.4721610 0.0566669 0.0293751
0.4811891 0.0587595 0.0303882
0.4904636 0.0587667 0.0303790
0.4997566 0.0587862 0.0313867
0.4995279 0.0609453 0.0324771
0.5088274 0.0609654 0.0335524
0.5178838 0.0631946 0.0335841
0.5271759 0.0632154 0.0346950
0.5271826 0.0632286 0.0358524
0.5362195 0.0655355 0.0358862
0.5454791 0.0655570 0.0370709
0.5452511 0.0679497 0.0383525
0.5544640 0.0679578 0.0383410
0.5636224 0.0679799 0.0396041
0.5633895 0.0704408 0.0396531
0.5725107 0.0704636 0.0409525
0.0023708 0.0295708 0.0023503
0.0056249 0.0296653 0.0025226
0.0120795 0.0308579 0.0027567
0.0200502 0.0309227 0.0029624
0.0290554 0.0321229 0.0032031
0.0393960 0.0333609 0.0034508
0.0499035 0.0334034 0.0037153
0.0589631 0.0346770 0.0040563
0.0719462 0.0347163 0.0043452
0.0819717 0.0360324 0.0046632
0.0932427 0.0374028 0.0050528
0.1059888 0.0374348 0.0053668
0.1164614 0.0388554 0.0058871
0.1279323 0.0388843 0.0062545
0.1402635 0.0403503 0.0066531
0.1537148 0.0403824 0.0071245
0.1631493 0.0419000 0.0076410
0.1731875 0.0419285 0.0081844
0.1890301 0.0435073 0.0087747
0.2003084 0.0435273 0.0090784
0.2119501 0.0451590 0.0097466
0.2242621 0.0451906 0.0104738
0.2304553 0.0468771 0.0112725
0.2435315 0.0468992 0.0116816
0.2569497 0.0486526 0.0125677
0.2639333 0.0486697 0.0130272
0.2780839 0.0504748 0.0135163
0.2854466 0.0505043 0.0145373
0.3003412 0.0523746 0.0150911
0.3080615 0.0523931 0.0156507
0.3156948 0.0543370 0.0162514
0.3316886 0.0543753 0.0174776
0.3398449 0.0543945 0.0181246
0.3478911 0.0564089 0.0188188
0.3562442 0.0564288 0.0195146
0.3644752 0.0585146 0.0202612
0.3730489 0.0585344 0.0209638
0.3814879 0.0606930 0.0217175
0.3902276 0.0607135 0.0224697
0.3990437 0.0607340 0.0232474
0.4077055 0.0629690 0.0240817
0.4166585 0.0629902 0.0249141
0.4254434 0.0653034 0.0258070
0.4345050 0.0653113 0.0257992
0.4436232 0.0653332 0.0266897
0.4525526 0.0677271 0.0276448
0.4617542 0.0677498 0.0285975
0.4709887 0.0677721 0.0295591
0.4707543 0.0702262 0.0295960
0.4800141 0.0702491 0.0305784
0.4890579 0.0728106 0.0316319
0.4983497 0.0728343 0.0326800
0.4983497 0.0728343 0.0326800
0.5074131 0.0754836 0.0338039
0.5167124 0.0755079 0.0349219
0.5259989 0.0755168 0.0349114
0.5257695 0.0782562 0.0361207
0.5350506 0.0782814 0.0373129
0.5443062 0.0782905 0.0373017
0.5440772 0.0811275 0.0385913
0.5533003 0.0811536 0.0398623
0.5624564 0.0811629 0.0398504
0.5622290 0.0840957 0.0412195
0.5713487 0.0841054 0.0412072
0.0026962 0.0395969 0.0026674
0.0057470 0.0411691 0.0028032
0.0124103 0.0412916 0.0030516
0.0205749 0.0428994 0.0032456
0.0288571 0.0429713 0.0035581
0.0391293 0.0446180 0.0038332
0.0495684 0.0446720 0.0040987
0.0605543 0.0463651 0.0043960
0.0714714 0.0464116 0.0047104
0.0814361 0.0481604 0.0051039
0.0927165 0.0482100 0.0055901
0.1053979 0.0482505 0.0059372
0.1158164 0.0500541 0.0063157
0.1272318 0.0500906 0.0067097
0.1395059 0.0519626 0.0071942
0.1528961 0.0520032 0.0077037
0.1622883 0.0539507 0.0082620
0.1722834 0.0539866 0.0088493
0.1880595 0.0560112 0.0094873
0.1992930 0.0560367 0.0098265
0.2110423 0.0560753 0.0105598
0.2231506 0.0581556 0.0109571
0.2294833 0.0581888 0.0117774
0.2423509 0.0603432 0.0122201
0.2558939 0.0603710 0.0126633
0.2628639 0.0604055 0.0136100
0.2769763 0.0626374 0.0141236
0.2843204 0.0626736 0.0151958
0.2991779 0.0649846 0.0157745
0.3068807 0.0650071 0.0163592
0.3146976 0.0650297 0.0169652
0.3304514 0.0674223 0.0176104
0.3385919 0.0674457 0.0182622
0.3466299 0.0699293 0.0196685
0.3549683 0.0699534 0.0203952
0.3634012 0.0699766 0.0211023
0.3717456 0.0725297 0.0218610
0.3803924 0.0725538 0.0226181
0.3891218 0.0725778 0.0234008
0.3976979 0.0752032 0.0234232
0.4065753 0.0752281 0.0242332
0.4155200 0.0752529 0.0250708
0.4242968 0.0779935 0.0259692
0.4333586 0.0780191 0.0268655
0.4424708 0.0780448 0.0277919
0.4513940 0.0808839 0.0287857
0.4605843 0.0808933 0.0287770
0.4698151 0.0809195 0.0297445
0.4695864 0.0838446 0.0307795
0.4788432 0.0838714 0.0318001
0.4881134 0.0838810 0.0317905
0.4971676 0.0869145 0.0328849
0.5064661 0.0869422 0.0339733
0.5064729 0.0869599 0.0351073
0.5155289 0.0900768 0.0351406
0.5248233 0.0901054 0.0363015
0.5248302 0.0901237 0.0375108
0.5338696 0.0933439 0.0375463
0.5431346 0.0933734 0.0387840
0.5431346 0.0933734 0.0387840
0.5523607 0.0934029 0.0400612
0.5612927 0.0967488 0.0414249
0.5612927 0.0967488 0.0414249
0.5704228 0.0967790 0.0427689
0.0030077 0.0510339 0.0029745
0.0058873 0.0511535 0.0030954
0.0123350 0.0531844 0.0033483
0.0204689 0.0532933 0.0035962
0.0296743 0.0553412 0.0038720
0.0389298 0.0554128 0.0041389
0.0492765 0.0575213 0.0045434
0.0602519 0.0575843 0.0048668
0.0711173 0.0576362 0.0051427
0.0810365 0.0598050 0.0056397
0.0922643 0.0598543 0.0059899
0.1048070 0.0621019 0.0065684
0.1152662 0.0621479 0.0070059
0.1266350 0.0621954 0.0075022
0.1388589 0.0645099 0.0080436
0.1521935 0.0645454 0.0083197
0.1615499 0.0669346 0.0089224
0.1766670 0.0669860 0.0095534
0.1873633 0.0670160 0.0098950
0.1984228 0.0694923 0.0106468
0.2101286 0.0695237 0.0110334
0.2223624 0.0695707 0.0118558
0.2285112 0.0721110 0.0123051
0.2415145 0.0721597 0.0132214
0.2550252 0.0721923 0.0137005
0.2617950 0.0748217 0.0142217
0.2760551 0.0748558 0.0147451
0.2831890 0.0775842 0.0153115
0.2982108 0.0776371 0.0164678
0.3058989 0.0776635 0.0170778
0.3135006 0.0804911 0.0177326
0.3294274 0.0805277 0.0183833
0.3375544 0.0805550 0.0190633
0.3455724 0.0834797 0.0197930
0.3538984 0.0835080 0.0205243
0.3623195 0.0835352 0.0212358
0.3708706 0.0835625 0.0219716
0.3792878 0.0865862 0.0227611
0.3880070 0.0866144 0.0235487
0.3968043 0.0866426 0.0243630
0.4054476 0.0897684 0.0252367
0.4143844 0.0897975 0.0261082
0.4233833 0.0898266 0.0270091
0.4322013 0.0930374 0.0270350
0.4413075 0.0930675 0.0279671
0.4504591 0.0930975 0.0289307
0.4594180 0.0964343 0.0299407
0.4686449 0.0964646 0.0309342
0.4686449 0.0964646 0.0309342
0.4778992 0.0964950 0.0319598
0.4869381 0.0999415 0.0330598
0.4962274 0.0999728 0.0341540
0.5055189 0.0999840 0.0341437
0.5052888 0.1035310 0.0353273
0.5145885 0.1035634 0.0364941
0.5238770 0.1035748 0.0364831
0.5238836 0.1035957 0.0376983
0.5329313 0.1072693 0.0389894
0.5421919 0.1072811 0.0389777
0.5421986 0.1073025 0.0402731
0.5514206 0.1073143 0.0402610
0.5603560 0.1111045 0.0416313
0.5603625 0.1111263 0.0429946
0.5694903 0.1111385 0.0429818
0.0033172 0.0633876 0.0032825
0.0060308 0.0635246 0.0034564
0.0126943 0.0660156 0.0037091
0.0203625 0.0661344 0.0039099
0.0295215 0.0686525 0.0042805
0.0387309 0.0687406 0.0045824
0.0490683 0.0688220 0.0049069
0.0599495 0.0713976 0.0053521
0.0707641 0.0714630 0.0056827
0.0807049 0.0715345 0.0062237
0.0918151 0.0741771 0.0066184
0.1043859 0.0742391 0.0070570
0.1148081 0.0742950 0.0075568
0.1260366 0.0770367 0.0081022
0.1383198 0.0770948 0.0086756
0.1516107 0.0771365 0.0089732
0.1609369 0.0799712 0.0096230
0.1760079 0.0800329 0.0103322
0.1866726 0.0800683 0.0107075
0.1976998 0.0830042 0.0115205
0.2093730 0.0830409 0.0119385
0.2215693 0.0830778 0.0123716
0.2277064 0.0861055 0.0133137
0.2406717 0.0861437 0.0137960
0.2541502 0.0861820 0.0142985
0.2609034 0.0892939 0.0148479
0.2751376 0.0893537 0.0159696
0.2824450 0.0893837 0.0165615
0.2974366 0.0894237 0.0171698
0.3049151 0.0926423 0.0178281
0.3127034 0.0926733 0.0184878
0.3286078 0.0927147 0.0191658
0.3365155 0.0960409 0.0198994
0.3447323 0.0960730 0.0206345
0.3530481 0.0961038 0.0213498
0.3612431 0.0995387 0.0221174
0.3697830 0.0995705 0.0228832
0.3784102 0.0996023 0.0236749
0.3871215 0.0996343 0.0244935
0.3956860 0.1031827 0.0253718
0.4045407 0.1031941 0.0253642
0.4134706 0.1032270 0.0262400
0.4224636 0.1032599 0.0271453
0.4312831 0.1069239 0.0281166
0.4403842 0.1069579 0.0290851
0.4495314 0.1069913 0.0300627
0.4584799 0.1107497 0.0300914
0.4677036 0.1107839 0.0310897
0.4677101 0.1108060 0.0321300
0.4769622 0.1108402 0.0331942
0.4859928 0.1147165 0.0332257
0.4952810 0.1147519 0.0343252
0.5045786 0.1147871 0.0354599
0.5045786 0.1147871 0.0354599
0.5136417 0.1188087 0.0366767
0.5229377 0.1188450 0.0378867
0.5229377 0.1188450 0.0378867
0.5322230 0.1188813 0.0391353
0.5412561 0.1230287 0.0404738
0.5412561 0.1230287 0.0404738
0.5504876 0.1230661 0.0417991
0.5596539 0.1230792 0.0417866
0.5594262 0.1273402 0.0432084
0.5685644 0.1273784 0.0446081
0.0036640 0.0758066 0.0036294
0.0059990 0.0786797 0.0037580
0.0126390 0.0788935 0.0040398
0.0209742 0.0790484 0.0043156
0.0293943 0.0820154 0.0046231
0.0385654 0.0821193 0.0049490
0.0488609 0.0822236 0.0053895
0.0597483 0.0823066 0.0057206
0.0704707 0.0853549 0.0062713
0.0803717 0.0854230 0.0066604
0.0915156 0.0854933 0.0071018
0.1039647 0.0886283 0.0076122
0.1143496 0.0886940 0.0081511
0.1256394 0.0887598 0.0087279
0.1377802 0.0919945 0.0093573
0.1510274 0.0920434 0.0096781
0.1604480 0.0921033 0.0103944
0.1754779 0.0921534 0.0107687
0.1859817 0.0954924 0.0115863
0.1971186 0.0955340 0.0120067
0.2087706 0.0955966 0.0129010
0.2207815 0.0990270 0.0133856
0.2334628 0.0990701 0.0138706
0.2399994 0.0991026 0.0143800
0.2534574 0.0991681 0.0154668
0.2601981 0.1027032 0.0160606
0.2744015 0.1027481 0.0166508
0.2816963 0.1027820 0.0172675
0.2964691 0.1064441 0.0179241
0.3041306 0.1064791 0.0185873
0.3119072 0.1065141 0.0192747
0.3277895 0.1065608 0.0199811
0.3356867 0.1103301 0.0207454
0.3438929 0.1103649 0.0214645
0.3521987 0.1103996 0.0222081
0.3606008 0.1104344 0.0229769
0.3689153 0.1143220 0.0238019
0.3775275 0.1143343 0.0237947
0.3862304 0.1143703 0.0246173
0.3950121 0.1144063 0.0254679
0.4036417 0.1184171 0.0263803
0.4125648 0.1184541 0.0272904
0.4215517 0.1184913 0.0282312
0.4305969 0.1185284 0.0292036
0.4394551 0.1226410 0.0292315
0.4485980 0.1226787 0.0302139
0.4577839 0.1227160 0.0312162
0.4670050 0.1227534 0.0322509
0.4667699 0.1269802 0.0322913
0.4760194 0.1270187 0.0333607
0.4852909 0.1270572 0.0344645
0.4945714 0.1270708 0.0344541
0.5036319 0.1314661 0.0356374
0.5036386 0.1314917 0.0368252
0.5129318 0.1315057 0.0368141
0.5222282 0.1315454 0.0380285
0.5222348 0.1315711 0.0392934
0.5312784 0.1360738 0.0393305
0.5405492 0.1361147 0.0406250
0.5405559 0.1361410 0.0419677
0.5497826 0.1361553 0.0419551
0.5587236 0.1408190 0.0433694
0.5587236 0.1408190 0.0433694
0.5678648 0.1408606 0.0447741
0.0040467 0.0905225 0.0040129
0.0061559 0.0906465 0.0040868
0.0130298 0.0908995 0.0044601
0.0208834 0.0943086 0.0047721
0.0303082 0.0944557 0.0051162
0.0397547 0.0945686 0.0054272
0.0486961 0.0946801 0.0059403
0.0594978 0.0981360 0.0063131
0.0702360 0.0982233 0.0067028
0.0827619 0.0983132 0.0071448
0.0941273 0.1018725 0.0076582
0.1036297 0.1019468 0.0082004
0.1139849 0.1020212 0.0087806
0.1292043 0.1021065 0.0093988
0.1373479 0.1057453 0.0097364
0.1505638 0.1058242 0.0104539
0.1599566 0.1058695 0.0108335
0.1749533 0.1059491 0.0116377
0.1854277 0.1097104 0.0120753
0.1965435 0.1097811 0.0129747
0.2081648 0.1098282 0.0134449
0.2201498 0.1137099 0.0139497
0.2328102 0.1137837 0.0149986
0.2393338 0.1138206 0.0155549
0.2527604 0.1138697 0.0161267
0.2594889 0.1178656 0.0167455
0.2736668 0.1179164 0.0173605
0.2809493 0.1179546 0.0180032
0.2958923 0.1180054 0.0186637
0.3033477 0.1221289 0.0193783
0.3111128 0.1221682 0.0200945
0.3269727 0.1222207 0.0208305
0.3350676 0.1222587 0.0215525
0.3432660 0.1222966 0.0222990
0.3513511 0.1265493 0.0231001
0.3597434 0.1265884 0.0238993
0.3682672 0.1266275 0.0247255
0.3768728 0.1266411 0.0247180
0.3941143 0.1310385 0.0255964
0.4029630 0.1310789 0.0264801
0.4029696 0.1311054 0.0274018
0.4118878 0.1311458 0.0283463
0.4206338 0.1356364 0.0283734
0.4296732 0.1356780 0.0293506
0.4387655 0.1357190 0.0303369
0.4479048 0.1357598 0.0313432
0.4570811 0.1357741 0.0313338
0.4660648 0.1404273 0.0324128
0.4753124 0.1404692 0.0334861
0.4753191 0.1404964 0.0346043
0.4845823 0.1405112 0.0345939
0.4936322 0.1453023 0.0357818
0.5029287 0.1453454 0.0369632
0.5029287 0.1453454 0.0369632
0.5122284 0.1453886 0.0381823
0.5215253 0.1454316 0.0394404
0.5212888 0.1503198 0.0394895
0.5305766 0.1503641 0.0407890
0.5398422 0.1503797 0.0407768
0.5398489 0.1504084 0.0421243
0.5490841 0.1504523 0.0434901
0.5580209 0.1554975 0.0435311
0.5580275 0.1555267 0.0449542
0.5671651 0.1555427 0.0449408
0.0044470 0.1041426 0.0044212
0.0063170 0.1042636 0.0045122
0.0129843 0.1045273 0.0048110
0.0215288 0.1084056 0.0051583
0.0302044 0.1085738 0.0056392
0.0396195 0.1087017 0.0059819
0.0501924 0.1088193 0.0063472
0.0592990 0.1127409 0.0069579
0.0700040 0.1128450 0.0074461
0.0824918 0.1129493 0.0079684
0.0938988 0.1130189 0.0082394
0.1032959 0.1170351 0.0088337
0.1172587 0.1171311 0.0094556
0.1287987 0.1172161 0.0101354
0.1370289 0.1172655 0.0105035
0.1501018 0.1214169 0.0112978
0.1594706 0.1214679 0.0117078
0.1744303 0.1215576 0.0125762
0.1850190 0.1216088 0.0130321
0.1959655 0.1258549 0.0135216
0.2075607 0.1259077 0.0140114
0.2196835 0.1259880 0.0150649
0.2323192 0.1260415 0.0156189
0.2386644 0.1304090 0.0162185
0.2520652 0.1304641 0.0168144
0.2589593 0.1305057 0.0174371
0.2731182 0.1305610 0.0180772
0.2803914 0.1306027 0.0187460
0.2951222 0.1351204 0.0194579
0.3027629 0.1351634 0.0201770
0.3105193 0.1352064 0.0209222
0.3263622 0.1352618 0.0216408
0.3342407 0.1399012 0.0224187
0.3424289 0.1399438 0.0231947
0.3507173 0.1399864 0.0239970
0.3591026 0.1400290 0.0248266
0.3676131 0.1400436 0.0248191
0.3846801 0.1448376 0.0257011
0.3934482 0.1448814 0.0265882
0.4022912 0.1449254 0.0275053
0.4112044 0.1449694 0.0284534
0.4112044 0.1449694 0.0284534
0.4199526 0.1498899 0.0294702
0.4289878 0.1499345 0.0304604
0.4380761 0.1499788 0.0314707
0.4472054 0.1499943 0.0314612
0.4561512 0.1550565 0.0325446
0.4653668 0.1551020 0.0336221
0.4746055 0.1551179 0.0336119
0.4746122 0.1551474 0.0347342
0.4838808 0.1551929 0.0358821
0.4929237 0.1603505 0.0359159
0.5022197 0.1603972 0.0371016
0.5022264 0.1604276 0.0383366
0.5115196 0.1604439 0.0383251
0.5208167 0.1604907 0.0395877
0.5208235 0.1605211 0.0409027
0.5298698 0.1658244 0.0409410
0.5391434 0.1658724 0.0422810
0.5391434 0.1658724 0.0422810
0.5483806 0.1659200 0.0436518
0.5575605 0.1659676 0.0450653
0.5573273 0.1714000 0.0451209
0.5664740 0.1714489 0.0465800
0.0047734 0.1195427 0.0047658
0.0064821 0.1196640 0.0048659
0.0133856 0.1199651 0.0052002
0.0214734 0.1201946 0.0056783
0.0301266 0.1203572 0.0060198
0.0394849 0.1246798 0.0065930
0.0500234 0.1248124 0.0069955
0.0591504 0.1249260 0.0074863
0.0698302 0.1250399 0.0080113
0.0822207 0.1294538 0.0085840
0.0935936 0.1295320 0.0088757
0.1030474 0.1296237 0.0095034
0.1169807 0.1297295 0.0101835
0.1283913 0.1342339 0.0105636
0.1366024 0.1343177 0.0113514
0.1497542 0.1343869 0.0117597
0.1639620 0.1344845 0.0126320
0.1740368 0.1345403 0.0130899
0.1844677 0.1391741 0.0135815
0.1955385 0.1392610 0.0145946
0.2071144 0.1393190 0.0151315
0.2192129 0.1393771 0.0156880
0.2316640 0.1441534 0.0162853
0.2381647 0.1441986 0.0168887
0.2515459 0.1442586 0.0175088
0.2654350 0.1443186 0.0181515
0.2725704 0.1443640 0.0188230
0.2796467 0.1492693 0.0195437
0.2945471 0.1493312 0.0202598
0.3021788 0.1493779 0.0210080
0.3177810 0.1494381 0.0217295
0.3257522 0.1494830 0.0224821
0.3336231 0.1545321 0.0232897
0.3418034 0.1545783 0.0240952
0.3500844 0.1546245 0.0249281
0.3584624 0.1546708 0.0257892
0.3669659 0.1546866 0.0257814
0.3840213 0.1598781 0.0266967
0.3927834 0.1599257 0.0276175
0.4016209 0.1599735 0.0285693
0.4105222 0.1599897 0.0285606
0.4105289 0.1600211 0.0295530
0.4192733 0.1653426 0.0305842
0.4283040 0.1653905 0.0315985
0.4373819 0.1654072 0.0315889
0.4465143 0.1654552 0.0326357
0.4556914 0.1655030 0.0337161
0.4646648 0.1709407 0.0337480
0.4739081 0.1709899 0.0348642
0.4739150 0.1710218 0.0360270
0.4831752 0.1710391 0.0360162
0.4924595 0.1710883 0.0372051
0.5017483 0.1711055 0.0371939
0.5015193 0.1767070 0.0384796
0.5108189 0.1767575 0.0397471
0.5201098 0.1767752 0.0397351
0.5201166 0.1768081 0.0410549
0.5294059 0.1768585 0.0423985
0.5384388 0.1825950 0.0424382
0.5384453 0.1826283 0.0438270
0.5476778 0.1826463 0.0438138
0.5568601 0.1826976 0.0452323
0.5568667 0.1827310 0.0467089
0.5660089 0.1827490 0.0466949
0.0052651 0.1324244 0.0052641
0.0066575 0.1325123 0.0052531
0.0133509 0.1328452 0.0057245
0.0213993 0.1376307 0.0062586
0.0300234 0.1378134 0.0066348
0.0393840 0.1379707 0.0070376
0.0498970 0.1381216 0.0075267
0.0610010 0.1382594 0.0080520
0.0719327 0.1430717 0.0086275
0.0820190 0.1431855 0.0092349
0.0933663 0.1432707 0.0095486
0.1027996 0.1433715 0.0102350
0.1167005 0.1434585 0.0106003
0.1280904 0.1483977 0.0114018
0.1405420 0.1484728 0.0118119
0.1494110 0.1485641 0.0126918
0.1635880 0.1486395 0.0131479
0.1736442 0.1487001 0.0136243
0.1840606 0.1537758 0.0146592
0.1951079 0.1538388 0.0151985
0.2066643 0.1539018 0.0157574
0.2187430 0.1539650 0.0163365
0.2313396 0.1540282 0.0169367
0.2376664 0.1591872 0.0175861
0.2510282 0.1592523 0.0182315
0.2649039 0.1593506 0.0196049
0.2720299 0.1593998 0.0203294
0.2866593 0.1594318 0.0203171
0.2939739 0.1647402 0.0210940
0.3015966 0.1647888 0.0218250
