Plugins/FilmEmulator/Content/LUTs/FE_Kodak_5222_Dev4_64.cube
TITLE "FE_Kodak_5222_Dev4_33"
LUT_3D_SIZE 8
0.0113163 0.0113163 0.0113163
0.0219055 0.0219055 0.0219055
0.0399711 0.0399711 0.0399711
0.0568255 0.0568255 0.0568255
0.0736877 0.0736877 0.0736877
0.0905252 0.0905252 0.0905252
0.1084707 0.1084707 0.1084707
0.1249310 0.1249310 0.1249310
0.0399711 0.0399711 0.0399711
0.0568255 0.0568255 0.0568255
0.0736877 0.0736877 0.0736877
0.0905252 0.0905252 0.0905252
0.1084707 0.1084707 0.1084707
0.1249310 0.1249310 0.1249310
0.1408524 0.1408524 0.1408524
0.1555864 0.1555864 0.1555864
0.0736877 0.0736877 0.0736877
0.0905252 0.0905252 0.0905252
0.1084707 0.1084707 0.1084707
0.1249310 0.1249310 0.1249310
0.1408524 0.1408524 0.1408524
0.1555864 0.1555864 0.1555864
0.1714494 0.1714494 0.1714494
0.1847987 0.1847987 0.1847987
0.1084707 0.1084707 0.1084707
0.1249310 0.1249310 0.1249310
0.1408524 0.1408524 0.1408524
0.1555864 0.1555864 0.1555864
0.1714494 0.1714494 0.1714494
0.1847987 0.1847987 0.1847987
0.1989378 0.1989378 0.1989378
0.2137059 0.2137059 0.2137059
0.1408524 0.1408524 0.1408524
0.1555864 0.1555864 0.1555864
0.1714494 0.1714494 0.1714494
0.1847987 0.1847987 0.1847987
0.1989378 0.1989378 0.1989378
0.2137059 0.2137059 0.2137059
0.2252519 0.2252519 0.2252519
0.2372334 0.2372334 0.2372334
0.1714494 0.1714494 0.1714494
0.1847987 0.1847987 0.1847987
0.1989378 0.1989378 0.1989378
0.2137059 0.2137059 0.2137059
0.2252519 0.2252519 0.2252519
0.2372334 0.2372334 0.2372334
0.2496732 0.2496732 0.2496732
0.2625628 0.2625628 0.2625628
0.1989378 0.1989378 0.1989378
0.2137059 0.2137059 0.2137059
0.2252519 0.2252519 0.2252519
0.2372334 0.2372334 0.2372334
0.2496732 0.2496732 0.2496732
0.2625628 0.2625628 0.2625628
0.2758732 0.2758732 0.2758732
0.2849752 0.2849752 0.2849752
0.2252519 0.2252519 0.2252519
0.2372334 0.2372334 0.2372334
0.2496732 0.2496732 0.2496732
0.2625628 0.2625628 0.2625628
0.2758732 0.2758732 0.2758732
0.2849752 0.2849752 0.2849752
0.2940385 0.2940385 0.2940385
0.3077760 0.3077760 0.3077760
0.0784118 0.0784118 0.0784118
0.0961884 0.0961884 0.0961884
0.1129241 0.1129241 0.1129241
0.1300325 0.1300325 0.1300325
0.1437027 0.1437027 0.1437027
0.1618230 0.1618230 0.1618230
0.1747133 0.1747133 0.1747133
0.1882590 0.1882590 0.1882590
0.1129241 0.1129241 0.1129241
0.1300325 0.1300325 0.1300325
0.1437027 0.1437027 0.1437027
0.1618230 0.1618230 0.1618230
0.1747133 0.1747133 0.1747133
0.1882590 0.1882590 0.1882590
0.2025971 0.2025971 0.2025971
0.2175061 0.2175061 0.2175061
0.1437027 0.1437027 0.1437027
0.1618230 0.1618230 0.1618230
0.1747133 0.1747133 0.1747133
0.1882590 0.1882590 0.1882590
0.2025971 0.2025971 0.2025971
0.2175061 0.2175061 0.2175061
0.2291974 0.2291974 0.2291974
0.2413234 0.2413234 0.2413234
0.1747133 0.1747133 0.1747133
0.1882590 0.1882590 0.1882590
0.2025971 0.2025971 0.2025971
0.2175061 0.2175061 0.2175061
0.2291974 0.2291974 0.2291974
0.2413234 0.2413234 0.2413234
0.2539225 0.2539225 0.2539225
0.2669534 0.2669534 0.2669534
0.2025971 0.2025971 0.2025971
0.2175061 0.2175061 0.2175061
0.2291974 0.2291974 0.2291974
0.2413234 0.2413234 0.2413234
0.2539225 0.2539225 0.2539225
0.2669534 0.2669534 0.2669534
0.2758732 0.2758732 0.2758732
0.2895395 0.2895395 0.2895395
0.2291974 0.2291974 0.2291974
0.2413234 0.2413234 0.2413234
0.2539225 0.2539225 0.2539225
0.2669534 0.2669534 0.2669534
0.2758732 0.2758732 0.2758732
0.2895395 0.2895395 0.2895395
0.2985778 0.2985778 0.2985778
0.3077760 0.3077760 0.3077760
0.2539225 0.2539225 0.2539225
0.2669534 0.2669534 0.2669534
0.2758732 0.2758732 0.2758732
0.2895395 0.2895395 0.2895395
0.2985778 0.2985778 0.2985778
0.3077760 0.3077760 0.3077760
0.3171294 0.3171294 0.3171294
0.3266330 0.3266330 0.3266330
0.2758732 0.2758732 0.2758732
0.2895395 0.2895395 0.2895395
0.2985778 0.2985778 0.2985778
0.3077760 0.3077760 0.3077760
0.3171294 0.3171294 0.3171294
0.3266330 0.3266330 0.3266330
0.3362811 0.3362811 0.3362811
0.3458249 0.3458249 0.3458249
0.1495474 0.1495474 0.1495474
0.1650162 0.1650162 0.1650162
0.1780261 0.1780261 0.1780261
0.1953284 0.1953284 0.1953284
0.2062515 0.2062515 0.2062515
0.2213546 0.2213546 0.2213546
0.2331913 0.2331913 0.2331913
0.2454717 0.2454717 0.2454717
0.1780261 0.1780261 0.1780261
0.1953284 0.1953284 0.1953284
0.2062515 0.2062515 0.2062515
0.2213546 0.2213546 0.2213546
0.2331913 0.2331913 0.2331913
0.2454717 0.2454717 0.2454717
0.2582191 0.2582191 0.2582191
0.2713902 0.2713902 0.2713902
0.2062515 0.2062515 0.2062515
0.2213546 0.2213546 0.2213546
0.2331913 0.2331913 0.2331913
0.2454717 0.2454717 0.2454717
0.2582191 0.2582191 0.2582191
0.2713902 0.2713902 0.2713902
0.2804016 0.2804016 0.2804016
0.2895395 0.2895395 0.2895395
0.2331913 0.2331913 0.2331913
0.2454717 0.2454717 0.2454717
0.2582191 0.2582191 0.2582191
0.2713902 0.2713902 0.2713902
0.2804016 0.2804016 0.2804016
0.2895395 0.2895395 0.2895395
0.3031572 0.3031572 0.3031572
0.3124337 0.3124337 0.3124337
0.2582191 0.2582191 0.2582191
0.2713902 0.2713902 0.2713902
0.2804016 0.2804016 0.2804016
0.2895395 0.2895395 0.2895395
0.3031572 0.3031572 0.3031572
0.3124337 0.3124337 0.3124337
0.3218627 0.3218627 0.3218627
0.3314394 0.3314394 0.3314394
0.2804016 0.2804016 0.2804016
0.2895395 0.2895395 0.2895395
0.3031572 0.3031572 0.3031572
0.3124337 0.3124337 0.3124337
0.3218627 0.3218627 0.3218627
0.3314394 0.3314394 0.3314394
0.3410369 0.3410369 0.3410369
0.3506443 0.3506443 0.3506443
0.3031572 0.3031572 0.3031572
0.3124337 0.3124337 0.3124337
0.3218627 0.3218627 0.3218627
0.3314394 0.3314394 0.3314394
0.3410369 0.3410369 0.3410369
0.3506443 0.3506443 0.3506443
0.3554944 0.3554944 0.3554944
0.3652833 0.3652833 0.3652833
0.3218627 0.3218627 0.3218627
0.3314394 0.3314394 0.3314394
0.3410369 0.3410369 0.3410369
0.3506443 0.3506443 0.3506443
0.3554944 0.3554944 0.3554944
0.3652833 0.3652833 0.3652833
0.3751850 0.3751850 0.3751850
0.3801758 0.3801758 0.3801758
0.2099545 0.2099545 0.2099545
0.2252519 0.2252519 0.2252519
0.2372334 0.2372334 0.2372334
0.2496732 0.2496732 0.2496732
0.2625628 0.2625628 0.2625628
0.2713902 0.2713902 0.2713902
0.2849752 0.2849752 0.2849752
0.2940385 0.2940385 0.2940385
0.2372334 0.2372334 0.2372334
0.2496732 0.2496732 0.2496732
0.2625628 0.2625628 0.2625628
0.2713902 0.2713902 0.2713902
0.2849752 0.2849752 0.2849752
0.2940385 0.2940385 0.2940385
0.3031572 0.3031572 0.3031572
0.3124337 0.3124337 0.3124337
0.2625628 0.2625628 0.2625628
0.2713902 0.2713902 0.2713902
0.2849752 0.2849752 0.2849752
0.2940385 0.2940385 0.2940385
0.3031572 0.3031572 0.3031572
0.3124337 0.3124337 0.3124337
0.3218627 0.3218627 0.3218627
0.3314394 0.3314394 0.3314394
0.2849752 0.2849752 0.2849752
0.2940385 0.2940385 0.2940385
0.3031572 0.3031572 0.3031572
0.3124337 0.3124337 0.3124337
0.3218627 0.3218627 0.3218627
0.3314394 0.3314394 0.3314394
0.3410369 0.3410369 0.3410369
0.3506443 0.3506443 0.3506443
0.3031572 0.3031572 0.3031572
0.3124337 0.3124337 0.3124337
0.3266330 0.3266330 0.3266330
0.3314394 0.3314394 0.3314394
0.3410369 0.3410369 0.3410369
0.3506443 0.3506443 0.3506443
0.3603744 0.3603744 0.3603744
0.3652833 0.3652833 0.3652833
0.3266330 0.3266330 0.3266330
0.3314394 0.3314394 0.3314394
0.3410369 0.3410369 0.3410369
0.3506443 0.3506443 0.3506443
0.3603744 0.3603744 0.3603744
0.3652833 0.3652833 0.3652833
0.3751850 0.3751850 0.3751850
0.3851920 0.3851920 0.3851920
0.3410369 0.3410369 0.3410369
0.3506443 0.3506443 0.3506443
0.3603744 0.3603744 0.3603744
0.3652833 0.3652833 0.3652833
0.3751850 0.3751850 0.3751850
0.3851920 0.3851920 0.3851920
0.3901623 0.3901623 0.3901623
0.4000992 0.4000992 0.4000992
0.3603744 0.3603744 0.3603744
0.3652833 0.3652833 0.3652833
0.3751850 0.3751850 0.3751850
0.3851920 0.3851920 0.3851920
0.3901623 0.3901623 0.3901623
0.4000992 0.4000992 0.4000992
0.4050991 0.4050991 0.4050991
0.4101189 0.4101189 0.4101189
0.2625628 0.2625628 0.2625628
0.2758732 0.2758732 0.2758732
0.2849752 0.2849752 0.2849752
0.2985778 0.2985778 0.2985778
0.3077760 0.3077760 0.3077760
0.3171294 0.3171294 0.3171294
0.3266330 0.3266330 0.3266330
0.3362811 0.3362811 0.3362811
0.2849752 0.2849752 0.2849752
0.2985778 0.2985778 0.2985778
0.3077760 0.3077760 0.3077760
0.3171294 0.3171294 0.3171294
0.3266330 0.3266330 0.3266330
0.3362811 0.3362811 0.3362811
0.3458249 0.3458249 0.3458249
0.3554944 0.3554944 0.3554944
0.3077760 0.3077760 0.3077760
0.3171294 0.3171294 0.3171294
0.3266330 0.3266330 0.3266330
0.3362811 0.3362811 0.3362811
0.3458249 0.3458249 0.3458249
0.3554944 0.3554944 0.3554944
0.3603744 0.3603744 0.3603744
0.3702206 0.3702206 0.3702206
0.3266330 0.3266330 0.3266330
0.3362811 0.3362811 0.3362811
0.3458249 0.3458249 0.3458249
0.3554944 0.3554944 0.3554944
0.3603744 0.3603744 0.3603744
0.3702206 0.3702206 0.3702206
0.3801758 0.3801758 0.3801758
0.3851920 0.3851920 0.3851920
0.3458249 0.3458249 0.3458249
0.3554944 0.3554944 0.3554944
0.3603744 0.3603744 0.3603744
0.3702206 0.3702206 0.3702206
0.3801758 0.3801758 0.3801758
0.3851920 0.3851920 0.3851920
0.3951198 0.3951198 0.3951198
0.4000992 0.4000992 0.4000992
0.3603744 0.3603744 0.3603744
0.3702206 0.3702206 0.3702206
0.3801758 0.3801758 0.3801758
0.3851920 0.3851920 0.3851920
0.3951198 0.3951198 0.3951198
0.4000992 0.4000992 0.4000992
0.4050991 0.4050991 0.4050991
0.4151575 0.4151575 0.4151575
0.3801758 0.3801758 0.3801758
0.3851920 0.3851920 0.3851920
0.3951198 0.3951198 0.3951198
0.4000992 0.4000992 0.4000992
0.4050991 0.4050991 0.4050991
0.4151575 0.4151575 0.4151575
0.4202138 0.4202138 0.4202138
0.4252870 0.4252870 0.4252870
0.3951198 0.3951198 0.3951198
0.4000992 0.4000992 0.4000992
0.4050991 0.4050991 0.4050991
0.4151575 0.4151575 0.4151575
0.4202138 0.4202138 0.4202138
0.4252870 0.4252870 0.4252870
0.4354796 0.4354796 0.4354796
0.4404977 0.4404977 0.4404977
0.3124337 0.3124337 0.3124337
0.3218627 0.3218627 0.3218627
0.3314394 0.3314394 0.3314394
0.3410369 0.3410369 0.3410369
0.3458249 0.3458249 0.3458249
0.3554944 0.3554944 0.3554944
0.3652833 0.3652833 0.3652833
0.3702206 0.3702206 0.3702206
0.3314394 0.3314394 0.3314394
0.3410369 0.3410369 0.3410369
0.3458249 0.3458249 0.3458249
0.3554944 0.3554944 0.3554944
0.3652833 0.3652833 0.3652833
0.3702206 0.3702206 0.3702206
0.3801758 0.3801758 0.3801758
0.3851920 0.3851920 0.3851920
0.3458249 0.3458249 0.3458249
0.3554944 0.3554944 0.3554944
0.3652833 0.3652833 0.3652833
0.3702206 0.3702206 0.3702206
0.3801758 0.3801758 0.3801758
0.3851920 0.3851920 0.3851920
0.3951198 0.3951198 0.3951198
0.4000992 0.4000992 0.4000992
0.3652833 0.3652833 0.3652833
0.3702206 0.3702206 0.3702206
0.3801758 0.3801758 0.3801758
0.3851920 0.3851920 0.3851920
0.3951198 0.3951198 0.3951198
0.4000992 0.4000992 0.4000992
0.4101189 0.4101189 0.4101189
0.4151575 0.4151575 0.4151575
0.3801758 0.3801758 0.3801758
0.3851920 0.3851920 0.3851920
0.3951198 0.3951198 0.3951198
0.4000992 0.4000992 0.4000992
0.4101189 0.4101189 0.4101189
0.4151575 0.4151575 0.4151575
0.4202138 0.4202138 0.4202138
0.4303759 0.4303759 0.4303759
0.3951198 0.3951198 0.3951198
0.4000992 0.4000992 0.4000992
0.4101189 0.4101189 0.4101189
0.4151575 0.4151575 0.4151575
0.4202138 0.4202138 0.4202138
0.4303759 0.4303759 0.4303759
0.4354796 0.4354796 0.4354796
0.4404977 0.4404977 0.4404977
0.4101189 0.4101189 0.4101189
0.4151575 0.4151575 0.4151575
0.4202138 0.4202138 0.4202138
0.4303759 0.4303759 0.4303759
0.4354796 0.4354796 0.4354796
0.4404977 0.4404977 0.4404977
0.4453286 0.4453286 0.4453286
0.4501700 0.4501700 0.4501700
0.4202138 0.4202138 0.4202138
0.4303759 0.4303759 0.4303759
0.4354796 0.4354796 0.4354796
0.4404977 0.4404977 0.4404977
0.4453286 0.4453286 0.4453286
0.4501700 0.4501700 0.4501700
0.4598800 0.4598800 0.4598800
0.4647469 0.4647469 0.4647469
0.3506443 0.3506443 0.3506443
0.3603744 0.3603744 0.3603744
0.3652833 0.3652833 0.3652833
0.3751850 0.3751850 0.3751850
0.3801758 0.3801758 0.3801758
0.3901623 0.3901623 0.3901623
0.3951198 0.3951198 0.3951198
0.4050991 0.4050991 0.4050991
0.3652833 0.3652833 0.3652833
0.3751850 0.3751850 0.3751850
0.3801758 0.3801758 0.3801758
0.3901623 0.3901623 0.3901623
0.3951198 0.3951198 0.3951198
0.4050991 0.4050991 0.4050991
0.4101189 0.4101189 0.4101189
0.4151575 0.4151575 0.4151575
0.3801758 0.3801758 0.3801758
0.3901623 0.3901623 0.3901623
0.3951198 0.3951198 0.3951198
0.4050991 0.4050991 0.4050991
0.4101189 0.4101189 0.4101189
0.4151575 0.4151575 0.4151575
0.4252870 0.4252870 0.4252870
0.4303759 0.4303759 0.4303759
0.3951198 0.3951198 0.3951198
0.4050991 0.4050991 0.4050991
0.4101189 0.4101189 0.4101189
0.4151575 0.4151575 0.4151575
0.4252870 0.4252870 0.4252870
0.4303759 0.4303759 0.4303759
0.4354796 0.4354796 0.4354796
0.4404977 0.4404977 0.4404977
0.4101189 0.4101189 0.4101189
0.4151575 0.4151575 0.4151575
0.4252870 0.4252870 0.4252870
0.4303759 0.4303759 0.4303759
0.4354796 0.4354796 0.4354796
0.4404977 0.4404977 0.4404977
0.4501700 0.4501700 0.4501700
0.4550207 0.4550207 0.4550207
0.4252870 0.4252870 0.4252870
0.4303759 0.4303759 0.4303759
0.4354796 0.4354796 0.4354796
0.4404977 0.4404977 0.4404977
0.4501700 0.4501700 0.4501700
0.4550207 0.4550207 0.4550207
0.4598800 0.4598800 0.4598800
0.4647469 0.4647469 0.4647469
0.4354796 0.4354796 0.4354796
0.4404977 0.4404977 0.4404977
0.4501700 0.4501700 0.4501700
0.4550207 0.4550207 0.4550207
0.4598800 0.4598800 0.4598800
0.4647469 0.4647469 0.4647469
0.4696206 0.4696206 0.4696206
0.4745000 0.4745000 0.4745000
0.4501700 0.4501700 0.4501700
0.4550207 0.4550207 0.4550207
0.4598800 0.4598800 0.4598800
0.4647469 0.4647469 0.4647469
0.4696206 0.4696206 0.4696206
0.4745000 0.4745000 0.4745000
0.4793843 0.4793843 0.4793843
0.4842726 0.4842726 0.4842726
0.3851920 0.3851920 0.3851920
0.3901623 0.3901623 0.3901623
0.4000992 0.4000992 0.4000992
0.4050991 0.4050991 0.4050991
0.4151575 0.4151575 0.4151575
0.4202138 0.4202138 0.4202138
0.4252870 0.4252870 0.4252870
0.4303759 0.4303759 0.4303759
0.4000992 0.4000992 0.4000992
0.4050991 0.4050991 0.4050991
0.4151575 0.4151575 0.4151575
0.4202138 0.4202138 0.4202138
0.4252870 0.4252870 0.4252870
0.4303759 0.4303759 0.4303759
0.4404977 0.4404977 0.4404977
0.4453286 0.4453286 0.4453286
0.4151575 0.4151575 0.4151575
0.4202138 0.4202138 0.4202138
0.4252870 0.4252870 0.4252870
0.4303759 0.4303759 0.4303759
0.4404977 0.4404977 0.4404977
0.4453286 0.4453286 0.4453286
0.4501700 0.4501700 0.4501700
0.4550207 0.4550207 0.4550207
0.4252870 0.4252870 0.4252870
0.4303759 0.4303759 0.4303759
0.4404977 0.4404977 0.4404977
0.4453286 0.4453286 0.4453286
0.4501700 0.4501700 0.4501700
0.4550207 0.4550207 0.4550207
0.4598800 0.4598800 0.4598800
0.4647469 0.4647469 0.4647469
0.4404977 0.4404977 0.4404977
0.4453286 0.4453286 0.4453286
0.4501700 0.4501700 0.4501700
0.4550207 0.4550207 0.4550207
0.4598800 0.4598800 0.4598800
0.4647469 0.4647469 0.4647469
0.4696206 0.4696206 0.4696206
0.4745000 0.4745000 0.4745000
0.4501700 0.4501700 0.4501700
0.4550207 0.4550207 0.4550207
0.4598800 0.4598800 0.4598800
0.4647469 0.4647469 0.4647469
0.4696206 0.4696206 0.4696206
0.4745000 0.4745000 0.4745000
0.4793843 0.4793843 0.4793843
0.4842726 0.4842726 0.4842726
0.4598800 0.4598800 0.4598800
0.4647469 0.4647469 0.4647469
0.4696206 0.4696206 0.4696206
0.4745000 0.4745000 0.4745000
0.4793843 0.4793843 0.4793843
0.4842726 0.4842726 0.4842726
0.4891640 0.4891640 0.4891640
0.4940963 0.4940963 0.4940963
0.4696206 0.4696206 0.4696206
0.4745000 0.4745000 0.4745000
0.4793843 0.4793843 0.4793843
0.4842726 0.4842726 0.4842726
0.4891640 0.4891640 0.4891640
0.4940963 0.4940963 0.4940963
0.4990296 0.4990296 0.4990296
0.5039634 0.5039634 0.5039634
