Plugins/FilmEmulator/Content/LUTs/FE_Kodak_Supra_Endura_64.cube
TITLE "FE_Kodak_Supra_Endura_33"
LUT_3D_SIZE 4
0.0048897 0.0000000 0.0237039
0.9646496 0.2488998 0.0770411
1.0000000 0.4975618 0.1956723
1.0000000 0.5328988 0.2341250
0.2462033 0.9738332 0.2981366
0.9256002 0.9780193 0.3663963
0.9973288 0.9811292 0.4428253
1.0000000 0.9771312 0.4782689
0.5362692 1.0000000 0.5851365
0.9632704 1.0000000 0.6292356
0.9844370 1.0000000 0.6385186
0.9857189 1.0000000 0.6279824
0.7531202 0.9981363 0.7960731
0.9816052 0.9989021 0.8147780
0.9901652 0.9999666 0.8088051
0.9906806 1.0000000 0.7950177
0.2651250 0.3920427 1.0000000
1.0000000 0.6340584 1.0000000
1.0000000 0.6927770 0.9983138
1.0000000 0.7146910 0.9959273
0.7416894 0.9790307 0.9938873
0.9837366 0.9867154 0.9904291
0.9934233 0.9877165 0.9903995
0.9947264 0.9870881 0.9901661
0.8971587 0.9904058 0.9928952
0.9890574 0.9936529 0.9922897
0.9927704 0.9940366 0.9923493
0.9934746 0.9940628 0.9922634
0.9566143 0.9929108 0.9929063
0.9908770 0.9947937 0.9930167
0.9928640 0.9949996 0.9930571
0.9933925 0.9950455 0.9930406
0.8542014 0.8065270 1.0000000
1.0000000 0.8616159 0.9976290
1.0000000 0.8555476 0.9977987
1.0000000 0.8412793 0.9986281
0.9555621 0.9886581 0.9932705
0.9909660 0.9915106 0.9932186
0.9931421 0.9916481 0.9932519
0.9937511 0.9915280 0.9932473
0.9780972 0.9933280 0.9934310
0.9918166 0.9944790 0.9936153
0.9930280 0.9945912 0.9936494
0.9934203 0.9946156 0.9936591
0.9863170 0.9945673 0.9936049
0.9923413 0.9951307 0.9937551
0.9931521 0.9952217 0.9937866
0.9934130 0.9952433 0.9937927
0.9779558 0.9513030 0.9935914
0.9995532 0.9541039 0.9932214
1.0000000 0.9493132 0.9933503
1.0000000 0.9423367 0.9935839
0.9862388 0.9924756 0.9934413
0.9924734 0.9931589 0.9935607
0.9933327 0.9931540 0.9935749
0.9936250 0.9930962 0.9935734
0.9898595 0.9945341 0.9936862
0.9926749 0.9948329 0.9937772
0.9932749 0.9948789 0.9938009
0.9934807 0.9948838 0.9938098
0.9912072 0.9950602 0.9937451
0.9928492 0.9952406 0.9938121
0.9933216 0.9952940 0.9938383
0.9934855 0.9953129 0.9938514
