Plugins/FilmEmulator/Content/LUTs/FE_Kodak_Ultramax_400_64.cube
TITLE "FE_Kodak_Ultramax_400_33"
LUT_3D_SIZE 64
0.0017057 0.0020110 0.0018263
0.0031588 0.0020106 0.0018245
0.0073151 0.0020103 0.0018221
0.0129215 0.0020139 0.0018254
0.0202245 0.0020454 0.0018538
0.0285606 0.0021235 0.0019355
0.0372909 0.0022324 0.0020499
0.0484055 0.0023841 0.0021836
0.0580212 0.0026002 0.0024053
0.0693987 0.0028267 0.0025711
0.0801264 0.0030551 0.0028465
0.0924225 0.0033276 0.0030978
0.1064952 0.0035480 0.0033153
0.1184490 0.0039147 0.0035844
0.1315995 0.0042283 0.0038720
0.1460336 0.0044517 0.0041786
0.1564263 0.0048177 0.0045557
0.1732998 0.0052519 0.0048354
0.1853551 0.0055629 0.0052732
0.1980614 0.0058921 0.0055907
0.2186077 0.0062414 0.0059490
0.2333698 0.0066346 0.0063429
0.2409460 0.0070646 0.0067634
0.2567525 0.0075229 0.0072115
0.2732423 0.0080107 0.0074552
0.2904912 0.0082672 0.0079391
0.2990248 0.0088022 0.0084953
0.3165367 0.0091078 0.0087881
0.3253745 0.0097486 0.0094052
0.3437143 0.0100867 0.0097292
0.3529395 0.0107957 0.0104119
0.3623754 0.0111690 0.0107706
0.3816792 0.0115559 0.0111412
0.3913949 0.0123671 0.0115493
0.4014297 0.0128079 0.0123727
0.4115460 0.0132711 0.0128146
0.4321234 0.0137517 0.0132716
0.4424646 0.0142486 0.0137453
0.4528636 0.0147632 0.0142357
0.4633112 0.0152962 0.0147433
0.4737988 0.0158483 0.0152689
0.4843172 0.0164199 0.0158130
0.4948565 0.0170119 0.0163819
0.5053374 0.0176250 0.0169826
0.5158201 0.0182604 0.0176050
0.5262958 0.0189196 0.0182500
0.5367556 0.0196023 0.0189182
0.5366496 0.0203084 0.0196115
0.5470846 0.0210403 0.0203288
0.5574846 0.0217981 0.0210720
0.5678334 0.0225825 0.0210996
0.5782496 0.0225835 0.0218406
0.5884916 0.0233959 0.0226380
0.5883883 0.0242362 0.0234652
0.5985534 0.0251065 0.0234959
0.6087143 0.0251075 0.0243333
0.6186576 0.0260087 0.0252343
0.6185555 0.0269525 0.0261698
0.6283982 0.0279302 0.0262044
0.6382559 0.0279312 0.0271362
0.6381558 0.0289432 0.0281406
0.6477914 0.0299913 0.0281778
0.6574256 0.0299922 0.0291781
0.6573278 0.0310771 0.0302563
0.0016885 0.0046782 0.0018868
0.0033924 0.0049487 0.0018888
0.0074869 0.0053930 0.0018977
0.0132375 0.0057112 0.0019299
0.0207355 0.0060487 0.0020059
0.0293022 0.0064121 0.0021142
0.0382155 0.0068285 0.0022519
0.0477861 0.0072720 0.0024250
0.0594310 0.0075047 0.0026283
0.0685865 0.0079919 0.0028952
0.0821213 0.0085106 0.0031480
0.0914303 0.0087827 0.0033500
0.1053648 0.0094024 0.0037083
0.1172880 0.0097288 0.0039993
0.1303361 0.0104144 0.0042131
0.1446791 0.0107758 0.0045695
0.1605372 0.0111496 0.0049787
0.1718492 0.0119341 0.0052808
0.1838636 0.0123473 0.0055938
0.2031504 0.0127886 0.0059307
0.2170074 0.0132521 0.0063172
0.2317474 0.0137323 0.0067288
0.2471960 0.0142297 0.0071670
0.2551468 0.0147443 0.0076340
0.2715530 0.0158290 0.0081420
0.2887184 0.0164011 0.0084232
0.2972916 0.0169932 0.0090037
0.3148375 0.0169947 0.0093017
0.3237385 0.0176078 0.0099422
0.3420256 0.0182438 0.0102851
0.3513151 0.0189029 0.0106402
0.3607323 0.0195858 0.0113722
0.3799933 0.0202932 0.0117735
0.3897897 0.0210251 0.0121943
0.3997999 0.0217830 0.0126300
0.4100188 0.0217843 0.0135115
0.4305731 0.0225696 0.0139931
0.4409047 0.0233820 0.0144923
0.4512950 0.0242231 0.0150091
0.4617355 0.0250938 0.0155441
0.4723308 0.0250948 0.0160759
0.4828453 0.0259962 0.0166542
0.4933810 0.0269407 0.0172651
0.5039743 0.0269417 0.0178733
0.5144559 0.0279199 0.0185282
0.5249314 0.0289326 0.0192069
0.5355076 0.0289336 0.0198824
0.5353925 0.0299811 0.0199099
0.5458295 0.0310667 0.0206383
0.5563473 0.0310677 0.0213634
0.5667076 0.0321916 0.0221440
0.5770166 0.0333549 0.0229527
0.5873700 0.0333555 0.0229514
0.5872653 0.0345592 0.0237903
0.5975568 0.0345602 0.0246380
0.6076150 0.0358065 0.0255504
0.6175590 0.0370959 0.0255843
0.6175665 0.0370964 0.0264959
0.6274276 0.0384192 0.0274754
0.6372956 0.0384201 0.0284513
0.6371892 0.0397812 0.0284899
0.6469497 0.0397821 0.0295011
0.6564906 0.0411907 0.0305886
0.6564906 0.0411907 0.0305886
0.0016709 0.0111520 0.0019513
0.0035471 0.0115341 0.0019581
0.0076803 0.0119295 0.0019948
0.0135995 0.0127797 0.0020767
0.0205443 0.0132409 0.0021978
0.0290418 0.0137191 0.0023381
0.0378910 0.0142150 0.0025295
0.0473988 0.0147289 0.0027420
0.0589513 0.0152613 0.0029693
0.0705387 0.0158130 0.0032251
0.0815196 0.0163843 0.0034325
0.0940616 0.0169761 0.0037020
0.1046413 0.0175891 0.0039927
0.1164900 0.0182245 0.0043062
0.1295089 0.0188839 0.0046708
0.1437692 0.0195667 0.0049479
0.1595381 0.0202737 0.0052414
0.1708532 0.0210060 0.0057110
0.1891306 0.0210073 0.0060467
0.2020813 0.0217654 0.0064408
0.2158834 0.0225504 0.0068604
0.2305676 0.0233632 0.0073073
0.2459555 0.0242044 0.0075463
0.2539635 0.0242054 0.0080268
0.2704076 0.0250767 0.0085644
0.2875272 0.0259783 0.0088601
0.2960775 0.0269231 0.0094706
0.3135819 0.0269243 0.0097840
0.3224617 0.0279027 0.0104577
0.3407096 0.0289159 0.0108185
0.3500842 0.0289167 0.0111765
0.3690943 0.0299661 0.0119543
0.3787152 0.0310517 0.0123817
0.3886060 0.0310526 0.0128064
0.3986033 0.0321765 0.0132639
0.4088042 0.0321774 0.0137186
0.4293461 0.0333418 0.0146950
0.4396689 0.0345461 0.0152192
0.4501652 0.0345471 0.0157400
0.4605994 0.0357935 0.0163010
0.4711907 0.0357945 0.0168642
0.4817009 0.0370846 0.0174827
0.4922355 0.0384074 0.0181233
0.5028279 0.0384084 0.0187613
0.5133032 0.0397701 0.0187860
0.5238954 0.0397710 0.0194470
0.5343596 0.0411797 0.0201584
0.5343676 0.0411803 0.0208679
0.5448088 0.0426372 0.0216304
0.5553303 0.0426381 0.0223897
0.5656891 0.0441440 0.0224190
0.5761170 0.0441449 0.0232055
0.5863729 0.0457024 0.0240517
0.5863805 0.0457031 0.0249098
0.5965682 0.0473133 0.0258317
0.6067374 0.0473136 0.0258303
0.6166983 0.0489781 0.0267855
0.6167060 0.0489788 0.0277390
0.6265681 0.0506987 0.0277752
0.6364451 0.0506996 0.0287615
0.6364526 0.0507002 0.0297838
0.6461090 0.0524777 0.0298225
0.6557636 0.0524785 0.0308797
0.6556686 0.0542919 0.0320180
0.0016619 0.0202914 0.0020113
0.0037214 0.0202846 0.0020447
0.0079001 0.0210104 0.0021299
0.0140166 0.0217639 0.0022650
0.0212009 0.0225455 0.0024185
0.0299965 0.0233556 0.0026212
0.0391122 0.0233545 0.0028415
0.0489022 0.0241945 0.0030861
0.0586168 0.0250642 0.0032844
0.0701427 0.0259649 0.0035832
0.0811000 0.0259651 0.0038591
0.0935826 0.0269093 0.0041620
0.1041133 0.0278873 0.0044888
0.1201542 0.0278876 0.0047430
0.1335275 0.0289006 0.0051680
0.1431230 0.0299491 0.0054748
0.1588922 0.0299499 0.0057913
0.1701656 0.0310356 0.0061406
0.1883165 0.0321598 0.0065406
0.2012957 0.0321607 0.0069571
0.2150565 0.0333245 0.0074103
0.2297738 0.0333253 0.0076421
0.2451285 0.0345300 0.0081397
0.2611807 0.0357765 0.0084059
0.2695197 0.0357777 0.0089728
0.2866026 0.0370679 0.0092827
0.3038913 0.0370693 0.0099080
0.3126089 0.0383921 0.0102502
0.3306638 0.0383936 0.0109401
0.3397958 0.0397558 0.0113176
0.3490552 0.0411645 0.0117080
0.3681463 0.0411661 0.0125203
0.3777582 0.0426231 0.0129675
0.3876387 0.0426239 0.0134120
0.3976282 0.0441304 0.0138907
0.4180931 0.0441316 0.0143659
0.4283412 0.0456893 0.0148783
0.4387709 0.0456901 0.0153876
0.4491499 0.0473005 0.0159359
0.4596938 0.0473014 0.0164809
0.4701685 0.0489661 0.0170735
0.4807912 0.0489670 0.0176751
0.4914383 0.0489679 0.0182976
0.5019162 0.0506886 0.0189675
0.5125133 0.0506895 0.0196348
0.5229921 0.0524678 0.0203529
0.5335719 0.0524687 0.0210681
0.5440167 0.0542824 0.0218374
0.5440167 0.0542824 0.0218374
0.5544324 0.0561057 0.0226334
0.5649154 0.0561066 0.0234273
0.5753476 0.0561075 0.0242484
0.5856123 0.0579888 0.0251450
0.5856123 0.0579888 0.0251450
0.5958097 0.0599300 0.0260740
0.6059927 0.0599308 0.0270013
0.6160609 0.0599309 0.0269998
0.6159641 0.0619333 0.0279973
0.6259485 0.0619342 0.0289914
0.6357298 0.0639997 0.0300590
0.6357298 0.0639997 0.0300590
0.6455069 0.0640004 0.0311245
0.6550618 0.0661298 0.0311632
0.6550693 0.0661307 0.0322686
0.0016968 0.0299827 0.0021109
0.0039109 0.0310587 0.0021874
0.0081397 0.0321742 0.0023255
0.0139513 0.0321681 0.0024935
0.0211029 0.0333274 0.0027022
0.0298711 0.0333240 0.0028826
0.0389335 0.0345262 0.0031306
0.0486804 0.0357711 0.0034002
0.0583773 0.0357700 0.0036296
0.0698582 0.0370590 0.0039143
0.0807744 0.0370587 0.0042156
0.0932115 0.0383810 0.0045464
0.1075538 0.0383812 0.0049411
0.1196916 0.0397430 0.0052341
0.1330692 0.0397432 0.0055368
0.1426373 0.0411520 0.0058652
0.1583619 0.0411524 0.0062100
0.1754963 0.0426094 0.0066143
0.1877782 0.0426102 0.0070355
0.2006573 0.0441170 0.0074936
0.2144613 0.0441179 0.0079705
0.2290700 0.0456754 0.0082310
0.2444756 0.0456765 0.0087701
0.2605000 0.0472868 0.0090729
0.2688248 0.0472880 0.0096845
0.2858810 0.0489527 0.0100186
0.3031373 0.0489534 0.0103498
0.3118491 0.0506747 0.0110620
0.3298736 0.0506755 0.0114275
0.3389942 0.0524539 0.0118217
0.3483453 0.0524546 0.0122225
0.3673148 0.0542691 0.0130930
0.3770234 0.0542699 0.0135419
0.3868961 0.0542707 0.0140059
0.3968826 0.0560941 0.0145048
0.4173345 0.0560950 0.0150008
0.4275814 0.0579765 0.0155347
0.4380062 0.0579773 0.0160662
0.4484934 0.0579782 0.0166156
0.4589258 0.0599195 0.0172121
0.4695113 0.0599203 0.0178185
0.4800227 0.0619229 0.0184702
0.4906685 0.0619237 0.0191202
0.5012594 0.0619246 0.0197928
0.5117467 0.0639903 0.0205155
0.5223403 0.0639912 0.0212364
0.5328040 0.0661208 0.0212631
0.5433626 0.0661216 0.0220097
0.5433705 0.0661225 0.0227833
0.5537882 0.0683195 0.0236132
0.5642741 0.0683204 0.0244407
0.5747021 0.0683203 0.0244394
0.5849708 0.0705855 0.0253429
0.5849786 0.0705865 0.0262462
0.5952865 0.0705873 0.0271795
0.6053606 0.0729217 0.0272135
0.6154421 0.0729225 0.0281804
0.6153453 0.0753299 0.0292205
0.6253280 0.0753297 0.0292189
0.6352182 0.0753305 0.0302553
0.6351241 0.0777878 0.0313696
0.6449006 0.0777876 0.0313679
0.6545702 0.0777884 0.0324785
0.6545776 0.0777893 0.0336292
0.0017850 0.0412021 0.0022603
0.0041161 0.0426464 0.0023783
0.0084012 0.0426349 0.0025640
0.0144159 0.0441339 0.0027779
0.0218416 0.0441279 0.0029763
0.0297600 0.0456819 0.0032320
0.0388061 0.0456789 0.0035051
0.0485223 0.0472870 0.0037631
0.0603308 0.0472850 0.0040524
0.0696365 0.0489488 0.0043704
0.0834750 0.0489471 0.0045913
0.0929212 0.0506677 0.0049970
0.1072211 0.0506669 0.0052857
0.1193284 0.0524454 0.0057590
0.1326708 0.0524452 0.0060919
0.1473088 0.0524453 0.0064678
0.1579019 0.0542591 0.0068890
0.1750560 0.0542588 0.0071043
0.1872486 0.0560824 0.0075665
0.2001707 0.0560831 0.0080479
0.2138728 0.0579642 0.0083105
0.2285361 0.0579651 0.0088548
0.2439111 0.0579654 0.0091479
0.2599194 0.0599072 0.0097770
0.2682261 0.0599077 0.0101008
0.2852677 0.0619109 0.0107949
0.3025018 0.0619114 0.0111516
0.3112931 0.0619120 0.0115205
0.3292044 0.0639776 0.0119168
0.3384230 0.0639791 0.0127439
0.3477663 0.0639798 0.0131809
0.3667169 0.0661103 0.0136501
0.3764187 0.0661110 0.0141179
0.3861819 0.0683081 0.0146207
0.4064376 0.0683087 0.0151206
0.4167064 0.0683096 0.0156381
0.4269488 0.0705749 0.0161944
0.4373694 0.0705757 0.0167482
0.4478531 0.0705765 0.0173265
0.4582827 0.0729120 0.0179605
0.4688655 0.0729128 0.0185929
0.4794844 0.0729137 0.0192472
0.4900199 0.0753211 0.0199503
0.5006022 0.0753209 0.0199493
0.5111991 0.0753217 0.0206505
0.5216844 0.0777791 0.0214038
0.5322662 0.0777799 0.0221553
0.5428264 0.0777807 0.0229327
0.5427262 0.0803125 0.0237689
0.5532472 0.0803123 0.0237676
0.5637354 0.0803131 0.0246005
0.5740672 0.0829206 0.0255094
0.5844470 0.0829214 0.0264171
0.5844470 0.0829214 0.0264171
0.5946532 0.0856067 0.0273917
0.6048454 0.0856075 0.0283648
0.6149236 0.0856072 0.0283633
0.6148278 0.0883726 0.0294096
0.6248232 0.0883733 0.0304526
0.6347110 0.0883728 0.0304509
0.6444995 0.0883736 0.0315299
0.6444065 0.0912207 0.0326899
0.6540748 0.0912202 0.0326881
0.6636297 0.0912209 0.0338441
0.0019151 0.0543268 0.0024538
0.0043359 0.0543095 0.0026333
0.0089800 0.0561190 0.0028069
0.0149162 0.0561093 0.0030687
0.0226412 0.0561017 0.0033272
0.0308422 0.0579783 0.0035400
0.0401738 0.0579741 0.0037951
0.0501835 0.0599126 0.0040922
0.0601644 0.0599105 0.0044069
0.0720523 0.0599086 0.0047566
0.0832516 0.0619097 0.0050382
0.0960749 0.0619090 0.0054816
0.1069424 0.0639740 0.0058062
0.1190655 0.0639734 0.0061418
0.1323828 0.0639730 0.0065206
0.1469409 0.0661031 0.0069448
0.1575698 0.0661035 0.0073868
0.1746947 0.0661027 0.0076175
0.1868672 0.0682999 0.0081129
0.1997690 0.0683006 0.0086289
0.2134507 0.0705655 0.0089263
0.2280930 0.0705663 0.0095277
0.2434469 0.0705663 0.0098428
0.2594344 0.0729023 0.0105194
0.2761945 0.0729025 0.0108670
0.2848344 0.0729030 0.0112266
0.3019617 0.0753101 0.0116128
0.3107502 0.0753116 0.0124041
0.3287401 0.0753119 0.0128289
0.3378493 0.0777694 0.0132862
0.3566390 0.0777698 0.0137409
0.3662211 0.0777705 0.0142118
0.3758162 0.0803022 0.0147178
0.3856761 0.0803029 0.0152217
0.4059220 0.0803033 0.0157418
0.4160816 0.0829110 0.0163016
0.4264262 0.0829117 0.0168589
0.4368433 0.0829124 0.0174411
0.4472172 0.0855980 0.0180790
0.4577523 0.0855988 0.0187155
0.4683332 0.0855996 0.0193740
0.4789506 0.0856003 0.0200554
0.4894779 0.0883644 0.0200804
0.5000675 0.0883652 0.0207862
0.5106643 0.0883660 0.0215164
0.5211500 0.0912129 0.0223007
0.5317327 0.0912137 0.0230831
0.5422863 0.0912132 0.0230819
0.5528165 0.0912140 0.0238912
0.5527168 0.0941447 0.0247616
0.5632074 0.0941454 0.0256433
0.5736406 0.0941450 0.0256419
0.5839170 0.0971606 0.0265885
0.5942324 0.0971613 0.0275337
0.5942402 0.0971626 0.0285133
0.6044278 0.0971620 0.0285117
0.6144137 0.1002648 0.0295618
0.6144213 0.1002661 0.0306117
0.6244129 0.1002655 0.0306100
0.6342109 0.1034576 0.0317354
0.6440052 0.1034582 0.0328586
0.6440052 0.1034582 0.0328586
0.6536856 0.1034588 0.0340205
0.6631401 0.1067501 0.0340625
0.0021227 0.0661866 0.0027435
0.0045698 0.0661666 0.0028741
0.0092774 0.0683477 0.0030957
0.0154558 0.0683356 0.0033559
0.0225875 0.0683274 0.0036387
0.0307699 0.0705872 0.0039231
0.0400804 0.0705820 0.0042243
0.0500678 0.0729143 0.0045549
0.0600259 0.0729109 0.0047959
0.0718886 0.0729086 0.0052178
0.0830644 0.0753143 0.0055266
0.0958593 0.0753123 0.0058458
0.1067454 0.0753113 0.0061836
0.1188051 0.0777680 0.0065737
0.1320974 0.0777673 0.0069919
0.1466820 0.0777667 0.0074366
0.1627763 0.0802978 0.0079198
0.1743351 0.0802973 0.0081675
0.1865526 0.0802977 0.0086869
0.1993658 0.0829048 0.0089862
0.2131032 0.0829054 0.0095916
0.2277230 0.0829051 0.0099088
0.2430646 0.0829059 0.0105758
0.2590302 0.0855908 0.0109396
0.2757732 0.0855907 0.0113011
0.2844106 0.0855922 0.0120615
0.3015236 0.0883570 0.0124861
0.3102986 0.0883576 0.0129144
0.3282741 0.0883576 0.0133565
0.3373764 0.0912047 0.0138324
0.3561533 0.0912048 0.0143056
0.3657294 0.0912054 0.0147956
0.3754197 0.0912061 0.0153021
0.3851734 0.0941365 0.0158464
0.4054096 0.0941367 0.0163877
0.4156697 0.0941374 0.0169480
0.4259057 0.0971532 0.0175560
0.4363196 0.0971539 0.0181744
0.4467975 0.0971546 0.0188142
0.4573306 0.0971553 0.0194761
0.4678021 0.1002584 0.0201873
0.4784176 0.1002591 0.0208968
0.4890522 0.1002586 0.0208957
0.4996414 0.1002593 0.0216296
0.5101295 0.1034516 0.0224180
0.5207240 0.1034523 0.0232044
0.5313075 0.1034530 0.0240179
0.5418621 0.1034525 0.0240167
0.5522859 0.1067452 0.0248904
0.5522936 0.1067466 0.0257779
0.5627781 0.1067460 0.0257765
0.5731146 0.1101372 0.0267281
0.5834999 0.1101379 0.0276782
0.5938181 0.1101386 0.0286612
0.5938181 0.1101386 0.0286612
0.6039119 0.1136255 0.0297168
0.6139982 0.1136248 0.0297152
0.6240013 0.1136254 0.0307688
0.6240090 0.1136269 0.0318605
0.6339052 0.1136261 0.0318587
0.6436021 0.1172105 0.0330289
0.6436093 0.1172120 0.0341985
0.6532872 0.1172111 0.0341966
0.6628523 0.1172117 0.0354044
0.0022996 0.0803993 0.0029986
0.0048163 0.0803766 0.0031838
0.0095887 0.0803563 0.0034504
0.0154254 0.0803427 0.0036651
0.0234253 0.0829405 0.0039508
0.0319163 0.0829327 0.0042538
0.0415285 0.0829267 0.0045803
0.0499722 0.0856097 0.0049671
0.0621133 0.0856047 0.0052535
0.0717527 0.0856020 0.0055569
0.0829112 0.0883661 0.0060537
0.0956847 0.0883637 0.0064091
0.1065534 0.0883625 0.0068169
0.1186352 0.0883605 0.0070298
0.1318628 0.0912066 0.0074868
0.1464254 0.0912057 0.0079628
0.1625538 0.0912050 0.0084688
0.1740392 0.0941345 0.0087450
0.1862406 0.0941349 0.0093342
0.1991047 0.0941343 0.0096430
0.2200393 0.0941339 0.0102918
0.2273599 0.0971498 0.0106464
0.2426788 0.0971493 0.0109982
0.2587144 0.0971500 0.0117379
0.2753590 0.1002524 0.0121414
0.2839824 0.1002529 0.0125528
0.3011698 0.1002527 0.0129827
0.3188469 0.1002524 0.0134272
0.3278084 0.1034449 0.0139056
0.3369999 0.1034454 0.0143820
0.3557734 0.1034466 0.0153837
0.3653448 0.1034472 0.0159102
0.3749295 0.1067402 0.0164759
0.3948418 0.1067401 0.0170384
0.4050009 0.1067394 0.0170375
0.4152576 0.1067401 0.0176257
0.4254903 0.1101316 0.0182704
0.4359014 0.1101323 0.0189136
0.4463770 0.1101330 0.0195790
0.4569081 0.1101336 0.0202674
0.4673773 0.1136208 0.0210071
0.4779918 0.1136215 0.0217449
0.4886255 0.1136208 0.0217438
0.4992140 0.1136215 0.0225070
0.5097015 0.1172062 0.0233269
0.5202963 0.1172069 0.0241446
0.5308725 0.1172061 0.0241433
0.5414360 0.1172068 0.0249890
0.5518611 0.1208908 0.0259123
0.5518693 0.1208923 0.0268354
0.5623554 0.1208915 0.0268340
0.5728010 0.1208922 0.0277877
0.5830818 0.1246775 0.0288119
0.5933951 0.1246766 0.0288103
0.5934027 0.1246782 0.0298342
0.6036047 0.1246788 0.0308919
0.6136937 0.1246779 0.0308902
0.6235966 0.1285663 0.0320257
0.6235966 0.1285663 0.0320257
0.6335047 0.1285669 0.0331590
0.6433067 0.1285675 0.0343312
0.6432059 0.1325602 0.0343755
0.6528959 0.1325607 0.0355895
0.6624588 0.1325596 0.0355875
0.0025605 0.0913184 0.0033373
0.0049406 0.0942287 0.0034770
0.0099104 0.0942051 0.0037847
0.0159903 0.0941895 0.0040738
0.0233895 0.0941779 0.0043857
0.0318551 0.0971863 0.0047281
0.0414488 0.0971784 0.0049947
0.0517467 0.0971733 0.0054337
0.0619965 0.1002728 0.0057547
0.0716189 0.1002696 0.0060870
0.0827881 0.1002665 0.0064443
0.0955447 0.1002638 0.0068539
0.1102517 0.1034539 0.0072991
0.1227050 0.1034525 0.0077632
0.1363703 0.1034501 0.0080056
0.1462219 0.1034501 0.0085147
0.1622705 0.1067409 0.0087920
0.1738046 0.1067411 0.0093843
0.1859885 0.1067402 0.0096947
0.2055195 0.1067395 0.0103470
0.2196799 0.1101301 0.0107031
0.2346267 0.1101293 0.0110567
0.2423764 0.1101309 0.0118009
0.2583928 0.1101302 0.0121905
0.2750235 0.1136165 0.0126196
0.2922015 0.1136160 0.0130517
0.3008215 0.1136178 0.0139625
0.3184870 0.1136174 0.0144401
0.3274426 0.1172023 0.0149542
0.3366287 0.1172028 0.0154661
0.3553851 0.1172025 0.0159946
0.3649515 0.1172030 0.0165416
0.3745318 0.1208873 0.0171296
0.3944355 0.1208870 0.0177201
0.4045987 0.1208876 0.0183442
0.4148446 0.1208868 0.0183432
0.4251800 0.1208874 0.0189889
0.4354824 0.1246730 0.0196826
0.4459555 0.1246736 0.0203747
0.4564845 0.1246743 0.0210906
0.4670604 0.1246749 0.0218313
0.4775651 0.1285636 0.0226271
0.4881979 0.1285627 0.0226258
0.4987861 0.1285633 0.0234195
0.5093824 0.1285640 0.0242404
0.5198685 0.1325576 0.0251221
0.5304453 0.1325566 0.0251208
0.5410100 0.1325572 0.0260149
0.5515447 0.1325579 0.0269402
0.5620324 0.1325569 0.0269388
0.5619324 0.1366581 0.0279339
0.5723802 0.1366587 0.0289258
0.5827621 0.1366576 0.0289242
0.5930855 0.1366582 0.0299504
0.5930933 0.1366600 0.0310139
0.6031849 0.1408668 0.0310523
0.6132852 0.1408674 0.0321520
0.6232950 0.1408680 0.0332897
0.6232950 0.1408680 0.0332897
0.6332062 0.1408685 0.0344664
0.6429030 0.1451918 0.0345090
0.6429105 0.1451936 0.0357296
0.6525964 0.1451924 0.0357275
0.6621705 0.1451929 0.0369807
0.0027884 0.1068724 0.0036442
0.0052412 0.1068470 0.0038087
0.0102584 0.1068210 0.0040983
0.0165820 0.1068035 0.0044113
0.0242666 0.1101838 0.0047552
0.0330367 0.1101740 0.0051665
0.0413857 0.1101667 0.0054643
0.0516675 0.1101597 0.0057791
0.0619023 0.1136429 0.0061206
0.0741593 0.1136377 0.0064795
0.0856936 0.1136343 0.0068913
0.0954044 0.1136326 0.0073296
0.1100921 0.1172148 0.0078056
0.1225294 0.1172131 0.0083016
0.1361779 0.1172103 0.0085607
0.1460179 0.1172102 0.0091212
0.1620481 0.1208920 0.0094349
0.1735694 0.1208922 0.0100703
0.1920726 0.1208897 0.0104027
0.2052463 0.1208886 0.0107465
0.2194706 0.1208889 0.0114695
0.2343305 0.1246734 0.0118638
0.2499781 0.1246725 0.0122555
0.2580706 0.1246727 0.0126707
0.2747792 0.1246734 0.0135545
0.2918591 0.1285612 0.0140367
0.3004667 0.1285616 0.0145176
0.3181204 0.1285609 0.0150140
0.3271649 0.1285614 0.0155279
0.3456544 0.1285608 0.0160584
0.3549969 0.1325546 0.0166294
0.3645585 0.1325550 0.0171979
0.3742352 0.1325556 0.0177916
0.3941331 0.1325551 0.0184173
0.4041889 0.1366556 0.0190904
0.4144391 0.1366562 0.0197620
0.4247637 0.1366551 0.0197610
0.4351701 0.1366557 0.0204557
0.4456413 0.1366563 0.0211745
0.4560611 0.1408652 0.0219467
0.4666352 0.1408657 0.0227170
0.4772395 0.1408646 0.0227157
0.4878796 0.1408652 0.0235124
0.4984671 0.1408658 0.0243366
0.5089543 0.1451913 0.0252218
0.5195417 0.1451901 0.0252204
0.5301268 0.1451907 0.0261181
0.5406923 0.1451913 0.0270470
0.5512279 0.1451919 0.0280081
0.5616087 0.1496411 0.0280431
0.5616167 0.1496429 0.0290404
0.5720658 0.1496436 0.0300707
0.5824497 0.1496422 0.0300690
0.5927752 0.1496428 0.0311348
0.5926689 0.1542076 0.0311753
0.6028764 0.1542082 0.0322793
0.6129794 0.1542086 0.0334213
0.6229844 0.1542074 0.0334194
0.6229919 0.1542092 0.0346025
0.6327962 0.1588882 0.0346454
0.6426062 0.1588887 0.0358687
0.6426136 0.1588906 0.0371287
0.6523031 0.1588893 0.0371266
0.6618808 0.1588897 0.0384235
0.0030891 0.1210372 0.0040270
0.0054018 0.1210124 0.0042279
0.0102425 0.1209849 0.0045495
0.0165561 0.1209641 0.0047770
0.0242388 0.1209498 0.0051896
0.0329852 0.1247254 0.0054952
0.0428967 0.1247167 0.0059775
0.0515893 0.1247105 0.0063222
0.0618340 0.1247048 0.0067113
0.0740499 0.1285892 0.0071469
0.0855664 0.1285839 0.0073697
0.0987111 0.1285802 0.0078378
0.1099737 0.1285781 0.0083359
0.1223964 0.1285748 0.0085960
0.1359858 0.1325672 0.0091705
0.1510101 0.1325641 0.0094733
0.1618834 0.1325641 0.0101113
0.1733910 0.1325625 0.0104455
0.1918838 0.1325612 0.0111478
0.2049781 0.1366605 0.0115312
0.2191836 0.1366591 0.0119120
0.2341060 0.1366578 0.0123052
0.2497489 0.1366583 0.0131584
0.2577546 0.1408674 0.0136274
0.2744440 0.1408663 0.0140936
0.2915994 0.1408652 0.0145756
0.3002025 0.1408656 0.0150747
0.3178473 0.1408647 0.0155899
0.3267926 0.1451904 0.0161445
0.3452713 0.1451896 0.0166958
0.3547074 0.1451900 0.0172665
0.3642655 0.1451905 0.0178626
0.3837713 0.1451898 0.0184907
0.3937267 0.1496410 0.0191666
0.4038832 0.1496416 0.0198408
0.4141306 0.1496421 0.0205384
0.4244530 0.1496409 0.0205373
0.4348572 0.1496413 0.0212589
0.4452189 0.1542070 0.0220343
0.4557443 0.1542075 0.0228075
0.4663173 0.1542081 0.0236074
0.4769207 0.1542067 0.0236061
0.4875596 0.1542074 0.0244335
0.4981470 0.1542079 0.0252892
0.5086337 0.1588892 0.0262235
0.5192212 0.1588878 0.0262220
0.5298072 0.1588884 0.0271545
0.5403733 0.1588890 0.0281194
0.5509019 0.1588876 0.0281179
0.5612919 0.1636862 0.0291541
0.5612999 0.1636881 0.0301900
0.5717430 0.1636867 0.0301883
0.5821364 0.1636873 0.0312582
0.5924640 0.1636878 0.0323651
0.6025597 0.1686028 0.0324053
0.6025676 0.1686048 0.0335535
0.6126656 0.1686032 0.0335517
0.6226811 0.1686038 0.0347374
0.6226887 0.1686058 0.0359658
0.6325986 0.1686043 0.0359637
0.6423092 0.1736411 0.0372731
0.6423092 0.1736411 0.0372731
0.6520097 0.1736416 0.0385750
0.6615840 0.1736400 0.0385728
0.0034428 0.1327185 0.0044637
0.0057489 0.1326929 0.0045719
0.0106125 0.1326646 0.0049311
0.0171685 0.1367457 0.0052200
0.0251573 0.1367296 0.0056772
0.0342121 0.1367164 0.0060034
0.0428474 0.1367074 0.0063491
0.0534382 0.1366990 0.0067395
0.0640042 0.1409032 0.0071769
0.0739675 0.1408988 0.0076328
0.0854722 0.1408930 0.0078706
0.0986038 0.1408888 0.0083704
0.1098142 0.1452130 0.0089139
0.1222213 0.1452092 0.0092083
0.1358438 0.1452072 0.0098280
0.1508547 0.1452036 0.0101524
0.1617188 0.1452035 0.0108358
0.1791452 0.1496517 0.0112080
0.1916244 0.1496501 0.0115782
0.2047745 0.1496484 0.0119605
0.2189744 0.1496486 0.0127746
0.2338868 0.1496470 0.0132119
0.2495138 0.1496457 0.0136641
0.2657640 0.1542099 0.0141502
0.2741932 0.1542102 0.0146349
0.2913389 0.1542089 0.0151352
0.2999373 0.1542092 0.0156532
0.3175730 0.1542081 0.0161879
0.3265140 0.1588897 0.0167636
0.3449846 0.1588886 0.0173357
