Plugins/FilmEmulator/Content/LUTs/FE_Kodak_Ektar_100_64.cube
TITLE "FE_Kodak_Ektar_100_33"
LUT_3D_SIZE 8
0.0011691 0.0020878 0.0008240
0.0599037 0.0024492 0.0012460
0.1969090 0.0041046 0.0030375
0.3414797 0.0069696 0.0058169
0.4677554 0.0106662 0.0094784
0.5656586 0.0155257 0.0139583
0.6487435 0.0202666 0.0198590
0.7147352 0.0263415 0.0252688
0.0014604 0.0789473 0.0013980
0.0651961 0.0868141 0.0031914
0.1971265 0.0925941 0.0060331
0.3430899 0.0988505 0.0093584
0.4706553 0.1055474 0.0134556
0.5694622 0.1126839 0.0184995
0.6527898 0.1202702 0.0244023
0.7099065 0.1283354 0.0307760
0.0027955 0.2090089 0.0036632
0.0701921 0.2140217 0.0064234
0.2021358 0.2197831 0.0099663
0.3402294 0.2258498 0.0144232
0.4675730 0.2321316 0.0197238
0.5665089 0.2386382 0.0249415
0.6500347 0.2522786 0.0314494
0.7074925 0.2591863 0.0379529
0.0050694 0.3330540 0.0070302
0.0792191 0.3400562 0.0101337
0.2081509 0.3392954 0.0146440
0.3485744 0.3471368 0.0208189
0.4766612 0.3552561 0.0263171
0.5754475 0.3635553 0.0318832
0.6483485 0.3719741 0.0384720
0.7151089 0.3716650 0.0462871
0.0079075 0.4386442 0.0110699
0.0856645 0.4465711 0.0155158
0.2222263 0.4457996 0.0210514
0.3574732 0.4545414 0.0276606
0.4863620 0.4541294 0.0334284
0.5849314 0.4631040 0.0403227
0.6571271 0.4721857 0.0467788
0.7140102 0.4719148 0.0541270
0.0116907 0.5223423 0.0171538
0.0926246 0.5305838 0.0221004
0.2292872 0.5299050 0.0278874
0.3667032 0.5388058 0.0337288
0.4853013 0.5384082 0.0406416
0.5838821 0.5474389 0.0471430
0.6562622 0.5471535 0.0545437
0.7220422 0.5561907 0.0630998
0.0155705 0.5960988 0.0231789
0.1001325 0.6041699 0.0292399
0.2365896 0.6035841 0.0352682
0.3762845 0.6031353 0.0424781
0.4953879 0.6117348 0.0492360
0.5937176 0.6114305 0.0569447
0.6652829 0.6200718 0.0635215
0.7213638 0.6198553 0.0708183
0.0209272 0.6571006 0.0306088
0.1082710 0.6563266 0.0354987
0.2442320 0.6557900 0.0427399
0.3859540 0.6638492 0.0495293
0.4946959 0.6635478 0.0572793
0.5930338 0.6633024 0.0638294
0.6646603 0.6713921 0.0738456
0.7207998 0.6711888 0.0822494
0.0030312 0.0062239 0.1025632
0.0799652 0.0090832 0.1146511
0.2169080 0.0127034 0.1237923
0.3597488 0.0172352 0.1335377
0.4882348 0.0216584 0.1436989
0.5860996 0.0271253 0.1545192
0.6578957 0.0314450 0.1657221
0.7230780 0.0376639 0.1719843
0.0046398 0.1017840 0.1140077
0.0842954 0.1084038 0.1263651
0.2191206 0.1157206 0.1354598
0.3634487 0.1235370 0.1451696
0.4817193 0.1275797 0.1553601
0.5802564 0.1360889 0.1662955
0.6626126 0.1450872 0.1778607
0.7187496 0.1546214 0.1840412
0.0063872 0.2251536 0.1249434
0.0904576 0.2377885 0.1337182
0.2247184 0.2443394 0.1431424
0.3710099 0.2510821 0.1531788
0.4897997 0.2580133 0.1638313
0.5882509 0.2650968 0.1751000
0.6601821 0.2723675 0.1810232
0.7166609 0.2797412 0.1932967
0.0089264 0.3464660 0.1311048
0.0974746 0.3540474 0.1401708
0.2312455 0.3622414 0.1499836
0.3692699 0.3706523 0.1604238
0.4990701 0.3703967 0.1713371
0.5865397 0.3789968 0.1830246
0.6684304 0.3877237 0.1891708
0.7240990 0.3965129 0.2018806
0.0122352 0.4539759 0.1370458
0.1051695 0.4530259 0.1463695
0.2464516 0.4618938 0.1565449
0.3783506 0.4709472 0.1673666
0.4977045 0.4706866 0.1786680
0.5958084 0.4798929 0.1846707
0.6673192 0.4796947 0.1969689
0.7230948 0.4889202 0.2100775
0.0170375 0.5383034 0.1428423
0.1135041 0.5374442 0.1525353
0.2539931 0.5463452 0.1630720
0.3878812 0.5460340 0.1741167
0.5076264 0.5551006 0.1859320
0.5948530 0.5549338 0.1919983
0.6663229 0.5640317 0.2048451
0.7222947 0.5638502 0.2181754
0.0219752 0.6027845 0.1486033
0.1177156 0.6109794 0.1587870
0.2618577 0.6105477 0.1695374
0.3975090 0.6191293 0.1810803
0.5067688 0.6188957 0.1931389
0.6045654 0.6187215 0.1993903
0.6752946 0.6273435 0.2126108
0.7303493 0.6272142 0.2193589
0.0273274 0.6635751 0.1545561
0.1269997 0.6629250 0.1649626
0.2699338 0.6625345 0.1760590
0.3968163 0.6706269 0.1879617
0.5170613 0.6704355 0.1940573
0.6038641 0.6702448 0.2068377
0.6746484 0.6783314 0.2204267
0.7297673 0.6782106 0.2273570
0.0086448 0.0179088 0.2803763
0.1013280 0.0224316 0.2894006
0.2386229 0.0280827 0.2989715
0.3786112 0.0325163 0.3083387
0.4974401 0.0389418 0.3181358
0.5952850 0.0449446 0.3278938
0.6762011 0.0500081 0.3376903
0.7308891 0.0556175 0.3476581
0.0111014 0.1237120 0.2920028
0.1073676 0.1316983 0.3003573
0.2424786 0.1403415 0.3179847
0.3838310 0.1448184 0.3269719
0.5032933 0.1543027 0.3363738
0.6012093 0.1591983 0.3458076
0.6720700 0.1694862 0.3556340
0.7273738 0.1747960 0.3653592
0.0139888 0.2513590 0.3054762
0.1106810 0.2578278 0.3138770
0.2487772 0.2647733 0.3227161
0.3918059 0.2719386 0.3317725
0.5117702 0.2792809 0.3410078
0.5987416 0.2867850 0.3505138
0.6699077 0.2944261 0.3601592
0.7254228 0.3022015 0.3699371
0.0171943 0.3709731 0.3086858
0.1190883 0.3789579 0.3260745
0.2558855 0.3785949 0.3348811
0.4007335 0.3872101 0.3441126
0.5100173 0.3959790 0.3536358
0.6076869 0.3958041 0.3630604
0.6781535 0.4046899 0.3728597
0.7328230 0.4136304 0.3827828
0.0211762 0.4712255 0.3198275
0.1282404 0.4704475 0.3282865
0.2720685 0.4794492 0.3373520
0.3994209 0.4886073 0.3466392
0.5197979 0.4883907 0.3559513
0.6063652 0.4976433 0.3656513
0.6770489 0.4974896 0.3752416
0.7318292 0.5067680 0.3851902
0.0251883 0.5462569 0.3305169
0.1327814 0.5548606 0.3393881
0.2801437 0.5544762 0.3483790
0.4091499 0.5635240 0.3579221
0.5188131 0.5633253 0.3673869
0.6158653 0.5724027 0.3772122
0.6857616 0.5722514 0.3869296
0.7310452 0.5813459 0.3970113
0.0299411 0.6193319 0.3322560
0.1429219 0.6186763 0.3409493
0.2793564 0.6271518 0.3502118
0.4190698 0.6269012 0.3595344
0.5289682 0.6267121 0.3690186
0.6150383 0.6352919 0.3788718
0.6850051 0.6351488 0.3886064
0.7390397 0.6350193 0.3984498
0.0372766 0.6707350 0.3426789
0.1480909 0.6701845 0.3515581
0.2877756 0.6781346 0.3610682
0.4183649 0.6779146 0.3705348
0.5282410 0.6777384 0.3801448
0.6247055 0.6857437 0.3901087
0.6843693 0.6856236 0.3999662
0.7384692 0.6855036 0.4099123
0.0170894 0.0337670 0.4449102
0.1229168 0.0403432 0.4562281
0.2626029 0.0448958 0.4567580
0.3982220 0.0517574 0.4683005
0.5182689 0.0575452 0.4796586
0.6152083 0.0639435 0.4910715
0.6848095 0.0710111 0.4917862
0.7385936 0.0787924 0.5032535
0.0207075 0.1498517 0.4561503
0.1306396 0.1543189 0.4664935
0.2675093 0.1642353 0.4774554
0.4045497 0.1693451 0.4882628
0.5248965 0.1801300 0.4886548
0.6112551 0.1856497 0.4995564
0.6814274 0.1913110 0.5104790
0.7356529 0.2031717 0.5109316
0.0244604 0.2723598 0.4719670
0.1346002 0.2793274 0.4716950
0.2743686 0.2866696 0.4824050
0.4129336 0.2942168 0.4932185
0.5226168 0.3019375 0.5040972
0.6194715 0.3098311 0.5042484
0.6794124 0.3178401 0.5151811
0.7339545 0.3258820 0.5261043
0.0289972 0.3877197 0.4755212
0.1444351 0.3960103 0.4859863
0.2818772 0.4047042 0.4967365
0.4221366 0.4044945 0.4965630
0.5320013 0.4133728 0.5074408
0.6179311 0.4223295 0.5183443
0.6876386 0.4222261 0.5182599
0.7413008 0.4312693 0.5291780
0.0344265 0.4890793 0.4782821
0.1493927 0.4884245 0.4885368
0.2899203 0.4974906 0.4992895
0.4209354 0.4972385 0.5098726
0.5307536 0.5065013 0.5100065
0.6168602 0.5063309 0.5206522
0.6865625 0.5155706 0.5315535
0.7404346 0.5154305 0.5421904
0.0392067 0.5639516 0.4910043
0.1605303 0.5633247 0.5012937
0.2983130 0.5722976 0.5013223
0.4308164 0.5720499 0.5119059
0.5407723 0.5810684 0.5227804
0.6262572 0.5809492 0.5226837
0.6950902 0.5899653 0.5335817
0.7396572 0.5898440 0.5442253
0.0446445 0.6272714 0.4927441
0.1661495 0.6267088 0.5030632
0.3069688 0.6351304 0.5138345
0.4408871 0.6349413 0.5136736
0.5399094 0.6434276 0.5245565
0.6254516 0.6432706 0.5351837
0.6944643 0.6431274 0.5457989
0.7473938 0.6516182 0.5459790
0.0508289 0.6782106 0.5049636
0.1720001 0.6777599 0.5045702
0.3158666 0.6856315 0.5153415
0.4401723 0.6854275 0.5259312
0.5502806 0.6852530 0.5365307
0.6350077 0.6931353 0.5366843
0.6938294 0.6930157 0.5473071
0.7469311 0.6928958 0.5578936
0.0286141 0.0537328 0.5767681
0.1428306 0.0596272 0.5876729
0.2881396 0.0662130 0.5882064
0.4294949 0.0709608 0.5990909
0.5392658 0.0787403 0.5997456
0.6245877 0.0872948 0.6108630
0.6934828 0.0934500 0.6112911
0.7464226 0.0999758 0.6220662
0.0335558 0.1750858 0.5858135
0.1519077 0.1802078 0.5961597
0.2940426 0.1856234 0.6066555
0.4255942 0.1971459 0.6070049
0.5355486 0.2030495 0.6175186
0.6212931 0.2091380 0.6176761
0.6906061 0.2153409 0.6281210
0.7438448 0.2283037 0.6285473
0.0380375 0.2946857 0.6008815
0.1565439 0.3020941 0.6006981
0.3014302 0.3098075 0.6111538
0.4343633 0.3177631 0.6112491
0.5443841 0.3257507 0.6217180
0.6295566 0.3339167 0.6218707
0.6980847 0.3421585 0.6322672
0.7423822 0.3420475 0.6423317
0.0431983 0.4050133 0.6040795
0.1677729 0.4134969 0.6143160
0.3094825 0.4223389 0.6143447
0.4438386 0.4220947 0.6245033
0.5428856 0.4311390 0.6246419
0.6281518 0.4402029 0.6349960
0.6969066 0.4400983 0.6349173
0.7495793 0.4492373 0.6451773
0.0490985 0.4977769 0.6065081
0.1733853 0.5066151 0.6167490
0.3180922 0.5063258 0.6165336
0.4426098 0.5154843 0.6269237
0.5526203 0.5246712 0.6372281
0.6373217 0.5245493 0.6371381
0.6958487 0.5337874 0.6473706
0.7487224 0.5336959 0.6473041
0.0557865 0.5724939 0.6187992
0.1792941 0.5812252 0.6186821
0.3269579 0.5808951 0.6287363
0.4526173 0.5898803 0.6288376
0.5517550 0.5896985 0.6388944
0.6363920 0.5986929 0.6390426
0.7043418 0.5985427 0.6490059
0.7480563 0.5984689 0.6489508
0.0633320 0.6353264 0.6204510
0.1921881 0.6435437 0.6203461
0.3360587 0.6432480 0.6303957
0.4629355 0.6430306 0.6403997
0.5618260 0.6514802 0.6405335
0.6458437 0.6513244 0.6504679
0.7037171 0.6512411 0.6504017
0.7556392 0.6596008 0.6604648
0.0688466 0.6857952 0.6218661
0.1987866 0.6853591 0.6317724
0.3354071 0.6931250 0.6318196
0.4622024 0.6929240 0.6418079
0.5612171 0.6928066 0.6417065
0.6451627 0.7005060 0.6518552
0.7030941 0.7004291 0.6517893
0.7551786 0.7003103 0.6616050
0.0443801 0.0736315 0.6706699
0.1716813 0.0815540 0.6804764
0.3154103 0.0873054 0.6807461
0.4395000 0.0934252 0.6904125
0.5493218 0.1033885 0.6909957
0.6341016 0.1105259 0.7005363
0.7020783 0.1181226 0.7009158
0.7541785 0.1220560 0.7100821
0.0499578 0.1974933 0.6870690
0.1760609 0.2031995 0.6869438
0.3220890 0.2091554 0.6962122
0.4470471 0.2217829 0.6965348
0.5570868 0.2282307 0.7057328
0.6413933 0.2348686 0.7058725
0.6995820 0.2416104 0.7149478
0.7519510 0.2484836 0.7151033
0.0565161 0.3182274 0.6908811
0.1813676 0.3259701 0.6907767
0.3299877 0.3339514 0.6999794
0.4560542 0.3421668 0.7000731
0.5550785 0.3504836 0.7092165
0.6396295 0.3503747 0.7091361
0.7071576 0.3588158 0.7181394
0.7505132 0.3674227 0.7183015
0.0612736 0.4318374 0.6937423
0.1939957 0.4313119 0.7025501
0.3286742 0.4402933 0.7025977
0.4547021 0.4400628 0.7114511
0.5646284 0.4491894 0.7115636
0.6382416 0.4583547 0.7205213
0.7060004 0.4582490 0.7204527
0.7576546 0.4675105 0.7206035
0.0694514 0.5160095 0.6956877
0.2002390 0.5248970 0.7047030
0.3375723 0.5246415 0.7045344
0.4645130 0.5337850 0.7135662
0.5635188 0.5336475 0.7134761
0.6473086 0.5428383 0.7223880
0.7050558 0.5427473 0.7223294
0.7568261 0.5519445 0.7310936
0.0753967 0.5903243 0.7064781
0.2068780 0.5899017 0.7061973
0.3467190 0.5987193 0.7151563
0.4746543 0.5985394 0.7150348
0.5734212 0.6073302 0.7239054
0.6465058 0.6072282 0.7238374
0.7134023 0.6071259 0.7237694
0.7561756 0.6159124 0.7325131
0.0818468 0.6434785 0.7077318
0.2136872 0.6516687 0.7076755
0.3562082 0.6513923 0.7163981
0.4737942 0.6597233 0.7164956
0.5726931 0.6595557 0.7251344
0.6558300 0.6594460 0.7250568
0.7126964 0.6677139 0.7337658
0.7636755 0.6676321 0.7337089
0.0886101 0.6933082 0.7089787
0.2208391 0.6929263 0.7175905
0.3657219 0.7005534 0.7176316
0.4841903 0.7003695 0.7262290
0.5828678 0.7002538 0.7261412
0.6551594 0.7079026 0.7262745
0.7121884 0.7077863 0.7347596
0.7632263 0.7077101 0.7347028
0.0627712 0.0968401 0.7438621
0.1910243 0.1034523 0.7519671
0.3342121 0.1105609 0.7522084
0.4606956 0.1181331 0.7524986
0.5704772 0.1261508 0.7604995
0.6436145 0.1346316 0.7608280
0.7107437 0.1390085 0.7684798
0.7617588 0.1482274 0.7688096
0.0676067 0.2221709 0.7491121
0.2030620 0.2284103 0.7569081
0.3414415 0.2349602 0.7569551
0.4688450 0.2416398 0.7646430
0.5676975 0.2484815 0.7647536
0.6510702 0.2626758 0.7650638
0.7083936 0.2699138 0.7726278
0.7597743 0.2773170 0.7727624
0.0731355 0.3426317 0.7600569
0.2090249 0.3507154 0.7599905
0.3497039 0.3590703 0.7600338
0.4779777 0.3588594 0.7674658
0.5766832 0.3674111 0.7675739
0.6494590 0.3760384 0.7750715
0.7159476 0.3847944 0.7751948
0.7585576 0.3847226 0.7751525
0.0826296 0.4498554 0.7623056
0.2155474 0.4494456 0.7620702
0.3586620 0.4584673 0.7696061
0.4766040 0.4582984 0.7695093
0.5753307 0.4675145 0.7696159
0.6581697 0.4767281 0.7770584
0.7149153 0.4766370 0.7770078
0.7655529 0.4859022 0.7842971
0.0893316 0.5342879 0.7639785
0.2223932 0.5338911 0.7637541
0.3678501 0.5429515 0.7712527
0.4864863 0.5427818 0.7711566
0.5850050 0.5519353 0.7785545
0.6572629 0.5518296 0.7784959
0.7139881 0.5610452 0.7786247
0.7648251 0.5609086 0.7857007
0.0966121 0.5990078 0.7652668
0.2294951 0.6075643 0.7726631
0.3670479 0.6073363 0.7725304
0.4856170 0.6071731 0.7724348
0.5841557 0.6159025 0.7798019
0.6663394 0.6157869 0.7797353
0.7221969 0.6244913 0.7869586
0.7641900 0.6244191 0.7869178
0.1044293 0.6601292 0.7665384
0.2369317 0.6597603 0.7737366
0.3766874 0.6595462 0.7736046
0.4957869 0.6677445 0.7809271
0.5940570 0.6676222 0.7808520
0.6656736 0.6675275 0.7807938
0.7215943 0.6757010 0.7879921
0.7636477 0.6756334 0.7879516
0.1084834 0.7007476 0.7748203
0.2446299 0.7004427 0.7746226
0.3864366 0.7079796 0.7746680
0.5062062 0.7078007 0.7817910
0.5934629 0.7076998 0.7817242
0.6650245 0.7151997 0.7888900
0.7210972 0.7151252 0.7888415
0.7710834 0.7150502 0.7887930
0.0809771 0.1183307 0.7966424
0.2194859 0.1262647 0.7967731
0.3639383 0.1346914 0.7969903
0.4821148 0.1436129 0.8039317
0.5807461 0.1482463 0.8040317
0.6630405 0.1579636 0.8043091
0.7192402 0.1629775 0.8109359
0.7613370 0.1735048 0.8112282
0.0870321 0.2489921 0.8007570
0.2251748 0.2557711 0.8007190
0.3613695 0.2627730 0.8073624
0.4904447 0.2699778 0.8074349
0.5888555 0.2773472 0.8075311
0.6607424 0.2848315 0.8140653
0.7171472 0.2924908 0.8141816
0.7675122 0.3002740 0.8142978
0.0938064 0.3680487 0.8032518
0.2317930 0.3676841 0.8030556
0.3699932 0.3761927 0.8096389
0.4886806 0.3848911 0.8097169
0.5871359 0.3936997 0.8098108
0.6592579 0.3935553 0.8161268
0.7246711 0.4024675 0.8162333
0.7663248 0.4114510 0.8163538
0.1012383 0.4681727 0.8050465
0.2388370 0.4677500 0.8113527
0.3790714 0.4768952 0.8113973
0.4984549 0.4767257 0.8113143
0.5965344 0.4859454 0.8177329
0.6679676 0.4858392 0.8176824
0.7236589 0.4951661 0.8177947
0.7654234 0.5044589 0.8240708
0.1093396 0.5432855 0.8063344
0.2462081 0.5522156 0.8127757
0.3885987 0.5519806 0.8126613
0.5083652 0.5611181 0.8127373
0.5955683 0.5609512 0.8189712
0.6669614 0.5701156 0.8190751
0.7228504 0.5700256 0.8190320
0.7725453 0.5791166 0.8252677
0.1180204 0.6164820 0.8140337
0.2539246 0.6161550 0.8138704
0.3877791 0.6159450 0.8137644
0.5075085 0.6245741 0.8201016
0.6052643 0.6244448 0.8200370
0.6759145 0.6331036 0.8201391
0.7309057 0.6329748 0.8261956
0.7720141 0.6329030 0.8261607
0.1273225 0.6681476 0.8149523
0.2618779 0.6678569 0.8147979
0.3976359 0.6676606 0.8146923
0.5178009 0.6757638 0.8210053
0.6045520 0.6756566 0.8209480
0.6753680 0.6755629 0.8208984
0.7303147 0.6836364 0.8270823
0.7714846 0.6835696 0.8270476
0.1320574 0.7081735 0.8157144
0.2700449 0.7079034 0.8155606
0.4076022 0.7153075 0.8218254
0.5171904 0.7151822 0.8217536
0.6144238 0.7150707 0.8216894
0.6747296 0.7224713 0.8278499
0.7298283 0.7223979 0.8278086
0.7787162 0.7223238 0.8277672
