Plugins/FilmEmulator/Content/LUTs/FE_Kodak_2383_64.cube
TITLE "FE_Kodak_2383_33"
LUT_3D_SIZE 4
0.0070548 0.0000000 0.0280123
1.0000000 0.3304859 0.2161826
1.0000000 0.5501238 0.4279833
1.0000000 0.6618434 0.5637360
0.2635785 0.9694978 0.3466095
0.9094064 0.9705862 0.5070858
1.0000000 0.9780197 0.6716252
1.0000000 0.9801287 0.7562164
0.4944861 1.0000000 0.5755175
0.9091119 1.0000000 0.6728532
0.9902219 1.0000000 0.7948825
0.9974324 1.0000000 0.8534874
0.6114844 1.0000000 0.7029005
0.9063364 1.0000000 0.7547214
0.9899660 1.0000000 0.8522803
0.9962983 1.0000000 0.8933557
0.3512306 0.3770279 1.0000000
1.0000000 0.6545122 0.9885229
1.0000000 0.7837987 0.9858260
1.0000000 0.8459181 0.9864381
0.5427005 0.9681740 0.9878746
0.9746948 0.9801067 0.9863913
1.0000000 0.9870580 0.9893435
1.0000000 0.9893032 0.9910994
0.6178955 1.0000000 0.9921776
0.9781770 0.9961384 0.9913633
0.9976469 0.9975365 0.9935351
0.9995614 0.9979556 0.9947202
0.7122516 1.0000000 0.9947097
0.9779160 0.9982936 0.9938521
0.9975502 0.9988635 0.9953535
0.9992632 0.9990631 0.9961441
0.7772364 0.6975520 1.0000000
1.0000000 0.8340327 1.0000000
1.0000000 0.8875263 1.0000000
1.0000000 0.9201001 1.0000000
0.8396263 0.9822868 1.0000000
0.9909727 0.9910572 0.9988695
0.9987217 0.9935261 0.9987690
1.0000000 0.9946332 0.9988288
0.8555081 0.9980361 1.0000000
0.9923882 0.9978240 0.9990500
0.9982615 0.9984896 0.9990984
0.9992965 0.9987264 0.9991655
0.8460811 1.0000000 1.0000000
0.9926212 0.9988412 0.9992201
0.9983786 0.9992223 0.9992585
0.9992750 0.9993532 0.9993214
0.9432532 0.8585174 1.0000000
1.0000000 0.9132452 1.0000000
1.0000000 0.9316229 1.0000000
1.0000000 0.9485513 1.0000000
0.9573890 0.9904351 1.0000000
0.9954821 0.9946474 0.9995486
0.9989129 0.9959242 0.9994637
0.9997413 0.9964515 0.9994541
0.9622567 0.9973960 1.0000000
0.9962266 0.9985000 0.9995608
0.9987620 0.9988803 0.9995518
0.9993625 0.9990221 0.9995639
0.9602320 0.9988528 1.0000000
0.9964589 0.9991696 0.9996150
0.9988500 0.9993922 0.9996139
0.9993713 0.9994754 0.9996289
