Plugins/FilmEmulator/Content/LUTs/FE_Kodak_Portra_800_At3200_64.cube
TITLE "FE_Kodak_Portra_800_At3200_33"
LUT_3D_SIZE 4
0.0003143 0.0004332 0.0005816
0.2735546 0.0020871 0.0023909
0.6404833 0.0086671 0.0086372
0.8201894 0.0187594 0.0191129
0.0019776 0.3133510 0.0034310
0.2781123 0.3398009 0.0104798
0.6393492 0.3675296 0.0216599
0.8207979 0.3961696 0.0374871
0.0083344 0.6367473 0.0130072
0.2940292 0.6456087 0.0244262
0.6473047 0.6639690 0.0405165
0.8187086 0.6729478 0.0593692
0.0192945 0.7921432 0.0282966
0.3218247 0.7984363 0.0431853
0.6565690 0.8047962 0.0631704
0.8247775 0.8110404 0.0850541
0.0089774 0.0045714 0.3534832
0.3488561 0.0132275 0.3921720
0.6826800 0.0242074 0.4290349
0.8405756 0.0377903 0.4549253
0.0145058 0.3496158 0.4281291
0.3483275 0.3772299 0.4492930
0.6840401 0.4060977 0.4827470
0.8353335 0.4257666 0.5053312
0.0222491 0.6554310 0.4611332
0.3664480 0.6641605 0.4821244
0.6916109 0.6820412 0.5045062
0.8402806 0.6907720 0.5377640
0.0389766 0.7987180 0.4895959
0.3865288 0.8049154 0.5110396
0.7003070 0.8111250 0.5330538
0.8457980 0.8171096 0.5551373
0.0380752 0.0187376 0.7172052
0.4128746 0.0312409 0.7389842
0.7124958 0.0461281 0.7506027
0.8527516 0.0671047 0.7619265
0.0473578 0.3871949 0.7530594
0.4262749 0.4161190 0.7701563
0.7151686 0.4459425 0.7788472
0.8549680 0.4659249 0.7873181
0.0579045 0.6735726 0.7696999
0.4461240 0.6910153 0.7857538
0.7225417 0.6995776 0.7936979
0.8533531 0.7080448 0.8015149
0.0710109 0.8114319 0.7825954
0.4557832 0.8172691 0.7979647
0.7307858 0.8230324 0.8055621
0.8585030 0.8286758 0.8130300
0.0849508 0.0378090 0.8659769
0.4813808 0.0566136 0.8729327
0.7503700 0.0794612 0.8795131
0.8701496 0.1022499 0.8855028
0.0969285 0.4263523 0.8838596
0.4969152 0.4561178 0.8888133
0.7540237 0.4761434 0.8935984
0.8669399 0.4963225 0.8982536
0.1127316 0.6912637 0.8927655
0.5057199 0.7082593 0.8972591
0.7608771 0.7165521 0.9015835
0.8712583 0.7247411 0.9016212
0.1312932 0.8174201 0.8996342
0.5158224 0.8231090 0.8994974
0.7593937 0.8287346 0.9037391
0.8703451 0.8342378 0.9078618
