Plugins/FilmEmulator/Content/LUTs/FE_Kodak_Vision2_200T_5217_64.cube
# FilmEmulator LUT (resampled to 64)
LUT_3D_SIZE 4
0.000000 0.000000 0.001160
0.281810 0.032684 0.035319
0.562785 0.049795 0.051839
0.848846 0.131653 0.131836
0.000000 0.154806 0.000000
0.283969 0.271338 0.053762
0.607405 0.288079 0.079817
0.891815 0.367452 0.179077
0.000000 0.323547 0.000498
0.122986 0.403117 0.010698
0.632897 0.609660 0.119181
0.933614 0.666026 0.237681
0.000000 0.481842 0.070740
0.028616 0.541839 0.081858
0.543091 0.826223 0.071594
0.950012 0.944702 0.323151
0.001282 0.000000 0.373392
0.339023 0.066952 0.346120
0.597833 0.074148 0.290134
0.869476 0.144958 0.337555
0.000000 0.278816 0.328474
0.290321 0.287234 0.347637
0.640069 0.296206 0.303327
0.911886 0.390096 0.397176
0.000000 0.390713 0.192010
0.066798 0.430847 0.170082
0.646594 0.630221 0.296122
0.938887 0.672957 0.437412
0.000000 0.494385 0.066854
0.029846 0.555461 0.081998
0.500620 0.818227 0.182563
0.952962 0.949829 0.478383
0.016256 0.000000 0.659831
0.341580 0.000000 0.709445
0.695025 0.188025 0.682414
0.899964 0.271718 0.647908
0.000000 0.306529 0.673923
0.158464 0.257522 0.733314
0.739183 0.346577 0.731176
0.922699 0.464674 0.690674
0.000000 0.528015 0.575161
0.014168 0.565630 0.605209
0.633687 0.655855 0.631123
0.933970 0.697242 0.705550
0.000000 0.621175 0.511434
0.027578 0.654877 0.516008
0.352078 0.848779 0.541565
0.950999 0.951508 0.691976
0.043152 0.000000 0.839386
0.305837 0.133820 0.852000
0.693431 0.285268 0.895813
0.910675 0.463165 0.903198
0.000000 0.310374 0.831401
0.056132 0.266422 0.831835
0.704613 0.337124 0.897708
0.922862 0.569173 0.916239
0.000000 0.590312 0.761078
0.000000 0.608144 0.736915
0.506283 0.530067 0.873830
0.923889 0.723480 0.918427
0.000000 0.653748 0.682587
0.000000 0.661113 0.677836
0.123535 0.793243 0.806763
0.929962 0.934814 0.926178
