Plugins/FilmEmulator/Content/LUTs/FE_Kodak_5222_Dev12_64.cube
TITLE "FE_Kodak_5222_Dev12_33"
LUT_3D_SIZE 4
0.0002598 0.0002598 0.0002598
0.0115304 0.0115304 0.0115304
0.0460180 0.0460180 0.0460180
0.1007212 0.1007212 0.1007212
0.0460180 0.0460180 0.0460180
0.1007212 0.1007212 0.1007212
0.1666704 0.1666704 0.1666704
0.2419218 0.2419218 0.2419218
0.1666704 0.1666704 0.1666704
0.2419218 0.2419218 0.2419218
0.3138457 0.3138457 0.3138457
0.3829415 0.3829415 0.3829415
0.3138457 0.3138457 0.3138457
0.3829415 0.3829415 0.3829415
0.4426488 0.4426488 0.4426488
0.4968179 0.4968179 0.4968179
0.1896356 0.1896356 0.1896356
0.2613163 0.2613163 0.2613163
0.3306415 0.3306415 0.3306415
0.4007007 0.4007007 0.4007007
0.3306415 0.3306415 0.3306415
0.4007007 0.4007007 0.4007007
0.4607220 0.4607220 0.4607220
0.5148666 0.5148666 0.5148666
0.4607220 0.4607220 0.4607220
0.5148666 0.5148666 0.5148666
0.5619426 0.5619426 0.5619426
0.6017306 0.6017306 0.6017306
0.5619426 0.5619426 0.5619426
0.6017306 0.6017306 0.6017306
0.6396533 0.6396533 0.6396533
0.6699023 0.6699023 0.6699023
0.4787422 0.4787422 0.4787422
0.5266935 0.5266935 0.5266935
0.5735725 0.5735725 0.5735725
0.6128189 0.6128189 0.6128189
0.5735725 0.5735725 0.5735725
0.6128189 0.6128189 0.6128189
0.6447805 0.6447805 0.6447805
0.6748180 0.6748180 0.6748180
0.6498745 0.6498745 0.6498745
0.6748180 0.6748180 0.6748180
0.7029746 0.7029746 0.7029746
0.7251709 0.7251709 0.7251709
0.7029746 0.7029746 0.7029746
0.7251709 0.7251709 0.7251709
0.7458549 0.7458549 0.7458549
0.7653786 0.7653786 0.7653786
0.6549346 0.6549346 0.6549346
0.6844932 0.6844932 0.6844932
0.7119769 0.7119769 0.7119769
0.7336389 0.7336389 0.7336389
0.7119769 0.7119769 0.7119769
0.7336389 0.7336389 0.7336389
0.7498440 0.7498440 0.7498440
0.7691560 0.7691560 0.7691560
0.7498440 0.7498440 0.7498440
0.7691560 0.7691560 0.7691560
0.7833175 0.7833175 0.7833175
0.7967945 0.7967945 0.7967945
0.7833175 0.7833175 0.7833175
0.7967945 0.7967945 0.7967945
0.8094410 0.8094410 0.8094410
0.8211036 0.8211036 0.8211036
