Plugins/FilmEmulator/Content/LUTs/FE_Kodak_Aerocolor_2460_High_64.cube
TITLE "FE_Kodak_Aerocolor_2460_High_33"
LUT_3D_SIZE 64
0.0001125 0.0000642 0.0000487
0.0003322 0.0000657 0.0000492
0.0013312 0.0000688 0.0000603
0.0032192 0.0000759 0.0000781
0.0060682 0.0000913 0.0001038
0.0102944 0.0001076 0.0001388
0.0164631 0.0001288 0.0001874
0.0237124 0.0001597 0.0002448
0.0327612 0.0001983 0.0003173
0.0434151 0.0002458 0.0004046
0.0571165 0.0003023 0.0005046
0.0695179 0.0003614 0.0006302
0.0842443 0.0004283 0.0007664
0.0985479 0.0005056 0.0009064
0.1151944 0.0005823 0.0010738
0.1345183 0.0006740 0.0012760
0.1567930 0.0007606 0.0014673
0.1770914 0.0008579 0.0016904
0.1994617 0.0009711 0.0019480
0.2193080 0.0010984 0.0022490
0.2477726 0.0012071 0.0025057
0.2708158 0.0013271 0.0028863
0.2966899 0.0014959 0.0032287
0.3240770 0.0016412 0.0036028
0.3527930 0.0018008 0.0040201
0.3831387 0.0019230 0.0044762
0.4153505 0.0021048 0.0048296
0.4374256 0.0023094 0.0053925
0.4707355 0.0024637 0.0058043
0.4934705 0.0026312 0.0064590
0.5166289 0.0028825 0.0069605
0.5509502 0.0030747 0.0074820
0.5737113 0.0032777 0.0080426
0.5961947 0.0034940 0.0086448
0.6184720 0.0037243 0.0092877
0.6403211 0.0039695 0.0099737
0.6616285 0.0042309 0.0107099
0.6823168 0.0045008 0.0114981
0.6925202 0.0047827 0.0123434
0.7120337 0.0050874 0.0132471
0.7300363 0.0052518 0.0137198
0.7474247 0.0055855 0.0147154
0.7559365 0.0059358 0.0157824
0.7721094 0.0061288 0.0163448
0.7800449 0.0065154 0.0175290
0.7950711 0.0067271 0.0181528
0.8021068 0.0071502 0.0194309
0.8154027 0.0073810 0.0200940
0.8219030 0.0078448 0.0214872
0.8341576 0.0081050 0.0222209
0.8400701 0.0084004 0.0237056
0.8458854 0.0089552 0.0245840
0.8567938 0.0092681 0.0254253
0.8619007 0.0096051 0.0270958
0.8668529 0.0102383 0.0280725
0.8715921 0.0105863 0.0290050
0.8805828 0.0109546 0.0299677
0.8849015 0.0113517 0.0319011
0.8891461 0.0121420 0.0330566
0.8931970 0.0125761 0.0341553
0.8971179 0.0130257 0.0352894
0.9044817 0.0135015 0.0364601
0.9078954 0.0139839 0.0376786
0.9111998 0.0144835 0.0389415
0.0001157 0.0003377 0.0000600
0.0003715 0.0003889 0.0000766
0.0014164 0.0004500 0.0000999
0.0034345 0.0005194 0.0001324
0.0064825 0.0005976 0.0001759
0.0110017 0.0006867 0.0002337
0.0169575 0.0007680 0.0003046
0.0252747 0.0008561 0.0003822
0.0348179 0.0009534 0.0004844
0.0460087 0.0010584 0.0005994
0.0583751 0.0011714 0.0007219
0.0709462 0.0012957 0.0008735
0.0858579 0.0014301 0.0010267
0.1033731 0.0015365 0.0012104
0.1207483 0.0016958 0.0014323
0.1365301 0.0018152 0.0016406
0.1589627 0.0019451 0.0018813
0.1793567 0.0020853 0.0021578
0.2017955 0.0022366 0.0024800
0.2217356 0.0024597 0.0027635
0.2503350 0.0026324 0.0030716
0.2733455 0.0027364 0.0034109
0.2991732 0.0029277 0.0037974
0.3265918 0.0031332 0.0042278
0.3553172 0.0033531 0.0047084
0.3857670 0.0035886 0.0052450
0.4178225 0.0037234 0.0056316
0.4398175 0.0039803 0.0062727
0.4731567 0.0042406 0.0067452
0.4957722 0.0043900 0.0072316
0.5187991 0.0046717 0.0077722
0.5529758 0.0048531 0.0086165
0.5757076 0.0051641 0.0092599
0.5980333 0.0053451 0.0099175
0.6202682 0.0056880 0.0106481
0.6419535 0.0058886 0.0114037
0.6630972 0.0060817 0.0118163
0.6837426 0.0064734 0.0126857
0.6938153 0.0066946 0.0135807
0.7131794 0.0069296 0.0145307
0.7312398 0.0073570 0.0150867
0.7484843 0.0076144 0.0161408
0.7568823 0.0078804 0.0172687
0.7730209 0.0081582 0.0178876
0.7808548 0.0084577 0.0191302
0.7959395 0.0090252 0.0198419
0.8028799 0.0093545 0.0211702
0.8161435 0.0096819 0.0218968
0.8225554 0.0100122 0.0226478
0.8347794 0.0103859 0.0241606
0.8406734 0.0107402 0.0249876
0.8463982 0.0111063 0.0258424
0.8572806 0.0115399 0.0275441
0.8623765 0.0119529 0.0284638
0.8672537 0.0123805 0.0294135
0.8719843 0.0128233 0.0303941
0.8809551 0.0133215 0.0323594
0.8852651 0.0137977 0.0334356
0.8894395 0.0142909 0.0345465
0.8934811 0.0148015 0.0356933
0.8973926 0.0153303 0.0368769
0.9047390 0.0158901 0.0381089
0.9081458 0.0164705 0.0393887
0.9114440 0.0170787 0.0407114
0.0001216 0.0012349 0.0000936
0.0004011 0.0013602 0.0001199
0.0015367 0.0015075 0.0001592
0.0035008 0.0016552 0.0002107
0.0068355 0.0018102 0.0002753
0.0111938 0.0019731 0.0003598
0.0178770 0.0021432 0.0004511
0.0256882 0.0023206 0.0005559
0.0353680 0.0025129 0.0006872
0.0467092 0.0027135 0.0008261
0.0592303 0.0029291 0.0009992
0.0742864 0.0031545 0.0011735
0.0869758 0.0032972 0.0013820
0.1046982 0.0035379 0.0015799
0.1221674 0.0036957 0.0018673
0.1381097 0.0039569 0.0021411
0.1607591 0.0042303 0.0023776
0.1812642 0.0044063 0.0027256
0.2038836 0.0047074 0.0030291
0.2238017 0.0048886 0.0033597
0.2524920 0.0050827 0.0037309
0.2757306 0.0054300 0.0041532
0.3015870 0.0056417 0.0046116
0.3290135 0.0058620 0.0051233
0.3578390 0.0062634 0.0057064
0.3882555 0.0064919 0.0061265
0.4203791 0.0067291 0.0065773
0.4422808 0.0069845 0.0072956
0.4756721 0.0074698 0.0078442
0.4983110 0.0077545 0.0084117
0.5212262 0.0080501 0.0090199
0.5553954 0.0083649 0.0096721
0.5779922 0.0086826 0.0103616
0.6002968 0.0090123 0.0110998
0.6223820 0.0093544 0.0118901
0.6441571 0.0100100 0.0127711
0.6652527 0.0103894 0.0136792
0.6857381 0.0108013 0.0146438
0.6957929 0.0111920 0.0151719
0.7151018 0.0116349 0.0162384
0.7330042 0.0120655 0.0168235
0.7501906 0.0125416 0.0180044
0.7585624 0.0130248 0.0192667
0.7746298 0.0135057 0.0199502
0.7823285 0.0135790 0.0212279
0.7972540 0.0140791 0.0219599
0.8041654 0.0145842 0.0227165
0.8173684 0.0151540 0.0242376
0.8237541 0.0157099 0.0250730
0.8359197 0.0163056 0.0259376
0.8417888 0.0169483 0.0276724
0.8474881 0.0175751 0.0285994
0.8583090 0.0182394 0.0295568
0.8633044 0.0183341 0.0313796
0.8681564 0.0190108 0.0324275
0.8773581 0.0197272 0.0335095
0.8817824 0.0204547 0.0346265
0.8860687 0.0212086 0.0357797
0.8901595 0.0212712 0.0368612
0.8941801 0.0221037 0.0392458
0.8980716 0.0229265 0.0405652
0.9053786 0.0238144 0.0419302
0.9087142 0.0238847 0.0432082
0.9119957 0.0247898 0.0446587
0.0001210 0.0027357 0.0001442
0.0004419 0.0030246 0.0001881
0.0016048 0.0032523 0.0002455
0.0036627 0.0035592 0.0003160
0.0069179 0.0037795 0.0004141
0.0117393 0.0041066 0.0005218
0.0180818 0.0043248 0.0006416
0.0259682 0.0045399 0.0007689
0.0357494 0.0048987 0.0009263
0.0471853 0.0051368 0.0011174
0.0597987 0.0053718 0.0013124
0.0749877 0.0057643 0.0015003
0.0905455 0.0060243 0.0017691
0.1056119 0.0062833 0.0020238
0.1232202 0.0065655 0.0023155
0.1434820 0.0068449 0.0025669
0.1620443 0.0073717 0.0029514
0.1826880 0.0076804 0.0032727
0.2053732 0.0080028 0.0036331
0.2323635 0.0083412 0.0040354
0.2542508 0.0086866 0.0044818
0.2775051 0.0090464 0.0049783
0.3034725 0.0094225 0.0055324
0.3404370 0.0098158 0.0059423
0.3598250 0.0102326 0.0066039
0.3903313 0.0106502 0.0070911
0.4225334 0.0111115 0.0078652
0.4444829 0.0115537 0.0084356
0.4777817 0.0120242 0.0090474
0.5004363 0.0125023 0.0097028
0.5233580 0.0129990 0.0104008
0.5575168 0.0135272 0.0111439
0.5800976 0.0140634 0.0119393
0.6023812 0.0146322 0.0127918
0.6244391 0.0152299 0.0137051
0.6459102 0.0152945 0.0141646
0.6669692 0.0159180 0.0151647
0.6874057 0.0165663 0.0162325
0.6974361 0.0171841 0.0168191
0.7166893 0.0178828 0.0180017
0.7345352 0.0186081 0.0192662
0.7515467 0.0186840 0.0199013
0.7598924 0.0194221 0.0212584
0.7759019 0.0201589 0.0219939
0.7836737 0.0209056 0.0227541
0.7985370 0.0217546 0.0242812
0.8053226 0.0218213 0.0250443
0.8184723 0.0227218 0.0267235
0.8248321 0.0235865 0.0276463
0.8369412 0.0245030 0.0286004
0.8426988 0.0245762 0.0294702
0.8483746 0.0255644 0.0313837
0.8591459 0.0265544 0.0324351
0.8641163 0.0266330 0.0334183
0.8689463 0.0276408 0.0345357
0.8781031 0.0287074 0.0356895
0.8825068 0.0298571 0.0379942
0.8867084 0.0299447 0.0391405
0.8908408 0.0310755 0.0404537
0.8948415 0.0322481 0.0418150
0.8986549 0.0323435 0.0430897
0.9059259 0.0336199 0.0445402
0.9092985 0.0349188 0.0460376
0.9125101 0.0350207 0.0474358
0.0001284 0.0049607 0.0002184
0.0004717 0.0053464 0.0002823
0.0016703 0.0057594 0.0003661
0.0038180 0.0061343 0.0004571
0.0072263 0.0065143 0.0005766
0.0122677 0.0068912 0.0007101
0.0189024 0.0072621 0.0008512
0.0271480 0.0076452 0.0010253
0.0373391 0.0082899 0.0012031
0.0492392 0.0087133 0.0014154
0.0622867 0.0091519 0.0016675
0.0755822 0.0095837 0.0019062
0.0912589 0.0100362 0.0021814
0.1063842 0.0101676 0.0024894
0.1241088 0.0106426 0.0028550
0.1444990 0.0111128 0.0031664
0.1631008 0.0115960 0.0035116
0.1838570 0.0121019 0.0039011
0.2066587 0.0126298 0.0043336
0.2337800 0.0131944 0.0048142
0.2557694 0.0137789 0.0053500
0.2791248 0.0143893 0.0059468
0.3142107 0.0150040 0.0063880
0.3421416 0.0151549 0.0070787
0.3615804 0.0157742 0.0075964
0.3921536 0.0164327 0.0081486
0.4244102 0.0171193 0.0087407
0.4463911 0.0178617 0.0096945
0.4797192 0.0186069 0.0103980
0.5022344 0.0187296 0.0111084
0.5365262 0.0195100 0.0119029
0.5593091 0.0203114 0.0127539
0.5818790 0.0211101 0.0132228
0.6039914 0.0212491 0.0141241
0.6260216 0.0221364 0.0151290
0.6475999 0.0230591 0.0161959
0.6686159 0.0239630 0.0167832
0.6888692 0.0241188 0.0179097
0.7085757 0.0251221 0.0191698
0.7180821 0.0260815 0.0198629
0.7357549 0.0262476 0.0211831
0.7528334 0.0272683 0.0219182
0.7611538 0.0283679 0.0233916
0.7771083 0.0294689 0.0242018
0.7847466 0.0295596 0.0249624
0.7995579 0.0307747 0.0266364
0.8130047 0.0319951 0.0275589
0.8194181 0.0320921 0.0284226
0.8257553 0.0334099 0.0302988
0.8377270 0.0335351 0.0312192
0.8435489 0.0348324 0.0322679
0.8546044 0.0362063 0.0333509
0.8598477 0.0363923 0.0354009
0.8648741 0.0377959 0.0365859
0.8696836 0.0392515 0.0378092
0.8787285 0.0393949 0.0389502
0.8831140 0.0409100 0.0402499
0.8872967 0.0410297 0.0414731
0.8914126 0.0426067 0.0428711
0.8953963 0.0442421 0.0443145
0.9028649 0.0444041 0.0456625
0.9064287 0.0461053 0.0471961
0.9097311 0.0462386 0.0486280
0.9129798 0.0479623 0.0502527
0.0001428 0.0081945 0.0003255
0.0005034 0.0088274 0.0004137
0.0017371 0.0094943 0.0005175
0.0039772 0.0101169 0.0006362
0.0075433 0.0107518 0.0007846
0.0123612 0.0109993 0.0009383
0.0190467 0.0116288 0.0011325
0.0273552 0.0122514 0.0013272
0.0376034 0.0129016 0.0015637
0.0495851 0.0135437 0.0017840
0.0627202 0.0142094 0.0020412
0.0761033 0.0148956 0.0023361
0.0918320 0.0151002 0.0026675
0.1070984 0.0158201 0.0030596
0.1249291 0.0165348 0.0033936
0.1454368 0.0172825 0.0037662
0.1640608 0.0174599 0.0041716
0.1849186 0.0182460 0.0046346
0.2078280 0.0190810 0.0051492
0.2350658 0.0199595 0.0057241
0.2570243 0.0201054 0.0061300
0.2888596 0.0210311 0.0068144
0.3156468 0.0219299 0.0073201
0.3437840 0.0229205 0.0081243
0.3729852 0.0230890 0.0086884
0.3937607 0.0240530 0.0093201
0.4260655 0.0250784 0.0099977
0.4589373 0.0252651 0.0106908
0.4812695 0.0263167 0.0114566
0.5039456 0.0274113 0.0122768
0.5380809 0.0276145 0.0131146
0.5608554 0.0287622 0.0140522
0.5834127 0.0299854 0.0150573
0.6054997 0.0301083 0.0155576
0.6275039 0.0313858 0.0166560
0.6490504 0.0327159 0.0178308
0.6698859 0.0328495 0.0184194
0.6902379 0.0342395 0.0197166
0.7098991 0.0356865 0.0211037
0.7192528 0.0357992 0.0217884
0.7370059 0.0372997 0.0232555
0.7539144 0.0374445 0.0239872
0.7622130 0.0388928 0.0248197
0.7781220 0.0405183 0.0264866
0.7931595 0.0406747 0.0273177
0.8004991 0.0422434 0.0282631
0.8137995 0.0424975 0.0300608
0.8202884 0.0441295 0.0310716
0.8265986 0.0457797 0.0321128
0.8385245 0.0460482 0.0340890
0.8443199 0.0477451 0.0352269
0.8552496 0.0479213 0.0362924
0.8605489 0.0496842 0.0375016
0.8654779 0.0498282 0.0386335
0.8702661 0.0516565 0.0399181
0.8792768 0.0518430 0.0411206
0.8836424 0.0538599 0.0437908
0.8878090 0.0540162 0.0451234
0.8919058 0.0559924 0.0466339
0.8958127 0.0561545 0.0480495
0.9033101 0.0582471 0.0496537
0.9068035 0.0584148 0.0511569
0.9101459 0.0605417 0.0528601
0.9133801 0.0627418 0.0546173
0.0001585 0.0129873 0.0004786
0.0005373 0.0134937 0.0005837
0.0018619 0.0145155 0.0007180
0.0041378 0.0154622 0.0008610
0.0075909 0.0158535 0.0010319
0.0128978 0.0168072 0.0012455
0.0191776 0.0177371 0.0014636
0.0285524 0.0186797 0.0016700
0.0378375 0.0190072 0.0019642
0.0498915 0.0199747 0.0022482
0.0631044 0.0209743 0.0025733
0.0765225 0.0212117 0.0028446
0.0923809 0.0222569 0.0032631
0.1110500 0.0232960 0.0036197
0.1294821 0.0235469 0.0040071
0.1461914 0.0246173 0.0044522
0.1649788 0.0257365 0.0049466
0.1913702 0.0260174 0.0054795
0.2088392 0.0272086 0.0060919
0.2361754 0.0284099 0.0065450
0.2582058 0.0286858 0.0072526
0.2901368 0.0299514 0.0077899
0.3169965 0.0312486 0.0083576
0.3450570 0.0315517 0.0092424
0.3744569 0.0329163 0.0099152
0.3951167 0.0331301 0.0106024
0.4274619 0.0345635 0.0113684
0.4605176 0.0360557 0.0121837
0.4827047 0.0362876 0.0130150
0.5053890 0.0378206 0.0139469
0.5395189 0.0380973 0.0148974
0.5622860 0.0396111 0.0154456
0.5848259 0.0412780 0.0165384
0.6068911 0.0415410 0.0176489
0.6288620 0.0431458 0.0182882
0.6502280 0.0434208 0.0195143
0.6711687 0.0451790 0.0208849
0.6913399 0.0453609 0.0215726
0.7109565 0.0471882 0.0230434
0.7204157 0.0489322 0.0238407
0.7379969 0.0491198 0.0245906
0.7549800 0.0510845 0.0262391
0.7631366 0.0512386 0.0270625
0.7789979 0.0532839 0.0288730
0.7939923 0.0534870 0.0297771
0.8013057 0.0554508 0.0308017
0.8145651 0.0556542 0.0317369
0.8210298 0.0578114 0.0337923
0.8332578 0.0580228 0.0348157
0.8392045 0.0601385 0.0359772
0.8448979 0.0603123 0.0370646
0.8558717 0.0625539 0.0382988
0.8610772 0.0628678 0.0406428
0.8660627 0.0651131 0.0419897
0.8707625 0.0652996 0.0432638
0.8798065 0.0676033 0.0447078
0.8840913 0.0677970 0.0460673
0.8883031 0.0701328 0.0476010
0.8923238 0.0703334 0.0490447
0.8962728 0.0727509 0.0506732
0.9036861 0.0730103 0.0522059
0.9071672 0.0732178 0.0537827
0.9104953 0.0757254 0.0555609
0.9136687 0.0759385 0.0572341
0.0001801 0.0187754 0.0006572
0.0005899 0.0194598 0.0007838
0.0019325 0.0208801 0.0009399
0.0043008 0.0222645 0.0011325
0.0079061 0.0227818 0.0013213
0.0129742 0.0241073 0.0015549
0.0199993 0.0254808 0.0018322
0.0287033 0.0259059 0.0020884
0.0394148 0.0272638 0.0023906
0.0501803 0.0286498 0.0027369
0.0634298 0.0290651 0.0031297
0.0794488 0.0304655 0.0034721
0.0928456 0.0307862 0.0038393
0.1116003 0.0322478 0.0042664
0.1301822 0.0337575 0.0047407
0.1468922 0.0340961 0.0052506
0.1708031 0.0356933 0.0058361
0.1922460 0.0360551 0.0064675
0.2163727 0.0376276 0.0069483
0.2370871 0.0379893 0.0076993
0.2669587 0.0396113 0.0082635
0.2913037 0.0412504 0.0088644
0.3180882 0.0415468 0.0094795
0.3463372 0.0433710 0.0105144
0.3756371 0.0436821 0.0112431
0.4071169 0.0454887 0.0120480
0.4286934 0.0457783 0.0128702
0.4617632 0.0475573 0.0133433
0.4839585 0.0478596 0.0142529
0.5180281 0.0498339 0.0152707
0.5407642 0.0501507 0.0163057
0.5635153 0.0521692 0.0174541
0.5858828 0.0523772 0.0180306
0.6080788 0.0544808 0.0192985
0.6298787 0.0546979 0.0199349
0.6513610 0.0568906 0.0213346
0.6721323 0.0572464 0.0227510
0.6924053 0.0593937 0.0235388
0.7118545 0.0596235 0.0242793
0.7301561 0.0619536 0.0259063
0.7388419 0.0621386 0.0267194
0.7557831 0.0644896 0.0285032
0.7718732 0.0647328 0.0293961
0.7797402 0.0669767 0.0304033
0.7946986 0.0673711 0.0323054
0.8019886 0.0696963 0.0333805
0.8152130 0.0699484 0.0343919
0.8216555 0.0723541 0.0355343
0.8338502 0.0727682 0.0377146
0.8397761 0.0752642 0.0389638
0.8454530 0.0754787 0.0401385
0.8563905 0.0781187 0.0414653
0.8615800 0.0783407 0.0427126
0.8664786 0.0785630 0.0440078
0.8757781 0.0813003 0.0454758
0.8801861 0.0815303 0.0468576
0.8845201 0.0843032 0.0484165
0.8886592 0.0845411 0.0498839
0.8927261 0.0874081 0.0515391
0.9003631 0.0877154 0.0530968
0.9039989 0.0879622 0.0546992
0.9075203 0.0909343 0.0565062
0.9107884 0.0911866 0.0582064
0.9139940 0.0939339 0.0601182
0.0002083 0.0263701 0.0008822
0.0006287 0.0272289 0.0010239
0.0020048 0.0292299 0.0012360
0.0043244 0.0310738 0.0014485
0.0079493 0.0318057 0.0017014
0.0135175 0.0335597 0.0019412
0.0200953 0.0341393 0.0022143
0.0288565 0.0358951 0.0025343
0.0396001 0.0364633 0.0028938
0.0521620 0.0382806 0.0033193
0.0658101 0.0387371 0.0036705
0.0798052 0.0405060 0.0040736
0.0962242 0.0423539 0.0045260
0.1120832 0.0427997 0.0050130
0.1307322 0.0447224 0.0055692
0.1519687 0.0451980 0.0061716
0.1714903 0.0470842 0.0066296
0.1930011 0.0475563 0.0073464
0.2171948 0.0495404 0.0078912
0.2379658 0.0500059 0.0087306
0.2679102 0.0520921 0.0093654
0.2921840 0.0524565 0.0100150
0.3191474 0.0546075 0.0107423
0.3473059 0.0549947 0.0114866
0.3767841 0.0572097 0.0123082
0.4081518 0.0576153 0.0131483
0.4298880 0.0598222 0.0140857
0.4628260 0.0602466 0.0150457
0.4851740 0.0625484 0.0161167
0.5190910 0.0628465 0.0166521
0.5419686 0.0652404 0.0178219
0.5645576 0.0656464 0.0190173
0.5869122 0.0659044 0.0196446
0.6090840 0.0684071 0.0210211
0.6308638 0.0688322 0.0224273
0.6523143 0.0712756 0.0232215
0.6730580 0.0717037 0.0247052
0.6932942 0.0742372 0.0255554
0.7127115 0.0745201 0.0263580
0.7309757 0.0773089 0.0281183
0.7396450 0.0775365 0.0289993
0.7564418 0.0778252 0.0299074
0.7726071 0.0807262 0.0318985
0.7803545 0.0809580 0.0328660
0.7953789 0.0837813 0.0339594
0.8025569 0.0841965 0.0360459
0.8158422 0.0871174 0.0372418
0.8221806 0.0873629 0.0383662
0.8343467 0.0876733 0.0395235
0.8402488 0.0903254 0.0408174
0.8459123 0.0905790 0.0420459
0.8568149 0.0933793 0.0434195
0.8619918 0.0938389 0.0460954
0.8668780 0.0941023 0.0474953
0.8761466 0.0969982 0.0490590
0.8805434 0.0972685 0.0505450
0.8848594 0.1001831 0.0522043
0.8889880 0.1004614 0.0537811
0.8929870 0.1007405 0.0554032
0.9006553 0.1038201 0.0572142
0.9042813 0.1041076 0.0589345
0.9077876 0.1072065 0.0608690
0.9110472 0.1075045 0.0627376
0.9142028 0.1078035 0.0646602
0.0002447 0.0353777 0.0011517
0.0006696 0.0363859 0.0013028
0.0020783 0.0389749 0.0015787
0.0044865 0.0399173 0.0017955
0.0082690 0.0422470 0.0021182
0.0135725 0.0430520 0.0024168
0.0209331 0.0453090 0.0027660
0.0300133 0.0459517 0.0030576
0.0397803 0.0482253 0.0035072
0.0523674 0.0488332 0.0038782
0.0661019 0.0510551 0.0043063
0.0801109 0.0516243 0.0047697
0.0965844 0.0538667 0.0052983
0.1124962 0.0544281 0.0058688
0.1312016 0.0567566 0.0065229
0.1525020 0.0572160 0.0069854
0.1720755 0.0596226 0.0077632
0.1936436 0.0600683 0.0083111
0.2178929 0.0624377 0.0089143
0.2387117 0.0630154 0.0098576
0.2687132 0.0655056 0.0105721
0.2930325 0.0659578 0.0113047
0.3199084 0.0664180 0.0120822
0.3482331 0.0689896 0.0129447
0.3776053 0.0694675 0.0138278
0.4091395 0.0721549 0.0148134
0.4307486 0.0726025 0.0158221
0.4638453 0.0752321 0.0163997
0.4860533 0.0756939 0.0175035
0.5201187 0.0786045 0.0187325
0.5428452 0.0789094 0.0193506
0.5654271 0.0793940 0.0206470
0.5879143 0.0823705 0.0220926
0.6099283 0.0826888 0.0228194
0.6318122 0.0854716 0.0243621
0.6531047 0.0857939 0.0251281
0.6738252 0.0861173 0.0259177
0.6940228 0.0890003 0.0276403
0.7134139 0.0893344 0.0285069
0.7316377 0.0923110 0.0303973
0.7402935 0.0925789 0.0313478
0.7570627 0.0929184 0.0323276
0.7731874 0.0957917 0.0333927
0.7809210 0.0962610 0.0354454
0.7959063 0.0992276 0.0366101
0.8030702 0.0995073 0.0377161
0.8162395 0.0998568 0.0388545
0.8226445 0.1028415 0.0401273
0.8347858 0.1034131 0.0425793
0.8406757 0.1064932 0.0439695
0.8463267 0.1067894 0.0453014
0.8571403 0.1071645 0.0466783
0.8623700 0.1103472 0.0482161
0.8672451 0.1106520 0.0496776
0.8764346 0.1110324 0.0511817
0.8808780 0.1143139 0.0528610
0.8851297 0.1146271 0.0544567
0.8893021 0.1180022 0.0562381
0.8932913 0.1183244 0.0579306
0.9008929 0.1187279 0.0596714
0.9045566 0.1221882 0.0616277
0.9080098 0.1225252 0.0635182
0.9112622 0.1228608 0.0654633
0.9144522 0.1264151 0.0676292
0.0002878 0.0454877 0.0015075
0.0007140 0.0465972 0.0016603
0.0021528 0.0496738 0.0019557
0.0046541 0.0508728 0.0022290
0.0085952 0.0536117 0.0025507
0.0141248 0.0546251 0.0029107
0.0210146 0.0573340 0.0033382
0.0301293 0.0581401 0.0036913
0.0413524 0.0607837 0.0040937
0.0525642 0.0615066 0.0045343
0.0663461 0.0642049 0.0050369
0.0804030 0.0649119 0.0055785
0.0968817 0.0656242 0.0061805
0.1128939 0.0683971 0.0068692
0.1315914 0.0689439 0.0073560
0.1530192 0.0718537 0.0081749
0.1725650 0.0723803 0.0087463
0.1942707 0.0751977 0.0093807
0.2184811 0.0757504 0.0100315
0.2465986 0.0764970 0.0110922
0.2693819 0.0791473 0.0118912
0.2937388 0.0796815 0.0127031
0.3207634 0.0824399 0.0136050
0.3489946 0.0828150 0.0140615
0.3783956 0.0833809 0.0150199
0.4099381 0.0862634 0.0160841
0.4424874 0.0868578 0.0171740
0.4646544 0.0897770 0.0183740
0.4868662 0.0901184 0.0189804
0.5207863 0.0907367 0.0202527
0.5436389 0.0935695 0.0209739
0.5662141 0.0941357 0.0223772
0.5886753 0.0972765 0.0239229
0.6215901 0.0977155 0.0246757
0.6431274 0.0980794 0.0254514
0.6538187 0.1012438 0.0271435
0.6745185 0.1016194 0.0279949
0.6945819 0.1022118 0.0297763
0.7140603 0.1053572 0.0307865
0.7321547 0.1057413 0.0317492
0.7409016 0.1091163 0.0338189
0.7576451 0.1095034 0.0348432
0.7736507 0.1098916 0.0358977
0.7814629 0.1131475 0.0370766
0.7963361 0.1137775 0.0393485
0.8034887 0.1140936 0.0405344
0.8167154 0.1175171 0.0418597
0.8230305 0.1178385 0.0431185
0.8351505 0.1182446 0.0444138
0.8410290 0.1216818 0.0458726
0.8466699 0.1220164 0.0472660
0.8575277 0.1256392 0.0488212
0.8626829 0.1259832 0.0503003
0.8675486 0.1263255 0.0518223
0.8767768 0.1300520 0.0535203
0.8811541 0.1304027 0.0551349
0.8853974 0.1307543 0.0567958
0.8895607 0.1345031 0.0586483
0.8935418 0.1348642 0.0604094
0.9011273 0.1353186 0.0622352
0.9047835 0.1391864 0.0643006
0.9082292 0.1395637 0.0662683
0.9114746 0.1399392 0.0682924
0.9146577 0.1439157 0.0705460
0.0003444 0.0576945 0.0018666
0.0007388 0.0589254 0.0020556
0.0022286 0.0607168 0.0023447
0.0048304 0.0641464 0.0026830
0.0086238 0.0654494 0.0030634
0.0141784 0.0685462 0.0035120
0.0218598 0.0695922 0.0038834
0.0302259 0.0705139 0.0042965
0.0414812 0.0734332 0.0047712
0.0545520 0.0743453 0.0052845
0.0665443 0.0772449 0.0058678
0.0832429 0.0781377 0.0065024
0.0971627 0.0787505 0.0069632
0.1167358 0.0818021 0.0077361
0.1319527 0.0823958 0.0082839
0.1534215 0.0855220 0.0091888
0.1730092 0.0861381 0.0098263
0.1946692 0.0867592 0.0105077
0.2190037 0.0897832 0.0112651
0.2471681 0.0904489 0.0120455
0.2699864 0.0935346 0.0129011
0.2943772 0.0941568 0.0137812
0.3213238 0.0947928 0.0147206
0.3496978 0.0980256 0.0157640
0.3791252 0.0986853 0.0168368
0.4105643 0.0991326 0.0173958
0.4432551 0.1025033 0.0186113
0.4653006 0.1031147 0.0198591
0.4986600 0.1035815 0.0205140
0.5215668 0.1070084 0.0219433
0.5442879 0.1076473 0.0234102
0.5669839 0.1109271 0.0242303
0.6003498 0.1116534 0.0257775
0.6222064 0.1120624 0.0265871
0.6438479 0.1154446 0.0274909
0.6648279 0.1161082 0.0292410
0.6750937 0.1164412 0.0301564
0.6952481 0.1199395 0.0311783
0.7145953 0.1206256 0.0331568
0.7326692 0.1210514 0.0341616
0.7498554 0.1246549 0.0352845
0.7581257 0.1249976 0.0363517
0.7741098 0.1256852 0.0385807
0.7819100 0.1293131 0.0398438
0.7967603 0.1297620 0.0410443
0.8039020 0.1301167 0.0422794
0.8171071 0.1339443 0.0436592
0.8234118 0.1343044 0.0449700
0.8355113 0.1350333 0.0477378
0.8413798 0.1388916 0.0493078
0.8524781 0.1393635 0.0508011
0.8577844 0.1397397 0.0523376
0.8629938 0.1437128 0.0540516
0.8678503 0.1440962 0.0556814
0.8770041 0.1445749 0.0573581
0.8814294 0.1486597 0.0592280
0.8856642 0.1490529 0.0610055
0.8897673 0.1494493 0.0628483
0.8976381 0.1537576 0.0649330
0.9013615 0.1541693 0.0669188
0.9049644 0.1542704 0.0669189
0.9084496 0.1587312 0.0691361
0.9116880 0.1591498 0.0712421
0.9148234 0.1595692 0.0734081
0.0004043 0.0694930 0.0023052
0.0007874 0.0708434 0.0025448
0.0023796 0.0729774 0.0029033
0.0050102 0.0765739 0.0032176
0.0089550 0.0781213 0.0036791
0.0147358 0.0793957 0.0040681
0.0219235 0.0827683 0.0045151
0.0314012 0.0839133 0.0050008
0.0415805 0.0849515 0.0055386
0.0547069 0.0883550 0.0061509
0.0688817 0.0893720 0.0068163
0.0834728 0.0925890 0.0073184
0.1004612 0.0935791 0.0081094
0.1169960 0.0943019 0.0086816
0.1363721 0.0976129 0.0093083
0.1537506 0.0985255 0.0102931
0.1733726 0.0992260 0.0110066
0.1951473 0.1026165 0.0117994
0.2194394 0.1033473 0.0126107
0.2476435 0.1040970 0.0134714
0.2704898 0.1075692 0.0144267
0.2949090 0.1082748 0.0154096
0.3312834 0.1119675 0.0165009
0.3599752 0.1124619 0.0170534
0.3797297 0.1131198 0.0182006
0.4113116 0.1168761 0.0194710
0.4438904 0.1173974 0.0201133
0.4659420 0.1180872 0.0214601
0.4994342 0.1217273 0.0222232
0.5222110 0.1224432 0.0237085
