Plugins/FilmEmulator/Content/LUTs/FE_Kodak_Ektar_100_64.cube
TITLE "FE_Kodak_Ektar_100_33"
LUT_3D_SIZE 64
0.0011691 0.0020878 0.0008240
0.0018631 0.0020864 0.0008236
0.0043627 0.0020840 0.0008228
0.0085170 0.0020899 0.0009087
0.0136872 0.0021118 0.0009433
0.0200093 0.0021414 0.0009587
0.0283608 0.0021676 0.0010018
0.0369252 0.0022576 0.0010599
0.0481562 0.0023368 0.0011519
0.0599037 0.0024492 0.0012460
0.0742411 0.0025783 0.0013643
0.0878987 0.0027242 0.0015076
0.0992474 0.0028781 0.0016758
0.1164604 0.0030248 0.0018548
0.1310319 0.0031999 0.0021229
0.1468579 0.0033860 0.0022729
0.1642722 0.0035918 0.0025306
0.1767798 0.0037882 0.0028215
0.1969090 0.0041046 0.0030375
0.2112068 0.0043295 0.0032676
0.2262827 0.0045659 0.0036623
0.2421055 0.0048454 0.0039610
0.2586745 0.0051732 0.0042847
0.2759672 0.0055231 0.0046348
0.2938433 0.0058975 0.0048248
0.3029597 0.0062956 0.0052100
0.3219622 0.0065044 0.0056018
0.3414797 0.0069696 0.0058169
0.3513639 0.0074713 0.0062604
0.3718477 0.0077363 0.0064946
0.3820238 0.0082929 0.0069895
0.4030268 0.0085868 0.0072508
0.4136388 0.0088888 0.0078152
0.4242058 0.0095375 0.0081303
0.4459134 0.0099009 0.0084504
0.4568038 0.0102774 0.0087831
0.4677554 0.0106662 0.0094784
0.4787344 0.0110715 0.0098513
0.4895299 0.0119301 0.0102492
0.5004349 0.0123830 0.0106521
0.5113483 0.0128529 0.0110707
0.5222605 0.0133400 0.0115962
0.5441517 0.0138457 0.0121462
0.5549876 0.0143847 0.0127226
0.5548668 0.0149443 0.0133264
0.5656586 0.0155257 0.0139583
0.5763955 0.0161294 0.0146197
0.5870676 0.0167562 0.0153122
0.5977582 0.0167529 0.0160203
0.6081549 0.0174036 0.0167783
0.6184605 0.0180793 0.0175716
0.6286532 0.0187846 0.0175894
0.6387506 0.0195134 0.0183467
0.6386353 0.0202703 0.0190984
0.6487435 0.0202666 0.0198590
0.6586034 0.0210444 0.0206707
0.6683223 0.0218514 0.0206912
0.6682130 0.0226850 0.0215370
0.6778082 0.0235497 0.0224160
0.6873779 0.0235451 0.0233063
0.6966695 0.0244462 0.0233294
0.6965652 0.0253771 0.0242810
0.7057915 0.0253721 0.0252439
0.7147352 0.0263415 0.0252688
0.0011621 0.0032844 0.0008342
0.0019354 0.0034085 0.0008346
0.0046588 0.0036113 0.0009120
0.0084501 0.0038068 0.0009597
0.0135721 0.0040144 0.0009685
0.0206926 0.0042335 0.0009944
0.0280964 0.0044645 0.0010602
0.0382419 0.0047083 0.0011210
0.0476874 0.0050266 0.0012132
0.0593379 0.0051923 0.0013238
0.0735363 0.0055429 0.0014633
0.0870633 0.0059172 0.0016175
0.1023931 0.0061127 0.0017687
0.1153947 0.0065244 0.0020249
0.1298798 0.0067492 0.0022401
0.1456244 0.0069877 0.0023989
0.1628976 0.0074908 0.0026760
0.1753573 0.0077540 0.0029821
0.1954576 0.0080278 0.0032063
0.2097177 0.0083110 0.0034474
0.2246678 0.0089097 0.0037298
0.2404723 0.0092235 0.0040313
0.2570438 0.0095568 0.0043572
0.2743427 0.0099193 0.0047096
0.2922441 0.0102954 0.0050904
0.3108424 0.0106859 0.0054786
0.3203355 0.0110926 0.0056841
0.3399104 0.0115130 0.0061122
0.3498644 0.0119507 0.0063413
0.3703104 0.0124033 0.0068186
0.3805647 0.0128745 0.0070741
0.4015394 0.0133616 0.0076110
0.4121180 0.0138687 0.0079108
0.4227833 0.0144096 0.0082226
0.4446029 0.0144077 0.0085375
0.4554948 0.0149669 0.0092138
0.4664254 0.0155501 0.0095766
0.4773965 0.0161556 0.0099536
0.4883180 0.0167846 0.0103453
0.4993544 0.0167819 0.0107410
0.5102637 0.0174347 0.0111635
0.5321916 0.0181121 0.0116934
0.5430653 0.0188152 0.0122485
0.5540404 0.0188114 0.0128163
0.5648361 0.0195412 0.0134242
0.5647158 0.0202990 0.0140610
0.5755919 0.0202948 0.0147119
0.5862704 0.0210735 0.0154085
0.5968369 0.0218774 0.0161376
0.6073723 0.0218728 0.0168834
0.6176867 0.0227067 0.0176814
0.6278891 0.0235765 0.0176991
0.6381220 0.0235718 0.0184417
0.6380085 0.0244702 0.0191969
0.6480003 0.0254018 0.0199819
0.6579924 0.0253969 0.0207771
0.6677197 0.0263675 0.0207978
0.6677310 0.0263629 0.0216257
0.6773332 0.0273649 0.0225082
0.6869102 0.0273594 0.0234021
0.6962091 0.0284034 0.0234253
0.6961050 0.0294819 0.0243807
0.7053391 0.0294759 0.0253475
0.7142918 0.0305872 0.0253723
0.0011493 0.0075694 0.0008535
0.0020458 0.0081083 0.0009443
0.0047791 0.0083855 0.0009808
0.0086822 0.0086767 0.0009895
0.0139773 0.0089787 0.0010228
0.0204817 0.0092915 0.0010819
0.0290720 0.0096236 0.0011611
0.0378754 0.0099859 0.0012555
0.0493805 0.0103621 0.0013491
0.0613984 0.0107519 0.0014901
0.0729007 0.0111568 0.0016459
0.0863492 0.0115774 0.0017998
0.1015609 0.0120134 0.0019914
0.1145033 0.0124660 0.0022033
0.1288861 0.0129356 0.0024397
0.1445241 0.0134245 0.0026234
0.1617494 0.0139295 0.0029237
0.1741241 0.0144709 0.0031440
0.1941055 0.0150329 0.0033807
0.2082826 0.0156164 0.0036449
0.2233245 0.0156107 0.0039358
0.2390523 0.0162163 0.0042543
0.2555491 0.0168450 0.0045986
0.2727791 0.0174978 0.0049706
0.2907240 0.0174916 0.0053578
0.3092524 0.0181724 0.0055589
0.3187247 0.0188764 0.0059778
0.3382443 0.0196071 0.0064281
0.3482932 0.0196038 0.0066622
0.3686829 0.0203653 0.0069120
0.3789263 0.0211450 0.0074322
0.3999822 0.0211411 0.0077074
0.4105566 0.0219455 0.0083183
0.4212111 0.0227836 0.0086459
0.4430093 0.0227793 0.0089769
0.4538831 0.0236486 0.0093303
0.4648087 0.0245505 0.0096975
0.4759224 0.0245419 0.0104541
0.4868425 0.0254771 0.0108651
0.4978768 0.0254725 0.0112806
0.5198224 0.0264409 0.0118158
0.5307235 0.0274457 0.0123765
0.5417365 0.0274397 0.0129502
0.5525830 0.0284816 0.0135642
0.5635200 0.0284752 0.0141923
0.5742704 0.0295555 0.0148646
0.5742849 0.0295495 0.0155527
0.5849594 0.0306642 0.0155681
0.5956656 0.0306573 0.0162879
0.6060855 0.0317825 0.0170576
0.6165398 0.0317753 0.0178453
0.6267699 0.0329409 0.0186126
0.6370144 0.0329343 0.0193542
0.6368928 0.0341484 0.0193735
0.6470218 0.0341415 0.0201449
0.6569077 0.0353917 0.0209674
0.6667816 0.0353844 0.0218011
0.6763897 0.0366850 0.0218221
0.6764008 0.0366787 0.0226900
0.6858786 0.0380187 0.0236145
0.6953205 0.0380109 0.0245514
0.6952085 0.0394061 0.0245758
0.7044578 0.0393980 0.0255502
0.7134386 0.0408339 0.0265887
0.0011677 0.0146399 0.0009718
0.0021223 0.0146254 0.0009963
0.0049184 0.0151802 0.0010090
0.0089474 0.0157596 0.0010488
0.0144594 0.0163626 0.0011093
0.0212027 0.0169905 0.0011796
0.0288592 0.0169776 0.0012741
0.0393089 0.0176301 0.0013691
0.0490251 0.0183073 0.0015122
0.0609603 0.0190103 0.0016702
0.0724193 0.0189989 0.0018246
0.0857861 0.0197293 0.0020188
0.1009069 0.0204876 0.0022336
0.1138270 0.0204758 0.0024707
0.1281307 0.0212582 0.0026568
0.1436953 0.0220626 0.0029610
0.1609021 0.0220532 0.0031807
0.1797004 0.0228908 0.0034201
0.1931272 0.0237603 0.0036873
0.2073377 0.0237507 0.0039816
0.2222382 0.0246519 0.0043038
0.2380081 0.0246421 0.0046471
0.2544568 0.0255764 0.0050230
0.2716299 0.0265499 0.0052248
0.2895271 0.0265400 0.0056174
0.3080118 0.0275497 0.0058281
0.3175794 0.0275402 0.0062606
0.3370530 0.0285870 0.0064953
0.3572612 0.0285766 0.0069770
0.3674535 0.0296625 0.0072385
0.3776842 0.0307722 0.0077880
0.3987138 0.0307655 0.0080863
0.4092688 0.0318964 0.0084046
0.4200431 0.0318903 0.0087266
0.4417088 0.0330550 0.0094172
0.4527083 0.0330486 0.0097777
0.4636327 0.0342609 0.0101621
0.4747304 0.0342543 0.0105509
0.4856517 0.0355095 0.0109654
0.5077171 0.0355017 0.0113844
0.5186338 0.0367998 0.0119244
0.5296708 0.0367914 0.0124773
0.5405566 0.0381351 0.0130687
0.5515409 0.0381263 0.0136741
0.5624823 0.0381176 0.0143073
0.5732422 0.0395080 0.0149844
0.5732567 0.0395001 0.0156780
0.5839545 0.0409392 0.0164193
0.5946678 0.0409297 0.0171779
0.6050959 0.0424189 0.0179891
0.6155454 0.0424175 0.0179885
0.6257852 0.0439596 0.0187619
0.6360407 0.0439505 0.0195093
0.6360524 0.0439429 0.0202867
0.6460711 0.0455361 0.0211148
0.6560763 0.0455344 0.0211141
0.6658445 0.0471828 0.0219755
0.6755928 0.0471730 0.0228486
0.6756039 0.0471649 0.0237566
0.6850828 0.0488782 0.0237793
0.6945378 0.0488679 0.0247227
0.6944367 0.0506336 0.0257292
0.7036883 0.0506316 0.0257283
0.7127908 0.0506209 0.0267473
0.0012033 0.0231714 0.0010089
0.0022767 0.0231480 0.0010254
0.0050709 0.0240056 0.0010617
0.0092376 0.0248994 0.0011228
0.0143802 0.0248753 0.0012111
0.0210877 0.0258067 0.0013094
0.0299963 0.0257850 0.0014183
0.0391005 0.0267518 0.0015664
0.0487663 0.0277590 0.0016880
0.0606733 0.0277360 0.0019065
0.0751959 0.0287765 0.0021093
0.0889590 0.0287577 0.0023313
0.1004483 0.0298434 0.0024967
0.1179172 0.0298235 0.0027797
0.1325797 0.0309366 0.0029890
0.1431301 0.0309240 0.0032107
0.1602125 0.0320534 0.0034523
0.1790303 0.0320334 0.0038636
0.1924132 0.0332085 0.0040188
0.2065836 0.0331947 0.0043395
0.2292047 0.0344041 0.0046904
0.2453246 0.0343899 0.0050645
0.2621110 0.0356490 0.0052678
0.2708259 0.0356363 0.0056637
0.2885838 0.0369342 0.0060901
0.3071457 0.0369258 0.0063119
0.3262718 0.0382752 0.0065484
0.3361463 0.0382619 0.0070340
0.3561991 0.0396584 0.0072974
0.3665011 0.0396508 0.0075630
0.3871656 0.0410894 0.0081519
0.3977321 0.0410812 0.0084642
0.4084031 0.0410730 0.0087885
0.4298837 0.0425680 0.0091341
0.4408120 0.0425596 0.0094838
0.4516775 0.0441080 0.0098567
0.4627389 0.0440920 0.0106256
0.4737036 0.0456914 0.0110430
0.4847525 0.0456823 0.0114652
0.5068185 0.0456701 0.0119967
0.5177359 0.0473225 0.0125655
0.5287740 0.0473115 0.0131479
0.5396623 0.0490209 0.0137707
0.5506493 0.0490094 0.0144083
0.5615945 0.0489979 0.0150751
0.5723597 0.0507654 0.0157882
0.5831763 0.0507635 0.0157877
0.5831906 0.0507535 0.0165180
0.5937830 0.0525813 0.0172984
0.6043436 0.0525690 0.0180971
0.6146883 0.0544600 0.0188751
0.6250592 0.0544486 0.0196269
0.6353106 0.0544465 0.0196263
0.6453380 0.0564021 0.0204279
0.6453497 0.0563925 0.0212413
0.6553756 0.0563806 0.0220858
0.6651416 0.0584119 0.0221070
0.6749001 0.0583996 0.0229852
0.6749113 0.0583897 0.0238986
0.6844116 0.0604793 0.0248713
0.6938663 0.0604767 0.0248704
0.6938771 0.0604664 0.0258571
0.7030389 0.0626260 0.0269078
0.7121424 0.0626234 0.0269068
0.0012383 0.0324421 0.0010395
0.0024027 0.0336026 0.0010826
0.0054319 0.0335548 0.0011433
0.0095735 0.0347550 0.0012230
0.0149415 0.0347211 0.0013207
0.0219205 0.0359694 0.0014319
0.0298677 0.0359383 0.0015797
0.0389348 0.0372324 0.0017446
0.0507738 0.0372029 0.0019224
0.0630909 0.0385436 0.0021268
0.0749242 0.0385178 0.0023506
0.0886385 0.0384978 0.0025147
0.1000961 0.0398875 0.0028025
0.1175063 0.0398667 0.0030103
0.1321308 0.0413043 0.0033548
0.1481677 0.0412853 0.0036035
0.1596863 0.0427802 0.0038951
0.1784478 0.0427598 0.0042059
0.1917964 0.0443135 0.0043748
0.2132839 0.0442927 0.0047238
0.2285908 0.0442740 0.0051005
0.2445854 0.0458708 0.0055034
0.2614359 0.0458597 0.0057039
0.2700347 0.0475140 0.0061334
0.2878560 0.0475027 0.0063568
0.3063995 0.0474840 0.0068283
0.3255000 0.0492000 0.0070839
0.3353522 0.0491904 0.0073418
0.3553923 0.0509572 0.0078988
0.3656842 0.0509469 0.0082015
0.3864413 0.0509346 0.0085156
0.3968761 0.0527711 0.0088507
0.4075391 0.0527605 0.0091897
0.4291334 0.0527478 0.0095413
0.4399402 0.0546375 0.0102961
0.4509300 0.0546265 0.0106900
0.4619758 0.0546154 0.0110988
0.4729376 0.0565779 0.0115347
0.4950052 0.0565624 0.0120694
0.5059214 0.0585891 0.0126416
0.5169691 0.0585752 0.0132275
0.5279936 0.0585730 0.0132271
0.5388837 0.0606678 0.0138537
0.5498734 0.0606534 0.0144951
0.5608218 0.0606391 0.0151659
0.5715909 0.0628035 0.0158832
0.5824267 0.0627887 0.0166173
0.5931509 0.0627738 0.0173850
0.5930389 0.0650091 0.0182063
0.6035914 0.0650064 0.0182058
0.6140670 0.0649922 0.0189694
0.6243211 0.0672989 0.0197446
0.6345924 0.0672847 0.0205305
0.6447486 0.0672705 0.0213472
0.6446284 0.0696675 0.0213684
0.6546633 0.0696527 0.0222178
0.6645675 0.0696380 0.0231004
0.6743340 0.0696233 0.0240174
0.6742189 0.0720985 0.0240412
0.6838434 0.0720833 0.0249948
0.6933182 0.0720679 0.0259854
0.7024786 0.0746209 0.0260101
0.7024894 0.0746084 0.0270411
0.7116129 0.0745927 0.0281000
0.0012805 0.0433094 0.0011012
0.0025397 0.0432580 0.0011524
0.0056129 0.0447743 0.0012516
0.0099322 0.0447257 0.0013307
0.0155339 0.0463075 0.0014785
0.0218486 0.0462702 0.0015914
0.0311099 0.0462274 0.0017555
0.0405716 0.0478743 0.0019364
0.0506116 0.0478388 0.0021401
0.0628916 0.0495434 0.0023676
0.0746903 0.0495095 0.0026251
0.0883657 0.0494828 0.0028198
0.1038992 0.0512456 0.0031424
0.1171548 0.0512214 0.0033754
0.1317941 0.0511974 0.0036256
0.1477335 0.0530289 0.0039189
0.1653405 0.0530033 0.0042316
0.1779416 0.0548991 0.0045738
0.1913392 0.0548846 0.0047527
0.2127880 0.0548586 0.0051316
0.2279786 0.0568180 0.0055369
0.2440282 0.0568039 0.0057387
0.2608611 0.0567812 0.0061645
0.2782414 0.0588156 0.0063954
0.2872442 0.0587949 0.0068699
0.3057548 0.0587806 0.0071199
0.3248329 0.0608830 0.0073864
0.3346844 0.0608614 0.0079389
0.3548130 0.0608463 0.0082430
0.3649773 0.0630204 0.0085675
0.3857175 0.0630048 0.0088955
0.3962688 0.0629920 0.0092362
0.4068128 0.0652243 0.0099670
0.4283950 0.0652082 0.0103482
0.4393134 0.0651949 0.0107440
0.4501712 0.0675094 0.0111661
0.4612134 0.0674957 0.0115929
0.4833379 0.0674768 0.0121303
0.4942397 0.0698648 0.0127054
0.5052852 0.0698482 0.0132942
0.5163332 0.0698318 0.0139100
0.5272289 0.0723115 0.0139235
0.5382506 0.0722943 0.0145681
0.5492420 0.0722772 0.0152422
0.5601932 0.0722601 0.0159472
0.5709658 0.0748056 0.0167009
0.5818053 0.0747878 0.0174724
0.5925198 0.0747846 0.0174718
0.5924079 0.0774158 0.0182972
0.6029782 0.0773989 0.0190646
0.6134586 0.0773826 0.0198239
0.6238416 0.0773663 0.0206130
0.6339846 0.0800935 0.0206328
0.6441476 0.0800766 0.0214535
0.6441593 0.0800633 0.0223070
0.6540699 0.0828781 0.0223284
0.6639822 0.0828606 0.0232153
0.6737572 0.0828431 0.0241367
0.6737683 0.0828294 0.0250949
0.6832752 0.0857335 0.0251188
0.6927588 0.0857154 0.0261143
0.7020493 0.0856973 0.0271483
0.7019391 0.0886977 0.0271751
0.7110726 0.0886790 0.0282391
0.0013295 0.0556015 0.0011857
0.0026846 0.0555311 0.0012603
0.0058056 0.0554516 0.0013604
0.0098995 0.0573903 0.0014882
0.0154904 0.0573297 0.0016416
0.0227746 0.0572803 0.0017668
0.0310088 0.0592966 0.0019487
0.0404603 0.0592490 0.0021535
0.0504740 0.0592053 0.0023799
0.0627227 0.0612920 0.0026414
0.0744891 0.0612585 0.0028372
0.0881343 0.0612161 0.0031586
0.1036270 0.0633830 0.0033962
0.1168519 0.0633531 0.0036479
0.1314590 0.0633220 0.0039390
0.1473642 0.0655582 0.0042575
0.1649348 0.0655265 0.0045971
0.1775852 0.0654983 0.0049638
0.1978207 0.0678162 0.0051630
0.2122928 0.0677878 0.0055651
0.2275385 0.0677708 0.0057679
0.2434805 0.0701577 0.0062021
0.2602792 0.0701402 0.0064279
0.2777461 0.0701122 0.0069047
0.2867297 0.0700983 0.0071561
0.3051119 0.0725729 0.0074239
0.3242900 0.0725439 0.0079791
0.3341233 0.0725290 0.0082848
0.3541174 0.0750829 0.0086108
0.3643920 0.0750675 0.0089406
0.3851296 0.0750368 0.0096384
0.3955512 0.0776761 0.0100173
0.4169380 0.0776568 0.0104004
0.4277738 0.0776409 0.0107982
0.4386878 0.0776251 0.0112111
0.4495420 0.0803486 0.0116514
0.4605838 0.0803296 0.0121918
0.4827043 0.0803070 0.0127567
0.4937345 0.0802880 0.0133478
0.5046499 0.0830948 0.0139801
0.5156982 0.0830752 0.0146273
0.5267243 0.0830715 0.0146269
0.5376172 0.0859677 0.0153189
0.5486109 0.0859474 0.0160274
0.5595648 0.0859271 0.0167682
0.5704684 0.0859068 0.0175427
0.5811837 0.0888935 0.0183708
0.5919028 0.0888894 0.0183703
0.6024771 0.0888700 0.0191407
0.6024894 0.0888553 0.0199036
0.6128502 0.0919339 0.0207163
0.6232271 0.0919297 0.0207157
0.6335101 0.0919104 0.0215396
0.6436787 0.0918911 0.0223957
0.6435589 0.0950770 0.0224179
0.6536070 0.0950570 0.0233083
0.6635253 0.0950371 0.0242333
0.6732957 0.0950327 0.0242324
0.6731920 0.0983010 0.0252192
0.6828321 0.0982803 0.0262186
0.6923120 0.0982758 0.0262176
0.7016100 0.0982551 0.0272556
0.7015107 0.1016237 0.0283516
0.7106411 0.1016189 0.0283505
0.0013934 0.0663271 0.0012874
0.0028405 0.0662429 0.0013685
0.0060050 0.0685093 0.0014966
0.0102806 0.0684288 0.0016506
0.0161279 0.0683552 0.0018313
0.0227121 0.0707265 0.0020257
0.0309393 0.0706658 0.0022384
0.0403703 0.0706096 0.0024736
0.0525997 0.0730712 0.0026552
0.0625840 0.0730202 0.0029559
0.0775661 0.0729763 0.0031749
0.0916033 0.0729373 0.0034102
0.1034025 0.0754888 0.0036666
0.1166027 0.0754516 0.0039592
0.1311828 0.0754147 0.0042750
0.1470596 0.0780453 0.0046207
0.1646003 0.0780076 0.0049891
0.1772230 0.0779868 0.0051841
0.1974334 0.0807014 0.0055934
0.2118835 0.0806688 0.0060086
0.2271075 0.0806486 0.0062274
0.2431218 0.0806162 0.0066893
0.2598055 0.0834333 0.0069398
0.2772427 0.0834127 0.0071923
0.2953687 0.0833795 0.0077254
0.3046967 0.0833628 0.0080115
0.3237386 0.0862675 0.0083267
0.3435309 0.0862457 0.0086456
0.3536577 0.0862281 0.0089768
0.3638182 0.0892143 0.0096873
0.3845305 0.0891919 0.0100578
0.3950692 0.0891738 0.0104427
0.4164472 0.0891515 0.0108419
0.4271528 0.0922407 0.0112677
0.4380626 0.0922219 0.0116984
0.4490439 0.0922002 0.0122410
0.4711559 0.0921742 0.0128082
0.4820712 0.0953472 0.0134150
0.4931005 0.0953248 0.0140364
0.5041454 0.0953024 0.0146862
0.5151790 0.0952981 0.0146858
0.5260910 0.0985682 0.0153806
0.5371151 0.0985451 0.0160918
0.5481102 0.0985220 0.0168356
0.5590659 0.0984989 0.0176132
0.5698447 0.1018679 0.0184445
0.5806766 0.1018633 0.0184439
0.5914122 0.1018412 0.0192174
0.6019896 0.1018199 0.0199827
0.6020018 0.1018033 0.0207787
0.6123550 0.1052935 0.0207986
0.6227489 0.1052716 0.0216258
0.6330370 0.1052496 0.0224853
0.6432109 0.1052276 0.0233783
0.6531335 0.1088227 0.0234006
0.6531450 0.1088051 0.0243301
0.6630696 0.1087824 0.0252949
0.6728464 0.1087773 0.0252940
0.6823785 0.1124618 0.0263222
0.6823785 0.1124618 0.0263222
0.6918765 0.1124384 0.0273642
0.7011814 0.1124152 0.0284354
0.7011814 0.1124152 0.0284354
0.7102200 0.1162094 0.0295535
0.0014604 0.0789473 0.0013980
0.0029184 0.0788382 0.0015414
0.0062173 0.0815078 0.0016599
0.0106765 0.0814107 0.0018414
0.0160907 0.0813300 0.0020346
0.0236856 0.0841113 0.0022504
0.0322562 0.0840400 0.0024867
0.0421045 0.0839843 0.0026665
0.0525072 0.0839208 0.0029683
0.0651961 0.0868141 0.0031914
0.0773939 0.0867674 0.0034279
0.0914026 0.0867214 0.0036818
0.1032255 0.0866788 0.0039755
0.1210625 0.0896639 0.0042969
0.1360342 0.0896205 0.0046396
0.1468188 0.0895820 0.0050096
0.1643357 0.0895391 0.0054089
0.1768680 0.0926362 0.0056164
0.1971265 0.0925941 0.0060331
0.2115521 0.0925708 0.0062528
0.2267665 0.0925337 0.0067166
0.2426622 0.0957173 0.0069680
0.2594224 0.0956935 0.0072215
0.2768520 0.0956556 0.0077568
0.2949528 0.0956317 0.0080439
0.3041656 0.0989159 0.0083606
0.3233009 0.0988909 0.0086807
0.3430899 0.0988505 0.0093584
0.3532106 0.0988303 0.0097166
0.3736372 0.1022087 0.0100984
0.3840555 0.1021879 0.0104848
0.3945892 0.1021672 0.0108858
0.4159582 0.1021418 0.0113018
0.4266603 0.1056266 0.0117455
0.4375693 0.1056018 0.0122903
0.4485478 0.1055770 0.0128600
0.4706553 0.1055474 0.0134556
0.4815693 0.1091324 0.0140928
0.4925977 0.1091069 0.0147452
0.5036419 0.1090815 0.0154275
0.5146757 0.1090765 0.0154270
0.5257176 0.1090510 0.0161404
0.5366133 0.1127416 0.0169031
0.5476099 0.1127154 0.0176839
0.5585679 0.1126891 0.0185001
0.5694622 0.1126839 0.0184995
0.5801827 0.1164851 0.0192945
0.5909209 0.1164610 0.0200628
0.6015024 0.1164369 0.0208612
0.6015024 0.1164369 0.0208612
0.6119959 0.1164128 0.0216908
0.6222705 0.1203256 0.0225752
0.6325635 0.1203008 0.0234717
0.6427313 0.1202951 0.0234709
0.6527898 0.1202702 0.0244023
0.6528014 0.1202510 0.0253708
0.6626024 0.1242964 0.0253950
0.6723970 0.1242707 0.0264011
0.6820491 0.1242451 0.0274462
0.6820491 0.1242451 0.0274462
0.6915520 0.1242196 0.0285206
0.7007421 0.1283812 0.0285476
0.7007526 0.1283613 0.0296419
0.7099065 0.1283354 0.0307760
0.0015727 0.0937359 0.0015891
0.0031252 0.0936185 0.0017096
0.0064466 0.0934941 0.0018499
0.0110928 0.0933853 0.0020437
0.0167526 0.0965255 0.0022603
0.0236428 0.0964397 0.0024976
0.0321985 0.0963565 0.0027756
0.0420298 0.0962926 0.0029809
0.0523881 0.0995588 0.0032049
0.0650829 0.0994849 0.0035676
0.0772612 0.0994308 0.0038419
0.0912485 0.0993763 0.0041483
0.1072289 0.1027587 0.0043146
0.1208595 0.1027090 0.0046587
0.1358096 0.1026597 0.0050301
0.1522236 0.1026106 0.0054310
0.1640655 0.1025842 0.0056336
0.1831631 0.1060566 0.0060576
0.1968140 0.1060300 0.0062782
0.2112297 0.1059878 0.0067439
0.2264191 0.1059614 0.0069893
0.2423059 0.1095419 0.0075150
0.2590493 0.1095148 0.0077883
0.2764536 0.1094875 0.0080766
0.2945388 0.1094598 0.0083859
0.3132260 0.1131438 0.0090498
0.3228746 0.1131208 0.0093963
0.3426394 0.1130925 0.0097558
0.3527534 0.1130696 0.0101292
0.3732881 0.1130413 0.0105165
0.3835810 0.1168555 0.0109297
0.3941096 0.1168320 0.0113476
0.4154696 0.1168030 0.0117811
0.4262965 0.1167758 0.0123275
0.4370762 0.1206969 0.0129118
0.4480515 0.1206689 0.0135101
0.4701548 0.1206353 0.0141354
0.4811966 0.1206073 0.0147898
0.4922242 0.1205794 0.0154740
0.5031387 0.1246121 0.0162057
0.5141725 0.1246063 0.0162052
0.5252149 0.1245776 0.0169541
0.5362406 0.1245488 0.0177372
0.5472386 0.1245200 0.0185559
0.5580683 0.1286693 0.0193532
0.5689651 0.1286634 0.0193526
0.5798147 0.1286369 0.0201232
0.5905556 0.1286104 0.0209240
0.6011398 0.1285841 0.0217561
0.6115012 0.1328498 0.0217768
0.6115133 0.1328287 0.0226430
0.6219152 0.1328015 0.0235421
0.6322002 0.1327954 0.0235413
0.6423837 0.1327682 0.0244755
0.6523288 0.1371314 0.0254709
0.6523288 0.1371314 0.0254709
0.6622641 0.1371034 0.0264800
0.6720635 0.1370753 0.0275282
0.6817095 0.1370689 0.0275272
0.6816076 0.1415596 0.0286337
0.6911067 0.1415530 0.0286327
0.7004246 0.1415248 0.0297290
0.7004349 0.1415033 0.0308675
0.7095842 0.1414965 0.0308663
0.0016688 0.1072866 0.0017606
0.0033482 0.1071608 0.0018588
0.0066846 0.1070013 0.0021228
0.0110730 0.1068839 0.0023452
0.0174499 0.1104382 0.0025085
0.0246676 0.1103385 0.0027875
0.0335827 0.1102599 0.0029936
0.0438557 0.1101714 0.0033323
0.0546557 0.1101061 0.0035789
0.0649677 0.1137949 0.0038580
0.0771262 0.1137326 0.0041656
0.0910911 0.1136709 0.0044976
0.1070945 0.1136277 0.0046732
0.1206570 0.1174276 0.0050508
0.1355854 0.1173718 0.0054533
0.1519702 0.1173355 0.0056566
0.1638018 0.1172888 0.0060764
0.1829435 0.1172532 0.0062975
0.1965089 0.1211694 0.0067714
0.2109002 0.1211394 0.0070178
0.2260801 0.1210918 0.0075380
0.2420347 0.1210619 0.0078121
0.2587655 0.1210318 0.0081013
0.2760562 0.1250758 0.0084200
0.2941349 0.1250253 0.0090774
0.3129067 0.1249940 0.0094248
0.3225498 0.1249689 0.0097856
0.3423042 0.1249377 0.0101599
0.3522965 0.1291015 0.0105592
0.3728193 0.1290694 0.0109628
0.3832281 0.1290438 0.0113820
0.4043742 0.1290119 0.0118167
0.4151088 0.1289821 0.0123648
0.4258074 0.1332354 0.0129508
0.4367104 0.1332047 0.0135509
0.4587023 0.1331678 0.0141781
0.4697840 0.1331372 0.0148344
0.4808244 0.1331066 0.0155207
0.4917227 0.1374767 0.0162545
0.5027517 0.1374702 0.0162540
0.5138001 0.1374388 0.0170051
0.5248429 0.1374074 0.0177905
0.5358692 0.1373760 0.0186117
0.5467390 0.1418678 0.0194113
0.5576859 0.1418612 0.0194106
0.5685970 0.1418323 0.0201835
0.5794488 0.1418034 0.0209867
0.5901921 0.1417746 0.0218212
0.6006426 0.1464122 0.0218420
0.6111434 0.1463826 0.0227099
0.6111554 0.1463597 0.0236125
0.6215488 0.1463529 0.0236117
0.6318495 0.1463233 0.0245486
0.6420373 0.1462936 0.0255219
0.6519750 0.1510555 0.0255461
0.6519864 0.1510320 0.0265590
0.6619263 0.1510015 0.0276103
0.6717192 0.1509945 0.0276093
0.6813813 0.1509641 0.0286899
0.6812682 0.1558605 0.0287179
0.6907836 0.1558298 0.0298175
0.7001066 0.1557991 0.0309581
0.7001066 0.1557991 0.0309581
0.7092717 0.1557684 0.0321412
0.0018051 0.1185456 0.0019946
0.0034626 0.1224084 0.0021330
0.0069310 0.1222451 0.0023559
0.0115043 0.1221291 0.0025172
0.0174268 0.1220088 0.0027970
0.0246342 0.1219167 0.0030036
0.0335229 0.1259123 0.0033466
0.0437764 0.1258308 0.0035942
0.0545580 0.1257558 0.0038703
0.0677369 0.1256801 0.0041787
0.0803756 0.1256119 0.0045117
0.0909340 0.1297601 0.0048763
0.1069126 0.1297113 0.0050665
0.1205077 0.1296499 0.0054703
0.1354197 0.1295912 0.0058811
0.1517875 0.1295518 0.0060951
0.1697191 0.1337933 0.0065536
0.1826559 0.1337601 0.0067921
0.1962772 0.1337271 0.0070393
0.2106632 0.1336750 0.0075611
0.2336920 0.1336355 0.0078359
0.2499279 0.1380186 0.0081340
0.2583951 0.1379701 0.0087695
0.2757710 0.1379357 0.0091051
0.2938285 0.1379014 0.0094535
0.3125889 0.1378670 0.0098152
0.3221155 0.1423750 0.0102010
0.3418560 0.1423399 0.0105910
0.3519588 0.1423117 0.0109961
0.3724724 0.1422767 0.0114163
