Plugins/FilmEmulator/Content/LUTs/FE_Kodak_2302_Dev2_64.cube
TITLE "FE_Kodak_2302_Dev2_33"
LUT_3D_SIZE 4
0.0018207 0.0018207 0.0018207
0.0063752 0.0063752 0.0063752
0.0237240 0.0237240 0.0237240
0.0622909 0.0622909 0.0622909
0.0041176 0.0041176 0.0041176
0.0167204 0.0167204 0.0167204
0.0479361 0.0479361 0.0479361
0.1087121 0.1087121 0.1087121
0.0115614 0.0115614 0.0115614
0.0372867 0.0372867 0.0372867
0.0887508 0.0887508 0.0887508
0.1655986 0.1655986 0.1655986
0.0269940 0.0269940 0.0269940
0.0700584 0.0700584 0.0700584
0.1403350 0.1403350 0.1403350
0.2375061 0.2375061 0.2375061
0.3828874 0.3828874 0.3828874
0.4806878 0.4806878 0.4806878
0.5817519 0.5817519 0.5817519
0.6676657 0.6676657 0.6676657
0.4550540 0.4550540 0.4550540
0.5537580 0.5537580 0.5537580
0.6430210 0.6430210 0.6430210
0.7116162 0.7116162 0.7116162
0.5254191 0.5254191 0.5254191
0.6175954 0.6175954 0.6175954
0.6911548 0.6911548 0.6911548
0.7500150 0.7500150 0.7500150
0.5909768 0.5909768 0.5909768
0.6756886 0.6756886 0.6756886
0.7312491 0.7312491 0.7312491
0.7782200 0.7782200 0.7782200
0.8314309 0.8314309 0.8314309
0.8557990 0.8557990 0.8557990
0.8768229 0.8768229 0.8768229
0.8951868 0.8951868 0.8951868
0.8480356 0.8480356 0.8480356
0.8701248 0.8701248 0.8701248
0.8893301 0.8893301 0.8893301
0.9034585 0.9034585 0.9034585
0.8666611 0.8666611 0.8666611
0.8832219 0.8832219 0.8832219
0.9007683 0.9007683 0.9007683
0.9135783 0.9135783 0.9135783
0.8800590 0.8800590 0.8800590
0.8951868 0.8951868 0.8951868
0.9086445 0.9086445 0.9086445
0.9206911 0.9206911 0.9206911
0.9355027 0.9355027 0.9355027
0.9429221 0.9429221 0.9429221
0.9511890 0.9511890 0.9511890
0.9569619 0.9569619 0.9569619
0.9411179 0.9411179 0.9411179
0.9480280 0.9480280 0.9480280
0.9541668 0.9541668 0.9541668
0.9595850 0.9595850 0.9595850
0.9463760 0.9463760 0.9463760
0.9527001 0.9527001 0.9527001
0.9582931 0.9582931 0.9582931
0.9632342 0.9632342 0.9632342
0.9511890 0.9511890 0.9511890
0.9569619 0.9569619 0.9569619
0.9620544 0.9620544 0.9620544
0.9654887 0.9654887 0.9654887
