Plugins/FilmEmulator/Content/LUTs/FE_Kodak_Vision2_500T_Expression_5229_64.cube
# FilmEmulator LUT (resampled to 64)
LUT_3D_SIZE 4
0.000793 0.002380 0.003174
0.269643 0.005473 0.000000
0.492889 0.008809 0.000000
0.672729 0.019989 0.000000
0.062805 0.335398 0.042175
0.346473 0.255893 0.017531
0.656511 0.273214 0.000505
0.828166 0.237518 0.003519
0.173910 0.661082 0.077657
0.363159 0.548716 0.032677
0.667070 0.492191 0.039975
0.949564 0.566223 0.062846
0.283234 0.918457 0.085052
0.418670 0.815460 0.057546
0.661133 0.799489 0.039774
0.912476 0.692932 0.096588
0.000000 0.003418 0.083455
0.068647 0.000793 0.036163
0.308044 0.001753 0.032186
0.553986 0.001577 0.034231
0.074151 0.341845 0.274444
0.295702 0.295029 0.272989
0.604853 0.294856 0.239645
0.801554 0.288140 0.234938
0.274075 0.691647 0.333028
0.394513 0.647063 0.338958
0.645606 0.567546 0.314373
0.947001 0.618510 0.330115
0.285105 0.897248 0.278412
0.483622 0.931753 0.355523
0.659282 0.845113 0.347273
0.915720 0.776550 0.356455
0.002360 0.022614 0.130035
0.040728 0.009986 0.126099
0.142073 0.000793 0.066949
0.351624 0.004191 0.074768
0.031097 0.129988 0.214467
0.194716 0.269746 0.393419
0.408283 0.285872 0.337320
0.651123 0.281393 0.328434
0.209344 0.672031 0.546180
0.202139 0.615440 0.550545
0.612255 0.633587 0.619408
0.880429 0.639452 0.606347
0.326376 0.852885 0.526093
0.494429 0.872040 0.559292
0.711527 0.948679 0.652676
0.941834 0.865896 0.644480
0.011841 0.054932 0.197784
0.025757 0.035746 0.222178
0.113108 0.005269 0.132670
0.211182 0.001587 0.091339
0.004975 0.036265 0.124186
0.127862 0.278147 0.487864
0.336395 0.299713 0.434933
0.488637 0.286153 0.365285
0.088979 0.424499 0.490336
0.087260 0.414042 0.549818
0.549045 0.573927 0.665928
0.702881 0.627920 0.673095
0.253845 0.835449 0.708801
0.242523 0.812612 0.725790
0.544210 0.834940 0.772207
0.961670 0.955688 0.953918
