Plugins/FilmEmulator/Content/LUTs/FE_Kodak_Vision_500T_5263_64.cube
# FilmEmulator LUT (resampled to 64)
LUT_3D_SIZE 8
0.000000 0.000000 0.000000
0.117327 0.000031 0.000000
0.219339 0.028451 0.005955
0.323237 0.059832 0.025678
0.427320 0.092280 0.034550
0.533042 0.128601 0.046539
0.642474 0.172372 0.068913
0.751221 0.223236 0.097992
0.000000 0.105041 0.025539
0.094749 0.108185 0.038426
0.225857 0.117155 0.016362
0.327468 0.128926 0.034722
0.430006 0.146731 0.046845
0.536575 0.171395 0.059604
0.646308 0.207230 0.081132
0.756021 0.247768 0.106140
0.044146 0.196272 0.045933
0.104894 0.192095 0.051054
0.197117 0.200178 0.062508
0.328847 0.221138 0.058159
0.436751 0.233760 0.071311
0.543101 0.250442 0.091006
0.658733 0.276920 0.105417
0.762338 0.306671 0.128270
0.097499 0.300516 0.081168
0.137988 0.294178 0.085485
0.206250 0.286430 0.094149
0.295473 0.294448 0.107160
0.430405 0.322892 0.110982
0.555832 0.348506 0.125450
0.666551 0.367779 0.145724
0.775862 0.386405 0.156084
0.165266 0.422826 0.124996
0.192776 0.417266 0.127644
0.248133 0.404668 0.135894
0.317924 0.392384 0.148854
0.409375 0.403207 0.163523
0.542976 0.439453 0.172901
0.675098 0.466650 0.184729
0.784424 0.483329 0.200880
0.247542 0.557835 0.175917
0.267606 0.554759 0.177183
0.311587 0.544294 0.183043
0.371278 0.526238 0.193406
0.440335 0.509734 0.209890
0.529094 0.516933 0.225023
0.655023 0.553566 0.235911
0.786294 0.579900 0.244368
0.326717 0.676405 0.232627
0.341734 0.675157 0.234480
0.377076 0.670080 0.236668
0.429476 0.661573 0.240653
0.491375 0.642912 0.253396
0.557472 0.621407 0.271521
0.642127 0.624484 0.286146
0.749333 0.649689 0.291090
0.398651 0.767914 0.283875
0.408024 0.768040 0.283945
0.431619 0.768354 0.284349
0.474792 0.762538 0.287546
0.529654 0.753121 0.292166
0.593680 0.738861 0.303402
0.657915 0.717512 0.323138
0.735199 0.715302 0.334717
0.000000 0.000000 0.090629
0.109539 0.000023 0.122481
0.231918 0.005200 0.115362
0.321209 0.063536 0.106507
0.426505 0.095424 0.113298
0.533667 0.129969 0.125007
0.644701 0.170823 0.137973
0.755942 0.216671 0.153373
0.007721 0.111258 0.125624
0.101228 0.111950 0.140668
0.225176 0.119891 0.097426
0.327071 0.131726 0.110760
0.430489 0.149972 0.122492
0.537249 0.174309 0.133037
0.648546 0.207129 0.145422
0.760013 0.243044 0.158901
0.027968 0.197586 0.108349
0.098852 0.199811 0.115561
0.195243 0.207619 0.133027
0.333583 0.227742 0.123921
0.438595 0.239330 0.137462
0.544410 0.255316 0.153859
0.657265 0.277623 0.164218
0.764096 0.304031 0.176426
0.087558 0.302896 0.136592
0.131797 0.298151 0.138846
0.202326 0.290480 0.144471
0.296511 0.301570 0.158951
0.438031 0.333500 0.164131
0.555387 0.350697 0.175723
0.661591 0.365316 0.193457
0.773079 0.385816 0.202062
0.158437 0.422067 0.171445
0.188415 0.418405 0.173917
0.244917 0.406047 0.179599
0.315499 0.394985 0.188758
0.405416 0.403430 0.202735
0.537735 0.434246 0.209218
0.669943 0.463087 0.221218
0.779828 0.480673 0.237952
0.237404 0.549665 0.212245
0.257931 0.545776 0.213878
0.302233 0.535638 0.218080
0.363469 0.519724 0.227056
0.434553 0.506435 0.241182
0.524015 0.514975 0.255520
0.650247 0.550691 0.266403
0.780936 0.576062 0.273360
0.319421 0.673989 0.260322
0.334655 0.672457 0.261217
0.370473 0.667529 0.262843
0.423064 0.656597 0.268290
0.484949 0.637021 0.280214
0.553124 0.618892 0.296875
0.637775 0.622278 0.310459
0.745440 0.648067 0.316276
0.387809 0.769291 0.300760
0.397888 0.769264 0.301113
0.425609 0.767616 0.305050
0.470197 0.760814 0.308540
0.525778 0.750853 0.312865
0.588243 0.731949 0.326287
0.651946 0.710696 0.344398
0.729353 0.709647 0.355495
0.004735 0.000027 0.214848
0.097259 0.001465 0.238731
0.219504 0.007689 0.244316
0.335816 0.017406 0.243798
0.434640 0.081444 0.210214
0.531451 0.133262 0.222342
0.644750 0.171091 0.233806
0.758501 0.212647 0.246591
0.000092 0.116121 0.221127
0.064832 0.112256 0.268520
0.224786 0.106619 0.261390
0.343995 0.107018 0.250125
0.430173 0.150839 0.217671
0.535454 0.177160 0.227350
0.648904 0.207671 0.239204
0.762020 0.240461 0.251027
0.040861 0.214419 0.242327
0.114194 0.221660 0.255787
0.218996 0.224429 0.267043
0.337190 0.232342 0.217867
0.438367 0.243404 0.230145
0.546004 0.259904 0.243094
0.657916 0.281382 0.254497
0.766161 0.304829 0.263121
0.076999 0.300197 0.211550
0.124343 0.298338 0.213441
0.204079 0.303633 0.225571
0.301307 0.316108 0.248348
0.449802 0.346256 0.246889
0.560220 0.359801 0.259855
0.662970 0.371850 0.277113
0.771408 0.388427 0.283489
0.148077 0.422533 0.250794
0.179755 0.419215 0.251704
0.239994 0.410572 0.254103
0.312863 0.401780 0.259765
0.409040 0.415568 0.277149
0.549897 0.449543 0.284080
0.669213 0.466286 0.292703
0.772419 0.477922 0.309700
0.223535 0.541179 0.281873
0.245793 0.538975 0.283350
0.294056 0.532823 0.287510
0.356842 0.518332 0.294074
0.429273 0.508225 0.303528
0.517312 0.515285 0.317217
0.635694 0.541622 0.322864
0.772144 0.570256 0.331626
0.303533 0.666023 0.317554
0.319224 0.663056 0.318530
0.355412 0.655083 0.321459
0.408066 0.642044 0.326670
0.472018 0.625758 0.336760
0.543396 0.613287 0.350375
0.628894 0.619127 0.362849
0.735739 0.645004 0.368355
0.373370 0.766471 0.348284
0.385180 0.765890 0.349720
0.414119 0.763468 0.352770
0.459412 0.756326 0.354763
0.515479 0.742333 0.362319
0.577685 0.722288 0.374642
0.644299 0.706157 0.389968
0.720311 0.704220 0.400068
0.009334 0.010110 0.324136
0.104442 0.014540 0.329247
0.213999 0.024011 0.339276
0.325723 0.040627 0.345746
0.437176 0.064970 0.349065
0.549418 0.097840 0.347766
0.644421 0.176334 0.328106
0.754691 0.219064 0.344775
0.000174 0.115244 0.348332
0.082793 0.113591 0.355383
0.214598 0.114082 0.356852
0.329664 0.118654 0.358577
0.442463 0.129504 0.357471
0.555680 0.150123 0.350484
0.647822 0.212223 0.335860
0.759364 0.244691 0.348912
0.000110 0.225432 0.345028
0.010554 0.229934 0.373625
0.200469 0.225453 0.391497
0.338822 0.222275 0.382134
0.456473 0.226395 0.372331
0.557653 0.253438 0.339108
0.655840 0.284254 0.351679
0.765054 0.306483 0.358727
0.107950 0.314490 0.341391
0.154192 0.320261 0.352005
0.238817 0.336155 0.377383
0.336540 0.342483 0.390758
0.456779 0.353410 0.345774
0.559777 0.364098 0.356930
0.664767 0.376628 0.368702
0.771546 0.392300 0.376016
0.146841 0.421208 0.331733
0.177872 0.417721 0.331189
0.238884 0.412870 0.333132
0.321784 0.420063 0.348959
0.417931 0.433598 0.373135
0.565246 0.464274 0.372773
0.675494 0.476172 0.380013
0.774451 0.485926 0.399155
0.213918 0.540377 0.368768
0.237155 0.538077 0.369256
0.286801 0.531920 0.370893
0.352422 0.521234 0.373647
0.426223 0.513972 0.380628
0.522423 0.529951 0.399565
0.658170 0.562533 0.404717
0.774474 0.577282 0.410269
0.289926 0.656142 0.396817
0.306561 0.654311 0.397723
0.345150 0.649505 0.400485
0.401780 0.640878 0.405541
0.466665 0.626269 0.412372
0.539319 0.617314 0.421518
0.622938 0.621598 0.433180
0.730548 0.641103 0.434711
0.356903 0.761165 0.418531
0.369599 0.759580 0.419383
0.399425 0.753353 0.421471
0.444810 0.742532 0.425322
0.501502 0.728795 0.431679
0.564960 0.712344 0.442386
0.633152 0.700279 0.453707
0.710484 0.701542 0.461818
0.070143 0.024044 0.415244
0.129086 0.029057 0.420625
0.220984 0.041859 0.430662
0.324312 0.061283 0.439150
0.431633 0.085341 0.448268
0.542694 0.115842 0.454208
0.658645 0.153438 0.461197
0.772417 0.194345 0.461530
0.040404 0.116144 0.437569
0.119738 0.117206 0.439719
0.220093 0.121441 0.444514
0.325908 0.129389 0.451859
0.435317 0.142491 0.457430
0.547845 0.162780 0.462157
0.663882 0.191700 0.466599
0.774530 0.227389 0.460414
0.000218 0.229589 0.466691
0.037415 0.228727 0.478990
0.206801 0.227558 0.478871
0.330647 0.228559 0.478547
0.444911 0.235120 0.480160
0.560188 0.248031 0.480687
0.674739 0.266003 0.477176
0.769074 0.305353 0.455925
0.045298 0.330310 0.458046
0.106090 0.334513 0.467441
0.189852 0.344659 0.492835
0.326487 0.344490 0.520912
0.460956 0.344979 0.512264
0.578180 0.349923 0.501358
0.680609 0.368060 0.470232
0.769464 0.394963 0.471974
0.181970 0.434208 0.460699
0.210547 0.432316 0.461479
0.273414 0.436387 0.473074
0.363469 0.456060 0.505340
0.460248 0.462116 0.515532
0.575215 0.471113 0.472237
0.674397 0.480235 0.478362
0.775622 0.490463 0.491494
0.221709 0.541385 0.452318
0.243398 0.538895 0.451847
0.290631 0.532564 0.451030
0.356910 0.527652 0.454718
0.439589 0.535692 0.472361
0.531447 0.547646 0.496011
0.674741 0.577030 0.492983
0.781134 0.585987 0.494074
0.280542 0.653221 0.484756
0.297776 0.651458 0.485015
0.337518 0.646603 0.485901
0.395148 0.638194 0.487792
0.461719 0.626138 0.490390
0.535431 0.621231 0.498844
0.628417 0.636497 0.516456
0.748596 0.660291 0.514016
0.346344 0.752489 0.500723
0.359308 0.751084 0.501343
0.390408 0.747189 0.503205
0.438481 0.740475 0.506592
0.498013 0.729699 0.511575
0.561702 0.715643 0.517709
0.630762 0.706444 0.524775
0.706722 0.706599 0.531991
0.128823 0.044835 0.502851
0.166651 0.050388 0.507038
0.239678 0.062619 0.516113
0.331124 0.080904 0.529247
0.432648 0.104386 0.541929
0.541287 0.133301 0.553905
0.655931 0.168366 0.565846
0.768319 0.204136 0.572554
0.114414 0.123085 0.521605
0.157939 0.125064 0.524645
0.236501 0.130315 0.532203
0.331801 0.139757 0.542767
0.435476 0.154905 0.551549
0.545128 0.176587 0.562369
0.659738 0.204325 0.571570
0.770874 0.233766 0.575917
0.041332 0.229818 0.558736
0.124529 0.229842 0.559898
0.230399 0.230222 0.563349
0.334794 0.234979 0.567832
0.442579 0.244039 0.575807
0.555002 0.258135 0.582532
0.667129 0.275281 0.584753
0.777255 0.296585 0.584479
0.000188 0.347670 0.585975
0.051275 0.347853 0.592648
0.199566 0.347547 0.606542
0.331537 0.348005 0.612390
0.453933 0.350774 0.611498
0.566859 0.356744 0.609766
0.678632 0.366522 0.605398
0.787957 0.380577 0.598334
0.157699 0.444012 0.569715
0.187760 0.443649 0.572187
0.250780 0.450256 0.587851
0.323580 0.464594 0.618473
0.449882 0.464035 0.649252
0.578326 0.463247 0.637137
0.692598 0.467398 0.624225
0.799452 0.477850 0.598338
0.252907 0.551886 0.577761
0.273771 0.550293 0.578338
0.320382 0.546449 0.579776
0.390934 0.550095 0.593138
0.481890 0.570617 0.626839
0.572485 0.577281 0.642956
0.682568 0.584430 0.589140
0.777972 0.588800 0.591208
0.293554 0.657022 0.568018
0.309664 0.654992 0.567714
0.347210 0.649665 0.566915
0.402114 0.640687 0.565817
0.470821 0.637373 0.572184
0.550388 0.643512 0.588683
0.636331 0.652743 0.608952
0.762998 0.671366 0.596727
0.338357 0.748138 0.586470
0.351432 0.746604 0.586526
0.382998 0.742437 0.586903
0.431899 0.735403 0.587756
0.491348 0.724890 0.588872
0.555812 0.712319 0.590963
0.626574 0.709315 0.599619
0.711217 0.720315 0.611246
0.181894 0.067570 0.589874
0.208226 0.072357 0.594079
0.265738 0.083513 0.604009
0.346814 0.101141 0.616542
0.440712 0.123548 0.632458
0.544750 0.152456 0.649614
0.656025 0.185624 0.664129
0.765716 0.217769 0.673920
0.172866 0.133830 0.606260
0.202015 0.136080 0.609485
0.263967 0.142209 0.616936
0.347448 0.153280 0.627740
0.443142 0.169379 0.641992
0.548170 0.191524 0.658368
0.658692 0.217817 0.669942
0.767820 0.245639 0.677702
0.149786 0.232608 0.641334
0.187482 0.233201 0.643366
0.258263 0.236316 0.648426
0.348348 0.242833 0.657519
0.448915 0.253205 0.669207
0.556429 0.268311 0.678642
0.664057 0.285014 0.684490
0.772849 0.305847 0.687845
0.072795 0.348787 0.687018
0.138261 0.348978 0.690392
0.238667 0.350058 0.694724
0.349200 0.352192 0.698806
0.457005 0.356461 0.701889
0.563739 0.363725 0.705352
0.672565 0.374219 0.705800
0.780609 0.387938 0.704007
0.139595 0.461908 0.691858
0.167393 0.464003 0.697534
0.228142 0.467471 0.713642
0.332806 0.467230 0.734092
0.452932 0.466572 0.741068
0.571088 0.468138 0.736272
0.681046 0.473407 0.731752
0.789209 0.481207 0.723810
0.242018 0.559923 0.683673
0.262063 0.558851 0.684820
0.307291 0.556736 0.687962
0.374603 0.562256 0.704247
0.450150 0.577506 0.737682
0.565544 0.577296 0.769462
0.687611 0.575146 0.753301
0.794777 0.575798 0.735518
0.320389 0.662884 0.687836
0.336418 0.661543 0.687775
0.373737 0.658295 0.688895
0.429610 0.652848 0.690662
0.503016 0.657058 0.705861
0.588036 0.671854 0.733847
0.671690 0.673564 0.737407
0.773006 0.675156 0.688027
0.362950 0.751460 0.665824
0.374386 0.750159 0.665384
0.402033 0.746102 0.664158
0.445261 0.738719 0.662491
0.500309 0.728729 0.661561
0.566752 0.725983 0.668776
0.639310 0.727979 0.681496
0.715520 0.731794 0.696425
0.233887 0.090851 0.677734
0.253806 0.095071 0.681384
0.300419 0.105394 0.690556
0.369485 0.121215 0.705898
0.455227 0.142696 0.726641
0.554509 0.171029 0.744991
0.659005 0.202837 0.758789
0.764526 0.235413 0.769226
0.230137 0.147344 0.690517
0.250992 0.149772 0.693883
0.298993 0.156328 0.702385
0.369789 0.167718 0.716775
0.457825 0.184763 0.734420
0.557354 0.206849 0.753241
0.660790 0.232530 0.764703
0.766545 0.260507 0.773769
0.215406 0.240016 0.724622
0.239730 0.241330 0.727179
0.293754 0.245554 0.733861
0.371721 0.253243 0.743569
0.463501 0.265035 0.756347
0.562655 0.279261 0.768333
0.665416 0.295825 0.779219
0.771275 0.316585 0.784773
0.183624 0.352103 0.773176
0.217270 0.352574 0.774541
0.285642 0.354226 0.778468
0.373398 0.356924 0.784232
0.467430 0.362491 0.791044
0.567746 0.370505 0.798207
0.672205 0.381791 0.800671
0.777034 0.395625 0.802813
0.148058 0.467761 0.805045
0.185496 0.467846 0.808120
0.259645 0.468031 0.815911
0.356390 0.468399 0.825093
0.465096 0.469728 0.826174
0.572332 0.473020 0.826927
0.676919 0.479454 0.826463
0.782000 0.487405 0.822274
0.241952 0.571141 0.796147
0.260771 0.571206 0.798337
0.304055 0.574240 0.807732
0.362496 0.581217 0.827762
0.454071 0.580944 0.853110
0.566971 0.579035 0.859736
0.679230 0.578598 0.850744
0.781899 0.579695 0.839521
0.316428 0.668540 0.788291
0.331126 0.667477 0.788994
0.366193 0.664875 0.790698
0.419049 0.660863 0.793748
0.486630 0.664909 0.809770
0.554689 0.677303 0.839557
0.661909 0.672488 0.866295
0.773233 0.665854 0.845040
0.373688 0.753448 0.778931
0.386130 0.752258 0.778551
0.416931 0.749185 0.777514
0.464029 0.743657 0.777933
0.522430 0.735792 0.778360
0.593414 0.739655 0.794068
0.668731 0.748134 0.815935
0.743958 0.747131 0.825867
