Plugins/FilmEmulator/Content/LUTs/FE_Kodak_5222_Dev9_64.cube
TITLE "FE_Kodak_5222_Dev9_33"
LUT_3D_SIZE 64
0.0010388 0.0010388 0.0010388
0.0010388 0.0010388 0.0010388
0.0010734 0.0010734 0.0010734
0.0013466 0.0013466 0.0013466
0.0017480 0.0017480 0.0017480
0.0022749 0.0022749 0.0022749
0.0029009 0.0029009 0.0029009
0.0036273 0.0036273 0.0036273
0.0044893 0.0044893 0.0044893
0.0054609 0.0054609 0.0054609
0.0065046 0.0065046 0.0065046
0.0077664 0.0077664 0.0077664
0.0088139 0.0088139 0.0088139
0.0102483 0.0102483 0.0102483
0.0116065 0.0116065 0.0116065
0.0127991 0.0127991 0.0127991
0.0144595 0.0144595 0.0144595
0.0159203 0.0159203 0.0159203
0.0175261 0.0175261 0.0175261
0.0188315 0.0188315 0.0188315
0.0207144 0.0207144 0.0207144
0.0222464 0.0222464 0.0222464
0.0238859 0.0238859 0.0238859
0.0256317 0.0256317 0.0256317
0.0275015 0.0275015 0.0275015
0.0295036 0.0295036 0.0295036
0.0309045 0.0309045 0.0309045
0.0331180 0.0331180 0.0331180
0.0346779 0.0346779 0.0346779
0.0371514 0.0371514 0.0371514
0.0388824 0.0388824 0.0388824
0.0406789 0.0406789 0.0406789
0.0425547 0.0425547 0.0425547
0.0445131 0.0445131 0.0445131
0.0465572 0.0465572 0.0465572
0.0486789 0.0486789 0.0486789
0.0508682 0.0508682 0.0508682
0.0531505 0.0531505 0.0531505
0.0555292 0.0555292 0.0555292
0.0567558 0.0567558 0.0567558
0.0592857 0.0592857 0.0592857
0.0618963 0.0618963 0.0618963
0.0632351 0.0632351 0.0632351
0.0659942 0.0659942 0.0659942
0.0674153 0.0674153 0.0674153
0.0703431 0.0703431 0.0703431
0.0718506 0.0718506 0.0718506
0.0749555 0.0749555 0.0749555
0.0765463 0.0765463 0.0765463
0.0798210 0.0798210 0.0798210
0.0815059 0.0815059 0.0815059
0.0832232 0.0832232 0.0832232
0.0867567 0.0867567 0.0867567
0.0885739 0.0885739 0.0885739
0.0904254 0.0904254 0.0904254
0.0923117 0.0923117 0.0923117
0.0962119 0.0962119 0.0962119
0.0982188 0.0982188 0.0982188
0.1002630 0.1002630 0.1002630
0.1023449 0.1023449 0.1023449
0.1044650 0.1044650 0.1044650
0.1066238 0.1066238 0.1066238
0.1088218 0.1088218 0.1088218
0.1133373 0.1133373 0.1133373
0.0010734 0.0010734 0.0010734
0.0013466 0.0013466 0.0013466
0.0017480 0.0017480 0.0017480
0.0022749 0.0022749 0.0022749
0.0029009 0.0029009 0.0029009
0.0036273 0.0036273 0.0036273
0.0044893 0.0044893 0.0044893
0.0054609 0.0054609 0.0054609
0.0065046 0.0065046 0.0065046
0.0077664 0.0077664 0.0077664
0.0090383 0.0090383 0.0090383
0.0102483 0.0102483 0.0102483
0.0116065 0.0116065 0.0116065
0.0127991 0.0127991 0.0127991
0.0144595 0.0144595 0.0144595
0.0159203 0.0159203 0.0159203
0.0175261 0.0175261 0.0175261
0.0188315 0.0188315 0.0188315
0.0207144 0.0207144 0.0207144
0.0222464 0.0222464 0.0222464
0.0238859 0.0238859 0.0238859
0.0256317 0.0256317 0.0256317
0.0275015 0.0275015 0.0275015
0.0295036 0.0295036 0.0295036
0.0309045 0.0309045 0.0309045
0.0331180 0.0331180 0.0331180
0.0346779 0.0346779 0.0346779
0.0371514 0.0371514 0.0371514
0.0388824 0.0388824 0.0388824
0.0406789 0.0406789 0.0406789
0.0425547 0.0425547 0.0425547
0.0445131 0.0445131 0.0445131
0.0465572 0.0465572 0.0465572
0.0486789 0.0486789 0.0486789
0.0508682 0.0508682 0.0508682
0.0531505 0.0531505 0.0531505
0.0555292 0.0555292 0.0555292
0.0567558 0.0567558 0.0567558
0.0592857 0.0592857 0.0592857
0.0618963 0.0618963 0.0618963
0.0632351 0.0632351 0.0632351
0.0659942 0.0659942 0.0659942
0.0674153 0.0674153 0.0674153
0.0703431 0.0703431 0.0703431
0.0718506 0.0718506 0.0718506
0.0749555 0.0749555 0.0749555
0.0765463 0.0765463 0.0765463
0.0798210 0.0798210 0.0798210
0.0815059 0.0815059 0.0815059
0.0832232 0.0832232 0.0832232
0.0867567 0.0867567 0.0867567
0.0885739 0.0885739 0.0885739
0.0904254 0.0904254 0.0904254
0.0923117 0.0923117 0.0923117
0.0962119 0.0962119 0.0962119
0.0982188 0.0982188 0.0982188
0.1002630 0.1002630 0.1002630
0.1023449 0.1023449 0.1023449
0.1044650 0.1044650 0.1044650
0.1066238 0.1066238 0.1066238
0.1088218 0.1088218 0.1088218
0.1133373 0.1133373 0.1133373
0.1156546 0.1156546 0.1156546
0.1180105 0.1180105 0.1180105
0.0017480 0.0017480 0.0017480
0.0022749 0.0022749 0.0022749
0.0029009 0.0029009 0.0029009
0.0036273 0.0036273 0.0036273
0.0044893 0.0044893 0.0044893
0.0054609 0.0054609 0.0054609
0.0065046 0.0065046 0.0065046
0.0077664 0.0077664 0.0077664
0.0090383 0.0090383 0.0090383
0.0102483 0.0102483 0.0102483
0.0116065 0.0116065 0.0116065
0.0127991 0.0127991 0.0127991
0.0144595 0.0144595 0.0144595
0.0159203 0.0159203 0.0159203
0.0175261 0.0175261 0.0175261
0.0188315 0.0188315 0.0188315
0.0207144 0.0207144 0.0207144
0.0222464 0.0222464 0.0222464
0.0238859 0.0238859 0.0238859
0.0256317 0.0256317 0.0256317
0.0275015 0.0275015 0.0275015
0.0295036 0.0295036 0.0295036
0.0309045 0.0309045 0.0309045
0.0331180 0.0331180 0.0331180
0.0346779 0.0346779 0.0346779
0.0371514 0.0371514 0.0371514
0.0388824 0.0388824 0.0388824
0.0406789 0.0406789 0.0406789
0.0425547 0.0425547 0.0425547
0.0445131 0.0445131 0.0445131
0.0465572 0.0465572 0.0465572
0.0486789 0.0486789 0.0486789
0.0508682 0.0508682 0.0508682
0.0531505 0.0531505 0.0531505
0.0555292 0.0555292 0.0555292
0.0567558 0.0567558 0.0567558
0.0592857 0.0592857 0.0592857
0.0618963 0.0618963 0.0618963
0.0632351 0.0632351 0.0632351
0.0659942 0.0659942 0.0659942
0.0674153 0.0674153 0.0674153
0.0703431 0.0703431 0.0703431
0.0718506 0.0718506 0.0718506
0.0749555 0.0749555 0.0749555
0.0765463 0.0765463 0.0765463
0.0798210 0.0798210 0.0798210
0.0815059 0.0815059 0.0815059
0.0832232 0.0832232 0.0832232
0.0867567 0.0867567 0.0867567
0.0885739 0.0885739 0.0885739
0.0904254 0.0904254 0.0904254
0.0923117 0.0923117 0.0923117
0.0962119 0.0962119 0.0962119
0.0982188 0.0982188 0.0982188
0.1002630 0.1002630 0.1002630
0.1023449 0.1023449 0.1023449
0.1044650 0.1044650 0.1044650
0.1066238 0.1066238 0.1066238
0.1088218 0.1088218 0.1088218
0.1133373 0.1133373 0.1133373
0.1156546 0.1156546 0.1156546
0.1180105 0.1180105 0.1180105
0.1204080 0.1204080 0.1204080
0.1228473 0.1228473 0.1228473
0.0029009 0.0029009 0.0029009
0.0036273 0.0036273 0.0036273
0.0044893 0.0044893 0.0044893
0.0054609 0.0054609 0.0054609
0.0065046 0.0065046 0.0065046
0.0077664 0.0077664 0.0077664
0.0090383 0.0090383 0.0090383
0.0102483 0.0102483 0.0102483
0.0116065 0.0116065 0.0116065
0.0127991 0.0127991 0.0127991
0.0144595 0.0144595 0.0144595
0.0159203 0.0159203 0.0159203
0.0175261 0.0175261 0.0175261
0.0188315 0.0188315 0.0188315
0.0207144 0.0207144 0.0207144
0.0222464 0.0222464 0.0222464
0.0238859 0.0238859 0.0238859
0.0256317 0.0256317 0.0256317
0.0275015 0.0275015 0.0275015
0.0295036 0.0295036 0.0295036
0.0309045 0.0309045 0.0309045
0.0331180 0.0331180 0.0331180
0.0346779 0.0346779 0.0346779
0.0371514 0.0371514 0.0371514
0.0388824 0.0388824 0.0388824
0.0406789 0.0406789 0.0406789
0.0425547 0.0425547 0.0425547
0.0445131 0.0445131 0.0445131
0.0465572 0.0465572 0.0465572
0.0486789 0.0486789 0.0486789
0.0508682 0.0508682 0.0508682
0.0531505 0.0531505 0.0531505
0.0555292 0.0555292 0.0555292
0.0567558 0.0567558 0.0567558
0.0592857 0.0592857 0.0592857
0.0618963 0.0618963 0.0618963
0.0632351 0.0632351 0.0632351
0.0659942 0.0659942 0.0659942
0.0674153 0.0674153 0.0674153
0.0703431 0.0703431 0.0703431
0.0718506 0.0718506 0.0718506
0.0749555 0.0749555 0.0749555
0.0765463 0.0765463 0.0765463
0.0798210 0.0798210 0.0798210
0.0815059 0.0815059 0.0815059
0.0832232 0.0832232 0.0832232
0.0867567 0.0867567 0.0867567
0.0885739 0.0885739 0.0885739
0.0904254 0.0904254 0.0904254
0.0923117 0.0923117 0.0923117
0.0962119 0.0962119 0.0962119
0.0982188 0.0982188 0.0982188
0.1002630 0.1002630 0.1002630
0.1023449 0.1023449 0.1023449
0.1044650 0.1044650 0.1044650
0.1066238 0.1066238 0.1066238
0.1088218 0.1088218 0.1088218
0.1133373 0.1133373 0.1133373
0.1156546 0.1156546 0.1156546
0.1180105 0.1180105 0.1180105
0.1204080 0.1204080 0.1204080
0.1228473 0.1228473 0.1228473
0.1253290 0.1253290 0.1253290
0.1278535 0.1278535 0.1278535
0.0044893 0.0044893 0.0044893
0.0054609 0.0054609 0.0054609
0.0065046 0.0065046 0.0065046
0.0077664 0.0077664 0.0077664
0.0090383 0.0090383 0.0090383
0.0102483 0.0102483 0.0102483
0.0116065 0.0116065 0.0116065
0.0127991 0.0127991 0.0127991
0.0144595 0.0144595 0.0144595
0.0159203 0.0159203 0.0159203
0.0175261 0.0175261 0.0175261
0.0188315 0.0188315 0.0188315
0.0207144 0.0207144 0.0207144
0.0222464 0.0222464 0.0222464
0.0238859 0.0238859 0.0238859
0.0256317 0.0256317 0.0256317
0.0275015 0.0275015 0.0275015
0.0295036 0.0295036 0.0295036
0.0309045 0.0309045 0.0309045
0.0331180 0.0331180 0.0331180
0.0346779 0.0346779 0.0346779
0.0371514 0.0371514 0.0371514
0.0388824 0.0388824 0.0388824
0.0406789 0.0406789 0.0406789
0.0425547 0.0425547 0.0425547
0.0445131 0.0445131 0.0445131
0.0465572 0.0465572 0.0465572
0.0486789 0.0486789 0.0486789
0.0508682 0.0508682 0.0508682
0.0531505 0.0531505 0.0531505
0.0555292 0.0555292 0.0555292
0.0567558 0.0567558 0.0567558
0.0592857 0.0592857 0.0592857
0.0618963 0.0618963 0.0618963
0.0632351 0.0632351 0.0632351
0.0659942 0.0659942 0.0659942
0.0674153 0.0674153 0.0674153
0.0703431 0.0703431 0.0703431
0.0718506 0.0718506 0.0718506
0.0749555 0.0749555 0.0749555
0.0765463 0.0765463 0.0765463
0.0798210 0.0798210 0.0798210
0.0815059 0.0815059 0.0815059
0.0832232 0.0832232 0.0832232
0.0867567 0.0867567 0.0867567
0.0885739 0.0885739 0.0885739
0.0904254 0.0904254 0.0904254
0.0923117 0.0923117 0.0923117
0.0962119 0.0962119 0.0962119
0.0982188 0.0982188 0.0982188
0.1002630 0.1002630 0.1002630
0.1023449 0.1023449 0.1023449
0.1044650 0.1044650 0.1044650
0.1066238 0.1066238 0.1066238
0.1088218 0.1088218 0.1088218
0.1133373 0.1133373 0.1133373
0.1156546 0.1156546 0.1156546
0.1180105 0.1180105 0.1180105
0.1204080 0.1204080 0.1204080
0.1228473 0.1228473 0.1228473
0.1253290 0.1253290 0.1253290
0.1278535 0.1278535 0.1278535
0.1304213 0.1304213 0.1304213
0.1330328 0.1330328 0.1330328
0.0065046 0.0065046 0.0065046
0.0077664 0.0077664 0.0077664
0.0090383 0.0090383 0.0090383
0.0102483 0.0102483 0.0102483
0.0116065 0.0116065 0.0116065
0.0127991 0.0127991 0.0127991
0.0144595 0.0144595 0.0144595
0.0159203 0.0159203 0.0159203
0.0175261 0.0175261 0.0175261
0.0188315 0.0188315 0.0188315
0.0207144 0.0207144 0.0207144
0.0222464 0.0222464 0.0222464
0.0238859 0.0238859 0.0238859
0.0256317 0.0256317 0.0256317
0.0275015 0.0275015 0.0275015
0.0295036 0.0295036 0.0295036
0.0309045 0.0309045 0.0309045
0.0331180 0.0331180 0.0331180
0.0346779 0.0346779 0.0346779
0.0371514 0.0371514 0.0371514
0.0388824 0.0388824 0.0388824
0.0406789 0.0406789 0.0406789
0.0425547 0.0425547 0.0425547
0.0445131 0.0445131 0.0445131
0.0465572 0.0465572 0.0465572
0.0486789 0.0486789 0.0486789
0.0508682 0.0508682 0.0508682
0.0531505 0.0531505 0.0531505
0.0555292 0.0555292 0.0555292
0.0567558 0.0567558 0.0567558
0.0592857 0.0592857 0.0592857
0.0618963 0.0618963 0.0618963
0.0632351 0.0632351 0.0632351
0.0659942 0.0659942 0.0659942
0.0674153 0.0674153 0.0674153
0.0703431 0.0703431 0.0703431
0.0718506 0.0718506 0.0718506
0.0749555 0.0749555 0.0749555
0.0765463 0.0765463 0.0765463
0.0798210 0.0798210 0.0798210
0.0815059 0.0815059 0.0815059
0.0832232 0.0832232 0.0832232
0.0867567 0.0867567 0.0867567
0.0885739 0.0885739 0.0885739
0.0904254 0.0904254 0.0904254
0.0923117 0.0923117 0.0923117
0.0962119 0.0962119 0.0962119
0.0982188 0.0982188 0.0982188
0.1002630 0.1002630 0.1002630
0.1023449 0.1023449 0.1023449
0.1044650 0.1044650 0.1044650
0.1066238 0.1066238 0.1066238
0.1088218 0.1088218 0.1088218
0.1133373 0.1133373 0.1133373
0.1156546 0.1156546 0.1156546
0.1180105 0.1180105 0.1180105
0.1204080 0.1204080 0.1204080
0.1228473 0.1228473 0.1228473
0.1253290 0.1253290 0.1253290
0.1278535 0.1278535 0.1278535
0.1304213 0.1304213 0.1304213
0.1330328 0.1330328 0.1330328
0.1330328 0.1330328 0.1330328
0.1356885 0.1356885 0.1356885
0.0090383 0.0090383 0.0090383
0.0102483 0.0102483 0.0102483
0.0116065 0.0116065 0.0116065
0.0127991 0.0127991 0.0127991
0.0144595 0.0144595 0.0144595
0.0159203 0.0159203 0.0159203
0.0175261 0.0175261 0.0175261
0.0188315 0.0188315 0.0188315
0.0207144 0.0207144 0.0207144
0.0222464 0.0222464 0.0222464
0.0238859 0.0238859 0.0238859
0.0256317 0.0256317 0.0256317
0.0275015 0.0275015 0.0275015
0.0295036 0.0295036 0.0295036
0.0309045 0.0309045 0.0309045
0.0331180 0.0331180 0.0331180
0.0346779 0.0346779 0.0346779
0.0371514 0.0371514 0.0371514
0.0388824 0.0388824 0.0388824
0.0406789 0.0406789 0.0406789
0.0425547 0.0425547 0.0425547
0.0445131 0.0445131 0.0445131
0.0465572 0.0465572 0.0465572
0.0486789 0.0486789 0.0486789
0.0508682 0.0508682 0.0508682
0.0531505 0.0531505 0.0531505
0.0555292 0.0555292 0.0555292
0.0567558 0.0567558 0.0567558
0.0592857 0.0592857 0.0592857
0.0618963 0.0618963 0.0618963
0.0632351 0.0632351 0.0632351
0.0659942 0.0659942 0.0659942
0.0674153 0.0674153 0.0674153
0.0703431 0.0703431 0.0703431
0.0718506 0.0718506 0.0718506
0.0749555 0.0749555 0.0749555
0.0765463 0.0765463 0.0765463
0.0798210 0.0798210 0.0798210
0.0815059 0.0815059 0.0815059
0.0832232 0.0832232 0.0832232
0.0867567 0.0867567 0.0867567
0.0885739 0.0885739 0.0885739
0.0904254 0.0904254 0.0904254
0.0923117 0.0923117 0.0923117
0.0962119 0.0962119 0.0962119
0.0982188 0.0982188 0.0982188
0.1002630 0.1002630 0.1002630
0.1023449 0.1023449 0.1023449
0.1044650 0.1044650 0.1044650
0.1066238 0.1066238 0.1066238
0.1088218 0.1088218 0.1088218
0.1133373 0.1133373 0.1133373
0.1156546 0.1156546 0.1156546
0.1180105 0.1180105 0.1180105
0.1204080 0.1204080 0.1204080
0.1228473 0.1228473 0.1228473
0.1253290 0.1253290 0.1253290
0.1278535 0.1278535 0.1278535
0.1304213 0.1304213 0.1304213
0.1330328 0.1330328 0.1330328
0.1330328 0.1330328 0.1330328
0.1356885 0.1356885 0.1356885
0.1383887 0.1383887 0.1383887
0.1411338 0.1411338 0.1411338
0.0116065 0.0116065 0.0116065
0.0131157 0.0131157 0.0131157
0.0144595 0.0144595 0.0144595
0.0159203 0.0159203 0.0159203
0.0175261 0.0175261 0.0175261
0.0188315 0.0188315 0.0188315
0.0207144 0.0207144 0.0207144
0.0222464 0.0222464 0.0222464
0.0238859 0.0238859 0.0238859
0.0256317 0.0256317 0.0256317
0.0275015 0.0275015 0.0275015
0.0295036 0.0295036 0.0295036
0.0309045 0.0309045 0.0309045
0.0331180 0.0331180 0.0331180
0.0346779 0.0346779 0.0346779
0.0371514 0.0371514 0.0371514
0.0388824 0.0388824 0.0388824
0.0406789 0.0406789 0.0406789
0.0425547 0.0425547 0.0425547
0.0445131 0.0445131 0.0445131
0.0465572 0.0465572 0.0465572
0.0486789 0.0486789 0.0486789
0.0508682 0.0508682 0.0508682
0.0531505 0.0531505 0.0531505
0.0555292 0.0555292 0.0555292
0.0567558 0.0567558 0.0567558
0.0592857 0.0592857 0.0592857
0.0618963 0.0618963 0.0618963
0.0632351 0.0632351 0.0632351
0.0659942 0.0659942 0.0659942
0.0674153 0.0674153 0.0674153
0.0703431 0.0703431 0.0703431
0.0718506 0.0718506 0.0718506
0.0749555 0.0749555 0.0749555
0.0765463 0.0765463 0.0765463
0.0798210 0.0798210 0.0798210
0.0815059 0.0815059 0.0815059
0.0832232 0.0832232 0.0832232
0.0867567 0.0867567 0.0867567
0.0885739 0.0885739 0.0885739
0.0904254 0.0904254 0.0904254
0.0923117 0.0923117 0.0923117
0.0962119 0.0962119 0.0962119
0.0982188 0.0982188 0.0982188
0.1002630 0.1002630 0.1002630
0.1023449 0.1023449 0.1023449
0.1044650 0.1044650 0.1044650
0.1066238 0.1066238 0.1066238
0.1088218 0.1088218 0.1088218
0.1133373 0.1133373 0.1133373
0.1156546 0.1156546 0.1156546
0.1180105 0.1180105 0.1180105
0.1204080 0.1204080 0.1204080
0.1228473 0.1228473 0.1228473
0.1253290 0.1253290 0.1253290
0.1278535 0.1278535 0.1278535
0.1304213 0.1304213 0.1304213
0.1330328 0.1330328 0.1330328
0.1330328 0.1330328 0.1330328
0.1356885 0.1356885 0.1356885
0.1383887 0.1383887 0.1383887
0.1411338 0.1411338 0.1411338
0.1439173 0.1439173 0.1439173
0.1467463 0.1467463 0.1467463
0.0144595 0.0144595 0.0144595
0.0159203 0.0159203 0.0159203
0.0175261 0.0175261 0.0175261
0.0188315 0.0188315 0.0188315
0.0207144 0.0207144 0.0207144
0.0222464 0.0222464 0.0222464
0.0238859 0.0238859 0.0238859
0.0256317 0.0256317 0.0256317
0.0275015 0.0275015 0.0275015
0.0295036 0.0295036 0.0295036
0.0309045 0.0309045 0.0309045
0.0331180 0.0331180 0.0331180
0.0346779 0.0346779 0.0346779
0.0371514 0.0371514 0.0371514
0.0388824 0.0388824 0.0388824
0.0406789 0.0406789 0.0406789
0.0425547 0.0425547 0.0425547
0.0445131 0.0445131 0.0445131
0.0465572 0.0465572 0.0465572
0.0486789 0.0486789 0.0486789
0.0508682 0.0508682 0.0508682
0.0531505 0.0531505 0.0531505
0.0555292 0.0555292 0.0555292
0.0567558 0.0567558 0.0567558
0.0592857 0.0592857 0.0592857
0.0618963 0.0618963 0.0618963
0.0632351 0.0632351 0.0632351
0.0659942 0.0659942 0.0659942
0.0688648 0.0688648 0.0688648
0.0703431 0.0703431 0.0703431
0.0718506 0.0718506 0.0718506
0.0749555 0.0749555 0.0749555
0.0765463 0.0765463 0.0765463
0.0798210 0.0798210 0.0798210
0.0815059 0.0815059 0.0815059
0.0832232 0.0832232 0.0832232
0.0867567 0.0867567 0.0867567
0.0885739 0.0885739 0.0885739
0.0904254 0.0904254 0.0904254
0.0923117 0.0923117 0.0923117
0.0962119 0.0962119 0.0962119
0.0982188 0.0982188 0.0982188
0.1002630 0.1002630 0.1002630
0.1023449 0.1023449 0.1023449
0.1044650 0.1044650 0.1044650
0.1066238 0.1066238 0.1066238
0.1088218 0.1088218 0.1088218
0.1133373 0.1133373 0.1133373
0.1156546 0.1156546 0.1156546
0.1180105 0.1180105 0.1180105
0.1204080 0.1204080 0.1204080
0.1228473 0.1228473 0.1228473
0.1253290 0.1253290 0.1253290
0.1278535 0.1278535 0.1278535
0.1304213 0.1304213 0.1304213
0.1330328 0.1330328 0.1330328
0.1330328 0.1330328 0.1330328
0.1356885 0.1356885 0.1356885
0.1383887 0.1383887 0.1383887
0.1411338 0.1411338 0.1411338
0.1439173 0.1439173 0.1439173
0.1467463 0.1467463 0.1467463
0.1496212 0.1496212 0.1496212
0.1525424 0.1525424 0.1525424
0.0175261 0.0175261 0.0175261
0.0188315 0.0188315 0.0188315
0.0207144 0.0207144 0.0207144
0.0222464 0.0222464 0.0222464
0.0238859 0.0238859 0.0238859
0.0256317 0.0256317 0.0256317
0.0275015 0.0275015 0.0275015
0.0295036 0.0295036 0.0295036
0.0309045 0.0309045 0.0309045
0.0331180 0.0331180 0.0331180
0.0346779 0.0346779 0.0346779
0.0371514 0.0371514 0.0371514
0.0388824 0.0388824 0.0388824
0.0406789 0.0406789 0.0406789
0.0425547 0.0425547 0.0425547
0.0445131 0.0445131 0.0445131
0.0465572 0.0465572 0.0465572
0.0486789 0.0486789 0.0486789
0.0508682 0.0508682 0.0508682
0.0531505 0.0531505 0.0531505
0.0555292 0.0555292 0.0555292
0.0567558 0.0567558 0.0567558
0.0592857 0.0592857 0.0592857
0.0618963 0.0618963 0.0618963
0.0632351 0.0632351 0.0632351
0.0659942 0.0659942 0.0659942
0.0688648 0.0688648 0.0688648
0.0703431 0.0703431 0.0703431
0.0718506 0.0718506 0.0718506
0.0749555 0.0749555 0.0749555
0.0765463 0.0765463 0.0765463
0.0798210 0.0798210 0.0798210
0.0815059 0.0815059 0.0815059
0.0832232 0.0832232 0.0832232
0.0867567 0.0867567 0.0867567
0.0885739 0.0885739 0.0885739
0.0904254 0.0904254 0.0904254
0.0923117 0.0923117 0.0923117
0.0962119 0.0962119 0.0962119
0.0982188 0.0982188 0.0982188
0.1002630 0.1002630 0.1002630
0.1023449 0.1023449 0.1023449
0.1044650 0.1044650 0.1044650
0.1066238 0.1066238 0.1066238
0.1088218 0.1088218 0.1088218
0.1133373 0.1133373 0.1133373
0.1156546 0.1156546 0.1156546
0.1180105 0.1180105 0.1180105
0.1204080 0.1204080 0.1204080
0.1228473 0.1228473 0.1228473
0.1253290 0.1253290 0.1253290
0.1278535 0.1278535 0.1278535
0.1304213 0.1304213 0.1304213
0.1330328 0.1330328 0.1330328
0.1330328 0.1330328 0.1330328
0.1356885 0.1356885 0.1356885
0.1383887 0.1383887 0.1383887
0.1411338 0.1411338 0.1411338
0.1439173 0.1439173 0.1439173
0.1467463 0.1467463 0.1467463
0.1496212 0.1496212 0.1496212
0.1525424 0.1525424 0.1525424
0.1555102 0.1555102 0.1555102
0.1555102 0.1555102 0.1555102
0.0207144 0.0207144 0.0207144
0.0222464 0.0222464 0.0222464
0.0238859 0.0238859 0.0238859
0.0256317 0.0256317 0.0256317
0.0275015 0.0275015 0.0275015
0.0295036 0.0295036 0.0295036
0.0309045 0.0309045 0.0309045
0.0331180 0.0331180 0.0331180
0.0346779 0.0346779 0.0346779
0.0371514 0.0371514 0.0371514
0.0388824 0.0388824 0.0388824
0.0406789 0.0406789 0.0406789
0.0425547 0.0425547 0.0425547
0.0445131 0.0445131 0.0445131
0.0465572 0.0465572 0.0465572
0.0486789 0.0486789 0.0486789
0.0508682 0.0508682 0.0508682
0.0531505 0.0531505 0.0531505
0.0555292 0.0555292 0.0555292
0.0567558 0.0567558 0.0567558
0.0592857 0.0592857 0.0592857
0.0618963 0.0618963 0.0618963
0.0632351 0.0632351 0.0632351
0.0659942 0.0659942 0.0659942
0.0688648 0.0688648 0.0688648
0.0703431 0.0703431 0.0703431
0.0718506 0.0718506 0.0718506
0.0749555 0.0749555 0.0749555
0.0765463 0.0765463 0.0765463
0.0798210 0.0798210 0.0798210
0.0815059 0.0815059 0.0815059
0.0832232 0.0832232 0.0832232
0.0867567 0.0867567 0.0867567
0.0885739 0.0885739 0.0885739
0.0904254 0.0904254 0.0904254
0.0923117 0.0923117 0.0923117
0.0962119 0.0962119 0.0962119
0.0982188 0.0982188 0.0982188
0.1002630 0.1002630 0.1002630
0.1023449 0.1023449 0.1023449
0.1044650 0.1044650 0.1044650
0.1066238 0.1066238 0.1066238
0.1088218 0.1088218 0.1088218
0.1133373 0.1133373 0.1133373
0.1156546 0.1156546 0.1156546
0.1180105 0.1180105 0.1180105
0.1204080 0.1204080 0.1204080
0.1228473 0.1228473 0.1228473
0.1253290 0.1253290 0.1253290
0.1278535 0.1278535 0.1278535
0.1304213 0.1304213 0.1304213
0.1330328 0.1330328 0.1330328
0.1330328 0.1330328 0.1330328
0.1356885 0.1356885 0.1356885
0.1383887 0.1383887 0.1383887
0.1411338 0.1411338 0.1411338
0.1439173 0.1439173 0.1439173
0.1467463 0.1467463 0.1467463
0.1496212 0.1496212 0.1496212
0.1525424 0.1525424 0.1525424
0.1555102 0.1555102 0.1555102
0.1555102 0.1555102 0.1555102
0.1585249 0.1585249 0.1585249
0.1615869 0.1615869 0.1615869
0.0238859 0.0238859 0.0238859
0.0256317 0.0256317 0.0256317
0.0275015 0.0275015 0.0275015
0.0295036 0.0295036 0.0295036
0.0309045 0.0309045 0.0309045
0.0331180 0.0331180 0.0331180
0.0346779 0.0346779 0.0346779
0.0371514 0.0371514 0.0371514
0.0388824 0.0388824 0.0388824
0.0406789 0.0406789 0.0406789
0.0425547 0.0425547 0.0425547
0.0445131 0.0445131 0.0445131
0.0465572 0.0465572 0.0465572
0.0486789 0.0486789 0.0486789
0.0508682 0.0508682 0.0508682
0.0531505 0.0531505 0.0531505
0.0555292 0.0555292 0.0555292
0.0567558 0.0567558 0.0567558
0.0592857 0.0592857 0.0592857
0.0618963 0.0618963 0.0618963
0.0632351 0.0632351 0.0632351
0.0659942 0.0659942 0.0659942
0.0688648 0.0688648 0.0688648
0.0703431 0.0703431 0.0703431
0.0718506 0.0718506 0.0718506
0.0749555 0.0749555 0.0749555
0.0765463 0.0765463 0.0765463
0.0798210 0.0798210 0.0798210
0.0815059 0.0815059 0.0815059
0.0832232 0.0832232 0.0832232
0.0867567 0.0867567 0.0867567
0.0885739 0.0885739 0.0885739
0.0904254 0.0904254 0.0904254
0.0923117 0.0923117 0.0923117
0.0962119 0.0962119 0.0962119
0.0982188 0.0982188 0.0982188
0.1002630 0.1002630 0.1002630
0.1023449 0.1023449 0.1023449
0.1044650 0.1044650 0.1044650
0.1066238 0.1066238 0.1066238
0.1088218 0.1088218 0.1088218
0.1133373 0.1133373 0.1133373
0.1156546 0.1156546 0.1156546
0.1180105 0.1180105 0.1180105
0.1204080 0.1204080 0.1204080
0.1228473 0.1228473 0.1228473
0.1253290 0.1253290 0.1253290
0.1278535 0.1278535 0.1278535
0.1304213 0.1304213 0.1304213
0.1330328 0.1330328 0.1330328
0.1330328 0.1330328 0.1330328
0.1356885 0.1356885 0.1356885
0.1383887 0.1383887 0.1383887
0.1411338 0.1411338 0.1411338
0.1439173 0.1439173 0.1439173
0.1467463 0.1467463 0.1467463
0.1496212 0.1496212 0.1496212
0.1525424 0.1525424 0.1525424
0.1555102 0.1555102 0.1555102
0.1555102 0.1555102 0.1555102
0.1585249 0.1585249 0.1585249
0.1615869 0.1615869 0.1615869
0.1646964 0.1646964 0.1646964
0.1678538 0.1678538 0.1678538
0.0275015 0.0275015 0.0275015
0.0295036 0.0295036 0.0295036
0.0309045 0.0309045 0.0309045
0.0331180 0.0331180 0.0331180
0.0346779 0.0346779 0.0346779
0.0371514 0.0371514 0.0371514
0.0388824 0.0388824 0.0388824
0.0406789 0.0406789 0.0406789
0.0425547 0.0425547 0.0425547
0.0445131 0.0445131 0.0445131
0.0465572 0.0465572 0.0465572
0.0486789 0.0486789 0.0486789
0.0508682 0.0508682 0.0508682
0.0531505 0.0531505 0.0531505
0.0555292 0.0555292 0.0555292
0.0567558 0.0567558 0.0567558
0.0592857 0.0592857 0.0592857
0.0618963 0.0618963 0.0618963
0.0632351 0.0632351 0.0632351
0.0659942 0.0659942 0.0659942
0.0688648 0.0688648 0.0688648
0.0703431 0.0703431 0.0703431
0.0718506 0.0718506 0.0718506
0.0749555 0.0749555 0.0749555
0.0765463 0.0765463 0.0765463
0.0798210 0.0798210 0.0798210
0.0815059 0.0815059 0.0815059
0.0832232 0.0832232 0.0832232
0.0867567 0.0867567 0.0867567
0.0885739 0.0885739 0.0885739
