Plugins/FilmEmulator/Content/LUTs/FE_Kodak_5213_64.cube
TITLE "FE_Kodak_5213_33"
LUT_3D_SIZE 4
0.0015915 0.0010500 0.0015134
0.2243126 0.0067811 0.0083483
0.4262473 0.0191817 0.0210816
0.5672733 0.0352365 0.0366657
0.0094199 0.2613278 0.0111341
0.2264884 0.2874578 0.0233968
0.4260535 0.3046642 0.0385081
0.5611441 0.3303612 0.0554379
0.0237319 0.5110334 0.0281798
0.2352673 0.5237998 0.0440947
0.4296481 0.5348261 0.0609878
0.5650052 0.5550284 0.0784996
0.0403981 0.6633209 0.0487912
0.2526391 0.6654685 0.0644400
0.4353552 0.6753085 0.0825638
0.5709862 0.6847241 0.1017915
0.0193410 0.0101542 0.2798866
0.2524874 0.0226231 0.2942992
0.4501652 0.0369991 0.3109370
0.5836694 0.0531909 0.3278664
0.0288695 0.2815061 0.3118861
0.2530928 0.2991228 0.3303166
0.4443662 0.3244016 0.3450607
0.5797240 0.3418886 0.3604230
0.0424617 0.5158229 0.3334745
0.2693605 0.5372508 0.3452907
0.4480746 0.5477273 0.3598945
0.5836475 0.5579451 0.3752421
0.0605164 0.6667778 0.3450864
0.2809560 0.6771252 0.3575096
0.4627386 0.6864946 0.3722997
0.5892562 0.6954976 0.3879536
0.0475151 0.0283013 0.5062896
0.2845548 0.0444205 0.5229687
0.4744086 0.0614360 0.5327929
0.5993030 0.0785915 0.5426748
0.0586027 0.2909219 0.5370651
0.2881755 0.3165573 0.5423912
0.4714637 0.3339745 0.5499774
0.5975569 0.3516477 0.5581978
0.0722725 0.5273539 0.5535297
0.2986419 0.5386397 0.5586143
0.4752105 0.5586546 0.5662382
0.5926014 0.5687126 0.5741684
0.0866717 0.6770032 0.5581625
0.3109937 0.6783556 0.5719459
0.4811442 0.6876065 0.5792905
0.5983918 0.6965208 0.5871667
0.0796055 0.0511513 0.6477957
0.3124087 0.0682605 0.6547135
0.4905095 0.0871905 0.6632333
0.6150723 0.1070066 0.6718735
0.0895636 0.2998561 0.6714894
0.3183765 0.3256857 0.6769617
0.4895747 0.3432631 0.6760576
0.6063250 0.3611449 0.6834766
0.1029330 0.5381521 0.6785011
0.3294493 0.5491841 0.6835766
0.4935584 0.5594743 0.6902019
0.6101696 0.5791492 0.6974519
0.1190123 0.6780073 0.6901299
0.3344400 0.6876953 0.6877418
0.4992708 0.6967755 0.6943246
0.6158458 0.7055447 0.7012509
