Plugins/FilmEmulator/Content/LUTs/FE_Kodak_Polymax_Grade_2_64.cube
TITLE "FE_Kodak_Polymax_Grade_2_33"
LUT_3D_SIZE 8
0.0021400 0.0021400 0.0021400
0.0021400 0.0021400 0.0021400
0.0021400 0.0021400 0.0021400
0.0021406 0.0021406 0.0021406
0.0021543 0.0021543 0.0021543
0.0021801 0.0021801 0.0021801
0.0022138 0.0022138 0.0022138
0.0022670 0.0022670 0.0022670
0.0022830 0.0022830 0.0022830
0.0023942 0.0023942 0.0023942
0.0025971 0.0025971 0.0025971
0.0029312 0.0029312 0.0029312
0.0034189 0.0034189 0.0034189
0.0039816 0.0039816 0.0039816
0.0046691 0.0046691 0.0046691
0.0054920 0.0054920 0.0054920
0.0057087 0.0057087 0.0057087
0.0067494 0.0067494 0.0067494
0.0080097 0.0080097 0.0080097
0.0096389 0.0096389 0.0096389
0.0114766 0.0114766 0.0114766
0.0134557 0.0134557 0.0134557
0.0158427 0.0158427 0.0158427
0.0187428 0.0187428 0.0187428
0.0194584 0.0194584 0.0194584
0.0226599 0.0226599 0.0226599
0.0259077 0.0259077 0.0259077
0.0301932 0.0301932 0.0301932
0.0345052 0.0345052 0.0345052
0.0393840 0.0393840 0.0393840
0.0440901 0.0440901 0.0440901
0.0502743 0.0502743 0.0502743
0.0512222 0.0512222 0.0512222
0.0573318 0.0573318 0.0573318
0.0641479 0.0641479 0.0641479
0.0718030 0.0718030 0.0718030
0.0788782 0.0788782 0.0788782
0.0866848 0.0866848 0.0866848
0.0971202 0.0971202 0.0971202
0.1068273 0.1068273 0.1068273
0.1088684 0.1088684 0.1088684
0.1197198 0.1197198 0.1197198
0.1291159 0.1291159 0.1291159
0.1417309 0.1417309 0.1417309
0.1553487 0.1553487 0.1553487
0.1669588 0.1669588 0.1669588
0.1790528 0.1790528 0.1790528
0.1918209 0.1918209 0.1918209
0.1951193 0.1951193 0.1951193
0.2081611 0.2081611 0.2081611
0.2217129 0.2217129 0.2217129
0.2357423 0.2357423 0.2357423
0.2499316 0.2499316 0.2499316
0.2646790 0.2646790 0.2646790
0.2800745 0.2800745 0.2800745
0.2920129 0.2920129 0.2920129
0.2960581 0.2960581 0.2960581
0.3083861 0.3083861 0.3083861
0.3261105 0.3261105 0.3261105
0.3398727 0.3398727 0.3398727
0.3539108 0.3539108 0.3539108
0.3745366 0.3745366 0.3745366
0.3907003 0.3907003 0.3907003
0.4071073 0.4071073 0.4071073
0.0365217 0.0365217 0.0365217
0.0408947 0.0408947 0.0408947
0.0466463 0.0466463 0.0466463
0.0521933 0.0521933 0.0521933
0.0584150 0.0584150 0.0584150
0.0653687 0.0653687 0.0653687
0.0731582 0.0731582 0.0731582
0.0803862 0.0803862 0.0803862
0.0819206 0.0819206 0.0819206
0.0916984 0.0916984 0.0916984
0.1009049 0.1009049 0.1009049
0.1109437 0.1109437 0.1109437
0.1220119 0.1220119 0.1220119
0.1315612 0.1315612 0.1315612
0.1443723 0.1443723 0.1443723
0.1553487 0.1553487 0.1553487
0.1581970 0.1581970 0.1581970
0.1729222 0.1729222 0.1729222
0.1853518 0.1853518 0.1853518
0.1984048 0.1984048 0.1984048
0.2114908 0.2114908 0.2114908
0.2251977 0.2251977 0.2251977
0.2392367 0.2392367 0.2392367
0.2535665 0.2535665 0.2535665
0.2572362 0.2572362 0.2572362
0.2684515 0.2684515 0.2684515
0.2840208 0.2840208 0.2840208
0.3001357 0.3001357 0.3001357
0.3126417 0.3126417 0.3126417
0.3261105 0.3261105 0.3261105
0.3445225 0.3445225 0.3445225
0.3586481 0.3586481 0.3586481
0.3639118 0.3639118 0.3639118
0.3798953 0.3798953 0.3798953
0.3961439 0.3961439 0.3961439
0.4126247 0.4126247 0.4126247
0.4312228 0.4312228 0.4312228
0.4502589 0.4502589 0.4502589
0.4694416 0.4694416 0.4694416
0.4894636 0.4894636 0.4894636
0.4964602 0.4964602 0.4964602
0.5174472 0.5174472 0.5174472
0.5383731 0.5383731 0.5383731
0.5522534 0.5522534 0.5522534
0.5738016 0.5738016 0.5738016
0.5950736 0.5950736 0.5950736
0.6090639 0.6090639 0.6090639
0.6297377 0.6297377 0.6297377
0.6365596 0.6365596 0.6365596
0.6500371 0.6500371 0.6500371
0.6698064 0.6698064 0.6698064
0.6826658 0.6826658 0.6826658
0.6952456 0.6952456 0.6952456
0.7135313 0.7135313 0.7135313
0.7253497 0.7253497 0.7253497
0.7424985 0.7424985 0.7424985
0.7424985 0.7424985 0.7424985
0.7535347 0.7535347 0.7535347
0.7698794 0.7698794 0.7698794
0.7803459 0.7803459 0.7803459
0.7904657 0.7904657 0.7904657
0.8002385 0.8002385 0.8002385
0.8141825 0.8141825 0.8141825
0.8230189 0.8230189 0.8230189
0.3215875 0.3215875 0.3215875
0.3352537 0.3352537 0.3352537
0.3492019 0.3492019 0.3492019
0.3639118 0.3639118 0.3639118
0.3852837 0.3852837 0.3852837
0.4016132 0.4016132 0.4016132
0.4186403 0.4186403 0.4186403
0.4375486 0.4375486 0.4375486
0.4438944 0.4438944 0.4438944
0.4630345 0.4630345 0.4630345
0.4824713 0.4824713 0.4824713
0.4964602 0.4964602 0.4964602
0.5174472 0.5174472 0.5174472
0.5383731 0.5383731 0.5383731
0.5594620 0.5594620 0.5594620
0.5809270 0.5809270 0.5809270
0.5809270 0.5809270 0.5809270
0.6020896 0.6020896 0.6020896
0.6159940 0.6159940 0.6159940
0.6365596 0.6365596 0.6365596
0.6566883 0.6566883 0.6566883
0.6698064 0.6698064 0.6698064
0.6889939 0.6889939 0.6889939
0.7014135 0.7014135 0.7014135
0.7075093 0.7075093 0.7075093
0.7194785 0.7194785 0.7194785
0.7311444 0.7311444 0.7311444
0.7480566 0.7480566 0.7480566
0.7590684 0.7590684 0.7590684
0.7698794 0.7698794 0.7698794
0.7803459 0.7803459 0.7803459
0.7953954 0.7953954 0.7953954
0.7953954 0.7953954 0.7953954
0.8049950 0.8049950 0.8049950
0.8186426 0.8186426 0.8186426
0.8273120 0.8273120 0.8273120
0.8356501 0.8356501 0.8356501
0.8436620 0.8436620 0.8436620
0.8513204 0.8513204 0.8513204
0.8585128 0.8585128 0.8585128
0.8585128 0.8585128 0.8585128
0.8654123 0.8654123 0.8654123
0.8720255 0.8720255 0.8720255
0.8783594 0.8783594 0.8783594
0.8844213 0.8844213 0.8844213
0.8901380 0.8901380 0.8901380
0.8956054 0.8956054 0.8956054
0.9008309 0.9008309 0.9008309
0.9008309 0.9008309 0.9008309
0.9058223 0.9058223 0.9058223
0.9105874 0.9105874 0.9105874
0.9150079 0.9150079 0.9150079
0.9192050 0.9192050 0.9192050
0.9232122 0.9232122 0.9232122
0.9251468 0.9251468 0.9251468
0.9288822 0.9288822 0.9288822
0.9288822 0.9288822 0.9288822
0.9324324 0.9324324 0.9324324
0.9357588 0.9357588 0.9357588
0.9389321 0.9389321 0.9389321
0.9404633 0.9404633 0.9404633
0.9434183 0.9434183 0.9434183
0.9462350 0.9462350 0.9462350
0.9475933 0.9475933 0.9475933
0.7645169 0.7645169 0.7645169
0.7751560 0.7751560 0.7751560
0.7854491 0.7854491 0.7854491
0.8002385 0.8002385 0.8002385
0.8096380 0.8096380 0.8096380
0.8186426 0.8186426 0.8186426
0.8273120 0.8273120 0.8273120
0.8356501 0.8356501 0.8356501
0.8396964 0.8396964 0.8396964
0.8475471 0.8475471 0.8475471
0.8549536 0.8549536 0.8549536
0.8619987 0.8619987 0.8619987
0.8687541 0.8687541 0.8687541
0.8752270 0.8752270 0.8752270
0.8814239 0.8814239 0.8814239
0.8873113 0.8873113 0.8873113
0.8873113 0.8873113 0.8873113
0.8929024 0.8929024 0.8929024
0.8982478 0.8982478 0.8982478
0.9033553 0.9033553 0.9033553
0.9082326 0.9082326 0.9082326
0.9128360 0.9128360 0.9128360
0.9150079 0.9150079 0.9150079
0.9192050 0.9192050 0.9192050
0.9212319 0.9212319 0.9212319
0.9232122 0.9232122 0.9232122
0.9270365 0.9270365 0.9270365
0.9306847 0.9306847 0.9306847
0.9341151 0.9341151 0.9341151
0.9357588 0.9357588 0.9357588
0.9389321 0.9389321 0.9389321
0.9419584 0.9419584 0.9419584
0.9419584 0.9419584 0.9419584
0.9448436 0.9448436 0.9448436
0.9462350 0.9462350 0.9462350
0.9488332 0.9488332 0.9488332
0.9512304 0.9512304 0.9512304
0.9523886 0.9523886 0.9523886
0.9546272 0.9546272 0.9546272
0.9557085 0.9557085 0.9557085
0.9567652 0.9567652 0.9567652
0.9577979 0.9577979 0.9577979
0.9596903 0.9596903 0.9596903
0.9605051 0.9605051 0.9605051
0.9620876 0.9620876 0.9620876
0.9628558 0.9628558 0.9628558
0.9643477 0.9643477 0.9643477
0.9650718 0.9650718 0.9650718
0.9657817 0.9657817 0.9657817
0.9664777 0.9664777 0.9664777
0.9671324 0.9671324 0.9671324
0.9682989 0.9682989 0.9682989
0.9688669 0.9688669 0.9688669
0.9699737 0.9699737 0.9699737
0.9705126 0.9705126 0.9705126
0.9715626 0.9715626 0.9715626
0.9715626 0.9715626 0.9715626
0.9720739 0.9720739 0.9720739
0.9729668 0.9729668 0.9729668
0.9733520 0.9733520 0.9733520
0.9737318 0.9737318 0.9737318
0.9744757 0.9744757 0.9744757
0.9748400 0.9748400 0.9748400
0.9751992 0.9751992 0.9751992
0.9341151 0.9341151 0.9341151
0.9373642 0.9373642 0.9373642
0.9404633 0.9404633 0.9404633
0.9419584 0.9419584 0.9419584
0.9448436 0.9448436 0.9448436
0.9475933 0.9475933 0.9475933
0.9488332 0.9488332 0.9488332
0.9512304 0.9512304 0.9512304
0.9512304 0.9512304 0.9512304
0.9535208 0.9535208 0.9535208
0.9546272 0.9546272 0.9546272
0.9567652 0.9567652 0.9567652
0.9577979 0.9577979 0.9577979
0.9596903 0.9596903 0.9596903
0.9613041 0.9613041 0.9613041
0.9620876 0.9620876 0.9620876
0.9620876 0.9620876 0.9620876
0.9636091 0.9636091 0.9636091
0.9643477 0.9643477 0.9643477
0.9657817 0.9657817 0.9657817
0.9664777 0.9664777 0.9664777
0.9677207 0.9677207 0.9677207
0.9682989 0.9682989 0.9682989
0.9694252 0.9694252 0.9694252
0.9694252 0.9694252 0.9694252
0.9699737 0.9699737 0.9699737
0.9710422 0.9710422 0.9710422
0.9715626 0.9715626 0.9715626
0.9725762 0.9725762 0.9725762
0.9729668 0.9729668 0.9729668
0.9733520 0.9733520 0.9733520
0.9741064 0.9741064 0.9741064
0.9741064 0.9741064 0.9741064
0.9744757 0.9744757 0.9744757
0.9751992 0.9751992 0.9751992
0.9755533 0.9755533 0.9755533
0.9759026 0.9759026 0.9759026
0.9762470 0.9762470 0.9762470
0.9768058 0.9768058 0.9768058
0.9770689 0.9770689 0.9770689
0.9770689 0.9770689 0.9770689
0.9775864 0.9775864 0.9775864
0.9778410 0.9778410 0.9778410
0.9780926 0.9780926 0.9780926
0.9783415 0.9783415 0.9783415
0.9788309 0.9788309 0.9788309
0.9790547 0.9790547 0.9790547
0.9792428 0.9792428 0.9792428
0.9792428 0.9792428 0.9792428
0.9794292 0.9794292 0.9794292
0.9797972 0.9797972 0.9797972
0.9799787 0.9799787 0.9799787
0.9801587 0.9801587 0.9801587
0.9803370 0.9803370 0.9803370
0.9805138 0.9805138 0.9805138
0.9808627 0.9808627 0.9808627
0.9808627 0.9808627 0.9808627
0.9810033 0.9810033 0.9810033
0.9811428 0.9811428 0.9811428
0.9812813 0.9812813 0.9812813
0.9814188 0.9814188 0.9814188
0.9815554 0.9815554 0.9815554
0.9818255 0.9818255 0.9818255
0.9819592 0.9819592 0.9819592
0.9725762 0.9725762 0.9725762
0.9729668 0.9729668 0.9729668
0.9737318 0.9737318 0.9737318
0.9741064 0.9741064 0.9741064
0.9744757 0.9744757 0.9744757
0.9751992 0.9751992 0.9751992
0.9755533 0.9755533 0.9755533
0.9759026 0.9759026 0.9759026
0.9762470 0.9762470 0.9762470
0.9765397 0.9765397 0.9765397
0.9768058 0.9768058 0.9768058
0.9773291 0.9773291 0.9773291
0.9775864 0.9775864 0.9775864
0.9778410 0.9778410 0.9778410
0.9780926 0.9780926 0.9780926
0.9785876 0.9785876 0.9785876
0.9785876 0.9785876 0.9785876
0.9788309 0.9788309 0.9788309
0.9790547 0.9790547 0.9790547
0.9792428 0.9792428 0.9792428
0.9796140 0.9796140 0.9796140
0.9797972 0.9797972 0.9797972
0.9799787 0.9799787 0.9799787
0.9801587 0.9801587 0.9801587
0.9803370 0.9803370 0.9803370
0.9805138 0.9805138 0.9805138
0.9806890 0.9806890 0.9806890
0.9808627 0.9808627 0.9808627
0.9810033 0.9810033 0.9810033
0.9811428 0.9811428 0.9811428
0.9812813 0.9812813 0.9812813
0.9815554 0.9815554 0.9815554
0.9815554 0.9815554 0.9815554
0.9816909 0.9816909 0.9816909
0.9818255 0.9818255 0.9818255
0.9819592 0.9819592 0.9819592
0.9820918 0.9820918 0.9820918
0.9822235 0.9822235 0.9822235
0.9823420 0.9823420 0.9823420
0.9824537 0.9824537 0.9824537
0.9825647 0.9825647 0.9825647
0.9826750 0.9826750 0.9826750
0.9827846 0.9827846 0.9827846
0.9828936 0.9828936 0.9828936
0.9830019 0.9830019 0.9830019
0.9831095 0.9831095 0.9831095
0.9832164 0.9832164 0.9832164
0.9833227 0.9833227 0.9833227
0.9833227 0.9833227 0.9833227
0.9834215 0.9834215 0.9834215
0.9835064 0.9835064 0.9835064
0.9835908 0.9835908 0.9835908
0.9836749 0.9836749 0.9836749
0.9837584 0.9837584 0.9837584
0.9838416 0.9838416 0.9838416
0.9839244 0.9839244 0.9839244
0.9840067 0.9840067 0.9840067
0.9840887 0.9840887 0.9840887
0.9841701 0.9841701 0.9841701
0.9841701 0.9841701 0.9841701
0.9842513 0.9842513 0.9842513
0.9843135 0.9843135 0.9843135
0.9843755 0.9843755 0.9843755
0.9844372 0.9844372 0.9844372
0.9811428 0.9811428 0.9811428
0.9812813 0.9812813 0.9812813
0.9814188 0.9814188 0.9814188
0.9815554 0.9815554 0.9815554
0.9816909 0.9816909 0.9816909
0.9818255 0.9818255 0.9818255
0.9819592 0.9819592 0.9819592
0.9820918 0.9820918 0.9820918
0.9822235 0.9822235 0.9822235
0.9823420 0.9823420 0.9823420
0.9824537 0.9824537 0.9824537
0.9825647 0.9825647 0.9825647
0.9826750 0.9826750 0.9826750
0.9827846 0.9827846 0.9827846
0.9828936 0.9828936 0.9828936
0.9830019 0.9830019 0.9830019
0.9830019 0.9830019 0.9830019
0.9831095 0.9831095 0.9831095
0.9832164 0.9832164 0.9832164
0.9833227 0.9833227 0.9833227
0.9835064 0.9835064 0.9835064
0.9835908 0.9835908 0.9835908
0.9836749 0.9836749 0.9836749
0.9837584 0.9837584 0.9837584
0.9837584 0.9837584 0.9837584
0.9838416 0.9838416 0.9838416
0.9839244 0.9839244 0.9839244
0.9840067 0.9840067 0.9840067
0.9840887 0.9840887 0.9840887
0.9841701 0.9841701 0.9841701
0.9842513 0.9842513 0.9842513
0.9843135 0.9843135 0.9843135
0.9843135 0.9843135 0.9843135
0.9843755 0.9843755 0.9843755
0.9844372 0.9844372 0.9844372
0.9844987 0.9844987 0.9844987
0.9845601 0.9845601 0.9845601
0.9846210 0.9846210 0.9846210
0.9846818 0.9846818 0.9846818
0.9846818 0.9846818 0.9846818
0.9847424 0.9847424 0.9847424
0.9848027 0.9848027 0.9848027
0.9848628 0.9848628 0.9848628
0.9848628 0.9848628 0.9848628
0.9849172 0.9849172 0.9849172
0.9849687 0.9849687 0.9849687
0.9850201 0.9850201 0.9850201
0.9850712 0.9850712 0.9850712
0.9850712 0.9850712 0.9850712
0.9851223 0.9851223 0.9851223
0.9851730 0.9851730 0.9851730
0.9852237 0.9852237 0.9852237
0.9852742 0.9852742 0.9852742
0.9853245 0.9853245 0.9853245
0.9853747 0.9853747 0.9853747
0.9853747 0.9853747 0.9853747
0.9854210 0.9854210 0.9854210
0.9854210 0.9854210 0.9854210
0.9854599 0.9854599 0.9854599
0.9854988 0.9854988 0.9854988
0.9855375 0.9855375 0.9855375
0.9855762 0.9855762 0.9855762
0.9856147 0.9856147 0.9856147
0.9856532 0.9856532 0.9856532
0.9840887 0.9840887 0.9840887
0.9841701 0.9841701 0.9841701
0.9842513 0.9842513 0.9842513
0.9843135 0.9843135 0.9843135
0.9843755 0.9843755 0.9843755
0.9844372 0.9844372 0.9844372
0.9844987 0.9844987 0.9844987
0.9845601 0.9845601 0.9845601
0.9845601 0.9845601 0.9845601
0.9846210 0.9846210 0.9846210
0.9846818 0.9846818 0.9846818
0.9847424 0.9847424 0.9847424
0.9848027 0.9848027 0.9848027
0.9848628 0.9848628 0.9848628
0.9849172 0.9849172 0.9849172
0.9849687 0.9849687 0.9849687
0.9849687 0.9849687 0.9849687
0.9850201 0.9850201 0.9850201
0.9850712 0.9850712 0.9850712
0.9850712 0.9850712 0.9850712
0.9851223 0.9851223 0.9851223
0.9851730 0.9851730 0.9851730
0.9852237 0.9852237 0.9852237
0.9852742 0.9852742 0.9852742
0.9852742 0.9852742 0.9852742
0.9853245 0.9853245 0.9853245
0.9853747 0.9853747 0.9853747
0.9854210 0.9854210 0.9854210
0.9854599 0.9854599 0.9854599
0.9854599 0.9854599 0.9854599
0.9854988 0.9854988 0.9854988
0.9855375 0.9855375 0.9855375
0.9855375 0.9855375 0.9855375
0.9855762 0.9855762 0.9855762
0.9856147 0.9856147 0.9856147
0.9856532 0.9856532 0.9856532
0.9856915 0.9856915 0.9856915
0.9857297 0.9857297 0.9857297
0.9857297 0.9857297 0.9857297
0.9857678 0.9857678 0.9857678
0.9857678 0.9857678 0.9857678
0.9858059 0.9858059 0.9858059
0.9858294 0.9858294 0.9858294
0.9858529 0.9858529 0.9858529
0.9858763 0.9858763 0.9858763
0.9858763 0.9858763 0.9858763
0.9858997 0.9858997 0.9858997
0.9859231 0.9859231 0.9859231
0.9859231 0.9859231 0.9859231
0.9859465 0.9859465 0.9859465
0.9859698 0.9859698 0.9859698
0.9859930 0.9859930 0.9859930
0.9859930 0.9859930 0.9859930
0.9860162 0.9860162 0.9860162
0.9860395 0.9860395 0.9860395
0.9860580 0.9860580 0.9860580
0.9860580 0.9860580 0.9860580
0.9860742 0.9860742 0.9860742
0.9860742 0.9860742 0.9860742
0.9860904 0.9860904 0.9860904
0.9861066 0.9861066 0.9861066
0.9861227 0.9861227 0.9861227
0.9861227 0.9861227 0.9861227
0.9861389 0.9861389 0.9861389
