Plugins/FilmEmulator/Content/LUTs/FE_Kodak_TriX_400_Dev7_64.cube
TITLE "FE_Kodak_TriX_400_Dev7_33"
LUT_3D_SIZE 64
0.0037964 0.0037964 0.0037964
0.0039642 0.0039642 0.0039642
0.0045983 0.0045983 0.0045983
0.0054068 0.0054068 0.0054068
0.0064846 0.0064846 0.0064846
0.0079129 0.0079129 0.0079129
0.0093479 0.0093479 0.0093479
0.0111876 0.0111876 0.0111876
0.0129335 0.0129335 0.0129335
0.0146022 0.0146022 0.0146022
0.0165263 0.0165263 0.0165263
0.0186993 0.0186993 0.0186993
0.0206360 0.0206360 0.0206360
0.0222161 0.0222161 0.0222161
0.0245136 0.0245136 0.0245136
0.0264103 0.0264103 0.0264103
0.0284494 0.0284494 0.0284494
0.0306409 0.0306409 0.0306409
0.0330273 0.0330273 0.0330273
0.0347232 0.0347232 0.0347232
0.0374254 0.0374254 0.0374254
0.0393379 0.0393379 0.0393379
0.0413636 0.0413636 0.0413636
0.0435094 0.0435094 0.0435094
0.0457612 0.0457612 0.0457612
0.0481236 0.0481236 0.0481236
0.0506016 0.0506016 0.0506016
0.0532221 0.0532221 0.0532221
0.0546026 0.0546026 0.0546026
0.0574654 0.0574654 0.0574654
0.0604687 0.0604687 0.0604687
0.0620248 0.0620248 0.0620248
0.0652499 0.0652499 0.0652499
0.0669203 0.0669203 0.0669203
0.0686420 0.0686420 0.0686420
0.0722577 0.0722577 0.0722577
0.0741308 0.0741308 0.0741308
0.0760484 0.0760484 0.0760484
0.0800208 0.0800208 0.0800208
0.0820773 0.0820773 0.0820773
0.0841818 0.0841818 0.0841818
0.0863352 0.0863352 0.0863352
0.0885383 0.0885383 0.0885383
0.0908158 0.0908158 0.0908158
0.0931459 0.0931459 0.0931459
0.0955295 0.0955295 0.0955295
0.0979675 0.0979675 0.0979675
0.1004608 0.1004608 0.1004608
0.1030103 0.1030103 0.1030103
0.1056170 0.1056170 0.1056170
0.1082816 0.1082816 0.1082816
0.1110051 0.1110051 0.1110051
0.1137884 0.1137884 0.1137884
0.1166474 0.1166474 0.1166474
0.1195765 0.1195765 0.1195765
0.1225688 0.1225688 0.1225688
0.1256254 0.1256254 0.1256254
0.1256254 0.1256254 0.1256254
0.1287469 0.1287469 0.1287469
0.1319344 0.1319344 0.1319344
0.1351885 0.1351885 0.1351885
0.1385101 0.1385101 0.1385101
0.1385101 0.1385101 0.1385101
0.1418998 0.1418998 0.1418998
0.0045983 0.0045983 0.0045983
0.0054068 0.0054068 0.0054068
0.0064846 0.0064846 0.0064846
0.0079129 0.0079129 0.0079129
0.0093479 0.0093479 0.0093479
0.0111876 0.0111876 0.0111876
0.0129335 0.0129335 0.0129335
0.0146022 0.0146022 0.0146022
0.0165263 0.0165263 0.0165263
0.0186993 0.0186993 0.0186993
0.0206360 0.0206360 0.0206360
0.0222161 0.0222161 0.0222161
0.0245136 0.0245136 0.0245136
0.0264103 0.0264103 0.0264103
0.0284494 0.0284494 0.0284494
0.0306409 0.0306409 0.0306409
0.0330273 0.0330273 0.0330273
0.0347232 0.0347232 0.0347232
0.0374254 0.0374254 0.0374254
0.0393379 0.0393379 0.0393379
0.0413636 0.0413636 0.0413636
0.0435094 0.0435094 0.0435094
0.0457612 0.0457612 0.0457612
0.0481236 0.0481236 0.0481236
0.0506016 0.0506016 0.0506016
0.0532221 0.0532221 0.0532221
0.0546026 0.0546026 0.0546026
0.0574654 0.0574654 0.0574654
0.0604687 0.0604687 0.0604687
0.0620248 0.0620248 0.0620248
0.0652499 0.0652499 0.0652499
0.0669203 0.0669203 0.0669203
0.0686420 0.0686420 0.0686420
0.0722577 0.0722577 0.0722577
0.0741308 0.0741308 0.0741308
0.0760484 0.0760484 0.0760484
0.0800208 0.0800208 0.0800208
0.0820773 0.0820773 0.0820773
0.0841818 0.0841818 0.0841818
0.0863352 0.0863352 0.0863352
0.0885383 0.0885383 0.0885383
0.0908158 0.0908158 0.0908158
0.0931459 0.0931459 0.0931459
0.0955295 0.0955295 0.0955295
0.0979675 0.0979675 0.0979675
0.1004608 0.1004608 0.1004608
0.1030103 0.1030103 0.1030103
0.1056170 0.1056170 0.1056170
0.1082816 0.1082816 0.1082816
0.1110051 0.1110051 0.1110051
0.1137884 0.1137884 0.1137884
0.1166474 0.1166474 0.1166474
0.1195765 0.1195765 0.1195765
0.1225688 0.1225688 0.1225688
0.1256254 0.1256254 0.1256254
0.1256254 0.1256254 0.1256254
0.1287469 0.1287469 0.1287469
0.1319344 0.1319344 0.1319344
0.1351885 0.1351885 0.1351885
0.1385101 0.1385101 0.1385101
0.1385101 0.1385101 0.1385101
0.1418998 0.1418998 0.1418998
0.1453586 0.1453586 0.1453586
0.1489009 0.1489009 0.1489009
0.0064846 0.0064846 0.0064846
0.0079129 0.0079129 0.0079129
0.0093479 0.0093479 0.0093479
0.0111876 0.0111876 0.0111876
0.0129335 0.0129335 0.0129335
0.0146022 0.0146022 0.0146022
0.0165263 0.0165263 0.0165263
0.0186993 0.0186993 0.0186993
0.0206360 0.0206360 0.0206360
0.0222161 0.0222161 0.0222161
0.0245136 0.0245136 0.0245136
0.0264103 0.0264103 0.0264103
0.0284494 0.0284494 0.0284494
0.0306409 0.0306409 0.0306409
0.0330273 0.0330273 0.0330273
0.0347232 0.0347232 0.0347232
0.0374254 0.0374254 0.0374254
0.0393379 0.0393379 0.0393379
0.0413636 0.0413636 0.0413636
0.0435094 0.0435094 0.0435094
0.0457612 0.0457612 0.0457612
0.0481236 0.0481236 0.0481236
0.0506016 0.0506016 0.0506016
0.0532221 0.0532221 0.0532221
0.0546026 0.0546026 0.0546026
0.0574654 0.0574654 0.0574654
0.0604687 0.0604687 0.0604687
0.0620248 0.0620248 0.0620248
0.0652499 0.0652499 0.0652499
0.0669203 0.0669203 0.0669203
0.0686420 0.0686420 0.0686420
0.0722577 0.0722577 0.0722577
0.0741308 0.0741308 0.0741308
0.0760484 0.0760484 0.0760484
0.0800208 0.0800208 0.0800208
0.0820773 0.0820773 0.0820773
0.0841818 0.0841818 0.0841818
0.0863352 0.0863352 0.0863352
0.0885383 0.0885383 0.0885383
0.0908158 0.0908158 0.0908158
0.0931459 0.0931459 0.0931459
0.0955295 0.0955295 0.0955295
0.0979675 0.0979675 0.0979675
0.1004608 0.1004608 0.1004608
0.1030103 0.1030103 0.1030103
0.1056170 0.1056170 0.1056170
0.1082816 0.1082816 0.1082816
0.1110051 0.1110051 0.1110051
0.1137884 0.1137884 0.1137884
0.1166474 0.1166474 0.1166474
0.1195765 0.1195765 0.1195765
0.1225688 0.1225688 0.1225688
0.1256254 0.1256254 0.1256254
0.1256254 0.1256254 0.1256254
0.1287469 0.1287469 0.1287469
0.1319344 0.1319344 0.1319344
0.1351885 0.1351885 0.1351885
0.1385101 0.1385101 0.1385101
0.1385101 0.1385101 0.1385101
0.1418998 0.1418998 0.1418998
0.1453586 0.1453586 0.1453586
0.1489009 0.1489009 0.1489009
0.1489009 0.1489009 0.1489009
0.1525424 0.1525424 0.1525424
0.0093479 0.0093479 0.0093479
0.0111876 0.0111876 0.0111876
0.0129335 0.0129335 0.0129335
0.0146022 0.0146022 0.0146022
0.0165263 0.0165263 0.0165263
0.0186993 0.0186993 0.0186993
0.0206360 0.0206360 0.0206360
0.0222161 0.0222161 0.0222161
0.0245136 0.0245136 0.0245136
0.0264103 0.0264103 0.0264103
0.0284494 0.0284494 0.0284494
0.0306409 0.0306409 0.0306409
0.0330273 0.0330273 0.0330273
0.0347232 0.0347232 0.0347232
0.0374254 0.0374254 0.0374254
0.0393379 0.0393379 0.0393379
0.0413636 0.0413636 0.0413636
0.0435094 0.0435094 0.0435094
0.0457612 0.0457612 0.0457612
0.0481236 0.0481236 0.0481236
0.0506016 0.0506016 0.0506016
0.0532221 0.0532221 0.0532221
0.0546026 0.0546026 0.0546026
0.0574654 0.0574654 0.0574654
0.0604687 0.0604687 0.0604687
0.0620248 0.0620248 0.0620248
0.0652499 0.0652499 0.0652499
0.0669203 0.0669203 0.0669203
0.0686420 0.0686420 0.0686420
0.0722577 0.0722577 0.0722577
0.0741308 0.0741308 0.0741308
0.0760484 0.0760484 0.0760484
0.0800208 0.0800208 0.0800208
0.0820773 0.0820773 0.0820773
0.0841818 0.0841818 0.0841818
0.0863352 0.0863352 0.0863352
0.0885383 0.0885383 0.0885383
0.0908158 0.0908158 0.0908158
0.0931459 0.0931459 0.0931459
0.0955295 0.0955295 0.0955295
0.0979675 0.0979675 0.0979675
0.1004608 0.1004608 0.1004608
0.1030103 0.1030103 0.1030103
0.1056170 0.1056170 0.1056170
0.1082816 0.1082816 0.1082816
0.1110051 0.1110051 0.1110051
0.1137884 0.1137884 0.1137884
0.1166474 0.1166474 0.1166474
0.1195765 0.1195765 0.1195765
0.1225688 0.1225688 0.1225688
0.1256254 0.1256254 0.1256254
0.1256254 0.1256254 0.1256254
0.1287469 0.1287469 0.1287469
0.1319344 0.1319344 0.1319344
0.1351885 0.1351885 0.1351885
0.1385101 0.1385101 0.1385101
0.1385101 0.1385101 0.1385101
0.1418998 0.1418998 0.1418998
0.1453586 0.1453586 0.1453586
0.1489009 0.1489009 0.1489009
0.1489009 0.1489009 0.1489009
0.1525424 0.1525424 0.1525424
0.1562565 0.1562565 0.1562565
0.1562565 0.1562565 0.1562565
0.0129335 0.0129335 0.0129335
0.0146022 0.0146022 0.0146022
0.0165263 0.0165263 0.0165263
0.0186993 0.0186993 0.0186993
0.0206360 0.0206360 0.0206360
0.0222161 0.0222161 0.0222161
0.0245136 0.0245136 0.0245136
0.0264103 0.0264103 0.0264103
0.0284494 0.0284494 0.0284494
0.0306409 0.0306409 0.0306409
0.0330273 0.0330273 0.0330273
0.0347232 0.0347232 0.0347232
0.0374254 0.0374254 0.0374254
0.0393379 0.0393379 0.0393379
0.0413636 0.0413636 0.0413636
0.0435094 0.0435094 0.0435094
0.0457612 0.0457612 0.0457612
0.0481236 0.0481236 0.0481236
0.0506016 0.0506016 0.0506016
0.0532221 0.0532221 0.0532221
0.0546026 0.0546026 0.0546026
0.0574654 0.0574654 0.0574654
0.0604687 0.0604687 0.0604687
0.0620248 0.0620248 0.0620248
0.0652499 0.0652499 0.0652499
0.0669203 0.0669203 0.0669203
0.0686420 0.0686420 0.0686420
0.0722577 0.0722577 0.0722577
0.0741308 0.0741308 0.0741308
0.0760484 0.0760484 0.0760484
0.0800208 0.0800208 0.0800208
0.0820773 0.0820773 0.0820773
0.0841818 0.0841818 0.0841818
0.0863352 0.0863352 0.0863352
0.0885383 0.0885383 0.0885383
0.0908158 0.0908158 0.0908158
0.0931459 0.0931459 0.0931459
0.0955295 0.0955295 0.0955295
0.0979675 0.0979675 0.0979675
0.1004608 0.1004608 0.1004608
0.1030103 0.1030103 0.1030103
0.1056170 0.1056170 0.1056170
0.1082816 0.1082816 0.1082816
0.1110051 0.1110051 0.1110051
0.1137884 0.1137884 0.1137884
0.1166474 0.1166474 0.1166474
0.1195765 0.1195765 0.1195765
0.1225688 0.1225688 0.1225688
0.1256254 0.1256254 0.1256254
0.1256254 0.1256254 0.1256254
0.1287469 0.1287469 0.1287469
0.1319344 0.1319344 0.1319344
0.1351885 0.1351885 0.1351885
0.1385101 0.1385101 0.1385101
0.1385101 0.1385101 0.1385101
0.1418998 0.1418998 0.1418998
0.1453586 0.1453586 0.1453586
0.1489009 0.1489009 0.1489009
0.1489009 0.1489009 0.1489009
0.1525424 0.1525424 0.1525424
0.1562565 0.1562565 0.1562565
0.1562565 0.1562565 0.1562565
0.1600440 0.1600440 0.1600440
0.1639055 0.1639055 0.1639055
0.0165263 0.0165263 0.0165263
0.0186993 0.0186993 0.0186993
0.0206360 0.0206360 0.0206360
0.0222161 0.0222161 0.0222161
0.0245136 0.0245136 0.0245136
0.0264103 0.0264103 0.0264103
0.0284494 0.0284494 0.0284494
0.0306409 0.0306409 0.0306409
0.0330273 0.0330273 0.0330273
0.0347232 0.0347232 0.0347232
0.0374254 0.0374254 0.0374254
0.0393379 0.0393379 0.0393379
0.0413636 0.0413636 0.0413636
0.0435094 0.0435094 0.0435094
0.0457612 0.0457612 0.0457612
0.0481236 0.0481236 0.0481236
0.0506016 0.0506016 0.0506016
0.0532221 0.0532221 0.0532221
0.0546026 0.0546026 0.0546026
0.0574654 0.0574654 0.0574654
0.0604687 0.0604687 0.0604687
0.0620248 0.0620248 0.0620248
0.0652499 0.0652499 0.0652499
0.0669203 0.0669203 0.0669203
0.0686420 0.0686420 0.0686420
0.0722577 0.0722577 0.0722577
0.0741308 0.0741308 0.0741308
0.0760484 0.0760484 0.0760484
0.0800208 0.0800208 0.0800208
0.0820773 0.0820773 0.0820773
0.0841818 0.0841818 0.0841818
0.0863352 0.0863352 0.0863352
0.0885383 0.0885383 0.0885383
0.0908158 0.0908158 0.0908158
0.0931459 0.0931459 0.0931459
0.0955295 0.0955295 0.0955295
0.0979675 0.0979675 0.0979675
0.1004608 0.1004608 0.1004608
0.1030103 0.1030103 0.1030103
0.1056170 0.1056170 0.1056170
0.1082816 0.1082816 0.1082816
0.1110051 0.1110051 0.1110051
0.1137884 0.1137884 0.1137884
0.1166474 0.1166474 0.1166474
0.1195765 0.1195765 0.1195765
0.1225688 0.1225688 0.1225688
0.1256254 0.1256254 0.1256254
0.1256254 0.1256254 0.1256254
0.1287469 0.1287469 0.1287469
0.1319344 0.1319344 0.1319344
0.1351885 0.1351885 0.1351885
0.1385101 0.1385101 0.1385101
0.1385101 0.1385101 0.1385101
0.1418998 0.1418998 0.1418998
0.1453586 0.1453586 0.1453586
0.1489009 0.1489009 0.1489009
0.1489009 0.1489009 0.1489009
0.1525424 0.1525424 0.1525424
0.1562565 0.1562565 0.1562565
0.1562565 0.1562565 0.1562565
0.1600440 0.1600440 0.1600440
0.1639055 0.1639055 0.1639055
0.1639055 0.1639055 0.1639055
0.1678415 0.1678415 0.1678415
0.0206360 0.0206360 0.0206360
0.0222161 0.0222161 0.0222161
0.0245136 0.0245136 0.0245136
0.0264103 0.0264103 0.0264103
0.0284494 0.0284494 0.0284494
0.0306409 0.0306409 0.0306409
0.0330273 0.0330273 0.0330273
0.0347232 0.0347232 0.0347232
0.0374254 0.0374254 0.0374254
0.0393379 0.0393379 0.0393379
0.0413636 0.0413636 0.0413636
0.0435094 0.0435094 0.0435094
0.0457612 0.0457612 0.0457612
0.0481236 0.0481236 0.0481236
0.0506016 0.0506016 0.0506016
0.0532221 0.0532221 0.0532221
0.0546026 0.0546026 0.0546026
0.0574654 0.0574654 0.0574654
0.0604687 0.0604687 0.0604687
0.0620248 0.0620248 0.0620248
0.0652499 0.0652499 0.0652499
0.0669203 0.0669203 0.0669203
0.0686420 0.0686420 0.0686420
0.0722577 0.0722577 0.0722577
0.0741308 0.0741308 0.0741308
0.0760484 0.0760484 0.0760484
0.0800208 0.0800208 0.0800208
0.0820773 0.0820773 0.0820773
0.0841818 0.0841818 0.0841818
0.0863352 0.0863352 0.0863352
0.0885383 0.0885383 0.0885383
0.0908158 0.0908158 0.0908158
0.0931459 0.0931459 0.0931459
0.0955295 0.0955295 0.0955295
0.0979675 0.0979675 0.0979675
0.1004608 0.1004608 0.1004608
0.1030103 0.1030103 0.1030103
0.1056170 0.1056170 0.1056170
0.1082816 0.1082816 0.1082816
0.1110051 0.1110051 0.1110051
0.1137884 0.1137884 0.1137884
0.1166474 0.1166474 0.1166474
0.1195765 0.1195765 0.1195765
0.1225688 0.1225688 0.1225688
0.1256254 0.1256254 0.1256254
0.1256254 0.1256254 0.1256254
0.1287469 0.1287469 0.1287469
0.1319344 0.1319344 0.1319344
0.1351885 0.1351885 0.1351885
0.1385101 0.1385101 0.1385101
0.1385101 0.1385101 0.1385101
0.1418998 0.1418998 0.1418998
0.1453586 0.1453586 0.1453586
0.1489009 0.1489009 0.1489009
0.1489009 0.1489009 0.1489009
0.1525424 0.1525424 0.1525424
0.1562565 0.1562565 0.1562565
0.1562565 0.1562565 0.1562565
0.1600440 0.1600440 0.1600440
0.1639055 0.1639055 0.1639055
0.1639055 0.1639055 0.1639055
0.1678415 0.1678415 0.1678415
0.1718526 0.1718526 0.1718526
0.1718526 0.1718526 0.1718526
0.0245136 0.0245136 0.0245136
0.0264103 0.0264103 0.0264103
0.0284494 0.0284494 0.0284494
0.0306409 0.0306409 0.0306409
0.0330273 0.0330273 0.0330273
0.0347232 0.0347232 0.0347232
0.0374254 0.0374254 0.0374254
0.0393379 0.0393379 0.0393379
0.0413636 0.0413636 0.0413636
0.0435094 0.0435094 0.0435094
0.0457612 0.0457612 0.0457612
0.0481236 0.0481236 0.0481236
0.0506016 0.0506016 0.0506016
0.0532221 0.0532221 0.0532221
0.0546026 0.0546026 0.0546026
0.0574654 0.0574654 0.0574654
0.0604687 0.0604687 0.0604687
0.0620248 0.0620248 0.0620248
0.0652499 0.0652499 0.0652499
0.0669203 0.0669203 0.0669203
0.0686420 0.0686420 0.0686420
0.0722577 0.0722577 0.0722577
0.0741308 0.0741308 0.0741308
0.0760484 0.0760484 0.0760484
0.0800208 0.0800208 0.0800208
0.0820773 0.0820773 0.0820773
0.0841818 0.0841818 0.0841818
0.0863352 0.0863352 0.0863352
0.0885383 0.0885383 0.0885383
0.0908158 0.0908158 0.0908158
0.0931459 0.0931459 0.0931459
0.0955295 0.0955295 0.0955295
0.0979675 0.0979675 0.0979675
0.1004608 0.1004608 0.1004608
0.1030103 0.1030103 0.1030103
0.1056170 0.1056170 0.1056170
0.1082816 0.1082816 0.1082816
0.1110051 0.1110051 0.1110051
0.1137884 0.1137884 0.1137884
0.1166474 0.1166474 0.1166474
0.1195765 0.1195765 0.1195765
0.1225688 0.1225688 0.1225688
0.1256254 0.1256254 0.1256254
0.1256254 0.1256254 0.1256254
0.1287469 0.1287469 0.1287469
0.1319344 0.1319344 0.1319344
0.1351885 0.1351885 0.1351885
0.1385101 0.1385101 0.1385101
0.1385101 0.1385101 0.1385101
0.1418998 0.1418998 0.1418998
0.1453586 0.1453586 0.1453586
0.1489009 0.1489009 0.1489009
0.1489009 0.1489009 0.1489009
0.1525424 0.1525424 0.1525424
0.1562565 0.1562565 0.1562565
0.1562565 0.1562565 0.1562565
0.1600440 0.1600440 0.1600440
0.1639055 0.1639055 0.1639055
0.1639055 0.1639055 0.1639055
0.1678415 0.1678415 0.1678415
0.1718526 0.1718526 0.1718526
0.1718526 0.1718526 0.1718526
0.1759393 0.1759393 0.1759393
0.1801021 0.1801021 0.1801021
0.0284494 0.0284494 0.0284494
0.0306409 0.0306409 0.0306409
0.0330273 0.0330273 0.0330273
0.0347232 0.0347232 0.0347232
0.0374254 0.0374254 0.0374254
0.0393379 0.0393379 0.0393379
0.0413636 0.0413636 0.0413636
0.0435094 0.0435094 0.0435094
0.0457612 0.0457612 0.0457612
0.0481236 0.0481236 0.0481236
0.0506016 0.0506016 0.0506016
0.0532221 0.0532221 0.0532221
0.0546026 0.0546026 0.0546026
0.0574654 0.0574654 0.0574654
0.0604687 0.0604687 0.0604687
0.0620248 0.0620248 0.0620248
0.0652499 0.0652499 0.0652499
0.0669203 0.0669203 0.0669203
0.0686420 0.0686420 0.0686420
0.0722577 0.0722577 0.0722577
0.0741308 0.0741308 0.0741308
0.0760484 0.0760484 0.0760484
0.0800208 0.0800208 0.0800208
0.0820773 0.0820773 0.0820773
0.0841818 0.0841818 0.0841818
0.0863352 0.0863352 0.0863352
0.0885383 0.0885383 0.0885383
0.0908158 0.0908158 0.0908158
0.0931459 0.0931459 0.0931459
0.0955295 0.0955295 0.0955295
0.0979675 0.0979675 0.0979675
0.1004608 0.1004608 0.1004608
0.1030103 0.1030103 0.1030103
0.1056170 0.1056170 0.1056170
0.1082816 0.1082816 0.1082816
0.1110051 0.1110051 0.1110051
0.1137884 0.1137884 0.1137884
0.1166474 0.1166474 0.1166474
0.1195765 0.1195765 0.1195765
0.1225688 0.1225688 0.1225688
0.1256254 0.1256254 0.1256254
0.1256254 0.1256254 0.1256254
0.1287469 0.1287469 0.1287469
0.1319344 0.1319344 0.1319344
0.1351885 0.1351885 0.1351885
0.1385101 0.1385101 0.1385101
0.1385101 0.1385101 0.1385101
0.1418998 0.1418998 0.1418998
0.1453586 0.1453586 0.1453586
0.1489009 0.1489009 0.1489009
0.1489009 0.1489009 0.1489009
0.1525424 0.1525424 0.1525424
0.1562565 0.1562565 0.1562565
0.1562565 0.1562565 0.1562565
0.1600440 0.1600440 0.1600440
0.1639055 0.1639055 0.1639055
0.1639055 0.1639055 0.1639055
0.1678415 0.1678415 0.1678415
0.1718526 0.1718526 0.1718526
0.1718526 0.1718526 0.1718526
0.1759393 0.1759393 0.1759393
0.1801021 0.1801021 0.1801021
0.1801021 0.1801021 0.1801021
0.1843413 0.1843413 0.1843413
0.0330273 0.0330273 0.0330273
0.0347232 0.0347232 0.0347232
0.0374254 0.0374254 0.0374254
0.0393379 0.0393379 0.0393379
0.0413636 0.0413636 0.0413636
0.0435094 0.0435094 0.0435094
0.0457612 0.0457612 0.0457612
0.0481236 0.0481236 0.0481236
0.0506016 0.0506016 0.0506016
0.0532221 0.0532221 0.0532221
0.0546026 0.0546026 0.0546026
0.0574654 0.0574654 0.0574654
0.0604687 0.0604687 0.0604687
0.0620248 0.0620248 0.0620248
0.0652499 0.0652499 0.0652499
0.0669203 0.0669203 0.0669203
0.0686420 0.0686420 0.0686420
0.0722577 0.0722577 0.0722577
0.0741308 0.0741308 0.0741308
0.0760484 0.0760484 0.0760484
0.0800208 0.0800208 0.0800208
0.0820773 0.0820773 0.0820773
0.0841818 0.0841818 0.0841818
0.0863352 0.0863352 0.0863352
0.0885383 0.0885383 0.0885383
0.0908158 0.0908158 0.0908158
0.0931459 0.0931459 0.0931459
0.0955295 0.0955295 0.0955295
0.0979675 0.0979675 0.0979675
0.1004608 0.1004608 0.1004608
0.1030103 0.1030103 0.1030103
0.1056170 0.1056170 0.1056170
0.1082816 0.1082816 0.1082816
0.1110051 0.1110051 0.1110051
0.1137884 0.1137884 0.1137884
0.1166474 0.1166474 0.1166474
0.1195765 0.1195765 0.1195765
0.1225688 0.1225688 0.1225688
0.1256254 0.1256254 0.1256254
0.1256254 0.1256254 0.1256254
0.1287469 0.1287469 0.1287469
0.1319344 0.1319344 0.1319344
0.1351885 0.1351885 0.1351885
0.1385101 0.1385101 0.1385101
0.1385101 0.1385101 0.1385101
0.1418998 0.1418998 0.1418998
0.1453586 0.1453586 0.1453586
0.1489009 0.1489009 0.1489009
0.1489009 0.1489009 0.1489009
0.1525424 0.1525424 0.1525424
0.1562565 0.1562565 0.1562565
0.1562565 0.1562565 0.1562565
0.1600440 0.1600440 0.1600440
0.1639055 0.1639055 0.1639055
0.1639055 0.1639055 0.1639055
0.1678415 0.1678415 0.1678415
0.1718526 0.1718526 0.1718526
0.1718526 0.1718526 0.1718526
0.1759393 0.1759393 0.1759393
0.1801021 0.1801021 0.1801021
0.1801021 0.1801021 0.1801021
0.1843413 0.1843413 0.1843413
0.1843413 0.1843413 0.1843413
0.1886572 0.1886572 0.1886572
0.0374254 0.0374254 0.0374254
0.0393379 0.0393379 0.0393379
0.0413636 0.0413636 0.0413636
0.0435094 0.0435094 0.0435094
0.0457612 0.0457612 0.0457612
0.0481236 0.0481236 0.0481236
0.0506016 0.0506016 0.0506016
0.0532221 0.0532221 0.0532221
0.0546026 0.0546026 0.0546026
0.0574654 0.0574654 0.0574654
0.0604687 0.0604687 0.0604687
0.0620248 0.0620248 0.0620248
0.0652499 0.0652499 0.0652499
0.0669203 0.0669203 0.0669203
0.0686420 0.0686420 0.0686420
0.0722577 0.0722577 0.0722577
0.0741308 0.0741308 0.0741308
0.0760484 0.0760484 0.0760484
0.0800208 0.0800208 0.0800208
0.0820773 0.0820773 0.0820773
0.0841818 0.0841818 0.0841818
0.0863352 0.0863352 0.0863352
0.0885383 0.0885383 0.0885383
0.0908158 0.0908158 0.0908158
0.0931459 0.0931459 0.0931459
0.0955295 0.0955295 0.0955295
0.0979675 0.0979675 0.0979675
0.1004608 0.1004608 0.1004608
0.1030103 0.1030103 0.1030103
0.1056170 0.1056170 0.1056170
0.1082816 0.1082816 0.1082816
0.1110051 0.1110051 0.1110051
0.1137884 0.1137884 0.1137884
0.1166474 0.1166474 0.1166474
0.1195765 0.1195765 0.1195765
0.1225688 0.1225688 0.1225688
0.1256254 0.1256254 0.1256254
0.1256254 0.1256254 0.1256254
0.1287469 0.1287469 0.1287469
0.1319344 0.1319344 0.1319344
0.1351885 0.1351885 0.1351885
0.1385101 0.1385101 0.1385101
0.1385101 0.1385101 0.1385101
0.1418998 0.1418998 0.1418998
0.1453586 0.1453586 0.1453586
0.1489009 0.1489009 0.1489009
0.1489009 0.1489009 0.1489009
0.1525424 0.1525424 0.1525424
0.1562565 0.1562565 0.1562565
0.1562565 0.1562565 0.1562565
0.1600440 0.1600440 0.1600440
0.1639055 0.1639055 0.1639055
0.1639055 0.1639055 0.1639055
0.1678415 0.1678415 0.1678415
0.1718526 0.1718526 0.1718526
0.1718526 0.1718526 0.1718526
0.1759393 0.1759393 0.1759393
0.1801021 0.1801021 0.1801021
0.1801021 0.1801021 0.1801021
0.1843413 0.1843413 0.1843413
0.1843413 0.1843413 0.1843413
0.1886572 0.1886572 0.1886572
0.1886572 0.1886572 0.1886572
0.1930788 0.1930788 0.1930788
0.0413636 0.0413636 0.0413636
0.0435094 0.0435094 0.0435094
0.0457612 0.0457612 0.0457612
0.0481236 0.0481236 0.0481236
0.0506016 0.0506016 0.0506016
0.0532221 0.0532221 0.0532221
0.0546026 0.0546026 0.0546026
0.0574654 0.0574654 0.0574654
0.0604687 0.0604687 0.0604687
0.0620248 0.0620248 0.0620248
0.0652499 0.0652499 0.0652499
0.0669203 0.0669203 0.0669203
0.0686420 0.0686420 0.0686420
0.0722577 0.0722577 0.0722577
0.0741308 0.0741308 0.0741308
0.0760484 0.0760484 0.0760484
0.0800208 0.0800208 0.0800208
0.0820773 0.0820773 0.0820773
0.0841818 0.0841818 0.0841818
0.0863352 0.0863352 0.0863352
0.0885383 0.0885383 0.0885383
0.0908158 0.0908158 0.0908158
0.0931459 0.0931459 0.0931459
0.0955295 0.0955295 0.0955295
0.0979675 0.0979675 0.0979675
0.1004608 0.1004608 0.1004608
0.1030103 0.1030103 0.1030103
0.1056170 0.1056170 0.1056170
0.1082816 0.1082816 0.1082816
0.1110051 0.1110051 0.1110051
0.1137884 0.1137884 0.1137884
0.1166474 0.1166474 0.1166474
0.1195765 0.1195765 0.1195765
0.1225688 0.1225688 0.1225688
0.1256254 0.1256254 0.1256254
0.1256254 0.1256254 0.1256254
0.1287469 0.1287469 0.1287469
0.1319344 0.1319344 0.1319344
0.1351885 0.1351885 0.1351885
0.1385101 0.1385101 0.1385101
0.1385101 0.1385101 0.1385101
0.1418998 0.1418998 0.1418998
0.1453586 0.1453586 0.1453586
0.1489009 0.1489009 0.1489009
0.1489009 0.1489009 0.1489009
0.1525424 0.1525424 0.1525424
0.1562565 0.1562565 0.1562565
0.1562565 0.1562565 0.1562565
0.1600440 0.1600440 0.1600440
0.1639055 0.1639055 0.1639055
0.1639055 0.1639055 0.1639055
0.1678415 0.1678415 0.1678415
0.1718526 0.1718526 0.1718526
0.1718526 0.1718526 0.1718526
0.1759393 0.1759393 0.1759393
0.1801021 0.1801021 0.1801021
0.1801021 0.1801021 0.1801021
0.1843413 0.1843413 0.1843413
0.1843413 0.1843413 0.1843413
0.1886572 0.1886572 0.1886572
0.1886572 0.1886572 0.1886572
0.1930788 0.1930788 0.1930788
0.1975787 0.1975787 0.1975787
0.1975787 0.1975787 0.1975787
0.0457612 0.0457612 0.0457612
0.0481236 0.0481236 0.0481236
0.0506016 0.0506016 0.0506016
0.0532221 0.0532221 0.0532221
0.0546026 0.0546026 0.0546026
0.0574654 0.0574654 0.0574654
0.0604687 0.0604687 0.0604687
0.0620248 0.0620248 0.0620248
0.0652499 0.0652499 0.0652499
0.0669203 0.0669203 0.0669203
0.0686420 0.0686420 0.0686420
0.0722577 0.0722577 0.0722577
0.0741308 0.0741308 0.0741308
0.0760484 0.0760484 0.0760484
0.0800208 0.0800208 0.0800208
0.0820773 0.0820773 0.0820773
0.0841818 0.0841818 0.0841818
0.0863352 0.0863352 0.0863352
0.0885383 0.0885383 0.0885383
0.0908158 0.0908158 0.0908158
0.0931459 0.0931459 0.0931459
0.0955295 0.0955295 0.0955295
0.0979675 0.0979675 0.0979675
0.1004608 0.1004608 0.1004608
0.1030103 0.1030103 0.1030103
0.1056170 0.1056170 0.1056170
0.1082816 0.1082816 0.1082816
0.1110051 0.1110051 0.1110051
0.1137884 0.1137884 0.1137884
0.1166474 0.1166474 0.1166474
