Plugins/FilmEmulator/Content/LUTs/FE_Kodak_5247_64.cube
TITLE "FE_Kodak_5247_33"
LUT_3D_SIZE 8
0.0016041 0.0004935 0.0006585
0.0827871 0.0010859 0.0023282
0.2431452 0.0024690 0.0063677
0.3938311 0.0051826 0.0125330
0.5092700 0.0089206 0.0208665
0.5982212 0.0136824 0.0306240
0.6652069 0.0193951 0.0409229
0.7176879 0.0262786 0.0551750
0.0019005 0.0922513 0.0007941
0.0629188 0.0927300 0.0017743
0.2051549 0.0928209 0.0034571
0.3511629 0.0928022 0.0065336
0.4782916 0.0955243 0.0117205
0.5733341 0.0954703 0.0190295
0.6460492 0.0954289 0.0277509
0.6973907 0.0953909 0.0376598
0.0033577 0.2477647 0.0019539
0.0576225 0.2434720 0.0030799
0.1958388 0.2437462 0.0052985
0.3380673 0.2438230 0.0079775
0.4558727 0.2491323 0.0111210
0.5593650 0.2491303 0.0150233
0.6328816 0.2490308 0.0218966
0.6851335 0.2489177 0.0308833
0.0056825 0.3767189 0.0035982
0.0540925 0.3716469 0.0051371
0.1858651 0.3721200 0.0075212
0.3237765 0.3722675 0.0105671
0.4484957 0.3723256 0.0143033
0.5440989 0.3723303 0.0186410
0.6188009 0.3723176 0.0234956
0.6788799 0.3723094 0.0284971
0.0091698 0.4676547 0.0061307
0.0512839 0.4685368 0.0075181
0.1827741 0.4690908 0.0106637
0.3192945 0.4693070 0.0139543
0.4434053 0.4693971 0.0182382
0.5389835 0.4694282 0.0230110
0.6139420 0.4694446 0.0279488
0.6743654 0.4694328 0.0339802
0.0135021 0.5386248 0.0092030
0.0488800 0.5393090 0.0104499
0.1755929 0.5399249 0.0137955
0.3160908 0.5401588 0.0181035
0.4397587 0.5402767 0.0228826
0.5353199 0.5403379 0.0278412
0.6104254 0.5403522 0.0338678
0.6646606 0.5403565 0.0395813
0.0190838 0.5933394 0.0129957
0.0467146 0.5938070 0.0141593
0.1739130 0.5944551 0.0180704
0.3064164 0.5946916 0.0229004
0.4288569 0.5948360 0.0279348
0.5324422 0.5949453 0.0327435
0.6076593 0.5949592 0.0397989
0.6620584 0.5949635 0.0464763
0.0253714 0.6318129 0.0172331
0.0447667 0.6321079 0.0180306
0.1677976 0.6327329 0.0230509
0.3045875 0.6330082 0.0282240
0.4267646 0.6331782 0.0331270
0.5302988 0.6332839 0.0388031
0.6056341 0.6333287 0.0453581
0.6601512 0.6333334 0.0528980
0.0046927 0.0015317 0.1935424
0.1073011 0.0033443 0.2065776
0.2627729 0.0065991 0.2179057
0.4056594 0.0109420 0.2330063
0.5230330 0.0161673 0.2516840
0.6118933 0.0220762 0.2655938
0.6716480 0.0288610 0.2808470
0.7187683 0.0351577 0.2988167
0.0035413 0.1054155 0.1071838
0.0858677 0.1060792 0.1275547
0.2299202 0.1062916 0.1477795
0.3772534 0.1064082 0.1695655
0.4896676 0.1095805 0.1926402
0.5838224 0.1096347 0.2121396
0.6555089 0.1096710 0.2326217
0.7060610 0.1096899 0.2543225
0.0057535 0.2563224 0.0936613
0.0792597 0.2574216 0.1110287
0.2208286 0.2578567 0.1290285
0.3572272 0.2580875 0.1436203
0.4768313 0.2582145 0.1645090
0.5712054 0.2583129 0.1817768
0.6369838 0.2583646 0.2000212
0.6889154 0.2583973 0.2194838
0.0086416 0.3805574 0.0842433
0.0747792 0.3816669 0.0994986
0.2104714 0.3822068 0.1158476
0.3508355 0.3824796 0.1336483
0.4698409 0.3826645 0.1483754
0.5566952 0.3827381 0.1695773
0.6303739 0.3828180 0.1869084
0.6827621 0.3828574 0.2053955
0.0126458 0.4716966 0.0777818
0.0688322 0.4725978 0.0914731
0.2020774 0.4731932 0.1066864
0.3392425 0.4734817 0.1233108
0.4572324 0.4736777 0.1370614
0.5522467 0.4737746 0.1569672
0.6261493 0.4738585 0.1733431
0.6788197 0.4738997 0.1907757
0.0171304 0.5427372 0.0752264
0.0658208 0.5376995 0.0853307
0.2001273 0.5383168 0.0996603
0.3362458 0.5443650 0.1150322
0.4538426 0.5445295 0.1323385
0.5488816 0.5446575 0.1467671
0.6229454 0.5447409 0.1623486
0.6758249 0.5447823 0.1788929
0.0227693 0.5920303 0.0709708
0.0630369 0.5925447 0.0799672
0.1931688 0.5931477 0.0934790
0.3267438 0.5934287 0.1083498
0.4515023 0.5936086 0.1248401
0.5464894 0.5937033 0.1432347
0.6135309 0.5937677 0.1584556
0.6736900 0.5938253 0.1747303
0.0291821 0.6354251 0.0695103
0.0585096 0.6311082 0.0754872
0.1868141 0.6316825 0.0915208
0.3250527 0.6319731 0.1061512
0.4415225 0.6321588 0.1182364
0.5368827 0.6322516 0.1357950
0.6117039 0.6323310 0.1504243
0.6655298 0.6323708 0.1660306
0.0131186 0.0046759 0.4626199
0.1323716 0.0081347 0.4774903
0.2890561 0.0125463 0.4825108
0.4310863 0.0178640 0.4893903
0.5403903 0.0243134 0.4973767
0.6212689 0.0307219 0.5079027
0.6800887 0.0386519 0.5184789
0.7265148 0.0468633 0.5209432
0.0098294 0.1180154 0.3394525
0.1137783 0.1186058 0.3640861
0.2587385 0.1222598 0.3833001
0.3982044 0.1224001 0.4029652
0.5107828 0.1224936 0.4224038
0.5960641 0.1225579 0.4417698
0.6596664 0.1226028 0.4611552
0.7096146 0.1261744 0.4700802
0.0096942 0.2667158 0.2989330
0.1022985 0.2677613 0.3299901
0.2435687 0.2681907 0.3495593
0.3868556 0.2684542 0.3685761
0.4987917 0.2686174 0.3873836
0.5840576 0.2743827 0.4051977
0.6484270 0.2744847 0.4150229
0.6995567 0.2745441 0.4341163
0.0136802 0.3858474 0.2833698
0.0968096 0.3869244 0.3044204
0.2388066 0.3874649 0.3233175
0.3727286 0.3877645 0.3415237
0.4839029 0.3941532 0.3588239
0.5700933 0.3942896 0.3770946
0.6422946 0.3944006 0.3956155
0.6938793 0.3944715 0.4144218
0.0185430 0.4767311 0.2733590
0.0922324 0.4776582 0.2929895
0.2295759 0.4782307 0.3114840
0.3685685 0.4785665 0.3294238
0.4797302 0.4787751 0.3472820
0.5659699 0.4789179 0.3652834
0.6384080 0.4790341 0.3835646
0.6840295 0.4791217 0.3930353
0.0245522 0.5472521 0.2660750
0.0882867 0.5425034 0.2775437
0.2274372 0.5430958 0.2956965
0.3577127 0.5489166 0.3123355
0.4763392 0.5491146 0.3380318
0.5626457 0.5492864 0.3473420
0.6284992 0.5493854 0.3651344
0.6810482 0.5494601 0.3832478
0.0314358 0.5964116 0.2539454
0.0846225 0.5969501 0.2710651
0.2197514 0.5975278 0.2889603
0.3555269 0.5978541 0.3061475
0.4660754 0.5980580 0.3233243
0.5602664 0.5982149 0.3407857
0.6262311 0.5983115 0.3584173
0.6789311 0.5983843 0.3763854
0.0385264 0.6344464 0.2501304
0.0813254 0.6348550 0.2591660
0.2127516 0.6353860 0.2841541
0.3461484 0.6357017 0.3011710
0.4641674 0.6359175 0.3182793
0.5507972 0.6360524 0.3355126
0.6244159 0.6361629 0.3530956
0.6772671 0.6362611 0.3622768
0.0272993 0.0103903 0.6385376
0.1593015 0.0149093 0.6489480
0.3115883 0.0204512 0.6488993
0.4493805 0.0267962 0.6582811
0.5511973 0.0338066 0.6597251
0.6313975 0.0411592 0.6621757
0.6828765 0.0498057 0.6730070
0.7293319 0.0582957 0.6764138
0.0215464 0.1358588 0.5369273
0.1402651 0.1363893 0.5528319
0.2835147 0.1366083 0.5744171
0.4198130 0.1367648 0.5855941
0.5243666 0.1368699 0.5961255
0.6085533 0.1369387 0.6154529
0.6702442 0.1408788 0.6241102
0.7194723 0.1409301 0.6337391
0.0192160 0.2778512 0.4934024
0.1310366 0.2787557 0.5190272
0.2745031 0.2849580 0.5303949
0.4087884 0.2851971 0.5512422
0.5129428 0.2853731 0.5619718
0.5975782 0.2855113 0.5724080
0.6603291 0.2855895 0.5918411
0.7044191 0.2856604 0.6016661
0.0201770 0.3978392 0.4735345
0.1242076 0.3988644 0.4987531
0.2630523 0.3993544 0.5112129
0.3949664 0.3996364 0.5321400
0.5066878 0.3998619 0.5430366
0.5840756 0.4000073 0.5534596
0.6480269 0.4000998 0.5730949
0.6991214 0.4001993 0.5831298
0.0266387 0.4822286 0.4619057
0.1186943 0.4831349 0.4764726
0.2599017 0.4836383 0.4985319
0.3910664 0.4839630 0.5099524
0.4945860 0.4841496 0.5302988
0.5800123 0.4843203 0.5408568
0.6442274 0.4844469 0.5511556
0.6953287 0.4904203 0.5698349
0.0327518 0.5522724 0.4524138
0.1137876 0.5475228 0.4669005
0.2511740 0.5480254 0.4889246
0.3801585 0.5538459 0.4995256
0.4912425 0.5540806 0.5104639
0.5766966 0.5542201 0.5305635
0.6410933 0.5543460 0.5408907
0.6926990 0.5544492 0.5510697
0.0400033 0.6006990 0.4459443
0.1092374 0.6012839 0.4587734
0.2430144 0.6018025 0.4712714
0.3779376 0.6021074 0.4922663
0.4888657 0.6023358 0.5032003
0.5743965 0.6025008 0.5137908
0.6388819 0.6025943 0.5336524
0.6906459 0.6026949 0.5438520
0.0472196 0.6385913 0.4314421
0.1051265 0.6390368 0.4434879
0.2416312 0.6395286 0.4654422
0.3761819 0.6398512 0.4769110
0.4790173 0.6400262 0.4972368
0.5649875 0.6401865 0.5078299
0.6371257 0.6403216 0.5182826
0.6827925 0.6403751 0.5379236
0.0455266 0.0176559 0.7523290
0.1852818 0.0233153 0.7552391
0.3366146 0.0295311 0.7574133
0.4690242 0.0372052 0.7590729
0.5626274 0.0451775 0.7613365
0.6349127 0.0529525 0.7644521
0.6924621 0.0618693 0.7675750
0.7326444 0.0699111 0.7714747
0.0382752 0.1471506 0.6723468
0.1660382 0.1514326 0.6844176
0.3099793 0.1516492 0.7032070
0.4418464 0.1518074 0.7127639
0.5460566 0.1519201 0.7217536
0.6211532 0.1519986 0.7303415
0.6815605 0.1520633 0.7387417
0.7236043 0.1560319 0.7459452
0.0355075 0.2951361 0.6418391
0.1558294 0.2958919 0.6554849
0.3011587 0.2962798 0.6666438
0.4315166 0.2965310 0.6768177
0.5276242 0.2966936 0.6863335
0.6111072 0.2968335 0.6955754
0.6657829 0.2969221 0.7044380
0.7152889 0.2970072 0.7132279
0.0323566 0.4039002 0.6248199
0.1528499 0.4048216 0.6389590
0.2890585 0.4115420 0.6493729
0.4175031 0.4118344 0.6597993
0.5214349 0.4120418 0.6696540
0.5977994 0.4121871 0.6790659
0.6601923 0.4123070 0.6882682
0.7101520 0.4124060 0.6973249
0.0354370 0.4878170 0.6132022
0.1464302 0.4886928 0.6270693
0.2859885 0.4891614 0.6386265
0.4138258 0.4894643 0.6491935
0.5173436 0.4955830 0.6584008
0.5938340 0.4957333 0.6679683
0.6564749 0.4958578 0.6773323
0.7007334 0.4959436 0.6864802
0.0416809 0.5519392 0.6047008
0.1407207 0.5526837 0.6180153
0.2767047 0.5531495 0.6296850
0.4027011 0.5589372 0.6396065
0.5063147 0.5591504 0.6497278
0.5908427 0.5593178 0.6594977
0.6536658 0.5594411 0.6689779
0.6981133 0.5595262 0.6782460
0.0507577 0.6051980 0.5882969
0.1354358 0.6057776 0.6010054
0.2746769 0.6062491 0.6129628
0.4004556 0.6065122 0.6329064
0.5039622 0.6067194 0.6431069
0.5885534 0.6068823 0.6529595
0.6448713 0.6069859 0.6624444
0.6961035 0.6070849 0.6718824
0.0577574 0.6428785 0.5830283
0.1307180 0.6387224 0.5959366
0.2667194 0.6391793 0.6079468
0.3988883 0.6394814 0.6189620
0.5020771 0.6442949 0.6286256
0.5792567 0.6444351 0.6385570
0.6431280 0.6445520 0.6482534
0.6944885 0.6446475 0.6577773
0.0671412 0.0265488 0.8214609
0.2151881 0.0324946 0.8251325
0.3633276 0.0396238 0.8218620
0.4816110 0.0480392 0.8240185
0.5749832 0.0562948 0.8267097
0.6460154 0.0656581 0.8293927
0.7023283 0.0741706 0.8326815
0.7415519 0.0836424 0.8358272
0.0594058 0.1628733 0.7648516
0.1956218 0.1632848 0.7750153
0.3380936 0.1635078 0.7835070
0.4643238 0.1678322 0.7905382
0.5599289 0.1679419 0.7978463
0.6337343 0.1680254 0.8049058
0.6862302 0.1681014 0.8053653
0.7281229 0.1681495 0.8120230
0.0535077 0.3065523 0.7413722
0.1843601 0.3072130 0.7523047
0.3291951 0.3075729 0.7614589
0.4465471 0.3077943 0.7697374
0.5502603 0.3079747 0.7776313
0.6173207 0.3080845 0.7851348
0.6776764 0.3082143 0.7856929
0.7202277 0.3082864 0.7928443
0.0506290 0.4164086 0.7271866
0.1809627 0.4171883 0.7385905
0.3168281 0.4175814 0.7479951
0.4408029 0.4178537 0.7566647
0.5365393 0.4180415 0.7647928
0.6117843 0.4182156 0.7654878
0.6724987 0.4183335 0.7732494
0.7154355 0.4184156 0.7806958
0.0465834 0.4994265 0.7169206
0.1736593 0.5002545 0.7286870
0.3133694 0.5006806 0.7384024
0.4368187 0.5009617 0.7472863
0.5325257 0.5011867 0.7481999
0.6078925 0.5013350 0.7563359
0.6623850 0.5014398 0.7642381
0.7120743 0.5015416 0.7719539
0.0528717 0.5572089 0.7102500
0.1672398 0.5579249 0.7217140
0.3039113 0.5583782 0.7237112
0.4260984 0.5586571 0.7329098
0.5294702 0.5643418 0.7409949
0.6049509 0.5644884 0.7492827
0.6596146 0.5645919 0.7573377
0.7095257 0.5646925 0.7652075
0.0600548 0.6049144 0.7046255
0.1612678 0.6055389 0.7075976
0.3019533 0.6059692 0.7178589
0.4238108 0.6062401 0.7271761
0.5192062 0.6111976 0.7353574
0.6027117 0.6113577 0.7438372
0.6575031 0.6114584 0.7520071
0.7016280 0.6115702 0.7524780
0.0705813 0.6426252 0.7001560
0.1556733 0.6431097 0.7025688
0.2933580 0.6435248 0.7129360
0.4219449 0.6438046 0.7224365
0.5175251 0.6439853 0.7312896
0.5937033 0.6441239 0.7397780
0.6559725 0.6442379 0.7481042
0.7002009 0.6443462 0.7485799
0.0920920 0.0369210 0.8630190
0.2421029 0.0435172 0.8664276
0.3834519 0.0510706 0.8690811
0.5026758 0.0597676 0.8714451
0.5872726 0.0675872 0.8696367
0.6569248 0.0786709 0.8717641
0.7064006 0.0860542 0.8748244
0.7452080 0.0968684 0.8771986
0.0825078 0.1799503 0.8275005
0.2222845 0.1803302 0.8352938
0.3670437 0.1805588 0.8420113
0.4792235 0.1807201 0.8427913
0.5736405 0.1808340 0.8487097
0.6393581 0.1809112 0.8542798
0.6973813 0.1809832 0.8595775
0.7379352 0.1855686 0.8593203
0.0772287 0.3182515 0.8103114
0.2160588 0.3188282 0.8187752
0.3508401 0.3191435 0.8259593
0.4699625 0.3193947 0.8268629
0.5644775 0.3195595 0.8332583
0.6306645 0.3196708 0.8392856
0.6831297 0.3197871 0.8396792
0.7251736 0.3198607 0.8453094
0.0708506 0.4221616 0.7995219
0.2066818 0.4287128 0.8078662
0.3457077 0.4291196 0.8092721
0.4642468 0.4293727 0.8163929
0.5512239 0.4295412 0.8230332
0.6252458 0.4296844 0.8294064
0.6780729 0.4298157 0.8298192
0.7205029 0.4298988 0.8357253
0.0675281 0.5052549 0.7912585
0.1988521 0.5059493 0.8004423
0.3348372 0.5063659 0.8018898
0.4523793 0.5066260 0.8092209
0.5474854 0.5068178 0.8161223
0.6217214 0.5069958 0.8166994
0.6747433 0.5070987 0.8231143
0.7174219 0.5071839 0.8292036
0.0646465 0.5625020 0.7854356
0.1918731 0.5632203 0.7881330
0.3323986 0.5636207 0.7963610
0.4496391 0.5638773 0.8038447
0.5447252 0.5640667 0.8108935
0.6188331 0.5697030 0.8109748
0.6720380 0.5698047 0.8175436
0.7149161 0.5698883 0.8237821
0.0733189 0.6095117 0.7808604
0.1904708 0.6101272 0.7832783
0.3229926 0.6104966 0.7915726
0.4473465 0.6107648 0.7992550
0.5424491 0.6109791 0.8000274
0.6097172 0.6111029 0.8069687
0.6702026 0.6112186 0.8137010
0.7132145 0.6113002 0.8200411
0.0804781 0.6472235 0.7698953
0.1841960 0.6477094 0.7791109
0.3213270 0.6480834 0.7875926
0.4373682 0.6483239 0.7953149
0.5328121 0.6485313 0.7961022
0.6078647 0.6486672 0.8032070
0.6619832 0.6487631 0.8099823
0.7116430 0.6488857 0.8104264
0.1176696 0.0477213 0.8968850
0.2719356 0.0542848 0.8961931
0.4126018 0.0634329 0.8982332
0.5158106 0.0717071 0.9004567
0.5994114 0.0809468 0.8990103
0.6678519 0.0911967 0.9010931
0.7104837 0.0996392 0.9034725
0.7488983 0.1119362 0.9019178
0.1065764 0.1936177 0.8719600
0.2518184 0.1939961 0.8734590
0.3894529 0.1942128 0.8786525
0.5016207 0.1943808 0.8792703
0.5871948 0.1944889 0.8838642
0.6513772 0.1945692 0.8882131
0.7020270 0.1994232 0.8880424
0.7423713 0.1994775 0.8921665
0.1001204 0.3301974 0.8542361
0.2391630 0.3307072 0.8607255
0.3732316 0.3310113 0.8663594
0.4927717 0.3312643 0.8670793
0.5785425 0.3314151 0.8720676
0.6432222 0.3315275 0.8767946
0.6948000 0.3316460 0.8771107
0.7357403 0.3317207 0.8815820
0.0951549 0.4338787 0.8456561
0.2353521 0.4344679 0.8525180
0.3682622 0.4348062 0.8584273
0.4794727 0.4350694 0.8591339
0.5657493 0.4352379 0.8643740
0.6382657 0.4354104 0.8648212
0.6901699 0.4355120 0.8697174
0.7314817 0.4355951 0.8744180
0.0908839 0.5111062 0.8393978
0.2267268 0.5117095 0.8464904
0.3648399 0.5121057 0.8476099
0.4757289 0.5123437 0.8533832
0.5620387 0.5125157 0.8588009
0.6347600 0.5126916 0.8592632
0.6806005 0.5127785 0.8642852
0.7227775 0.5128943 0.8645811
0.0870941 0.5679088 0.8346579
0.2190020 0.5685048 0.8419239
0.3545865 0.5688955 0.8430713
0.4729828 0.5691496 0.8490399
0.5593110 0.5693190 0.8545896
0.6253870 0.5694760 0.8550180
0.6781719 0.5695782 0.8602099
0.7203146 0.5751377 0.8601136
0.0835854 0.6141115 0.8306130
0.2174687 0.6147091 0.8380852
0.3525076 0.6150877 0.8392549
0.4628015 0.6153162 0.8452884
0.5570725 0.6155276 0.8459133
0.6232144 0.6156503 0.8514392
0.6761408 0.6157497 0.8567372
0.7186542 0.6158602 0.8570467
0.0946530 0.6519076 0.8274539
0.2106970 0.6475711 0.8296343
0.3431469 0.6527495 0.8359064
0.4608717 0.6529875 0.8420982
0.5475682 0.6531742 0.8426823
0.6213710 0.6533088 0.8483521
0.6744159 0.6534040 0.8537408
0.7170575 0.6535104 0.8540556
