Plugins/FilmEmulator/Content/LUTs/FE_Kodak_TriX_400_Dev9_64.cube
TITLE "FE_Kodak_TriX_400_Dev9_33"
LUT_3D_SIZE 4
0.0013594 0.0013594 0.0013594
0.0293822 0.0293822 0.0293822
0.0799757 0.0799757 0.0799757
0.1414597 0.1414597 0.1414597
0.0799757 0.0799757 0.0799757
0.1414597 0.1414597 0.1414597
0.2049325 0.2049325 0.2049325
0.2701578 0.2701578 0.2701578
0.2049325 0.2049325 0.2049325
0.2701578 0.2701578 0.2701578
0.3262788 0.3262788 0.3262788
0.3794509 0.3794509 0.3794509
0.3262788 0.3262788 0.3262788
0.3794509 0.3794509 0.3794509
0.4279218 0.4279218 0.4279218
0.4773718 0.4773718 0.4773718
0.1450772 0.1450772 0.1450772
0.2098721 0.2098721 0.2098721
0.2701578 0.2701578 0.2701578
0.3328193 0.3328193 0.3328193
0.2701578 0.2701578 0.2701578
0.3328193 0.3328193 0.3328193
0.3863227 0.3863227 0.3863227
0.4349309 0.4349309 0.4349309
0.3863227 0.3863227 0.3863227
0.4349309 0.4349309 0.4349309
0.4773718 0.4773718 0.4773718
0.5196329 0.5196329 0.5196329
0.4773718 0.4773718 0.4773718
0.5196329 0.5196329 0.5196329
0.5476424 0.5476424 0.5476424
0.5815905 0.5815905 0.5815905
0.3328193 0.3328193 0.3328193
0.3863227 0.3863227 0.3863227
0.4349309 0.4349309 0.4349309
0.4773718 0.4773718 0.4773718
0.4349309 0.4349309 0.4349309
0.4773718 0.4773718 0.4773718
0.5196329 0.5196329 0.5196329
0.5544780 0.5544780 0.5544780
0.5196329 0.5196329 0.5196329
0.5544780 0.5544780 0.5544780
0.5815905 0.5815905 0.5815905
0.6147833 0.6147833 0.6147833
0.5815905 0.5815905 0.5815905
0.6147833 0.6147833 0.6147833
0.6337059 0.6337059 0.6337059
0.6582999 0.6582999 0.6582999
0.4844091 0.4844091 0.4844091
0.5196329 0.5196329 0.5196329
0.5544780 0.5544780 0.5544780
0.5882989 0.5882989 0.5882989
0.5544780 0.5544780 0.5544780
0.5882989 0.5882989 0.5882989
0.6147833 0.6147833 0.6147833
0.6399260 0.6399260 0.6399260
0.6147833 0.6147833 0.6147833
0.6399260 0.6399260 0.6399260
0.6582999 0.6582999 0.6582999
0.6819440 0.6819440 0.6819440
0.6582999 0.6582999 0.6582999
0.6819440 0.6819440 0.6819440
0.6986263 0.6986263 0.6986263
0.7147997 0.7147997 0.7147997
