Plugins/FilmEmulator/Content/LUTs/FE_Kodak_5250_64.cube
TITLE "FE_Kodak_5250_33"
LUT_3D_SIZE 64
0.0007634 0.0010129 0.0008219
0.0015539 0.0010091 0.0008204
0.0045250 0.0010765 0.0008685
0.0091514 0.0013023 0.0010456
0.0167455 0.0016239 0.0013127
0.0255359 0.0019902 0.0016184
0.0362739 0.0024305 0.0020274
0.0475843 0.0029131 0.0025170
0.0591143 0.0034555 0.0030857
0.0745142 0.0040596 0.0037290
0.0880504 0.0045448 0.0042840
0.1076748 0.0053443 0.0049824
0.1228378 0.0059539 0.0057891
0.1436756 0.0069613 0.0065405
0.1623905 0.0078977 0.0073845
0.1774950 0.0087090 0.0083757
0.1990023 0.0099727 0.0095315
0.2164169 0.0110384 0.0105011
0.2339359 0.0121193 0.0114918
0.2503303 0.0130933 0.0125476
0.2674996 0.0141447 0.0136994
0.2854412 0.0152791 0.0145324
0.2995994 0.0161706 0.0159896
0.3145588 0.0171308 0.0170471
0.3377693 0.0186774 0.0187641
0.3537236 0.0197841 0.0200023
0.3698831 0.0210145 0.0212169
0.3855933 0.0226372 0.0224891
0.4015648 0.0243828 0.0238361
0.4177674 0.0262602 0.0252621
0.4341690 0.0282789 0.0267716
0.4507514 0.0304480 0.0276056
0.4599629 0.0315328 0.0293884
0.4785162 0.0338142 0.0313057
0.4971702 0.0362545 0.0323327
0.5064847 0.0375396 0.0344122
0.5251653 0.0402396 0.0355381
0.5344638 0.0416611 0.0378171
0.5527439 0.0445801 0.0389764
0.5615070 0.0460462 0.0413114
0.5702537 0.0475572 0.0425431
0.5876249 0.0507229 0.0451134
0.5962382 0.0523804 0.0464539
0.6047978 0.0540894 0.0478325
0.6217492 0.0576663 0.0492827
0.6301006 0.0595404 0.0520997
0.6381367 0.0614084 0.0534710
0.6455883 0.0632046 0.0548744
0.6529723 0.0650502 0.0563128
0.6602866 0.0669466 0.0577869
0.6675284 0.0688947 0.0592976
0.6820771 0.0708851 0.0608413
0.6888031 0.0750602 0.0624686
0.6957279 0.0772278 0.0640946
0.7025676 0.0794535 0.0657605
0.7093199 0.0817383 0.0675283
0.7163690 0.0844453 0.0694728
0.7233166 0.0872346 0.0714696
0.7233030 0.0872372 0.0734704
0.7301468 0.0901109 0.0755742
0.7368858 0.0930708 0.0777339
0.7435176 0.0961192 0.0799508
0.7500417 0.0992580 0.0822259
0.7564558 0.1024890 0.0845608
0.0007354 0.0025899 0.0008396
0.0014053 0.0030351 0.0008414
0.0041605 0.0035828 0.0008665
0.0084596 0.0040964 0.0010298
0.0154955 0.0047018 0.0012822
0.0236910 0.0053751 0.0015956
0.0337609 0.0061654 0.0019685
0.0460131 0.0069900 0.0024249
0.0572749 0.0079280 0.0030560
0.0698505 0.0090411 0.0036019
0.0855092 0.0100037 0.0042347
0.1013099 0.0110696 0.0049187
0.1196178 0.0124684 0.0057151
0.1360378 0.0131240 0.0066363
0.1541800 0.0141751 0.0074843
0.1741259 0.0153090 0.0082201
0.1958262 0.0161978 0.0093378
0.2131320 0.0176616 0.0102844
0.2307190 0.0187074 0.0112770
0.2471063 0.0198149 0.0123077
0.2642623 0.0210463 0.0134327
0.2758298 0.0226734 0.0146649
0.2959854 0.0244191 0.0156410
0.3106711 0.0263006 0.0172149
0.3338546 0.0283183 0.0183581
0.3495534 0.0304917 0.0195775
0.3658704 0.0315736 0.0208166
0.3815321 0.0338602 0.0226971
0.3974947 0.0363053 0.0233831
0.4140468 0.0375872 0.0247605
0.4304466 0.0402934 0.0262383
0.4386970 0.0417175 0.0278075
0.4562317 0.0446429 0.0296235
0.4751812 0.0461018 0.0305707
0.4841381 0.0491832 0.0325625
0.5031915 0.0507854 0.0346517
0.5222777 0.0524358 0.0357549
0.5316049 0.0541481 0.0380454
0.5499316 0.0577286 0.0392088
0.5587043 0.0596051 0.0415573
0.5674735 0.0614751 0.0427950
0.5852673 0.0632621 0.0440626
0.5939109 0.0651107 0.0466870
0.6025181 0.0670081 0.0480689
0.6107593 0.0709692 0.0495230
0.6279834 0.0730138 0.0509811
0.6360583 0.0751259 0.0523761
0.6435137 0.0772975 0.0551299
0.6509168 0.0795251 0.0565746
0.6582509 0.0818121 0.0580553
0.6654695 0.0845221 0.0595786
0.6726142 0.0873145 0.0611397
0.6796827 0.0901914 0.0627394
0.6942281 0.0901665 0.0643252
0.7010454 0.0931290 0.0660032
0.7077765 0.0961799 0.0677839
0.7148475 0.0993205 0.0697352
0.7145284 0.1025701 0.0717447
0.7215032 0.1058980 0.0738024
0.7283741 0.1093225 0.0759150
0.7351407 0.1128455 0.0780838
0.7420872 0.1128308 0.0802499
0.7486671 0.1160320 0.0825259
0.7551523 0.1190977 0.0848577
0.0007089 0.0064905 0.0008574
0.0012819 0.0073451 0.0008615
0.0037417 0.0082907 0.0009238
0.0079264 0.0091319 0.0010274
0.0144880 0.0104316 0.0012502
0.0229936 0.0115256 0.0015363
0.0328420 0.0125370 0.0019017
0.0434325 0.0135326 0.0023926
0.0560114 0.0142351 0.0029250
0.0684629 0.0153696 0.0035506
0.0838839 0.0167337 0.0041687
0.0995731 0.0177186 0.0048273
0.1178656 0.0187608 0.0056010
0.1340471 0.0198673 0.0065037
0.1518548 0.0218999 0.0073382
0.1715598 0.0235838 0.0083020
0.1874898 0.0244696 0.0091340
0.2103418 0.0263473 0.0103793
0.2276352 0.0283701 0.0113854
0.2437368 0.0305458 0.0124308
0.2606514 0.0327571 0.0135700
0.2724558 0.0339185 0.0143824
0.2924783 0.0363654 0.0157851
0.3074293 0.0376492 0.0168208
0.3305009 0.0403547 0.0185086
0.3464958 0.0417742 0.0197202
0.3624142 0.0447040 0.0209844
0.3784029 0.0461677 0.0222218
0.3943445 0.0492466 0.0235486
0.4108745 0.0508524 0.0249342
0.4276287 0.0525081 0.0263996
0.4355420 0.0559979 0.0279979
0.4534484 0.0578101 0.0288945
0.4723609 0.0596787 0.0307543
0.4816762 0.0615527 0.0327325
0.5007754 0.0633412 0.0337740
0.5198783 0.0651805 0.0359359
0.5289403 0.0690403 0.0371042
0.5382903 0.0710467 0.0394017
0.5564770 0.0730935 0.0405722
0.5652599 0.0752100 0.0429964
0.5830756 0.0773682 0.0442697
0.5917485 0.0795970 0.0455830
0.6003529 0.0818875 0.0482941
0.6088698 0.0845990 0.0497266
0.6260786 0.0873784 0.0511956
0.6341245 0.0902565 0.0526014
0.6415653 0.0932219 0.0539885
0.6492667 0.0932128 0.0567852
0.6565722 0.0962664 0.0582769
0.6638077 0.0994105 0.0598058
0.6709696 0.1026471 0.0613725
0.6780561 0.1059782 0.0629780
0.6850640 0.1094059 0.0646230
0.6919915 0.1129321 0.0663084
0.6991498 0.1129183 0.0680453
0.7059394 0.1161230 0.0699980
0.7130890 0.1191909 0.0719997
0.7201360 0.1223302 0.0740547
0.7270787 0.1255416 0.0761642
0.7341573 0.1255253 0.0782810
0.7408823 0.1288096 0.0805020
0.7475110 0.1321646 0.0805455
0.7542462 0.1321474 0.0827746
0.0006512 0.0131288 0.0008865
0.0011809 0.0137826 0.0009325
0.0035249 0.0148085 0.0010194
0.0075043 0.0155329 0.0011470
0.0142130 0.0168715 0.0012995
0.0217977 0.0178400 0.0015007
0.0311850 0.0188715 0.0018333
0.0427360 0.0205524 0.0022962
0.0533501 0.0220015 0.0028713
0.0673463 0.0236819 0.0034924
0.0825687 0.0254908 0.0040993
0.0979736 0.0274389 0.0047343
0.1160920 0.0284558 0.0054906
0.1319819 0.0306314 0.0063768
0.1497007 0.0328409 0.0071906
0.1694072 0.0339933 0.0081118
0.1849570 0.0364453 0.0092186
0.2076111 0.0390603 0.0101487
0.2250244 0.0404311 0.0111535
0.2410246 0.0433322 0.0121768
0.2522216 0.0447890 0.0132825
0.2698415 0.0462518 0.0144865
0.2897978 0.0493294 0.0154052
0.3046724 0.0509390 0.0169396
0.3200018 0.0525971 0.0180489
0.3436344 0.0560744 0.0192429
0.3598258 0.0578929 0.0211114
0.3757642 0.0597658 0.0223562
0.3920072 0.0616335 0.0236724
0.4085345 0.0634280 0.0250634
0.4249803 0.0671831 0.0265524
0.4332758 0.0691379 0.0273291
0.4511768 0.0711360 0.0290355
0.4701065 0.0731867 0.0309020
0.4794567 0.0753033 0.0318894
0.4985316 0.0774655 0.0339341
0.5079047 0.0796991 0.0361091
0.5270194 0.0819753 0.0372545
0.5363248 0.0846916 0.0395651
0.5544745 0.0874739 0.0407444
0.5632337 0.0903548 0.0419611
0.5719414 0.0933251 0.0444696
0.5896417 0.0963652 0.0457895
0.5985858 0.0963521 0.0471145
0.6070985 0.0995006 0.0499179
0.6243355 0.1027218 0.0513922
0.6323961 0.1060543 0.0528032
0.6398513 0.1094844 0.0541954
0.6472427 0.1130130 0.0556224
0.6549042 0.1129991 0.0570416
0.6621802 0.1162088 0.0600285
0.6694155 0.1192797 0.0615927
0.6765747 0.1224219 0.0631954
0.6836546 0.1256363 0.0648373
0.6909177 0.1256208 0.0664777
0.6978286 0.1289085 0.0682615
0.7046531 0.1322708 0.0702170
0.7118204 0.1357074 0.0722245
0.7191362 0.1356900 0.0742392
0.7260938 0.1392026 0.0763536
0.7329460 0.1427928 0.0785239
0.7399422 0.1427705 0.0785179
0.7465734 0.1464388 0.0807451
0.7530933 0.1501980 0.0830306
0.0006954 0.0203940 0.0009759
0.0011059 0.0209409 0.0010208
0.0033429 0.0223085 0.0011429
0.0071316 0.0239431 0.0012941
0.0134602 0.0257115 0.0014442
0.0214182 0.0276329 0.0016268
0.0306314 0.0297109 0.0018189
0.0406869 0.0307933 0.0022033
0.0525214 0.0329961 0.0027373
0.0640544 0.0353618 0.0033435
0.0786991 0.0365875 0.0040262
0.0933824 0.0392049 0.0046351
0.1107510 0.0405647 0.0053754
0.1303194 0.0434573 0.0062408
0.1480421 0.0449003 0.0070315
0.1673905 0.0478835 0.0079276
0.1830271 0.0494406 0.0089957
0.1998156 0.0510444 0.0098957
0.2228186 0.0544192 0.0112315
0.2334165 0.0561891 0.0122520
0.2501434 0.0580033 0.0129848
0.2676665 0.0598749 0.0141620
0.2804049 0.0617490 0.0154880
0.3023922 0.0653994 0.0165124
0.3176695 0.0672986 0.0181541
0.3333870 0.0692471 0.0193405
0.3577462 0.0712367 0.0206015
0.3736744 0.0732923 0.0218368
0.3899019 0.0754031 0.0231219
0.4063972 0.0775701 0.0244812
0.4145645 0.0798076 0.0259206
0.4313964 0.0820916 0.0274407
0.4492311 0.0847983 0.0291570
0.4681160 0.0875829 0.0300906
0.4773946 0.0904697 0.0320291
0.4964144 0.0934269 0.0340860
0.5057563 0.0964855 0.0351757
0.5248073 0.0996205 0.0374285
0.5345016 0.0996063 0.0385916
0.5526438 0.1028336 0.0409024
0.5614097 0.1061692 0.0421236
0.5701420 0.1096016 0.0433800
0.5878446 0.1131172 0.0459663
0.5964835 0.1163256 0.0473284
0.6053818 0.1163098 0.0486960
0.6139072 0.1193853 0.0515824
0.6308231 0.1225091 0.0529872
0.6383504 0.1257256 0.0543768
0.6460955 0.1257102 0.0557658
0.6534887 0.1289999 0.0572246
0.6608114 0.1323641 0.0587196
0.6680611 0.1358038 0.0602516
0.6755057 0.1357873 0.0617823
0.6825841 0.1393066 0.0650003
0.6895956 0.1429002 0.0666863
0.6967844 0.1428829 0.0684325
0.7036216 0.1465551 0.0703925
0.7108026 0.1503170 0.0724049
0.7181475 0.1502938 0.0723993
0.7251177 0.1541600 0.0744653
0.7319824 0.1581093 0.0765862
0.7389813 0.1580893 0.0787138
0.7456260 0.1621216 0.0809466
0.7521607 0.1662384 0.0832377
0.0007347 0.0314364 0.0010966
0.0010269 0.0325035 0.0011430
0.0030781 0.0334726 0.0012889
0.0067851 0.0357570 0.0014577
0.0127186 0.0382240 0.0016110
0.0203576 0.0394880 0.0017991
0.0291316 0.0422645 0.0020584
0.0401220 0.0436921 0.0023371
0.0502459 0.0451219 0.0026800
0.0632939 0.0480980 0.0032774
0.0777879 0.0496342 0.0038460
0.0924417 0.0512262 0.0045286
0.1095296 0.0545992 0.0052556
0.1249401 0.0563532 0.0060959
0.1466693 0.0581489 0.0068676
0.1610546 0.0600206 0.0077376
0.1814190 0.0636954 0.0087682
0.1981021 0.0655381 0.0099545
0.2159600 0.0674288 0.0109488
0.2317970 0.0693760 0.0119644
0.2484550 0.0713756 0.0130490
0.2659247 0.0734291 0.0142310
0.2786418 0.0755449 0.0150805
0.3007955 0.0777045 0.0165805
0.3160422 0.0799322 0.0176654
0.3317001 0.0822215 0.0194200
0.3477329 0.0849327 0.0206899
0.3718018 0.0877122 0.0219310
0.3879503 0.0905896 0.0232239
0.3959371 0.0935679 0.0245934
0.4124759 0.0966197 0.0260401
0.4292352 0.0997614 0.0275699
0.4470659 0.1029908 0.0284021
0.4662825 0.1029613 0.0302084
0.4755562 0.1063035 0.0321542
0.4945880 0.1097203 0.0331811
0.5039105 0.1132575 0.0353128
0.5230233 0.1164488 0.0364343
0.5327025 0.1164358 0.0387381
0.5509340 0.1194911 0.0398884
0.5597514 0.1226406 0.0422718
0.5685530 0.1258590 0.0435266
0.5863502 0.1291297 0.0448137
0.5952986 0.1291160 0.0474492
0.6039109 0.1324814 0.0488513
0.6124628 0.1359224 0.0502929
0.6296743 0.1358865 0.0531218
0.6372110 0.1394046 0.0545148
0.6446838 0.1430006 0.0559425
0.6520898 0.1466751 0.0574057
0.6597035 0.1466573 0.0588680
0.6669635 0.1504226 0.0604038
0.6741465 0.1542929 0.0619776
0.6815219 0.1542743 0.0635497
0.6885433 0.1582270 0.0652007
0.6957457 0.1582081 0.0668497
0.7025947 0.1622441 0.0686432
0.7097881 0.1663638 0.0706090
0.7171344 0.1663429 0.0725817
0.7241195 0.1705474 0.0746526
0.7309997 0.1748377 0.0767784
0.7380146 0.1748160 0.0789109
0.7446752 0.1791928 0.0811489
0.7514598 0.1791704 0.0833933
0.0007922 0.0445785 0.0012489
0.0009717 0.0445318 0.0012833
0.0029458 0.0472849 0.0014469
0.0066989 0.0486382 0.0016226
0.0125763 0.0500784 0.0018112
0.0193897 0.0533062 0.0020197
0.0288180 0.0549453 0.0022926
0.0396971 0.0566548 0.0026198
0.0497221 0.0584424 0.0029382
0.0626554 0.0621807 0.0032976
0.0770266 0.0639452 0.0037682
0.0915606 0.0657697 0.0044230
0.1086477 0.0676422 0.0051289
0.1239635 0.0695788 0.0059474
0.1409666 0.0715657 0.0067004
0.1598680 0.0736081 0.0077756
0.1803195 0.0757017 0.0085306
0.1969238 0.0778670 0.0096849
0.2147015 0.0800871 0.0106525
0.2304702 0.0823722 0.0116731
0.2470259 0.0850818 0.0127330
0.2643910 0.0878732 0.0138880
0.2770092 0.0907598 0.0151475
0.2990586 0.0937118 0.0161403
0.3141976 0.0967703 0.0177474
0.3297795 0.0999156 0.0189094
0.3457649 0.1031531 0.0201464
0.3619795 0.1031262 0.0214037
0.3779459 0.1064577 0.0226661
0.3942015 0.1098853 0.0240016
0.4107150 0.1134108 0.0254141
0.4274938 0.1166127 0.0269056
0.4453525 0.1196758 0.0285071
0.4549160 0.1196625 0.0303223
0.4739050 0.1227907 0.0312881
0.4929760 0.1259940 0.0332943
0.5023606 0.1292921 0.0354283
0.5218012 0.1292518 0.0365282
0.5311771 0.1326237 0.0388627
0.5494158 0.1360455 0.0400166
0.5582555 0.1395659 0.0412068
0.5673474 0.1395512 0.0436381
0.5851570 0.1431258 0.0449283
0.5938161 0.1468055 0.0476007
0.6027327 0.1467860 0.0489758
0.6112924 0.1505524 0.0504211
0.6282473 0.1544001 0.0519033
0.6360807 0.1543816 0.0532871
0.6435465 0.1583407 0.0560850
0.6509604 0.1623797 0.0575521
0.6585854 0.1623603 0.0590179
0.6658551 0.1664836 0.0605576
0.6733240 0.1664638 0.0620957
0.6804377 0.1706719 0.0637111
0.6874717 0.1749661 0.0653661
0.6946875 0.1749453 0.0670189
0.7015495 0.1793262 0.0688167
0.7090154 0.1793040 0.0707426
0.7161190 0.1837704 0.0727645
0.7233692 0.1837476 0.0747933
0.7302611 0.1883017 0.0769228
0.7370457 0.1929443 0.0791085
0.7439606 0.1929207 0.0813010
0.7505224 0.1976665 0.0836015
0.0008574 0.0577655 0.0014123
0.0009109 0.0596330 0.0014360
0.0027466 0.0612309 0.0016051
0.0064093 0.0628889 0.0017906
0.0119489 0.0645347 0.0020311
0.0192117 0.0662712 0.0023050
0.0275521 0.0680900 0.0025592
0.0379722 0.0699721 0.0029526
0.0492962 0.0719225 0.0033108
0.0600782 0.0739449 0.0035881
0.0739021 0.0760178 0.0039901
0.0909513 0.0781413 0.0043210
0.1042979 0.0803547 0.0050007
0.1231648 0.0826120 0.0057984
0.1400432 0.0853101 0.0067290
0.1588253 0.0880866 0.0075812
0.1738059 0.0909633 0.0085694
0.1956316 0.0939069 0.0094266
0.2132773 0.0969568 0.0107023
0.2289360 0.1001010 0.0117289
0.2454142 0.1033364 0.0127937
0.2627027 0.1066656 0.0139542
0.2755713 0.1066396 0.0147772
0.2975366 0.1100563 0.0162042
0.3126465 0.1135859 0.0172666
0.3282069 0.1167948 0.0189825
0.3442099 0.1198629 0.0202214
0.3603899 0.1198318 0.0214833
0.3763843 0.1229710 0.0227472
0.3926732 0.1261819 0.0240841
0.4092248 0.1294655 0.0254980
0.4263030 0.1294323 0.0269755
0.4441491 0.1327872 0.0285811
0.4534229 0.1362345 0.0294951
0.4723834 0.1397386 0.0313894
0.4917539 0.1396997 0.0333803
0.5011559 0.1432997 0.0344435
0.5202734 0.1469578 0.0366459
0.5299747 0.1469375 0.0377855
0.5390094 0.1507114 0.0401227
0.5570409 0.1545618 0.0413129
0.5661377 0.1545458 0.0437502
0.5749094 0.1585028 0.0450475
0.5926362 0.1625178 0.0463781
0.6015443 0.1625010 0.0491017
0.6101108 0.1666253 0.0505507
0.6189076 0.1666037 0.0520072
0.6349276 0.1707890 0.0534237
0.6424176 0.1750856 0.0548245
0.6501113 0.1750692 0.0576623
0.6574638 0.1794524 0.0591685
0.6650226 0.1794315 0.0606732
0.6722260 0.1839017 0.0622537
0.6793518 0.1884601 0.0638729
0.6866666 0.1884381 0.0654903
0.6936272 0.1930846 0.0671886
0.7007646 0.1930624 0.0689472
0.7079825 0.1978112 0.0709212
0.7153554 0.1977872 0.0729021
0.7223657 0.2026254 0.0749816
0.7295197 0.2026008 0.0770678
0.7363152 0.2075287 0.0792576
0.7432423 0.2075038 0.0814537
0.7498292 0.2125165 0.0814985
0.0009266 0.0712828 0.0015870
0.0009380 0.0733561 0.0016163
0.0025663 0.0751086 0.0018022
0.0059569 0.0769637 0.0019919
0.0113759 0.0789415 0.0022595
0.0183753 0.0810354 0.0025724
0.0273172 0.0832137 0.0028836
0.0376469 0.0858462 0.0032333
0.0473881 0.0857529 0.0036029
0.0596325 0.0884959 0.0039020
0.0733479 0.0913313 0.0043395
0.0871695 0.0942636 0.0047341
0.1035196 0.0972780 0.0050243
0.1222496 0.1003869 0.0056568
0.1390204 0.1036081 0.0065635
0.1576879 0.1069190 0.0073949
0.1727870 0.1068765 0.0083358
0.1945122 0.1102801 0.0091698
0.2120815 0.1138030 0.0104110
0.2277038 0.1170062 0.0114405
0.2441652 0.1200706 0.0124776
0.2557330 0.1200468 0.0135998
0.2742574 0.1231792 0.0148305
0.2886934 0.1263934 0.0157581
0.3113343 0.1296635 0.0173240
0.3268931 0.1330244 0.0184562
0.3431352 0.1329892 0.0196485
0.3589956 0.1364294 0.0215534
0.3749628 0.1399416 0.0228214
0.3915161 0.1399060 0.0241469
0.4080503 0.1434943 0.0255644
0.4248323 0.1471567 0.0263099
0.4429635 0.1471172 0.0278332
0.4522139 0.1508944 0.0295717
0.4711630 0.1547511 0.0314709
0.4808353 0.1547297 0.0324540
0.4999264 0.1586679 0.0345330
0.5093118 0.1627159 0.0367442
0.5287443 0.1626666 0.0378836
0.5377967 0.1667943 0.0390859
0.5561237 0.1667509 0.0413932
0.5649368 0.1709632 0.0426231
0.5736967 0.1752666 0.0451639
0.5917371 0.1752165 0.0464678
0.6003696 0.1796007 0.0478423
0.6092237 0.1795825 0.0506481
0.6177342 0.1840537 0.0521407
0.6337733 0.1885872 0.0535607
0.6415592 0.1885652 0.0549298
0.6489912 0.1932143 0.0563681
0.6566356 0.1931920 0.0578053
0.6639100 0.1979493 0.0608279
0.6714004 0.1979264 0.0623725
0.6785344 0.2027688 0.0639948
0.6858588 0.2027454 0.0656151
0.6928283 0.2076776 0.0673166
0.6999760 0.2076539 0.0690782
0.7072046 0.2126749 0.0710558
0.7145889 0.2126494 0.0730402
0.7216106 0.2177606 0.0751234
0.7287763 0.2177346 0.0772132
0.7355835 0.2229361 0.0794068
0.7425359 0.2229040 0.0794007
0.7491215 0.2281957 0.0816516
0.0010140 0.0845842 0.0018115
0.0010126 0.0873915 0.0018129
0.0024721 0.0898860 0.0020037
0.0057338 0.0924711 0.0022720
0.0108347 0.0952217 0.0025857
0.0182480 0.0949813 0.0028956
0.0261628 0.0979328 0.0032464
0.0360734 0.1009855 0.0036197
0.0469993 0.1041497 0.0039198
0.0591484 0.1074205 0.0042451
0.0727633 0.1107951 0.0046165
0.0865955 0.1107041 0.0050424
0.1028424 0.1141890 0.0055119
0.1175586 0.1173674 0.0060249
0.1382231 0.1203826 0.0063955
0.1519778 0.1235162 0.0072052
0.1718664 0.1234462 0.0081109
0.1878640 0.1266521 0.0092025
0.2110831 0.1299046 0.0101211
0.2266654 0.1332626 0.0111319
0.2432935 0.1332179 0.0121558
0.2546052 0.1366675 0.0132580
0.2730758 0.1401719 0.0144581
0.2877058 0.1401383 0.0157995
0.3103167 0.1437073 0.0168321
0.3258314 0.1473813 0.0185045
0.3420462 0.1473427 0.0196999
0.3578968 0.1511037 0.0209850
0.3738392 0.1549690 0.0222422
0.3903724 0.1549300 0.0235347
0.4068865 0.1588766 0.0249170
0.4236343 0.1629062 0.0263789
0.4322194 0.1628901 0.0279084
0.4509953 0.1669987 0.0296491
0.4699537 0.1711870 0.0305942
0.4796047 0.1711687 0.0325387
0.4986925 0.1754465 0.0346230
0.5084041 0.1754227 0.0357016
0.5275119 0.1797859 0.0379821
0.5365665 0.1842612 0.0391874
0.5549005 0.1842139 0.0415004
0.5637180 0.1887766 0.0427334
0.5728039 0.1887525 0.0439733
0.5905370 0.1933787 0.0465877
0.5994753 0.1933541 0.0479347
0.6080555 0.1981077 0.0493509
0.6168522 0.1980879 0.0522412
0.6250296 0.2029316 0.0536677
0.6406983 0.2028803 0.0550354
0.6481370 0.2078149 0.0564766
0.6555076 0.2128405 0.0579535
0.6630864 0.2128163 0.0594290
0.6703094 0.2179319 0.0609789
0.6777287 0.2179072 0.0625271
0.6847792 0.2231183 0.0657820
0.6920283 0.2230932 0.0674448
0.6989227 0.2283897 0.0692534
0.7064256 0.2283628 0.0711907
0.7138210 0.2283360 0.0731785
0.7208679 0.2337153 0.0732191
0.7280453 0.2336877 0.0752596
0.7348640 0.2391628 0.0774016
0.7418153 0.2391349 0.0795502
0.7415615 0.2447341 0.0818113
0.0011061 0.1027114 0.0020661
0.0011046 0.1060597 0.0020677
0.0023134 0.1056777 0.0022272
0.0055241 0.1086539 0.0025251
0.0107579 0.1118154 0.0028289
0.0174592 0.1151614 0.0031707
0.0259483 0.1182172 0.0035417
0.0358288 0.1180385 0.0039346
0.0466944 0.1210157 0.0042601
0.0567584 0.1241017 0.0046323
0.0698727 0.1272475 0.0050626
0.0860901 0.1271220 0.0055291
0.1022799 0.1303511 0.0058670
0.1169333 0.1336802 0.0064149
0.1332613 0.1335950 0.0068054
0.1513583 0.1369971 0.0074420
0.1710308 0.1404717 0.0078999
0.1869674 0.1440544 0.0089456
0.2042593 0.1439955 0.0098330
0.2204758 0.1476628 0.0111620
0.2365610 0.1514189 0.0121967
0.2536948 0.1513687 0.0132929
0.2721197 0.1552252 0.0144962
0.2864839 0.1591758 0.0153607
0.3015499 0.1591390 0.0168778
0.3247791 0.1631468 0.0179800
0.3409667 0.1631046 0.0191419
0.3567748 0.1672273 0.0210403
0.3726947 0.1714297 0.0223008
0.3892074 0.1713871 0.0235966
0.4057035 0.1756739 0.0249826
0.4227355 0.1756305 0.0264308
0.4310140 0.1800292 0.0279815
0.4497954 0.1844781 0.0288220
0.4690336 0.1844285 0.0306542
0.4783745 0.1889996 0.0326237
0.4977852 0.1889436 0.0336390
0.5071697 0.1936024 0.0357946
0.5266055 0.1935453 0.0369055
0.5356425 0.1983082 0.0392637
0.5539986 0.1982528 0.0404032
0.5628017 0.2031045 0.0428166
0.5715871 0.2080412 0.0440873
0.5896503 0.2079838 0.0453613
0.5982785 0.2130155 0.0480586
0.6071642 0.2129889 0.0494464
0.6156889 0.2181053 0.0509053
0.6241673 0.2180792 0.0523716
0.6395476 0.2232636 0.0551768
0.6472821 0.2232386 0.0565852
0.6546605 0.2285377 0.0580647
0.6622480 0.2285122 0.0595430
0.6694797 0.2339017 0.0610957
0.6769081 0.2338757 0.0626467
0.6842518 0.2338497 0.0642348
0.6912401 0.2393289 0.0659027
0.6984086 0.2393026 0.0675683
0.7056594 0.2448696 0.0693797
0.7130662 0.2448412 0.0713203
0.7201099 0.2505058 0.0733578
0.7272993 0.2504769 0.0754020
0.7341288 0.2562340 0.0775478
0.7410924 0.2562046 0.0797001
0.7408378 0.2620870 0.0819653
0.0012072 0.1199720 0.0023544
0.0012058 0.1231469 0.0023560
0.0021681 0.1228025 0.0025386
0.0053252 0.1255035 0.0028420
0.0102656 0.1284068 0.0031834
0.0173543 0.1314507 0.0035546
0.0249099 0.1312276 0.0038453
0.0356219 0.1344357 0.0042742
0.0449555 0.1377914 0.0046472
0.0564976 0.1376463 0.0050752
0.0695597 0.1410820 0.0053851
0.0856181 0.1445930 0.0058850
0.1018295 0.1444769 0.0064298
0.1164324 0.1481075 0.0068256
0.1325631 0.1518284 0.0072457
0.1507319 0.1517378 0.0079180
0.1703360 0.1555617 0.0084161
0.1862400 0.1594930 0.0089695
0.2034801 0.1594288 0.0098592
0.2196606 0.1634542 0.0108439
0.2359186 0.1634011 0.0118745
0.2527913 0.1675120 0.0129506
0.2643989 0.1717302 0.0141242
0.2857398 0.1716639 0.0153913
0.3005417 0.1759547 0.0163989
0.3239783 0.1758872 0.0180157
0.3398710 0.1802627 0.0191925
0.3556710 0.1847266 0.0204451
0.3718527 0.1846819 0.0217207
0.3880592 0.1892321 0.0229985
0.4048328 0.1891860 0.0243340
0.4130009 0.1938514 0.0257642
0.4301269 0.1938044 0.0272568
0.4488815 0.1985384 0.0288787
0.4678048 0.2033623 0.0307345
0.4774682 0.2033355 0.0316952
0.4965485 0.2082479 0.0337270
0.5062410 0.2082263 0.0358647
0.5253690 0.2132219 0.0370018
0.5347167 0.2132012 0.0393404
0.5527707 0.2182888 0.0405083
0.5619009 0.2182618 0.0416859
0.5706733 0.2234777 0.0441730
0.5797254 0.2234501 0.0454530
0.5973967 0.2287166 0.0467951
0.6062720 0.2286944 0.0495421
0.6148036 0.2340846 0.0510037
0.6232890 0.2340572 0.0524727
0.6386980 0.2395086 0.0539017
0.6464258 0.2394875 0.0566940
0.6540954 0.2394611 0.0581391
0.6614086 0.2450327 0.0596572
0.6689261 0.2450058 0.0611737
0.6760864 0.2506745 0.0627666
0.6834396 0.2506471 0.0643576
0.6904371 0.2564085 0.0660285
0.6976156 0.2563808 0.0676971
0.7048765 0.2622294 0.0695118
0.7122948 0.2621995 0.0714558
0.7196033 0.2621699 0.0734506
0.7265505 0.2681062 0.0755447
0.7336378 0.2680762 0.0776455
0.7403678 0.2740998 0.0798505
0.7403544 0.2741065 0.0820681
0.0013023 0.1365505 0.0026227
0.0013355 0.1365377 0.0026986
0.0020379 0.1398108 0.0028564
0.0051363 0.1428138 0.0031974
0.0098106 0.1423809 0.0034734
0.0166655 0.1457026 0.0038593
0.0247646 0.1491802 0.0041773
0.0342130 0.1489578 0.0045238
0.0447494 0.1526049 0.0049433
0.0561786 0.1563803 0.0054021
0.0692429 0.1562320 0.0058997
0.0823031 0.1601174 0.0062614
0.0979452 0.1599909 0.0068421
0.1159297 0.1639531 0.0072626
0.1319992 0.1680268 0.0077095
0.1501111 0.1679235 0.0081783
0.1696384 0.1720858 0.0089894
0.1856831 0.1720071 0.0092760
0.2027002 0.1762753 0.0098855
0.2188466 0.1806378 0.0105350
0.2350481 0.1805852 0.0119061
0.2518778 0.1850414 0.0129851
0.2637051 0.1850018 0.0137516
0.2847630 0.1895324 0.0149955
0.2997755 0.1894895 0.0164315
0.3150027 0.1941307 0.0175062
0.3390505 0.1940574 0.0192306
0.3548309 0.1988022 0.0204857
0.3707089 0.2036366 0.0217781
0.3871853 0.2035878 0.0230440
