Plugins/FilmEmulator/Content/LUTs/FE_Kodak_5247_II_Alt_64.cube
TITLE "FE_Kodak_5247_II_Alt_33"
LUT_3D_SIZE 4
0.0016054 0.0011107 0.0016805
0.2432779 0.0279305 0.0137558
0.4853705 0.0802142 0.0379451
0.6389612 0.1487246 0.0662657
0.0063859 0.2623136 0.0075087
0.2174643 0.3207931 0.0198292
0.4682339 0.3876757 0.0428075
0.6248618 0.4414267 0.0722399
0.0173930 0.5232771 0.0208279
0.1989424 0.5620699 0.0341188
0.4483126 0.6002797 0.0525698
0.6139933 0.6299425 0.0775488
0.0316061 0.6830087 0.0374646
0.1874375 0.7045991 0.0502682
0.4379522 0.7329538 0.0699867
0.6117112 0.7504236 0.0947998
0.0327993 0.0084310 0.2923965
0.3104315 0.0246268 0.3282856
0.5281575 0.0762984 0.3606365
0.6702906 0.1424960 0.3928346
0.0189556 0.2423036 0.3158123
0.2790760 0.3148146 0.3427516
0.5109219 0.3746189 0.3708399
0.6567045 0.4290550 0.4008138
0.0330307 0.5076330 0.3276124
0.2627765 0.5476899 0.3541400
0.4988300 0.5874136 0.3824055
0.6458887 0.6257660 0.4123672
0.0473886 0.6780609 0.3309347
0.2481528 0.7002438 0.3573799
0.4879254 0.7222596 0.3854673
0.6360117 0.7412581 0.4151757
0.0847810 0.0253971 0.5512040
0.3652970 0.0408535 0.5684922
0.5688375 0.0712978 0.5863407
0.6925884 0.1377781 0.6062279
0.0650879 0.2398854 0.5652333
0.3412701 0.3056228 0.5814334
0.5520620 0.3727738 0.5974889
0.6793370 0.4272862 0.6144397
0.0508804 0.5051683 0.5716526
0.3233971 0.5455272 0.5868223
0.5406203 0.5854686 0.6098406
0.6689909 0.6163080 0.6263691
0.0668112 0.6677262 0.5752137
0.3073795 0.6983402 0.5975664
0.5297387 0.7206360 0.6129621
0.6667597 0.7398149 0.6292734
0.1481336 0.0478334 0.7024077
0.4161528 0.0669489 0.7100966
0.5983074 0.0850997 0.7233223
0.7138430 0.1332276 0.7314553
0.1220397 0.2322736 0.7109438
0.3930663 0.2972653 0.7183491
0.5828366 0.3637005 0.7314929
0.7011645 0.4182016 0.7382399
0.1070707 0.4945543 0.7163208
0.3811732 0.5440952 0.7229976
0.5713876 0.5842513 0.7353961
0.6981719 0.6151821 0.7416412
0.0916838 0.6662884 0.7195209
0.3637154 0.6971133 0.7317843
0.5611972 0.7196167 0.7379618
0.6889376 0.7388708 0.7496834
