Plugins/FilmEmulator/Content/LUTs/FE_Kodak_5384_64.cube
TITLE "FE_Kodak_5384_33"
LUT_3D_SIZE 8
0.0156960 0.0221025 0.0343437
0.2349865 0.0693897 0.0437776
0.6734779 0.1920297 0.0846125
0.9358324 0.3062944 0.1438801
1.0000000 0.3880029 0.2179899
1.0000000 0.4483048 0.2949479
1.0000000 0.5082362 0.3702298
1.0000000 0.5610238 0.4423259
0.0183357 0.2876646 0.1049446
0.2269815 0.3542625 0.1348201
0.6325602 0.4682937 0.1959803
0.8728215 0.5763088 0.2823794
0.9723663 0.6543144 0.3682773
1.0000000 0.7093112 0.4437706
1.0000000 0.7535779 0.5154406
1.0000000 0.7889952 0.5823658
0.0857754 0.7098660 0.2891613
0.2730157 0.7419159 0.3248992
0.6287919 0.7909024 0.3944387
0.8326283 0.8355884 0.4706490
0.9217435 0.8679374 0.5403121
0.9626645 0.8911968 0.6019454
0.9860538 0.9097901 0.6600360
0.9980897 0.9226037 0.7071295
0.1866729 0.8951853 0.4512349
0.3501469 0.9029497 0.4862041
0.6587396 0.9188582 0.5467378
0.8378513 0.9345880 0.6050690
0.9152392 0.9475065 0.6607438
0.9516212 0.9557873 0.7088832
0.9725286 0.9623631 0.7497342
0.9841523 0.9681566 0.7857915
0.2700469 0.9650207 0.5745218
0.4144334 0.9652358 0.6018968
0.6905369 0.9679304 0.6507493
0.8495979 0.9728913 0.6987966
0.9188077 0.9778033 0.7435219
0.9519106 0.9813874 0.7801773
0.9704074 0.9837600 0.8108288
0.9810299 0.9858729 0.8377107
0.3282832 0.9918633 0.6591050
0.4611512 0.9897603 0.6804253
0.7137158 0.9868663 0.7207869
0.8621834 0.9878114 0.7623533
0.9247641 0.9895816 0.7968478
0.9546664 0.9910620 0.8259628
0.9713758 0.9922136 0.8509197
0.9809728 0.9931003 0.8711669
0.3911914 1.0000000 0.7258824
0.4987459 1.0000000 0.7406124
0.7370928 0.9970962 0.7777550
0.8722146 0.9959118 0.8110789
0.9312416 0.9962655 0.8393312
0.9575416 0.9964738 0.8620219
0.9732423 0.9969534 0.8814609
0.9819193 0.9972219 0.8985150
0.4514576 1.0000000 0.7815734
0.5321907 1.0000000 0.7922431
0.7536374 1.0000000 0.8201348
0.8822482 0.9998169 0.8483757
0.9359763 0.9993890 0.8705196
0.9609548 0.9991627 0.8892094
0.9748832 0.9992123 0.9047378
0.9828292 0.9991649 0.9171005
0.3267155 0.2690916 0.7547615
0.7007214 0.4057996 0.7798269
0.8995218 0.5255088 0.8058972
0.9766316 0.6073266 0.8264206
1.0000000 0.6703143 0.8477035
1.0000000 0.7198421 0.8656417
1.0000000 0.7581103 0.8817196
1.0000000 0.7892465 0.8960193
0.3629287 0.6563421 0.8014344
0.6905129 0.7295119 0.8251057
0.8667255 0.7895300 0.8465900
0.9347706 0.8304017 0.8667280
0.9711146 0.8600343 0.8832932
0.9898514 0.8847138 0.8984509
0.9998655 0.9023934 0.9114788
1.0000000 0.9160888 0.9217120
0.4380662 0.8648024 0.8499381
0.7193190 0.8901117 0.8669083
0.8688042 0.9135720 0.8843079
0.9276301 0.9293500 0.8998963
0.9593746 0.9415378 0.9126647
0.9775449 0.9504339 0.9228206
0.9872241 0.9578515 0.9328567
0.9927169 0.9635867 0.9406591
0.5016265 0.9394009 0.8840629
0.7520876 0.9487474 0.8976297
0.8799349 0.9582166 0.9097953
0.9326963 0.9658178 0.9224308
0.9601902 0.9716517 0.9316759
0.9759240 0.9762082 0.9406763
0.9845556 0.9796090 0.9476777
0.9896396 0.9819036 0.9535013
0.5463394 0.9702606 0.9061772
0.7734884 0.9722083 0.9169738
0.8912891 0.9767821 0.9272748
0.9384803 0.9808593 0.9367357
0.9628750 0.9838392 0.9449016
0.9768724 0.9862423 0.9514114
0.9846076 0.9880293 0.9569927
0.9892002 0.9895840 0.9620332
0.5771983 0.9856496 0.9235225
0.7905374 0.9845600 0.9317579
0.8996359 0.9865836 0.9404444
0.9430523 0.9887185 0.9482926
0.9653487 0.9905358 0.9545032
0.9781219 0.9920200 0.9599965
0.9851831 0.9931266 0.9647374
0.9893472 0.9938266 0.9686294
0.6066082 0.9952793 0.9368400
0.8053504 0.9920644 0.9437147
0.9079995 0.9921637 0.9508119
0.9478803 0.9932855 0.9567261
0.9682375 0.9943399 0.9619986
0.9797637 0.9951193 0.9664626
0.9861826 0.9958029 0.9704640
0.9899577 0.9962289 0.9737595
0.6277425 1.0000000 0.9472473
0.8162792 0.9962004 0.9527331
0.9137297 0.9955245 0.9583361
0.9511465 0.9958834 0.9632357
0.9705963 0.9963942 0.9680755
0.9813094 0.9969934 0.9716401
0.9871486 0.9973590 0.9749309
0.9906393 0.9977126 0.9775655
0.7382975 0.6887258 0.9636419
0.8817868 0.7546044 0.9640290
0.9409287 0.7974615 0.9656353
0.9740141 0.8330564 0.9678041
0.9917719 0.8593407 0.9702107
1.0000000 0.8802170 0.9726540
1.0000000 0.8970598 0.9749711
1.0000000 0.9110427 0.9771368
0.7636988 0.8735027 0.9668431
0.8839403 0.9004672 0.9688165
0.9336938 0.9193778 0.9711317
0.9620417 0.9332056 0.9735305
0.9783869 0.9440156 0.9758930
0.9871437 0.9520338 0.9780788
0.9921989 0.9582841 0.9800516
0.9953165 0.9633260 0.9818437
0.7913621 0.9391508 0.9724801
0.8974062 0.9526927 0.9745646
0.9395306 0.9610811 0.9766244
0.9635871 0.9677472 0.9787242
0.9770790 0.9728352 0.9807146
0.9848241 0.9767078 0.9825029
0.9896514 0.9797758 0.9841246
0.9926047 0.9818107 0.9852439
0.8161820 0.9678882 0.9774311
0.9080803 0.9741556 0.9787781
0.9459602 0.9784296 0.9808724
0.9668307 0.9818316 0.9825717
0.9786085 0.9846832 0.9842033
0.9853738 0.9866231 0.9853703
0.9894401 0.9881191 0.9866667
0.9922459 0.9895453 0.9878846
0.8309528 0.9805273 0.9811000
0.9167817 0.9838778 0.9821926
0.9503827 0.9865029 0.9836870
0.9693885 0.9887079 0.9851738
0.9803930 0.9904920 0.9865697
0.9864217 0.9917992 0.9878239
0.9900472 0.9927953 0.9889304
0.9925482 0.9936128 0.9897560
0.8439612 0.9884570 0.9842226
0.9237157 0.9900361 0.9851250
0.9551120 0.9914609 0.9863170
0.9723140 0.9928621 0.9875678
0.9822009 0.9940038 0.9887525
0.9875486 0.9947429 0.9895779
0.9908040 0.9953924 0.9905314
0.9929353 0.9959069 0.9912361
0.8553978 0.9929015 0.9866028
0.9298053 0.9934490 0.9873407
0.9582276 0.9942716 0.9883319
0.9746914 0.9952233 0.9892253
0.9833770 0.9958944 0.9902045
0.9884031 0.9964839 0.9911293
0.9915111 0.9968878 0.9917769
0.9934511 0.9972469 0.9925224
0.8635105 0.9959282 0.9883740
0.9339443 0.9956430 0.9889237
0.9616045 0.9961836 0.9898496
0.9763214 0.9967086 0.9907469
0.9847412 0.9971883 0.9915963
0.9893605 0.9976100 0.9922739
0.9922031 0.9978931 0.9929661
0.9939468 0.9981083 0.9934658
0.8951089 0.8798478 0.9923213
0.9393234 0.9020509 0.9913228
0.9656615 0.9197563 0.9909135
0.9798287 0.9329257 0.9909512
0.9878319 0.9429641 0.9912186
0.9925662 0.9500532 0.9915848
0.9957153 0.9559386 0.9919699
0.9976058 0.9612699 0.9922447
0.9065744 0.9452540 0.9915611
0.9446542 0.9554532 0.9913213
0.9658849 0.9627830 0.9914462
0.9784977 0.9685251 0.9917569
0.9854639 0.9731840 0.9921893
0.9896668 0.9764564 0.9926106
0.9925799 0.9791397 0.9929123
0.9944746 0.9813481 0.9933317
0.9190321 0.9717637 0.9923146
0.9513413 0.9764717 0.9923024
0.9694773 0.9804460 0.9925609
0.9798478 0.9834473 0.9929332
0.9858629 0.9854863 0.9933100
0.9897495 0.9873016 0.9937074
0.9922823 0.9885528 0.9939744
0.9939771 0.9895751 0.9943264
0.9276221 0.9826467 0.9931921
0.9557993 0.9854656 0.9932650
0.9725212 0.9878645 0.9935199
0.9816663 0.9896643 0.9938610
0.9869969 0.9910173 0.9942139
0.9904251 0.9920781 0.9944760
0.9926606 0.9929261 0.9948164
0.9941683 0.9936157 0.9951418
0.9340926 0.9890518 0.9940627
0.9603091 0.9907099 0.9941342
0.9753501 0.9922808 0.9943902
0.9835145 0.9934620 0.9946995
0.9882510 0.9943514 0.9950225
0.9912482 0.9949536 0.9952400
0.9931295 0.9954923 0.9955424
0.9945806 0.9959587 0.9957677
0.9399036 0.9927373 0.9947935
0.9639694 0.9937772 0.9948710
0.9772789 0.9947899 0.9951007
0.9850674 0.9956179 0.9953808
0.9892914 0.9961509 0.9955797
0.9919069 0.9966227 0.9958649
0.9936950 0.9969534 0.9961204
0.9949064 0.9972139 0.9962999
0.9437556 0.9949932 0.9954164
0.9665387 0.9957321 0.9955063
0.9792321 0.9963688 0.9956896
0.9860883 0.9968801 0.9958588
0.9900850 0.9973272 0.9961280
0.9925868 0.9976331 0.9963700
0.9942162 0.9978725 0.9965449
0.9953409 0.9981049 0.9967803
0.9479015 0.9965918 0.9959611
0.9691696 0.9970232 0.9960346
0.9809452 0.9974443 0.9962009
0.9872685 0.9978022 0.9963551
0.9908908 0.9980819 0.9965782
0.9931905 0.9983060 0.9967462
0.9946840 0.9984818 0.9969545
0.9957131 0.9986497 0.9971184
0.9498609 0.9479239 0.9971374
0.9685181 0.9566061 0.9966111
0.9793949 0.9632970 0.9964134
0.9860800 0.9681582 0.9964975
0.9899142 0.9721606 0.9965503
0.9927753 0.9752526 0.9966385
0.9945866 0.9781368 0.9967595
0.9957338 0.9801308 0.9968993
0.9554981 0.9737703 0.9966486
0.9718269 0.9782841 0.9965621
0.9808866 0.9812583 0.9965507
0.9863434 0.9837782 0.9966305
0.9898763 0.9857763 0.9967522
0.9923441 0.9874253 0.9968922
0.9938489 0.9885173 0.9971119
0.9950048 0.9896063 0.9972566
0.9606654 0.9844339 0.9968648
0.9748602 0.9869081 0.9967855
0.9827718 0.9887431 0.9968329
0.9874851 0.9901462 0.9970177
0.9905605 0.9912421 0.9971409
0.9926292 0.9922456 0.9972829
0.9940959 0.9929878 0.9974194
0.9951252 0.9935981 0.9975538
0.9648947 0.9900976 0.9972005
0.9775865 0.9917418 0.9971703
0.9846091 0.9929636 0.9972391
0.9887840 0.9938880 0.9973502
0.9914539 0.9945159 0.9974663
0.9932634 0.9951048 0.9975972
0.9945614 0.9955935 0.9977264
0.9954747 0.9959936 0.9978514
0.9679006 0.9934093 0.9974732
0.9795358 0.9945015 0.9974679
0.9858960 0.9952432 0.9975334
0.9898682 0.9959051 0.9976974
0.9922919 0.9964010 0.9978129
0.9938734 0.9967349 0.9979208
0.9950332 0.9970652 0.9980358
0.9958323 0.9972853 0.9981372
0.9707077 0.9954001 0.9977809
0.9813949 0.9961612 0.9977846
0.9872018 0.9966877 0.9978479
0.9907722 0.9971071 0.9979378
0.9929830 0.9974736 0.9980478
0.9944177 0.9977181 0.9981481
0.9954715 0.9979613 0.9982551
0.9961459 0.9981134 0.9983472
0.9731926 0.9967759 0.9980050
0.9829708 0.9972516 0.9980087
0.9883201 0.9976317 0.9980715
0.9915037 0.9979658 0.9981667
0.9935130 0.9981938 0.9982584
0.9949165 0.9983821 0.9983504
0.9958516 0.9985291 0.9984391
0.9964669 0.9986413 0.9985214
0.9747976 0.9976677 0.9982061
0.9840468 0.9979904 0.9982557
0.9892797 0.9982737 0.9983089
0.9921715 0.9984872 0.9983848
0.9940279 0.9986581 0.9984663
0.9953214 0.9987999 0.9985481
0.9961298 0.9989049 0.9986251
0.9967469 0.9989948 0.9986933
0.9736171 0.9747921 0.9990574
0.9817793 0.9784778 0.9988122
0.9867262 0.9812945 0.9986873
0.9899905 0.9835160 0.9985812
0.9922843 0.9853834 0.9985632
0.9939075 0.9869294 0.9985713
0.9949426 0.9881386 0.9986009
0.9957230 0.9889693 0.9986025
0.9764137 0.9857661 0.9987622
0.9837720 0.9879066 0.9986309
0.9879570 0.9893119 0.9985902
0.9907231 0.9904264 0.9985880
0.9927275 0.9914760 0.9985704
0.9940495 0.9922197 0.9986076
0.9950554 0.9928585 0.9986481
0.9957404 0.9933749 0.9986945
0.9790295 0.9910086 0.9987682
0.9852576 0.9922768 0.9986600
0.9891967 0.9932844 0.9986455
0.9916359 0.9940476 0.9986649
0.9933730 0.9946791 0.9986984
0.9945457 0.9951727 0.9987121
0.9954339 0.9956019 0.9987583
0.9960279 0.9958720 0.9988035
0.9813467 0.9941496 0.9988158
0.9868828 0.9949989 0.9987766
0.9903723 0.9956587 0.9987494
0.9924892 0.9960920 0.9987747
0.9940279 0.9965135 0.9988127
0.9950654 0.9968421 0.9988320
0.9957819 0.9970617 0.9988745
0.9963776 0.9973061 0.9989214
0.9831599 0.9959471 0.9988944
0.9881819 0.9965473 0.9988725
0.9911503 0.9969437 0.9988566
0.9931992 0.9972733 0.9988831
0.9945882 0.9975762 0.9989215
0.9954979 0.9977739 0.9989597
0.9961682 0.9979728 0.9989845
0.9966895 0.9981141 0.9990250
0.9844025 0.9970832 0.9989845
0.9892754 0.9975411 0.9989692
0.9919828 0.9978341 0.9989838
0.9938461 0.9980745 0.9989887
0.9950085 0.9982550 0.9990229
0.9959303 0.9984437 0.9990639
0.9965155 0.9985594 0.9990841
0.9969871 0.9986627 0.9991219
0.9857706 0.9979075 0.9990720
0.9900296 0.9981884 0.9990617
0.9926801 0.9984150 0.9990754
0.9943025 0.9985862 0.9991011
0.9954490 0.9987270 0.9991150
0.9962676 0.9988433 0.9991491
0.9968030 0.9989303 0.9991685
0.9972179 0.9990227 0.9992075
0.9867689 0.9984003 0.9991663
0.9907529 0.9986107 0.9991385
0.9932240 0.9987840 0.9991519
0.9947320 0.9989160 0.9991769
0.9957949 0.9990250 0.9991908
0.9965526 0.9991152 0.9992229
0.9970471 0.9991832 0.9992551
0.9974157 0.9992391 0.9992734
0.9844122 0.9863856 0.9995053
0.9882587 0.9880806 0.9993945
0.9909339 0.9892974 0.9993055
0.9928767 0.9904752 0.9992648
0.9941371 0.9912524 0.9992306
0.9950441 0.9920302 0.9992298
0.9957425 0.9925800 0.9992188
0.9963063 0.9930686 0.9992135
0.9861258 0.9915493 0.9993560
0.9894624 0.9925513 0.9992957
0.9918055 0.9933664 0.9992430
0.9933939 0.9940237 0.9992326
0.9945289 0.9945566 0.9992172
0.9953378 0.9950116 0.9992297
0.9960156 0.9954147 0.9992289
0.9965168 0.9957546 0.9992336
0.9875188 0.9945618 0.9993255
0.9906543 0.9952587 0.9992869
0.9927112 0.9957991 0.9992559
0.9940753 0.9961620 0.9992578
0.9950740 0.9965167 0.9992540
0.9957860 0.9968110 0.9992723
0.9963214 0.9970061 0.9992775
0.9968101 0.9972406 0.9992861
0.9888292 0.9963053 0.9993411
0.9915919 0.9967285 0.9993163
0.9934365 0.9971084 0.9992974
0.9946578 0.9973667 0.9993047
0.9955522 0.9976181 0.9993070
0.9961726 0.9977826 0.9993122
0.9966676 0.9979635 0.9993351
0.9970903 0.9980931 0.9993438
0.9899091 0.9973866 0.9993763
0.9924182 0.9976960 0.9993598
0.9940552 0.9979360 0.9993469
0.9951897 0.9981627 0.9993594
0.9959733 0.9983141 0.9993629
0.9965337 0.9984365 0.9993702
0.9969655 0.9985421 0.9993904
0.9973637 0.9986671 0.9994029
0.9907905 0.9980811 0.9994166
0.9931331 0.9983437 0.9994079
0.9945425 0.9985116 0.9994010
0.9956257 0.9986601 0.9994115
0.9963380 0.9987726 0.9994165
0.9968466 0.9988630 0.9994246
0.9972383 0.9989409 0.9994439
0.9975707 0.9990277 0.9994560
0.9913915 0.9985455 0.9994596
0.9935597 0.9987209 0.9994518
0.9949949 0.9988800 0.9994482
0.9959917 0.9989933 0.9994593
0.9966453 0.9990788 0.9994651
0.9971113 0.9991475 0.9994733
0.9974700 0.9992064 0.9994910
0.9977607 0.9992576 0.9995000
0.9920136 0.9988754 0.9994979
0.9940373 0.9990107 0.9994924
0.9953462 0.9991180 0.9994884
0.9962232 0.9992034 0.9995001
0.9968859 0.9992763 0.9995057
0.9973195 0.9993312 0.9995139
0.9976531 0.9993781 0.9995299
0.9979230 0.9994189 0.9995387
0.9898742 0.9916578 0.9996703
0.9919851 0.9924974 0.9995988
0.9935071 0.9931989 0.9995583
0.9946088 0.9938797 0.9995195
0.9953408 0.9943429 0.9994978
0.9959725 0.9947675 0.9994806
0.9964811 0.9951479 0.9994776
0.9969214 0.9954918 0.9994689
0.9909102 0.9947637 0.9995870
0.9928920 0.9953557 0.9995368
0.9941955 0.9957432 0.9995057
0.9950805 0.9961154 0.9994962
0.9957855 0.9964375 0.9994844
0.9963408 0.9967171 0.9994776
0.9967774 0.9969060 0.9994739
0.9971307 0.9971243 0.9994809
0.9918776 0.9964681 0.9995666
0.9936387 0.9968730 0.9995308
0.9947931 0.9971403 0.9995105
0.9955782 0.9973927 0.9995083
0.9961839 0.9975675 0.9995023
0.9966789 0.9977595 0.9995007
0.9970671 0.9978920 0.9995005
0.9973845 0.9980454 0.9995100
0.9926996 0.9975291 0.9995717
0.9941729 0.9977719 0.9995475
0.9952354 0.9979721 0.9995333
0.9960101 0.9981691 0.9995276
0.9965541 0.9982994 0.9995316
0.9970012 0.9984419 0.9995334
0.9973489 0.9985384 0.9995353
0.9976225 0.9986215 0.9995388
0.9933950 0.9982187 0.9995829
0.9947329 0.9983991 0.9995714
0.9956953 0.9985471 0.9995618
0.9963959 0.9986914 0.9995596
0.9968867 0.9987870 0.9995650
0.9972740 0.9988688 0.9995669
0.9975887 0.9989407 0.9995700
0.9978363 0.9990025 0.9995742
0.9939497 0.9986604 0.9996052
0.9952083 0.9988197 0.9995985
0.9960862 0.9989304 0.9995918
0.9967044 0.9990191 0.9995900
0.9971537 0.9990913 0.9995912
0.9974782 0.9991500 0.9995991
0.9977944 0.9992086 0.9996025
0.9980202 0.9992552 0.9996053
0.9944104 0.9989644 0.9996281
0.9955529 0.9990707 0.9996172
0.9963705 0.9991590 0.9996173
0.9969452 0.9992296 0.9996166
0.9973318 0.9992836 0.9996188
0.9976636 0.9993332 0.9996219
0.9979324 0.9993770 0.9996285
0.9981654 0.9994170 0.9996314
0.9947182 0.9991764 0.9996514
0.9958675 0.9992660 0.9996414
0.9966308 0.9993364 0.9996424
0.9971661 0.9993926 0.9996425
0.9975256 0.9994356 0.9996450
0.9978337 0.9994751 0.9996483
0.9980832 0.9995098 0.9996509
0.9982992 0.9995417 0.9996563
