Plugins/FilmEmulator/Content/LUTs/FE_Kodak_Eastman_Color_Negative_50T_5251_64.cube
# FilmEmulator LUT (resampled to 64)
LUT_3D_SIZE 4
0.000000 0.000000 0.000000
0.186697 0.000000 0.000000
0.379028 0.001251 0.000000
0.577637 0.001129 0.000000
0.000936 0.215078 0.010477
0.304484 0.265530 0.019324
0.534583 0.244381 0.000000
0.682943 0.209096 0.000000
0.012726 0.467224 0.054413
0.423258 0.543396 0.100416
0.773430 0.586446 0.129669
0.921163 0.541148 0.077250
0.117859 0.689087 0.097534
0.484925 0.756745 0.165090
0.864156 0.895477 0.275381
0.997650 0.892426 0.282410
0.000000 0.000000 0.192780
0.203963 0.000729 0.207252
0.432715 0.000685 0.202410
0.626271 0.000488 0.158020
0.001566 0.263174 0.253184
0.282399 0.273094 0.256971
0.554250 0.244539 0.218357
0.702596 0.202840 0.138187
0.008616 0.533156 0.304471
0.362499 0.562565 0.300184
0.779962 0.617892 0.331196
0.957699 0.578376 0.290538
0.090688 0.738739 0.333232
0.424957 0.770836 0.344472
0.856835 0.930037 0.445519
0.996907 0.950012 0.472300
0.000000 0.002370 0.368693
0.209710 0.000899 0.392778
0.488034 0.000000 0.408820
0.675405 0.000000 0.387156
0.000271 0.261051 0.447578
0.214334 0.264629 0.458156
0.568583 0.243447 0.451856
0.733307 0.192210 0.401845
0.002652 0.597537 0.578888
0.288800 0.634725 0.608522
0.703428 0.654656 0.588935
0.946554 0.617974 0.542121
0.166534 0.862518 0.669596
0.424971 0.917355 0.702209
0.765303 0.941362 0.679335
0.995982 0.973033 0.723694
0.000000 0.003113 0.530518
0.177144 0.000651 0.550222
0.471395 0.000000 0.576314
0.679718 0.000000 0.570526
0.000000 0.233582 0.600230
0.142961 0.233182 0.609636
0.530307 0.252163 0.641645
0.748596 0.215068 0.605153
0.004679 0.609680 0.780060
0.298821 0.669898 0.859989
0.633077 0.687188 0.863997
0.887837 0.674876 0.819773
0.235840 0.938568 1.000000
0.494629 0.980917 1.000000
0.733958 0.990163 1.000000
1.000000 1.000000 0.995667
