Plugins/FilmEmulator/Content/LUTs/FE_Kodak_16mm_Variant_64.cube
# FilmEmulator LUT (resampled to 64)
LUT_3D_SIZE 64
0.000000 0.000000 0.000031
0.010928 0.000604 0.001813
0.021913 0.001211 0.003598
0.034639 0.001877 0.005442
0.047335 0.002557 0.007260
0.059581 0.003441 0.008671
0.071788 0.004367 0.010106
0.083615 0.005700 0.011780
0.095838 0.006984 0.013321
0.110827 0.007930 0.013925
0.126259 0.008709 0.014542
0.144085 0.008585 0.015224
0.162269 0.008356 0.016057
0.182002 0.007674 0.017545
0.201863 0.006822 0.018822
0.222185 0.005365 0.019350
0.242376 0.004074 0.019985
0.262170 0.003284 0.020946
0.281852 0.002385 0.022147
0.301243 0.001207 0.023961
0.320785 0.000402 0.025949
0.340658 0.000417 0.028321
0.359832 0.000475 0.030783
0.377673 0.000615 0.033418
0.394742 0.000638 0.035611
0.410522 0.000467 0.037068
0.426509 0.000328 0.038418
0.442801 0.000235 0.039612
0.459289 0.000190 0.040778
0.476030 0.000206 0.041910
0.492212 0.000214 0.042976
0.507759 0.000214 0.043968
0.523439 0.000175 0.045464
0.539250 0.000097 0.047464
0.553834 0.000045 0.049373
0.567335 0.000014 0.051202
0.581290 0.000000 0.053423
0.595598 0.000000 0.055950
0.609224 0.000000 0.058476
0.622384 0.000000 0.061003
0.635099 0.000000 0.063365
0.647546 0.000000 0.065628
0.659892 0.000000 0.067901
0.672184 0.000000 0.070180
0.684401 0.000000 0.072256
0.696585 0.000000 0.074241
0.708446 0.000000 0.076280
0.720180 0.000000 0.078342
0.732124 0.000000 0.080647
0.744137 0.000000 0.083035
0.757131 0.000000 0.085907
0.770400 0.000000 0.088914
0.781780 0.000000 0.091669
0.792724 0.000000 0.094367
0.801811 0.000000 0.096763
0.810553 0.000000 0.099103
0.818007 0.000000 0.101159
0.825276 0.000000 0.103174
0.829765 0.000000 0.104276
0.833966 0.000000 0.105284
0.835595 0.000000 0.105477
0.837051 0.000000 0.105617
0.838253 0.000000 0.105772
0.839447 0.000000 0.105927
0.002170 0.009006 0.004356
0.012413 0.008721 0.005217
0.022720 0.008447 0.006090
0.034981 0.008539 0.007336
0.047240 0.008640 0.008572
0.059446 0.008878 0.009644
0.071579 0.009180 0.010753
0.082997 0.010104 0.012222
0.094810 0.010999 0.013595
0.109390 0.011693 0.014286
0.124392 0.012229 0.014930
0.141675 0.011916 0.015321
0.159371 0.011520 0.015894
0.178860 0.010768 0.017256
0.198503 0.009800 0.018409
0.218699 0.008068 0.018818
0.238753 0.006566 0.019379
0.258383 0.005760 0.020395
0.277961 0.004765 0.021627
0.297408 0.003288 0.023409
0.316982 0.002221 0.025353
0.336839 0.002055 0.027654
0.356084 0.001945 0.030067
0.374162 0.001943 0.032694
0.391348 0.001819 0.034897
0.407050 0.001491 0.036394
0.422988 0.001185 0.037809
0.439271 0.000911 0.039105
0.455796 0.000760 0.040394
0.472632 0.000768 0.041675
0.488942 0.000739 0.042825
0.504654 0.000668 0.043824
0.520530 0.000546 0.045257
0.536569 0.000374 0.047123
0.551361 0.000269 0.048940
0.565051 0.000222 0.050714
0.579182 0.000179 0.052832
0.593655 0.000140 0.055217
0.607358 0.000101 0.057602
0.620534 0.000061 0.059987
0.633215 0.000032 0.062222
0.645599 0.000008 0.064367
0.657871 0.000000 0.066527
0.670085 0.000000 0.068696
0.682234 0.000000 0.070694
0.694355 0.000000 0.072615
0.706187 0.000000 0.074615
0.717906 0.000000 0.076644
0.729804 0.000000 0.078925
0.741762 0.000000 0.081289
0.754812 0.000000 0.084149
0.768167 0.000000 0.087148
0.779749 0.000000 0.089941
0.790921 0.000000 0.092685
0.800329 0.000000 0.095142
0.809410 0.000000 0.097545
0.817209 0.000000 0.099671
0.824825 0.000000 0.101757
0.829589 0.000000 0.102923
0.834058 0.000000 0.103993
0.835777 0.000000 0.104243
0.837313 0.000000 0.104437
0.838563 0.000000 0.104609
0.839804 0.000000 0.104780
0.004375 0.018055 0.008700
0.013937 0.016898 0.008658
0.023568 0.015763 0.008638
0.035352 0.015281 0.009289
0.047159 0.014804 0.009946
0.059312 0.014404 0.010676
0.071359 0.014088 0.011456
0.082379 0.014595 0.012712
0.093793 0.015092 0.013907
0.107972 0.015529 0.014677
0.122551 0.015820 0.015343
0.139295 0.015316 0.015451
0.156506 0.014752 0.015769
0.175746 0.013926 0.017000
0.195167 0.012840 0.018026
0.215235 0.010831 0.018316
0.235152 0.009117 0.018797
0.254619 0.008286 0.019853
0.274094 0.007191 0.021105
0.293589 0.005425 0.022857
0.313192 0.004099 0.024759
0.333032 0.003745 0.026989
0.352347 0.003462 0.029354
0.370659 0.003314 0.031974
0.387963 0.003038 0.034187
0.403587 0.002547 0.035721
0.419474 0.002072 0.037200
0.435749 0.001617 0.038599
0.452309 0.001359 0.040012
0.469238 0.001352 0.041442
0.485673 0.001281 0.042674
0.501547 0.001136 0.043682
0.517618 0.000931 0.045052
0.533884 0.000664 0.046786
0.548883 0.000506 0.048511
0.562762 0.000442 0.050229
0.577068 0.000368 0.052243
0.591707 0.000287 0.054487
0.605487 0.000207 0.056730
0.618681 0.000129 0.058972
0.631331 0.000070 0.061080
0.643653 0.000022 0.063106
0.655853 0.000005 0.065153
0.667989 0.000005 0.067211
0.680071 0.000003 0.069130
0.692129 0.000002 0.070988
0.703931 0.000001 0.072946
0.715634 0.000000 0.074943
0.727486 0.000000 0.077197
0.739390 0.000000 0.079536
0.752494 0.000000 0.082385
0.765936 0.000000 0.085377
0.777720 0.000000 0.088206
0.789121 0.000000 0.090997
0.798850 0.000000 0.093515
0.808269 0.000000 0.095981
0.816413 0.000000 0.098177
0.824376 0.000000 0.100333
0.829413 0.000000 0.101563
0.834148 0.000000 0.102697
0.835958 0.000000 0.103001
0.837573 0.000000 0.103250
0.838871 0.000000 0.103438
0.840160 0.000000 0.103625
0.007677 0.028409 0.013661
0.016664 0.026970 0.013264
0.025710 0.025543 0.012885
0.036597 0.024501 0.013065
0.047531 0.023475 0.013251
0.059196 0.022673 0.013549
0.070797 0.021931 0.013891
0.081778 0.021759 0.014658
0.093137 0.021615 0.015405
0.107150 0.021659 0.016010
0.121526 0.021581 0.016531
0.137860 0.020849 0.016599
0.154665 0.020069 0.016835
0.173512 0.019077 0.017799
0.192580 0.017797 0.018582
0.212443 0.015489 0.018723
0.232193 0.013475 0.018982
0.251605 0.012345 0.019597
0.270992 0.011040 0.020538
0.290314 0.009289 0.022314
0.309783 0.007840 0.024215
0.329575 0.007052 0.026390
0.348924 0.006398 0.028724
0.367425 0.005999 0.031359
0.384824 0.005444 0.033576
0.400384 0.004630 0.035095
0.416215 0.003902 0.036619
0.432443 0.003298 0.038152
0.448994 0.002863 0.039688
0.465962 0.002644 0.041228
0.482443 0.002378 0.042530
0.498373 0.002060 0.043562
0.514573 0.001721 0.044905
0.531045 0.001360 0.046560
0.546235 0.001127 0.048198
0.560296 0.001008 0.049821
0.574783 0.000844 0.051723
0.589602 0.000645 0.053840
0.603499 0.000503 0.055939
0.616764 0.000401 0.058024
0.629430 0.000304 0.059984
0.641736 0.000209 0.061868
0.653900 0.000165 0.063779
0.665988 0.000149 0.065702
0.678013 0.000111 0.067521
0.690008 0.000062 0.069291
0.701770 0.000031 0.071174
0.713440 0.000006 0.073100
0.725250 0.000000 0.075301
0.737106 0.000000 0.077593
0.750250 0.000000 0.080425
0.763754 0.000000 0.083409
0.775748 0.000000 0.086275
0.787393 0.000000 0.089114
0.797432 0.000000 0.091699
0.807174 0.000000 0.094236
0.815663 0.000000 0.096496
0.823972 0.000000 0.098715
0.829234 0.000000 0.100015
0.834181 0.000000 0.101220
0.836093 0.000000 0.101558
0.837802 0.000000 0.101839
0.839157 0.000000 0.102043
0.840500 0.000000 0.102245
0.011054 0.038808 0.018612
0.019477 0.037111 0.017889
0.027949 0.035418 0.017180
0.037954 0.033843 0.016903
0.048029 0.032292 0.016636
0.059164 0.031090 0.016508
0.070281 0.029922 0.016419
0.081213 0.029082 0.016694
0.092507 0.028304 0.016990
0.106337 0.027961 0.017429
0.120494 0.027521 0.017802
0.136425 0.026559 0.017818
0.152832 0.025559 0.017959
0.171301 0.024395 0.018643
0.190032 0.022918 0.019172
0.209697 0.020321 0.019145
0.229284 0.018012 0.019167
0.248640 0.016570 0.019335
0.267935 0.015046 0.019964
0.287072 0.013309 0.021769
0.306398 0.011730 0.023674
0.326141 0.010498 0.025798
0.345523 0.009462 0.028101
0.364216 0.008804 0.030745
0.381707 0.007964 0.032962
0.397198 0.006821 0.034469
0.412971 0.005832 0.036040
0.429156 0.005065 0.037705
0.445699 0.004444 0.039362
0.462700 0.004009 0.041012
0.479221 0.003541 0.042385
0.495200 0.003035 0.043444
0.511525 0.002556 0.044764
0.528196 0.002103 0.046343
0.543574 0.001795 0.047894
0.557814 0.001614 0.049420
0.572481 0.001349 0.051208
0.587482 0.001018 0.053199
0.601497 0.000807 0.055153
0.614837 0.000676 0.057081
0.627523 0.000539 0.058892
0.639818 0.000397 0.060634
0.651948 0.000327 0.062406
0.663992 0.000295 0.064194
0.675963 0.000221 0.065910
0.687900 0.000128 0.067593
0.699623 0.000066 0.069400
0.711264 0.000016 0.071255
0.723030 0.000004 0.073400
0.734838 0.000004 0.075642
0.748018 0.000002 0.078455
0.761581 0.000000 0.081428
0.773781 0.000000 0.084328
0.785667 0.000000 0.087212
0.796018 0.000000 0.089865
0.806085 0.000000 0.092475
0.814914 0.000000 0.094797
0.823568 0.000000 0.097077
0.829054 0.000000 0.098447
0.834213 0.000000 0.099723
0.836227 0.000000 0.100095
0.838031 0.000000 0.100407
0.839440 0.000000 0.100628
0.840836 0.000000 0.100846
0.015549 0.049876 0.023433
0.023570 0.048305 0.022805
0.031634 0.046729 0.022180
0.041001 0.045013 0.021691
0.050406 0.043305 0.021205
0.060392 0.041726 0.020771
0.070449 0.040164 0.020351
0.081192 0.038772 0.020075
0.092264 0.037477 0.019868
0.105637 0.036858 0.020142
0.119361 0.036143 0.020337
0.134985 0.034905 0.020109
0.151118 0.033634 0.019965
0.169453 0.032219 0.020184
0.188058 0.030512 0.020255
0.207628 0.027765 0.019795
0.227127 0.025220 0.019360
0.246413 0.023282 0.019001
0.265554 0.021399 0.019282
0.284329 0.019654 0.021197
0.303381 0.017875 0.023180
0.323046 0.016021 0.025312
0.342452 0.014450 0.027585
0.361365 0.013422 0.030127
0.378930 0.012194 0.032301
0.394247 0.010634 0.033863
0.409936 0.009250 0.035502
0.426169 0.008121 0.037253
0.442710 0.007179 0.039004
0.459648 0.006476 0.040756
0.476118 0.005681 0.042224
0.492058 0.004782 0.043370
0.508418 0.004079 0.044717
0.525199 0.003571 0.046265
0.540709 0.003149 0.047730
0.555097 0.002802 0.049122
0.569937 0.002283 0.050776
0.585127 0.001630 0.052633
0.599298 0.001227 0.054444
0.612771 0.000994 0.056223
0.625532 0.000793 0.057874
0.637866 0.000612 0.059450
0.650010 0.000513 0.061062
0.662054 0.000457 0.062693
0.674036 0.000376 0.064290
0.685988 0.000283 0.065871
0.697711 0.000187 0.067592
0.709344 0.000090 0.069368
0.721061 0.000066 0.071423
0.732806 0.000066 0.073570
0.745971 0.000040 0.076319
0.759535 0.000006 0.079237
0.771895 0.000000 0.082133
0.783978 0.000000 0.085025
0.794652 0.000000 0.087759
0.805065 0.000000 0.090463
0.814206 0.000000 0.092824
0.823166 0.000000 0.095136
0.828868 0.000000 0.096574
0.834232 0.000000 0.097920
0.836347 0.000000 0.098326
0.838245 0.000000 0.098670
0.839680 0.000000 0.098915
0.841100 0.000000 0.099157
0.020184 0.060835 0.028020
0.027757 0.059367 0.027470
0.035366 0.057888 0.026917
0.044095 0.056056 0.026240
0.052836 0.054219 0.025563
0.061759 0.052318 0.024869
0.070829 0.050417 0.024168
0.081311 0.048511 0.023401
0.092104 0.046732 0.022744
0.105075 0.045847 0.022858
0.118405 0.044870 0.022882
0.133670 0.043396 0.022428
0.149484 0.041890 0.022010
0.167680 0.040242 0.021751
0.186147 0.038333 0.021360
0.205579 0.035487 0.020496
0.224959 0.032746 0.019629
0.244184 0.030317 0.018752
0.263191 0.028065 0.018674
0.281643 0.026262 0.020639
0.300446 0.024257 0.022664
0.320022 0.021807 0.024820
0.339434 0.019710 0.027078
0.358535 0.018287 0.029528
0.376161 0.016651 0.031664
0.391328 0.014661 0.033276
0.406943 0.012862 0.034974
0.423215 0.011341 0.036796
0.439749 0.010048 0.038633
0.456619 0.009049 0.040488
0.473057 0.007924 0.042059
0.489006 0.006656 0.043308
0.505395 0.005734 0.044687
0.522224 0.005158 0.046197
0.537853 0.004594 0.047577
0.552424 0.004042 0.048844
0.567428 0.003258 0.050368
0.582771 0.002293 0.052092
0.597084 0.001698 0.053755
0.610694 0.001356 0.055377
0.623535 0.001087 0.056870
0.635916 0.000861 0.058286
0.648085 0.000726 0.059739
0.660144 0.000639 0.061211
0.672143 0.000547 0.062686
0.684115 0.000451 0.064162
0.695851 0.000321 0.065796
0.707493 0.000177 0.067492
0.719179 0.000139 0.069459
0.730880 0.000137 0.071515
0.743994 0.000088 0.074189
0.757503 0.000026 0.077036
0.769995 0.000009 0.079922
0.782253 0.000001 0.082818
0.793258 0.000000 0.085626
0.804031 0.000000 0.088418
0.813468 0.000000 0.090817
0.822714 0.000000 0.093161
0.828652 0.000000 0.094668
0.834248 0.000000 0.096089
0.836471 0.000000 0.096534
0.838469 0.000000 0.096915
0.839915 0.000000 0.097178
0.841343 0.000000 0.097437
0.026167 0.070740 0.030345
0.032843 0.069162 0.029724
0.039562 0.067580 0.029104
0.047645 0.065874 0.028483
0.055767 0.064169 0.027869
0.064470 0.062497 0.027380
0.073250 0.060787 0.026873
0.082771 0.058724 0.026193
0.092741 0.056785 0.025598
0.105855 0.055719 0.025602
0.119168 0.054613 0.025525
0.133558 0.053288 0.025015
0.148628 0.051894 0.024438
0.166644 0.050200 0.023574
0.184847 0.048341 0.022681
0.203720 0.045897 0.021691
0.222689 0.043347 0.020623
0.241944 0.040477 0.019321
0.260992 0.037755 0.018787
0.279507 0.035409 0.020217
0.298294 0.032922 0.021930
0.317681 0.030125 0.024267
0.336926 0.027587 0.026649
0.355901 0.025542 0.029115
0.373475 0.023309 0.031261
0.388712 0.020760 0.032873
0.404354 0.018350 0.034542
0.420587 0.016144 0.036293
0.437047 0.014218 0.038138
0.453798 0.012652 0.040104
0.470399 0.011163 0.041855
0.486828 0.009761 0.043364
0.503182 0.008674 0.044822
0.519460 0.007900 0.046229
0.535094 0.006927 0.047536
0.550161 0.005776 0.048756
0.565267 0.004615 0.050188
0.580405 0.003445 0.051787
0.594734 0.002665 0.053263
0.608509 0.002150 0.054657
0.621481 0.001756 0.055995
0.633971 0.001436 0.057300
0.646282 0.001202 0.058607
0.658498 0.001012 0.059914
0.670585 0.000871 0.061245
0.682612 0.000753 0.062587
0.694493 0.000582 0.064116
0.706316 0.000390 0.065718
0.718148 0.000323 0.067619
0.729983 0.000297 0.069621
0.742677 0.000243 0.072110
0.755611 0.000181 0.074737
0.767964 0.000100 0.077556
0.780182 0.000013 0.080421
0.791599 0.000000 0.083237
0.802868 0.000000 0.086044
0.812436 0.000000 0.088473
0.821761 0.000000 0.090848
0.828156 0.000000 0.092451
0.834248 0.000000 0.093974
0.836642 0.000000 0.094515
0.838790 0.000000 0.094990
0.840104 0.000000 0.095210
0.841390 0.000000 0.095422
0.032364 0.080585 0.032631
0.038128 0.078918 0.031964
0.043943 0.077253 0.031301
0.051322 0.075660 0.030729
0.058766 0.074075 0.030172
0.067182 0.072603 0.029854
0.075628 0.071068 0.029511
0.084357 0.068916 0.028920
0.093633 0.066880 0.028391
0.106736 0.065657 0.028296
0.119921 0.064438 0.028126
0.133552 0.063250 0.027561
0.147953 0.061965 0.026852
0.165689 0.060263 0.025520
0.183566 0.058476 0.024236
0.201950 0.056382 0.023123
0.220554 0.054003 0.021876
0.239818 0.050767 0.020228
0.258875 0.047652 0.019271
0.277399 0.044848 0.020079
0.296144 0.041952 0.021387
0.315377 0.038852 0.023796
0.334481 0.035909 0.026218
0.353339 0.033264 0.028666
0.370899 0.030441 0.030807
0.386294 0.027317 0.032439
0.402008 0.024290 0.034095
0.418189 0.021406 0.035785
0.434544 0.018865 0.037633
0.451125 0.016766 0.039682
0.467832 0.014914 0.041590
0.484683 0.013343 0.043339
0.501012 0.012045 0.044877
0.516817 0.011020 0.046204
0.532444 0.009607 0.047450
0.547912 0.007853 0.048623
0.563106 0.006314 0.049964
0.578086 0.004942 0.051437
0.592459 0.003937 0.052745
0.606417 0.003183 0.053942
0.619529 0.002628 0.055144
0.632134 0.002193 0.056349
0.644573 0.001837 0.057516
0.656924 0.001522 0.058662
0.669109 0.001316 0.059865
0.681218 0.001159 0.061092
0.693224 0.000937 0.062518
0.705188 0.000691 0.064020
0.717134 0.000583 0.065847
0.729072 0.000522 0.067783
0.741367 0.000447 0.070085
0.753762 0.000368 0.072490
0.765999 0.000225 0.075226
0.778200 0.000067 0.078038
0.790000 0.000035 0.080841
0.801726 0.000026 0.083642
0.811453 0.000022 0.086089
0.820894 0.000018 0.088484
0.827714 0.000012 0.090164
0.834262 0.000006 0.091769
0.836821 0.000006 0.092388
0.839113 0.000006 0.092941
0.840316 0.000006 0.093124
0.841483 0.000006 0.093294
0.040052 0.090009 0.034646
0.044809 0.088397 0.034106
0.049613 0.086787 0.033565
0.055882 0.085226 0.033000
0.062238 0.083671 0.032447
0.069907 0.082207 0.032066
0.077711 0.080715 0.031676
0.086825 0.078957 0.031195
0.096304 0.077267 0.030760
0.108328 0.076051 0.030640
0.120611 0.074846 0.030443
0.134289 0.073696 0.029823
0.148545 0.072495 0.029163
0.165304 0.071069 0.028335
0.182419 0.069495 0.027422
0.200803 0.067394 0.026207
0.219369 0.065046 0.024936
0.238484 0.061959 0.023501
0.257329 0.058992 0.022351
0.275483 0.056330 0.021930
0.294004 0.053531 0.022177
0.313331 0.050431 0.023894
0.332478 0.047336 0.025772
0.351281 0.044251 0.027960
0.369092 0.040895 0.029998
0.385251 0.037086 0.031788
0.401361 0.033397 0.033540
0.417400 0.029883 0.035238
0.433439 0.026857 0.037045
0.449475 0.024459 0.038992
0.465902 0.022252 0.040894
0.482769 0.020264 0.042745
0.499144 0.018438 0.044374
0.515028 0.016775 0.045780
0.530554 0.014725 0.047041
0.545762 0.012334 0.048175
0.560940 0.010409 0.049428
0.576093 0.008848 0.050775
0.590719 0.007350 0.052046
0.604984 0.005895 0.053267
0.618300 0.004915 0.054458
0.631047 0.004219 0.055631
0.643518 0.003588 0.056704
0.655846 0.002990 0.057725
0.668213 0.002598 0.058904
0.680598 0.002299 0.060156
0.692579 0.001958 0.061491
0.704402 0.001602 0.062860
0.716235 0.001378 0.064547
0.728071 0.001199 0.066341
0.740110 0.000993 0.068434
0.752205 0.000781 0.070611
0.764502 0.000593 0.073144
0.776845 0.000412 0.075759
0.788820 0.000316 0.078399
0.800727 0.000237 0.081043
0.810807 0.000196 0.083421
0.820626 0.000160 0.085761
0.827645 0.000109 0.087386
0.834375 0.000056 0.088936
0.837048 0.000053 0.089514
0.839450 0.000053 0.090028
0.840695 0.000053 0.090209
0.841902 0.000053 0.090380
0.047714 0.099552 0.036738
0.051528 0.098005 0.036313
0.055387 0.096458 0.035884
0.060646 0.094915 0.035323
0.066007 0.093376 0.034769
0.072913 0.091897 0.034321
0.080048 0.090424 0.033878
0.089397 0.089011 0.033488
0.098954 0.087624 0.033128
0.109970 0.086407 0.032983
0.121405 0.085214 0.032760
0.135102 0.084151 0.032122
0.149204 0.083074 0.031534
0.165061 0.081934 0.031166
0.181464 0.080599 0.030608
0.199823 0.078563 0.029375
0.218326 0.076311 0.028145
0.237264 0.073408 0.026928
0.255885 0.070605 0.025648
0.273695 0.068058 0.024209
0.291995 0.065337 0.023530
0.311374 0.062232 0.024521
0.330517 0.058973 0.025762
0.349211 0.055422 0.027480
0.367204 0.051558 0.029252
0.384030 0.047175 0.031114
0.400512 0.042922 0.032909
0.416489 0.038859 0.034608
0.432317 0.035385 0.036383
0.447952 0.032668 0.038254
0.464156 0.030074 0.040157
0.481005 0.027619 0.042096
0.497413 0.025248 0.043803
0.513380 0.022962 0.045280
0.528825 0.020317 0.046554
0.543809 0.017355 0.047649
0.558978 0.015048 0.048821
0.574292 0.013248 0.050051
0.589117 0.011193 0.051290
0.603609 0.008964 0.052535
0.617096 0.007519 0.053720
0.629982 0.006544 0.054868
0.642501 0.005626 0.055874
0.654829 0.004738 0.056805
0.667399 0.004121 0.057977
0.680079 0.003626 0.059259
0.692029 0.003142 0.060514
0.703693 0.002661 0.061760
0.715405 0.002308 0.063306
0.727132 0.001997 0.064952
0.738937 0.001659 0.066830
0.750762 0.001312 0.068773
0.763082 0.001062 0.071090
0.775515 0.000835 0.073492
0.787646 0.000667 0.075954
0.799720 0.000511 0.078428
0.810138 0.000428 0.080712
0.820318 0.000354 0.082969
0.827518 0.000254 0.084527
0.834409 0.000152 0.086013
0.837192 0.000142 0.086552
0.839701 0.000138 0.087028
0.841038 0.000132 0.087213
0.842337 0.000126 0.087388
0.055232 0.109736 0.039250
0.058455 0.108308 0.038879
0.061728 0.106873 0.038503
0.066514 0.105275 0.037927
0.071380 0.103675 0.037353
0.077443 0.102054 0.036809
0.083760 0.100461 0.036279
0.092526 0.099135 0.035873
0.101495 0.097817 0.035495
0.111881 0.096553 0.035310
0.122763 0.095374 0.035082
0.136327 0.094649 0.034625
0.150226 0.093912 0.034226
0.165578 0.093119 0.034078
0.181552 0.092156 0.033789
0.199745 0.090585 0.032997
0.218044 0.088773 0.032159
0.236659 0.086240 0.031186
0.254991 0.083695 0.030115
0.272595 0.081116 0.028794
0.290698 0.078363 0.027915
0.309896 0.075227 0.028009
0.328783 0.071739 0.028109
0.347074 0.067581 0.028221
0.364873 0.063348 0.028844
0.381849 0.058989 0.030320
0.398569 0.054705 0.031870
0.414917 0.050531 0.033530
0.431111 0.046809 0.035313
0.447109 0.043667 0.037255
0.463409 0.040504 0.039199
0.480053 0.037316 0.041146
0.496414 0.034308 0.042869
0.512492 0.031478 0.044369
0.527967 0.028470 0.045638
0.542911 0.025304 0.046702
0.558117 0.022623 0.047824
0.573525 0.020320 0.048991
0.588263 0.017364 0.050223
0.602541 0.013961 0.051500
0.616028 0.011835 0.052701
0.629040 0.010474 0.053857
0.641685 0.009212 0.054939
0.654138 0.008002 0.055981
0.667024 0.006948 0.057230
0.680106 0.005965 0.058574
0.691988 0.005202 0.059802
0.703400 0.004525 0.060985
0.714942 0.003968 0.062379
0.726528 0.003453 0.063844
0.738215 0.002965 0.065480
0.749930 0.002484 0.067164
0.762075 0.002075 0.069188
0.774320 0.001683 0.071292
0.786501 0.001396 0.073501
0.798670 0.001129 0.075730
0.809340 0.000970 0.077777
0.819797 0.000826 0.079798
0.827072 0.000662 0.081234
0.834018 0.000496 0.082610
0.836885 0.000460 0.083113
0.839481 0.000433 0.083557
0.841187 0.000388 0.083771
0.842864 0.000343 0.083978
0.062598 0.119758 0.041697
0.065261 0.118350 0.041349
0.067975 0.116935 0.040995
0.072269 0.115315 0.040431
0.076626 0.113692 0.039865
0.081915 0.112006 0.039267
0.087470 0.110362 0.038686
0.095592 0.109129 0.038272
0.103937 0.107893 0.037883
0.113832 0.106641 0.037666
0.124244 0.105520 0.037435
0.137453 0.105101 0.037124
0.150996 0.104681 0.036880
0.165994 0.104252 0.036922
0.181654 0.103686 0.036874
0.199680 0.102630 0.036504
0.217785 0.101308 0.036045
0.236127 0.099189 0.035317
0.254196 0.096952 0.034466
0.271569 0.094413 0.033301
0.289482 0.091680 0.032283
0.308580 0.088523 0.031592
0.327260 0.084880 0.030686
0.345141 0.080311 0.029371
0.362746 0.075772 0.028875
0.379889 0.071286 0.029740
0.396825 0.066869 0.030874
0.413459 0.062551 0.032400
0.429937 0.058585 0.034130
0.446215 0.055071 0.036122
0.462572 0.051431 0.038087
0.479019 0.047648 0.040021
0.495295 0.044088 0.041748
0.511403 0.040749 0.043269
0.526912 0.037350 0.044538
0.541893 0.033898 0.045586
0.557189 0.030751 0.046684
0.572731 0.027842 0.047822
0.587423 0.024022 0.049062
0.601533 0.019578 0.050371
0.615078 0.016750 0.051604
0.628283 0.014893 0.052790
0.641073 0.013226 0.053971
0.653645 0.011659 0.055150
0.666764 0.010198 0.056493
0.680131 0.008784 0.057911
0.692011 0.007729 0.059139
0.703310 0.006813 0.060294
0.714735 0.006033 0.061570
0.726203 0.005298 0.062886
0.737809 0.004621 0.064288
0.749454 0.003961 0.065714
0.761404 0.003377 0.067424
0.773424 0.002811 0.069200
0.785520 0.002380 0.071117
0.797630 0.001975 0.073061
0.808547 0.001709 0.074846
0.819294 0.001463 0.076609
0.826685 0.001217 0.077920
0.833729 0.000970 0.079184
0.836667 0.000908 0.079647
0.839332 0.000859 0.080057
0.841304 0.000768 0.080280
0.843254 0.000676 0.080498
0.069310 0.129074 0.043867
0.071540 0.127265 0.043401
0.073816 0.125465 0.042937
0.077536 0.123971 0.042507
0.081324 0.122482 0.042074
0.086132 0.121064 0.041594
0.091167 0.119674 0.041122
0.098384 0.118559 0.040732
0.105950 0.117460 0.040363
0.115955 0.116476 0.040146
0.126256 0.115606 0.039915
0.138149 0.115352 0.039604
0.150679 0.115149 0.039370
0.165968 0.115161 0.039467
0.181818 0.115099 0.039538
0.199671 0.114776 0.039515
0.217630 0.114155 0.039379
0.235908 0.112642 0.038903
0.253835 0.110939 0.038322
0.270862 0.108746 0.037471
0.288615 0.106259 0.036577
0.307965 0.103125 0.035586
0.326656 0.099646 0.034262
0.344089 0.095510 0.032302
0.361505 0.090950 0.030808
0.378892 0.085685 0.030091
0.395941 0.080686 0.030064
0.412496 0.076077 0.031047
0.428899 0.071885 0.032454
0.445106 0.068229 0.034407
0.461348 0.064514 0.036303
0.477629 0.060731 0.038135
0.493662 0.056990 0.039815
0.509446 0.053289 0.041343
0.525000 0.049381 0.042641
0.540352 0.045291 0.043736
0.555978 0.041277 0.044922
0.571819 0.037321 0.046178
0.586646 0.032794 0.047489
0.600780 0.027877 0.048838
0.614639 0.024262 0.050164
0.628332 0.021429 0.051476
0.641347 0.019096 0.052866
0.654005 0.017025 0.054296
0.666999 0.015282 0.055799
0.680146 0.013687 0.057335
0.692315 0.012281 0.058688
0.704103 0.010948 0.059969
0.715638 0.009851 0.061270
0.727090 0.008832 0.062578
0.738773 0.007799 0.063781
0.750520 0.006761 0.064955
0.762182 0.005933 0.066253
0.773824 0.005153 0.067580
