Plugins/FilmEmulator/Content/LUTs/FE_Kodak_5247_II_64.cube
TITLE "FE_Kodak_5247_II_33"
LUT_3D_SIZE 4
0.0006755 0.0003828 0.0006033
0.2417281 0.0094696 0.0089963
0.4359455 0.0344599 0.0267859
0.5561453 0.0682626 0.0532765
0.0045687 0.2639763 0.0057418
0.2239370 0.2989255 0.0153209
0.4167196 0.3452022 0.0355896
0.5369087 0.3794616 0.0646019
0.0147993 0.5137196 0.0169721
0.2251504 0.5301350 0.0294310
0.4129390 0.5544120 0.0464718
0.5335367 0.5709080 0.0735403
0.0277051 0.6264603 0.0311117
0.2354416 0.6375545 0.0471347
0.4142176 0.6455315 0.0665270
0.5294236 0.6536757 0.0875519
0.0156357 0.0050106 0.3022170
0.2726871 0.0208424 0.3365725
0.4528261 0.0513698 0.3668751
0.5671804 0.0916080 0.3968819
0.0196661 0.2833714 0.3338900
0.2545352 0.3266413 0.3624982
0.4311246 0.3671332 0.3887969
0.5450966 0.4016642 0.4161913
0.0305970 0.5211816 0.3521590
0.2566851 0.5440041 0.3746120
0.4338131 0.5619071 0.4005749
0.5423411 0.5771052 0.4275557
0.0452971 0.6360334 0.3607998
0.2631486 0.6429392 0.3837712
0.4354483 0.6507807 0.4097785
0.5437595 0.6587965 0.4365989
0.0461183 0.0182522 0.5493154
0.2987887 0.0359408 0.5616652
0.4716991 0.0710147 0.5828024
0.5743544 0.1141634 0.5971760
0.0492530 0.3085962 0.5766781
0.2839552 0.3473994 0.5855697
0.4528808 0.3882300 0.5969564
0.5595543 0.4234768 0.6143388
0.0563231 0.5335419 0.5825444
0.2866629 0.5566937 0.5969161
0.4502535 0.5727466 0.6075369
0.5573802 0.5874702 0.6185348
0.0675817 0.6403839 0.5908465
0.2937940 0.6474426 0.5992724
0.4521811 0.6552845 0.6154510
0.5537035 0.6632360 0.6261661
0.0835537 0.0385887 0.6779168
0.3275862 0.0550153 0.6826878
0.4853872 0.0948540 0.6957995
0.5870829 0.1408819 0.7029998
0.0839621 0.3282296 0.6928219
0.3151990 0.3681397 0.7016495
0.4695433 0.4025083 0.7066073
0.5692273 0.4376324 0.7170345
0.0927327 0.5457379 0.7030213
0.3183585 0.5629699 0.7060752
0.4673416 0.5779691 0.7156796
0.5674782 0.5926555 0.7204400
0.1013615 0.6444847 0.7051414
0.3201916 0.6517623 0.7132719
0.4692072 0.6595802 0.7175462
0.5689650 0.6715354 0.7272503
