Plugins/FilmEmulator/Content/LUTs/FE_Kodak_5247_II_64.cube
TITLE "FE_Kodak_5247_II_33"
LUT_3D_SIZE 8
0.0006755 0.0003828 0.0006033
0.0862760 0.0021285 0.0025569
0.2069001 0.0069306 0.0070777
0.3106050 0.0150565 0.0136159
0.3920286 0.0254498 0.0211213
0.4587259 0.0380444 0.0303178
0.5136044 0.0527575 0.0416255
0.5561453 0.0682626 0.0532765
0.0014603 0.0737903 0.0018037
0.0796427 0.0885284 0.0041423
0.1898816 0.1067863 0.0093567
0.2934393 0.1283872 0.0166787
0.3765742 0.1483293 0.0249041
0.4450855 0.1708414 0.0347371
0.4964497 0.1899907 0.0458685
0.5408575 0.2107079 0.0582169
0.0035590 0.2184197 0.0044790
0.0800716 0.2333926 0.0078733
0.1908385 0.2499488 0.0121065
0.2847144 0.2676229 0.0191249
0.3674427 0.2861619 0.0277356
0.4363043 0.3051144 0.0388721
0.4937454 0.3247930 0.0511034
0.5386477 0.3451457 0.0625976
0.0067555 0.3479968 0.0083844
0.0823705 0.3599695 0.0123554
0.1905844 0.3799614 0.0173640
0.2845744 0.3936745 0.0230061
0.3672816 0.4076960 0.0306940
0.4363136 0.4219707 0.0418708
0.4882162 0.4358953 0.0548980
0.5335506 0.4496460 0.0668940
0.0113340 0.4594873 0.0134337
0.0877500 0.4647736 0.0176315
0.1918360 0.4781199 0.0232901
0.2860666 0.4918092 0.0292527
0.3689484 0.4986303 0.0362007
0.4322081 0.5109853 0.0462505
0.4844228 0.5171678 0.0586374
0.5298330 0.5295525 0.0712593
0.0162345 0.5323089 0.0185051
0.0914143 0.5432796 0.0235889
0.1939626 0.5488564 0.0295256
0.2887190 0.5608670 0.0365166
0.3659507 0.5661055 0.0438604
0.4352240 0.5710230 0.0524638
0.4874234 0.5759882 0.0623579
0.5328099 0.5859783 0.0757104
0.0219092 0.5885447 0.0246657
0.0955881 0.5923347 0.0298331
0.1967024 0.5967327 0.0367805
0.2922538 0.6062970 0.0441406
0.3695484 0.6110340 0.0527731
0.4330453 0.6156151 0.0609696
0.4852546 0.6198481 0.0700053
0.5309494 0.6240855 0.0803369
0.0277051 0.6264603 0.0311117
0.1000648 0.6297293 0.0371175
0.2039525 0.6334265 0.0444141
0.2909108 0.6373997 0.0530478
0.3680756 0.6414323 0.0612449
0.4373303 0.6454915 0.0702802
0.4894681 0.6495754 0.0784252
0.5294236 0.6536757 0.0875519
0.0040221 0.0013463 0.0981925
0.1030164 0.0043541 0.1103082
0.2199094 0.0109627 0.1284748
0.3169014 0.0207876 0.1445788
0.3995171 0.0323635 0.1576484
0.4665994 0.0464974 0.1756614
0.5164236 0.0602225 0.1900995
0.5590342 0.0779255 0.2055012
0.0048139 0.0816662 0.1115495
0.0948769 0.1010841 0.1259615
0.2048763 0.1177755 0.1398972
0.3018565 0.1406764 0.1555705
0.3858626 0.1575967 0.1682103
0.4487737 0.1808282 0.1862223
0.5059442 0.2006921 0.2006605
0.5503017 0.2222218 0.2160125
0.0073254 0.2248582 0.1175391
0.0958470 0.2456969 0.1326271
0.2019258 0.2627946 0.1468785
0.2988668 0.2809077 0.1627824
0.3767590 0.2996245 0.1756932
0.4459350 0.3189845 0.1939535
0.4979253 0.3322638 0.2085725
0.5427864 0.3527904 0.2241414
0.0118697 0.3559340 0.1255777
0.0985958 0.3747825 0.1380559
0.2020218 0.3880747 0.1527124
0.2991320 0.4018119 0.1690062
0.3769829 0.4158441 0.1820875
0.4404873 0.4299800 0.2007520
0.4924520 0.4435973 0.2157322
0.5377504 0.4573348 0.2313698
0.0168542 0.4604561 0.1299935
0.0995899 0.4728486 0.1430186
0.2033590 0.4861878 0.1581065
0.2956118 0.4928456 0.1747796
0.3730784 0.5058297 0.1880915
0.4423089 0.5180897 0.2071595
0.4944830 0.5241794 0.2223543
0.5395018 0.5364698 0.2328293
0.0219793 0.5393986 0.1342602
0.1037530 0.5442446 0.1477115
0.2055956 0.5559772 0.1632216
0.2983193 0.5617865 0.1802547
0.3759500 0.5720112 0.1938193
0.4396397 0.5768786 0.2081830
0.4918166 0.5817766 0.2234133
0.5371547 0.5866814 0.2391282
0.0277314 0.5943264 0.1420985
0.1083574 0.5981265 0.1523084
0.2085131 0.6025071 0.1681440
0.3018446 0.6071035 0.1854747
0.3799262 0.6117857 0.1992540
0.4377813 0.6163487 0.2139504
0.4955090 0.6248262 0.2294824
0.5351118 0.6290284 0.2454164
0.0339149 0.6314269 0.1461849
0.1134263 0.6346994 0.1609161
0.2117521 0.6383982 0.1730416
0.3057471 0.6422954 0.1906649
0.3783324 0.6462924 0.2047631
0.4419643 0.6503164 0.2197249
0.4940291 0.6543602 0.2353549
0.5390195 0.6584038 0.2515421
0.0120184 0.0038463 0.2547475
0.1177232 0.0074867 0.2658607
0.2352830 0.0157262 0.2800905
0.3309256 0.0264996 0.3001725
0.4082869 0.0395485 0.3143461
0.4698417 0.0547764 0.3285916
0.5195209 0.0708477 0.3425981
0.5623907 0.0887124 0.3567030
0.0131948 0.0927093 0.2719737
0.1104273 0.1111373 0.2870856
0.2214788 0.1292879 0.2986544
0.3172633 0.1492049 0.3110448
0.3957678 0.1717114 0.3239839
0.4591799 0.1908352 0.3371263
0.5103681 0.2115387 0.3503835
0.5543737 0.2335242 0.3638774
0.0154604 0.2359454 0.2836322
0.1117414 0.2517639 0.2925311
0.2185766 0.2753137 0.3101321
0.3086385 0.2938391 0.3223779
0.3873614 0.3064038 0.3349116
0.4508499 0.3259964 0.3479363
0.5024024 0.3462898 0.3611020
0.5472584 0.3599605 0.3743485
0.0181971 0.3629701 0.2926075
0.1148547 0.3820724 0.3018781
0.2188710 0.3954906 0.3132169
0.3090561 0.4093318 0.3253313
0.3876222 0.4234321 0.3379133
0.4513102 0.4372030 0.3507833
0.5031070 0.4508574 0.3637757
0.5422750 0.4646402 0.3770767
0.0235697 0.4676706 0.2945271
0.1160024 0.4802220 0.3102379
0.2203050 0.4936057 0.3217408
0.3108773 0.5002584 0.3338506
0.3837257 0.5124537 0.3465884
0.4473076 0.5246936 0.3594202
0.4994069 0.5307602 0.3723632
0.5440398 0.5430328 0.3857165
0.0295973 0.5458726 0.3018926
0.1207957 0.5507923 0.3117450
0.2227209 0.5625210 0.3232986
0.3136632 0.5676000 0.3418964
0.3869005 0.5724124 0.3545090
0.4446802 0.5822799 0.3608461
0.4967894 0.5871435 0.3737845
0.5417681 0.5920147 0.3869739
0.0361153 0.5946193 0.3087714
0.1228727 0.5985124 0.3190560
0.2258533 0.6078149 0.3307096
0.3118696 0.6124014 0.3429994
0.3849199 0.6168787 0.3556271
0.4487049 0.6210165 0.3683686
0.5007200 0.6251799 0.3814104
0.5399628 0.6293651 0.3947349
0.0427863 0.6317349 0.3155499
0.1282951 0.6350572 0.3261740
0.2294535 0.6387672 0.3378842
0.3160478 0.6426731 0.3502966
0.3893352 0.6466523 0.3628909
0.4472468 0.6506757 0.3757929
0.4992624 0.6546875 0.3822096
0.5438877 0.6587142 0.3955049
0.0233922 0.0077886 0.3876260
0.1344802 0.0118128 0.4001737
0.2466867 0.0216026 0.4162687
0.3393442 0.0335807 0.4252413
0.4177980 0.0466390 0.4405752
0.4796757 0.0623608 0.4490619
0.5290195 0.0806793 0.4574763
0.5661316 0.0976305 0.4724835
0.0242090 0.1018137 0.4120069
0.1281468 0.1219669 0.4166191
0.2343126 0.1411618 0.4298845
0.3269201 0.1626123 0.4437917
0.4005184 0.1813142 0.4509407
0.4639426 0.2011832 0.4582113
0.5149925 0.2227247 0.4725524
0.5590050 0.2392670 0.4797960
0.0268810 0.2471434 0.4187993
0.1265890 0.2637534 0.4296897
0.2318829 0.2817217 0.4356841
0.3244106 0.3003749 0.4491098
0.3980032 0.3196944 0.4559897
0.4615434 0.3397436 0.4699463
0.5074556 0.3534490 0.4769459
0.5519253 0.3669791 0.4903999
0.0295337 0.3765764 0.4293795
0.1299870 0.3892240 0.4334089
0.2321897 0.4027888 0.4461093
0.3193222 0.4167246 0.4525225
0.3986032 0.4307676 0.4660667
0.4564934 0.4443345 0.4729161
0.5081720 0.4580369 0.4868056
0.5469679 0.4718417 0.4933197
0.0326917 0.4746718 0.4317914
0.1311474 0.4874015 0.4428484
0.2337160 0.5008379 0.4486967
0.3212258 0.5067192 0.4618060
0.3947318 0.5188991 0.4684366
0.4527993 0.5249450 0.4820418
0.5045295 0.5371941 0.4889352
0.5490712 0.5432526 0.4951992
0.0374077 0.5521543 0.4403686
0.1362337 0.5571393 0.4445853
0.2364506 0.5627567 0.4571934
0.3241262 0.5728686 0.4635298
0.3979902 0.5776677 0.4769216
0.4560451 0.5825072 0.4835539
0.5079681 0.5873560 0.4902544
0.5465497 0.5972080 0.5031261
0.0442342 0.5996933 0.4412829
0.1385626 0.6036336 0.4526744
0.2397368 0.6080288 0.4583769
0.3224837 0.6126363 0.4715622
0.3962110 0.6170992 0.4780135
0.4540154 0.6255336 0.4847534
0.5059221 0.6296766 0.4978898
0.5447950 0.6338276 0.5041591
0.0508328 0.6361188 0.4488643
0.1445994 0.6394461 0.4535668
0.2432603 0.6431858 0.4662445
0.3265788 0.6470783 0.4724931
0.4004970 0.6510232 0.4789375
0.4584405 0.6550252 0.4925333
0.5044640 0.6590307 0.4987432
0.5487149 0.6630142 0.5049705
0.0369383 0.0137103 0.4974583
0.1491983 0.0188282 0.5030922
0.2592987 0.0274795 0.5108692
0.3544858 0.0396362 0.5190719
0.4275306 0.0548867 0.5272877
0.4836868 0.0709834 0.5413041
0.5332545 0.0888690 0.5485539
0.5752926 0.1072724 0.5555940
0.0366203 0.1117146 0.5127521
0.1441367 0.1335206 0.5175955
0.2477810 0.1539002 0.5238469
0.3372183 0.1720819 0.5367835
0.4113431 0.1911999 0.5434667
0.4747431 0.2118949 0.5499458
0.5197729 0.2338934 0.5563941
0.5633811 0.2508157 0.5626003
0.0394266 0.2587375 0.5195490
0.1425148 0.2760371 0.5302215
0.2455851 0.2944352 0.5359337
0.3347434 0.3134504 0.5421120
0.4091951 0.3264938 0.5483104
0.4668435 0.3467671 0.5545601
0.5183992 0.3604113 0.5604905
0.5563753 0.3808892 0.5666934
0.0420011 0.3834171 0.5297392
0.1464621 0.3963432 0.5337977
0.2461933 0.4100327 0.5393350
0.3355160 0.4240510 0.5452882
0.4039360 0.4377838 0.5514998
0.4618156 0.4514021 0.5574992
0.5133712 0.4651433 0.5692968
0.5517646 0.4789800 0.5752557
0.0450781 0.4815835 0.5322583
0.1477669 0.4944862 0.5364230
0.2479480 0.5009715 0.5417522
0.3318762 0.5130893 0.5540953
0.4059593 0.5252637 0.5598826
0.4640524 0.5312896 0.5655031
0.5097651 0.5435394 0.5713752
0.5539006 0.5495872 0.5770800
0.0486155 0.5521182 0.5339677
0.1497723 0.5634030 0.5446445
0.2505285 0.5683003 0.5499250
0.3350794 0.5730212 0.5556526
0.4034052 0.5828376 0.5614275
0.4614557 0.5876603 0.5670152
0.5132539 0.5924913 0.5726454
0.5516860 0.5973471 0.5783616
0.0525571 0.6046853 0.5416523
0.1559005 0.6086324 0.5457745
0.2538759 0.6130596 0.5511031
0.3388843 0.6174481 0.5568247
0.4075478 0.6215425 0.5624474
0.4655577 0.6256655 0.5680185
0.5114627 0.6298117 0.5736762
0.5499344 0.6339623 0.5793737
0.0603578 0.6361587 0.5422328
0.1586985 0.6395446 0.5465952
0.2527806 0.6433156 0.5519607
0.3375778 0.6472200 0.5637457
0.4061326 0.6511819 0.5691982
0.4640925 0.6551682 0.5747504
0.5099864 0.6591726 0.5803875
0.5538293 0.6631556 0.5860208
0.0514693 0.0209872 0.5737392
0.1656076 0.0266183 0.5787179
0.2727441 0.0336483 0.5849837
0.3637227 0.0482719 0.5925515
0.4317517 0.0624607 0.5938463
0.4937249 0.0807960 0.6009952
0.5371712 0.1008684 0.6079625
0.5791933 0.1177447 0.6144314
0.0502715 0.1224730 0.5864836
0.1619096 0.1414990 0.5908877
0.2620392 0.1629174 0.5966282
0.3477804 0.1816046 0.6025055
0.4223404 0.2014683 0.6084813
0.4797162 0.2230061 0.6145277
0.5303807 0.2452201 0.6205628
0.5678173 0.2627057 0.6208779
0.0526641 0.2646392 0.5926597
0.1603585 0.2822969 0.5966413
0.2600173 0.3008556 0.6018445
0.3456353 0.3201276 0.6074188
0.4142600 0.3401521 0.6131608
0.4722103 0.3538260 0.6187292
0.5232869 0.3741906 0.6245005
0.5611864 0.3879726 0.6301469
0.0560480 0.3903038 0.6020694
0.1607532 0.4034655 0.6001518
0.2605719 0.4172660 0.6051248
0.3464385 0.4312457 0.6104683
0.4152934 0.4447685 0.6159630
0.4731245 0.4584347 0.6214824
0.5186389 0.4722188 0.6270704
0.5566214 0.4860823 0.6326811
0.0600861 0.4884746 0.6044907
0.1619853 0.5015581 0.6084417
0.2624242 0.5072765 0.6131610
0.3427833 0.5194015 0.6184286
0.4117110 0.5253711 0.6180337
0.4695014 0.5375945 0.6235018
0.5211250 0.5436288 0.6288386
0.5587894 0.5558605 0.6344012
0.0628985 0.5581987 0.6061786
0.1678859 0.5634305 0.6099385
0.2601096 0.5734367 0.6148680
0.3460846 0.5781448 0.6198932
0.4148596 0.5829364 0.6250589
0.4727293 0.5927405 0.6304343
0.5186086 0.5975603 0.6302245
0.5566288 0.6023992 0.6355953
0.0679894 0.6045962 0.6072262
0.1705128 0.6086825 0.6110818
0.2637227 0.6131537 0.6158680
0.3499027 0.6218510 0.6210014
0.4128797 0.6259480 0.6261935
0.4709477 0.6300527 0.6314188
0.5168267 0.6341801 0.6367117
0.5548894 0.6383113 0.6420293
0.0714295 0.6403838 0.6138170
0.1733977 0.6438131 0.6176999
0.2675200 0.6475762 0.6167576
0.3485918 0.6514686 0.6218106
0.4172184 0.6554118 0.6269545
0.4752403 0.6593767 0.6321770
0.5211388 0.6633527 0.6374652
0.5587953 0.6673298 0.6427810
0.0657415 0.0285740 0.6324052
0.1834757 0.0360202 0.6317798
0.2861006 0.0424010 0.6373241
0.3735154 0.0567720 0.6440514
0.4416352 0.0734149 0.6507257
0.4978441 0.0918515 0.6518672
0.5415223 0.1107781 0.6582438
0.5831037 0.1291033 0.6646197
0.0648186 0.1339758 0.6431189
0.1765818 0.1542064 0.6420595
0.2767010 0.1723422 0.6472874
0.3640605 0.1964953 0.6529780
0.4332508 0.2121376 0.6584338
0.4847584 0.2341390 0.6641808
0.5356346 0.2510479 0.6643870
0.5722626 0.2749561 0.6704226
0.0679633 0.2767877 0.6487043
0.1749840 0.2949341 0.6526981
0.2746734 0.3138519 0.6521981
0.3567381 0.3268579 0.6572617
0.4255047 0.3471021 0.6626443
0.4834472 0.3607315 0.6678984
0.5285498 0.3811969 0.6736280
0.5660416 0.3950707 0.6737155
0.0703371 0.3972474 0.6519834
0.1755559 0.4106196 0.6558131
0.2755230 0.4245229 0.6604723
0.3575086 0.4381757 0.6601321
0.4263667 0.4517527 0.6652753
0.4784511 0.4654793 0.6705219
0.5239236 0.4792955 0.6760327
0.5668373 0.4931507 0.6760629
0.0751909 0.4953848 0.6542758
0.1769215 0.5077954 0.6581712
0.2722992 0.5135612 0.6626551
0.3538301 0.5256824 0.6675766
0.4227906 0.5316502 0.6672100
0.4806098 0.5438576 0.6723635
0.5264450 0.5499002 0.6776736
0.5636864 0.5621059 0.6831417
0.0785489 0.5642628 0.6612140
0.1832778 0.5688640 0.6595705
0.2753252 0.5734844 0.6640702
0.3570050 0.5832280 0.6689325
0.4260137 0.5880059 0.6737999
0.4783345 0.5928199 0.6735520
0.5242149 0.5976524 0.6788266
0.5615796 0.6074187 0.6842332
0.0823534 0.6094630 0.6622326
0.1860957 0.6136166 0.6659613
0.2788962 0.6178955 0.6651338
0.3609455 0.6219203 0.6698549
0.4242457 0.6260184 0.6747445
0.4765312 0.6301420 0.6799467
0.5224519 0.6342570 0.6797363
0.5600940 0.6383899 0.6850013
0.0865185 0.6403233 0.6629171
0.1893412 0.6438341 0.6666886
0.2829996 0.6476327 0.6711333
0.3596149 0.6515356 0.6706171
0.4228298 0.6554973 0.6755011
0.4808299 0.6594630 0.6806574
0.5266194 0.6634394 0.6858599
0.5639915 0.6674054 0.6857084
0.0835537 0.0385887 0.6779168
0.1983538 0.0453471 0.6771841
0.2998785 0.0532829 0.6827040
0.3837401 0.0645791 0.6886855
0.4519987 0.0808894 0.6896640
0.5022812 0.1009766 0.6960960
0.5516126 0.1215354 0.7022510
0.5870829 0.1408819 0.7029998
0.0807812 0.1460504 0.6867397
0.1922713 0.1632043 0.6911476
0.2916051 0.1866974 0.6911716
0.3747616 0.2069575 0.6966012
0.4381874 0.2232344 0.7019833
0.4954930 0.2454396 0.7023147
0.5405153 0.2629281 0.7077511
0.5770645 0.2812496 0.7131829
0.0823119 0.2893149 0.6918018
0.1908378 0.3013075 0.6957868
0.2847987 0.3204998 0.6954162
0.3673906 0.3404741 0.7005763
0.4366345 0.3541152 0.7056664
0.4883965 0.3744725 0.7058219
0.5338385 0.3882369 0.7110247
0.5708798 0.4022213 0.7162261
0.0874907 0.4042318 0.6946331
0.1912529 0.4249935 0.6988635
0.2854251 0.4385430 0.7035398
0.3683770 0.4451260 0.7030637
0.4317109 0.4587704 0.7081384
0.4894970 0.4725157 0.7132159
0.5348707 0.4863446 0.7132298
0.5663724 0.5002639 0.7184260
0.0909100 0.5023187 0.6968232
0.1931287 0.5078084 0.7007277
0.2877483 0.5198139 0.7053474
0.3646969 0.5319384 0.7050391
0.4339684 0.5379135 0.7098809
0.4862182 0.5439441 0.7148060
0.5316677 0.5561378 0.7147843
0.5688846 0.5621796 0.7197579
0.0924556 0.5642143 0.7034447
0.1954626 0.5739372 0.7021976
0.2909226 0.5785485 0.7066411
0.3681623 0.5832914 0.7113397
0.4314589 0.5930568 0.7111330
0.4837057 0.5978670 0.7160212
0.5294712 0.6026816 0.7209055
0.5667831 0.6074903 0.7207767
0.0967446 0.6094170 0.7043976
0.1983198 0.6183454 0.7083931
0.2892366 0.6222602 0.7076620
0.3662723 0.6262903 0.7123381
0.4355092 0.6303534 0.7170738
0.4877049 0.6344472 0.7168341
0.5331264 0.6385561 0.7216996
0.5650952 0.6426736 0.7215927
0.1013615 0.6444847 0.7051414
0.2016285 0.6480559 0.7090622
0.2933266 0.6518449 0.7083338
0.3706165 0.6557419 0.7130058
0.4340826 0.6596835 0.7177746
0.4862499 0.6636269 0.7175352
0.5316721 0.6675809 0.7223933
0.5689650 0.6715354 0.7272503
