Plugins/FilmEmulator/Content/LUTs/FE_Kodak_Vision_800T_5289_64.cube
# FilmEmulator LUT (resampled to 64)
LUT_3D_SIZE 64
0.000000 0.000000 0.000000
0.012571 0.000527 0.024771
0.025294 0.001145 0.048699
0.042701 0.004571 0.046513
0.059730 0.008022 0.044441
0.071077 0.011866 0.044069
0.082376 0.015676 0.043747
0.093211 0.019148 0.043901
0.104151 0.022597 0.044147
0.115823 0.025883 0.045031
0.127861 0.028777 0.046016
0.141873 0.029552 0.047551
0.155840 0.030231 0.049083
0.169605 0.030495 0.050601
0.183045 0.030650 0.052086
0.195321 0.030417 0.053451
0.207928 0.029770 0.055016
0.221522 0.027879 0.057186
0.235273 0.025609 0.059291
0.249425 0.022369 0.061229
0.263239 0.020229 0.063501
0.276306 0.020508 0.066508
0.289422 0.021069 0.069691
0.302629 0.022170 0.073210
0.316178 0.023224 0.077071
0.330300 0.024200 0.081505
0.344232 0.025221 0.085755
0.357888 0.026306 0.089739
0.371599 0.027310 0.093858
0.385379 0.028209 0.098152
0.399261 0.029159 0.102453
0.413259 0.030166 0.106762
0.427156 0.031181 0.111041
0.440951 0.032204 0.115288
0.454558 0.033326 0.119387
0.467997 0.034536 0.123356
0.481995 0.035571 0.127629
0.496426 0.036470 0.132140
0.510922 0.037534 0.136475
0.525462 0.038712 0.140692
0.540341 0.039793 0.145063
0.555423 0.040816 0.149527
0.570628 0.041972 0.153717
0.585897 0.043196 0.157763
0.601357 0.044304 0.162064
0.616904 0.045358 0.166482
0.632418 0.046490 0.170777
0.647919 0.047652 0.175024
0.663583 0.048850 0.179167
0.679301 0.050059 0.183275
0.695176 0.051231 0.187383
0.711096 0.052394 0.191491
0.727116 0.053645 0.195586
0.743160 0.054916 0.199678
0.759635 0.056096 0.203848
0.776190 0.057259 0.208034
0.793192 0.058394 0.212246
0.810259 0.059525 0.216463
0.824923 0.066023 0.220244
0.839339 0.073076 0.223980
0.852680 0.082832 0.228136
0.865949 0.092768 0.232321
0.879413 0.102554 0.236882
0.892883 0.112335 0.241455
0.001271 0.015780 0.012571
0.011433 0.017173 0.029342
0.021767 0.018627 0.045606
0.037410 0.021950 0.046137
0.052923 0.025233 0.046639
0.066475 0.027912 0.046716
0.079845 0.030592 0.046802
0.091468 0.033285 0.046972
0.103181 0.035926 0.047242
0.115531 0.038204 0.048204
0.128094 0.040247 0.049245
0.141816 0.041014 0.050709
0.155480 0.041654 0.052076
0.168899 0.041744 0.053029
0.182259 0.041664 0.054198
0.195410 0.040975 0.056145
0.208743 0.039840 0.058061
0.222620 0.037366 0.059885
0.236721 0.034507 0.061780
0.251393 0.030661 0.063860
0.266017 0.027297 0.066103
0.280533 0.024993 0.068709
0.294496 0.024092 0.071609
0.307404 0.025870 0.075073
0.320835 0.026996 0.078774
0.335137 0.027035 0.082868
0.349221 0.027420 0.086931
0.362988 0.028308 0.090946
0.376657 0.029212 0.094976
0.390202 0.030134 0.099026
0.403763 0.031093 0.103182
0.417343 0.032092 0.107460
0.431082 0.033088 0.111648
0.444980 0.034079 0.115746
0.458743 0.035115 0.119846
0.472388 0.036191 0.123948
0.486377 0.037189 0.128205
0.500635 0.038128 0.132581
0.515107 0.039129 0.136900
0.529726 0.040173 0.141180
0.544630 0.041184 0.145530
0.559704 0.042176 0.149924
0.574849 0.043325 0.154032
0.590031 0.044558 0.157991
0.605573 0.045614 0.162325
0.621278 0.046589 0.166830
0.636802 0.047750 0.171093
0.652256 0.048983 0.175261
0.667831 0.050257 0.179473
0.683447 0.051545 0.183699
0.699226 0.052864 0.187882
0.715051 0.054192 0.192052
0.731258 0.055244 0.196223
0.747554 0.056232 0.200394
0.764022 0.057347 0.204425
0.780522 0.058486 0.208429
0.796842 0.061699 0.212591
0.813137 0.065208 0.216776
0.827323 0.073342 0.220739
0.841290 0.081954 0.224679
0.854706 0.091674 0.228901
0.868085 0.101469 0.233141
0.881666 0.111189 0.237803
0.895255 0.120907 0.242478
0.002584 0.031450 0.025056
0.010434 0.033670 0.033996
0.018470 0.035922 0.042754
0.032292 0.039119 0.045877
0.046232 0.042212 0.048836
0.061941 0.043749 0.049348
0.077340 0.045324 0.049831
0.089743 0.047265 0.050026
0.102222 0.049126 0.050325
0.115232 0.050429 0.051354
0.128308 0.051649 0.052439
0.141739 0.052416 0.053820
0.155105 0.053026 0.055021
0.168188 0.052961 0.055441
0.181472 0.052662 0.056321
0.195475 0.051527 0.058837
0.209519 0.049916 0.061098
0.223686 0.046880 0.062594
0.238139 0.043455 0.064292
0.253323 0.039037 0.066503
0.268737 0.034500 0.068715
0.284656 0.029699 0.070928
0.299456 0.027355 0.073547
0.312120 0.029699 0.076941
0.325470 0.030823 0.080470
0.339963 0.029911 0.084226
0.354204 0.029647 0.088099
0.368078 0.030328 0.092142
0.381709 0.031123 0.096083
0.395028 0.032064 0.099893
0.408281 0.033028 0.103907
0.421460 0.034018 0.108150
0.435047 0.034993 0.112250
0.449040 0.035952 0.116205
0.462951 0.036904 0.120307
0.476789 0.037851 0.124537
0.490770 0.038814 0.128778
0.504862 0.039790 0.133025
0.519314 0.040731 0.137326
0.534013 0.041646 0.141664
0.548943 0.042589 0.145990
0.564011 0.043550 0.150309
0.579098 0.044690 0.154341
0.594194 0.045925 0.158221
0.609807 0.046931 0.162583
0.625655 0.047832 0.167163
0.641184 0.049033 0.171397
0.656589 0.050351 0.175496
0.672074 0.051719 0.179777
0.687585 0.053103 0.184120
0.703278 0.054556 0.188379
0.719023 0.056028 0.192615
0.735416 0.056868 0.196858
0.751958 0.057563 0.201103
0.768401 0.058694 0.204998
0.784826 0.059906 0.208828
0.800458 0.065202 0.212941
0.815977 0.071083 0.217093
0.829705 0.080796 0.221242
0.843248 0.090906 0.225391
0.856747 0.100588 0.229678
0.870243 0.110242 0.233974
0.883939 0.119879 0.238734
0.897643 0.129514 0.243508
0.005220 0.043696 0.034853
0.013746 0.045562 0.041187
0.022325 0.047443 0.047380
0.032517 0.049766 0.049227
0.043098 0.052013 0.050992
0.059507 0.053125 0.051520
0.075597 0.054323 0.052044
0.088591 0.056358 0.052539
0.101604 0.058309 0.053062
0.114747 0.059668 0.053784
0.127898 0.060971 0.054540
0.141085 0.061974 0.055480
0.154252 0.062849 0.056428
0.167326 0.063170 0.057407
0.180640 0.063146 0.058763
0.194808 0.061892 0.061461
0.209094 0.060209 0.063921
0.223734 0.057236 0.065669
0.238604 0.053991 0.067498
0.254064 0.050053 0.069536
0.269667 0.045900 0.071597
0.285586 0.041273 0.073708
0.300887 0.038060 0.076073
0.315007 0.037547 0.078923
0.329450 0.036364 0.081986
0.344432 0.034067 0.085404
0.358973 0.032766 0.089040
0.372870 0.032919 0.092997
0.386556 0.033355 0.096848
0.399969 0.034155 0.100564
0.413328 0.035018 0.104471
0.426625 0.035953 0.108597
0.440208 0.036868 0.112677
0.454075 0.037765 0.116711
0.467847 0.038696 0.120837
0.481536 0.039658 0.125044
0.495487 0.040623 0.129278
0.509642 0.041592 0.133534
0.524185 0.042547 0.137782
0.538994 0.043494 0.142025
0.553999 0.044435 0.146212
0.569123 0.045371 0.150366
0.584193 0.046390 0.154444
0.599234 0.047452 0.158482
0.614619 0.048452 0.162725
0.630159 0.049424 0.167061
0.645523 0.051024 0.171362
0.660817 0.052870 0.175650
0.676144 0.054842 0.180032
0.691482 0.056856 0.184445
0.707421 0.058059 0.188831
0.723528 0.059036 0.193209
0.740059 0.059297 0.197408
0.756688 0.059392 0.201566
0.772553 0.063021 0.205487
0.788277 0.067303 0.209365
0.803023 0.074858 0.213449
0.817628 0.082879 0.217562
0.831578 0.092437 0.221993
0.845459 0.102153 0.226456
0.859282 0.111722 0.230837
0.873101 0.121282 0.235212
0.886823 0.130259 0.239974
0.900541 0.139218 0.244748
0.007897 0.055789 0.044375
0.017075 0.057314 0.048198
0.026179 0.058837 0.051921
0.033013 0.060327 0.052565
0.040471 0.061770 0.053204
0.057281 0.062515 0.053754
0.073792 0.063386 0.054324
0.087403 0.065480 0.055104
0.100969 0.067491 0.055842
0.114220 0.068918 0.056291
0.127425 0.070315 0.056751
0.140377 0.071548 0.057275
0.153349 0.072679 0.057985
0.166408 0.073371 0.059495
0.179749 0.073618 0.061296
0.194097 0.072274 0.064133
0.208632 0.070548 0.066757
0.223731 0.067673 0.068741
0.239005 0.064633 0.070691
0.254722 0.061168 0.072549
0.270510 0.057399 0.074456
0.286455 0.052960 0.076470
0.302254 0.048924 0.078592
0.317771 0.045657 0.080919
0.333267 0.042279 0.083535
0.348728 0.038716 0.086635
0.363589 0.036406 0.090036
0.377574 0.035928 0.093880
0.391358 0.035919 0.097626
0.404884 0.036515 0.101246
0.418372 0.037192 0.105045
0.431818 0.037962 0.109046
0.445405 0.038778 0.113099
0.459133 0.039641 0.117203
0.472768 0.040566 0.121354
0.486323 0.041545 0.125545
0.500255 0.042497 0.129768
0.514480 0.043429 0.134016
0.529110 0.044385 0.138206
0.544017 0.045356 0.142357
0.559087 0.046289 0.146415
0.574257 0.047199 0.150419
0.589290 0.048116 0.154536
0.604252 0.049039 0.158712
0.619396 0.050119 0.162844
0.634622 0.051271 0.166957
0.649822 0.053287 0.171325
0.665012 0.055641 0.175793
0.680202 0.058154 0.180272
0.695391 0.060719 0.184755
0.711571 0.061648 0.189260
0.728029 0.062118 0.193772
0.744643 0.062037 0.197943
0.761293 0.061829 0.202036
0.776578 0.067922 0.205984
0.791610 0.075183 0.209905
0.805536 0.084830 0.213975
0.819305 0.094818 0.218067
0.833469 0.104205 0.222759
0.847674 0.113529 0.227513
0.861809 0.122927 0.231988
0.875940 0.132330 0.236443
0.889687 0.140672 0.241213
0.903421 0.148980 0.245993
0.011215 0.065601 0.049785
0.020652 0.066968 0.052513
0.030030 0.068333 0.055172
0.037581 0.069602 0.055715
0.045454 0.070870 0.056264
0.058162 0.072118 0.056924
0.071050 0.073402 0.057602
0.085677 0.075024 0.058452
0.100097 0.076655 0.059281
0.113064 0.078349 0.059966
0.126013 0.079992 0.060619
0.138854 0.081350 0.061096
0.151713 0.082615 0.061787
0.164646 0.083473 0.063408
0.177974 0.083919 0.065188
0.192707 0.082898 0.067537
0.207600 0.081573 0.069797
0.222976 0.079337 0.071789
0.238442 0.076859 0.073669
0.254143 0.073764 0.075260
0.270049 0.070377 0.076976
0.286404 0.066348 0.078966
0.302646 0.062172 0.080996
0.318675 0.057716 0.083102
0.334621 0.053793 0.085578
0.350428 0.050757 0.088670
0.365921 0.047871 0.091859
0.380953 0.045204 0.095191
0.395495 0.043465 0.098601
0.409407 0.042919 0.102111
0.423384 0.042137 0.105748
0.437437 0.041088 0.109528
0.451153 0.041203 0.113447
0.464534 0.042484 0.117504
0.478062 0.043621 0.121679
0.491719 0.044631 0.125956
0.505798 0.045336 0.130089
0.520204 0.045803 0.134109
0.534856 0.046528 0.138169
0.549676 0.047429 0.142256
0.564650 0.048281 0.146336
0.579717 0.049104 0.150410
0.594426 0.050235 0.154453
0.608947 0.051527 0.158479
0.623661 0.053979 0.162625
0.638462 0.056959 0.166825
0.653531 0.059635 0.171257
0.668705 0.062193 0.175779
0.684056 0.064290 0.180308
0.699466 0.066234 0.184838
0.715836 0.066516 0.189359
0.732475 0.066333 0.193879
0.748343 0.069469 0.198263
0.764032 0.073371 0.202615
0.778695 0.081442 0.206590
0.793168 0.090284 0.210495
0.807293 0.099558 0.214778
0.821369 0.108893 0.219114
0.835647 0.117890 0.223757
0.849946 0.126852 0.228432
0.864228 0.135201 0.233013
0.878509 0.143510 0.237587
0.892268 0.151566 0.242445
0.906010 0.159613 0.247311
0.014570 0.075493 0.054986
0.024155 0.076708 0.056716
0.033699 0.077918 0.058406
0.041932 0.078982 0.058891
0.050212 0.080085 0.059394
0.059189 0.081769 0.060155
0.068761 0.083407 0.060931
0.084082 0.084596 0.061846
0.099077 0.085879 0.062757
0.111794 0.087813 0.063640
0.124516 0.089677 0.064458
0.137267 0.091164 0.064926
0.150034 0.092567 0.065630
0.162874 0.093602 0.067358
0.176201 0.094261 0.069122
0.191266 0.093574 0.071016
0.206477 0.092654 0.072925
0.222128 0.091031 0.074875
0.237800 0.089102 0.076649
0.253525 0.086392 0.077972
0.269559 0.083401 0.079494
0.286273 0.079792 0.081451
0.302927 0.075548 0.083393
0.319465 0.070093 0.085307
0.335854 0.065731 0.087649
0.351993 0.063189 0.090707
0.368071 0.059779 0.093685
0.384061 0.055099 0.096550
0.399322 0.051735 0.099643
0.413644 0.050062 0.103031
0.428106 0.047904 0.106497
0.442729 0.045197 0.110052
0.456576 0.044689 0.113839
0.469648 0.046380 0.117858
0.483138 0.047526 0.122031
0.496996 0.048192 0.126341
0.511271 0.048468 0.130372
0.525870 0.048440 0.134188
0.540539 0.048943 0.138127
0.555256 0.049810 0.142151
0.570098 0.050737 0.146250
0.585014 0.051700 0.150396
0.599398 0.053192 0.154389
0.613502 0.054963 0.158304
0.627832 0.058634 0.162462
0.642264 0.063168 0.166731
0.657230 0.066337 0.171213
0.672406 0.068972 0.175779
0.687887 0.070750 0.180351
0.703469 0.072243 0.184925
0.719945 0.072240 0.189478
0.736671 0.071818 0.194024
0.751838 0.077916 0.198605
0.766645 0.085518 0.203194
0.780753 0.095328 0.207207
0.794733 0.105547 0.211114
0.809047 0.114372 0.215589
0.823410 0.122997 0.220144
0.837803 0.131524 0.224754
0.852200 0.140040 0.229369
0.866625 0.147438 0.234058
0.881053 0.154762 0.238751
0.894812 0.162561 0.243675
0.908549 0.170376 0.248607
0.018290 0.086158 0.058164
0.026946 0.087271 0.059830
0.035601 0.088380 0.061472
0.044188 0.089380 0.062335
0.052791 0.090410 0.063192
0.061627 0.091874 0.063970
0.070844 0.093308 0.064760
0.083748 0.094450 0.065683
0.096636 0.095687 0.066580
0.109416 0.097590 0.067289
0.122206 0.099451 0.068017
0.135051 0.101088 0.068848
0.147936 0.102667 0.069861
0.160997 0.104002 0.071668
0.174454 0.104993 0.073464
0.189330 0.104755 0.075225
0.204468 0.104266 0.076900
0.220395 0.103021 0.078323
0.236380 0.101512 0.079643
0.252515 0.099330 0.080699
0.268791 0.096864 0.081997
0.285379 0.093774 0.083827
0.302118 0.090161 0.085714
0.319145 0.085548 0.087706
0.335909 0.081777 0.089989
0.352237 0.079409 0.092755
0.368466 0.075974 0.095545
0.384551 0.070979 0.098370
0.400147 0.067007 0.101338
0.415114 0.064349 0.104489
0.430023 0.061621 0.107701
0.444866 0.058812 0.110980
0.458851 0.058426 0.114653
0.471979 0.060463 0.118720
0.486109 0.059659 0.122652
0.501125 0.056349 0.126465
0.516074 0.054438 0.130293
0.530972 0.053615 0.134132
0.545608 0.053982 0.138038
0.560066 0.055163 0.141991
0.574426 0.057670 0.146109
0.588728 0.060972 0.150325
0.602782 0.064265 0.154508
0.616706 0.067555 0.158675
0.631098 0.070964 0.162841
0.645703 0.074428 0.167007
0.660837 0.076464 0.171410
0.676178 0.077942 0.175905
0.691488 0.080334 0.180472
0.706787 0.083031 0.185062
0.722555 0.086238 0.189784
0.738454 0.089588 0.194542
0.753363 0.096182 0.199170
0.768044 0.103525 0.203767
0.782246 0.112769 0.207927
0.796359 0.122366 0.212008
0.810773 0.130017 0.216483
0.825230 0.137391 0.221014
0.839747 0.144666 0.225736
0.854270 0.151930 0.230477
0.868813 0.159316 0.235292
0.883359 0.166711 0.240111
0.896999 0.174543 0.244902
0.910611 0.182390 0.249692
0.021260 0.096891 0.061223
0.029057 0.097899 0.062813
0.036886 0.098906 0.064392
0.045668 0.099885 0.065640
0.054454 0.100881 0.066861
0.063296 0.102126 0.067670
0.072322 0.103357 0.068492
0.083139 0.104447 0.069434
0.094209 0.105628 0.070339
0.107058 0.107453 0.070987
0.119910 0.109274 0.071718
0.132782 0.111079 0.072894
0.145737 0.112843 0.074207
0.159052 0.114431 0.076114
0.172685 0.115717 0.077942
0.187453 0.115922 0.079492
0.202571 0.115855 0.080881
0.218735 0.114976 0.081786
0.234992 0.113875 0.082656
0.251482 0.112205 0.083438
0.267976 0.110262 0.084514
0.284478 0.107714 0.086233
0.301300 0.104744 0.088067
0.318732 0.100968 0.090119
0.335830 0.097775 0.092345
0.352371 0.095555 0.094861
0.368746 0.092203 0.097489
0.384881 0.087198 0.100280
0.400756 0.082871 0.103135
0.416297 0.079413 0.106073
0.431614 0.076248 0.109052
0.446678 0.073413 0.112077
0.460877 0.072986 0.115613
0.474211 0.074966 0.119662
0.488945 0.072342 0.123347
0.504915 0.065654 0.126710
0.520446 0.061887 0.130342
0.535636 0.060390 0.134182
0.550251 0.060674 0.138047
0.564475 0.062178 0.141929
0.578426 0.066034 0.146052
0.592213 0.071300 0.150320
0.606022 0.076048 0.154659
0.619842 0.080525 0.159035
0.634302 0.083648 0.163225
0.649053 0.086157 0.167329
0.664285 0.087327 0.171672
0.679704 0.087972 0.176110
0.694851 0.091022 0.180679
0.709906 0.094873 0.185291
0.725061 0.100942 0.190173
0.740245 0.107631 0.195131
0.754921 0.114607 0.199808
0.769479 0.121650 0.204419
0.783768 0.130177 0.208716
0.798006 0.138980 0.212955
0.812513 0.145506 0.217436
0.827059 0.151707 0.221953
0.841680 0.157889 0.226770
0.856309 0.164068 0.231618
0.870944 0.171427 0.236535
0.885580 0.178864 0.241458
0.899118 0.186605 0.246131
0.912620 0.194355 0.250796
0.018982 0.108098 0.063455
0.026409 0.108988 0.064872
0.033850 0.109889 0.066298
0.041711 0.111136 0.067978
0.049698 0.112369 0.069614
0.059579 0.113410 0.070573
0.069569 0.114448 0.071539
0.080605 0.115451 0.072575
0.091882 0.116505 0.073653
0.104841 0.117920 0.075027
0.117716 0.119443 0.076404
0.130139 0.121547 0.077808
0.142822 0.123542 0.079354
0.156633 0.125068 0.081513
0.170756 0.126391 0.083375
0.185989 0.126989 0.084177
0.201449 0.127288 0.084892
0.217590 0.126693 0.085348
0.233822 0.125910 0.085807
0.250289 0.124650 0.086274
0.266828 0.123207 0.087131
0.283527 0.121360 0.088842
0.300419 0.119123 0.090644
0.317678 0.116142 0.092617
0.334809 0.113435 0.094809
0.351728 0.111183 0.097364
0.368222 0.108676 0.100018
0.384097 0.105797 0.102818
0.399857 0.102879 0.105653
0.415469 0.099910 0.108537
0.430927 0.097243 0.111434
0.446211 0.094920 0.114349
0.461154 0.093308 0.117594
0.475756 0.092407 0.121170
0.490838 0.088867 0.124566
0.506343 0.082998 0.127804
0.521804 0.079686 0.131292
0.537229 0.078362 0.134974
0.551908 0.078942 0.138733
0.566076 0.080824 0.142544
0.580120 0.084413 0.146592
0.594088 0.089025 0.150781
0.608249 0.092799 0.155037
0.622509 0.096134 0.159326
0.637075 0.098804 0.163640
0.651779 0.101171 0.167964
0.666618 0.103336 0.172392
0.681510 0.105423 0.176861
0.696548 0.109435 0.181491
0.711635 0.114090 0.186175
0.726846 0.120580 0.191153
0.742093 0.127584 0.196213
0.756704 0.134146 0.200959
0.771168 0.140606 0.205634
0.785495 0.147355 0.209987
0.799796 0.154157 0.214281
0.814353 0.159896 0.218811
0.828945 0.165483 0.223375
0.843543 0.171678 0.228167
0.858140 0.177936 0.232984
0.872678 0.185160 0.237848
0.887211 0.192447 0.242715
0.900753 0.199222 0.247379
0.914263 0.205981 0.252036
0.016843 0.119220 0.065665
0.023639 0.120092 0.066967
0.030440 0.120982 0.068292
0.037442 0.122447 0.070326
0.044669 0.123877 0.072306
0.055283 0.124774 0.073477
0.065969 0.125675 0.074650
0.077353 0.126600 0.075846
0.088958 0.127542 0.077141
0.102116 0.128603 0.079128
0.115132 0.129853 0.081061
0.127383 0.132122 0.082704
0.140004 0.134247 0.084489
0.154232 0.135752 0.086886
0.168762 0.137135 0.088817
0.184375 0.138083 0.089079
0.200133 0.138721 0.089242
0.216328 0.138429 0.089104
0.232588 0.137975 0.089051
0.249015 0.137111 0.089214
0.265577 0.136138 0.089847
0.282436 0.134926 0.091511
0.299392 0.133379 0.093280
0.316533 0.131192 0.095247
0.333712 0.129005 0.097438
0.350955 0.126820 0.100003
0.367574 0.125076 0.102669
0.383284 0.123976 0.105481
0.398974 0.122305 0.108293
0.414639 0.119899 0.111107
0.430211 0.117754 0.113915
0.445680 0.115905 0.116718
0.461245 0.113366 0.119691
0.476907 0.110139 0.122836
0.492304 0.106055 0.125963
0.507466 0.101215 0.129076
0.522924 0.098386 0.132411
0.538612 0.097122 0.135919
0.553419 0.097807 0.139560
0.567624 0.099825 0.143293
0.581799 0.103000 0.147265
0.595956 0.106869 0.151379
0.610408 0.109757 0.155562
0.625013 0.112131 0.159779
0.639649 0.114473 0.164184
0.654298 0.116800 0.168673
0.668830 0.119901 0.173178
0.683315 0.123304 0.177688
0.698280 0.128076 0.182378
0.713404 0.133305 0.187129
0.728666 0.139939 0.192191
0.743967 0.146966 0.197340
0.758518 0.153045 0.202141
0.772897 0.158905 0.206861
0.787247 0.164140 0.211277
0.801591 0.169259 0.215637
0.816194 0.174352 0.220208
0.830834 0.179442 0.224810
0.845401 0.185555 0.229587
0.859960 0.191773 0.234383
0.874382 0.198739 0.239183
0.888796 0.205753 0.243983
0.902355 0.211731 0.248640
0.915886 0.217674 0.253293
0.015464 0.129885 0.067758
0.020212 0.131276 0.069256
0.025014 0.132668 0.070769
0.031488 0.134086 0.072725
0.038163 0.135483 0.074665
0.047856 0.136570 0.076387
0.057804 0.137639 0.078108
0.070219 0.138532 0.079816
0.082811 0.139440 0.081561
0.096646 0.140446 0.083563
0.110441 0.141562 0.085556
0.124014 0.143272 0.087499
0.137707 0.144981 0.089557
0.151919 0.146690 0.092120
0.166420 0.148259 0.094309
0.181954 0.149326 0.095163
0.197771 0.150155 0.095424
0.214438 0.150272 0.093908
0.231003 0.150203 0.092796
0.247304 0.149662 0.092715
0.263767 0.148997 0.093098
0.280586 0.148060 0.094503
0.297579 0.146964 0.096234
0.314901 0.145565 0.098586
0.332205 0.144095 0.100963
0.349479 0.142509 0.103379
0.366258 0.141081 0.105971
0.382315 0.139887 0.108822
0.398179 0.138586 0.111592
0.413796 0.137149 0.114255
0.429340 0.135643 0.116929
0.444800 0.134062 0.119613
0.460330 0.131996 0.122422
0.475929 0.129446 0.125354
0.491463 0.126826 0.128319
0.506941 0.124143 0.131313
0.522762 0.121948 0.134446
0.538851 0.120132 0.137686
0.554140 0.119896 0.141149
0.568880 0.120741 0.144764
0.583399 0.122709 0.148656
0.597785 0.125349 0.152716
0.612201 0.127826 0.156884
0.626634 0.130215 0.161110
0.641150 0.132914 0.165425
0.655705 0.135754 0.169781
0.670385 0.139462 0.174315
0.685114 0.143511 0.178920
0.700193 0.147948 0.183669
0.715388 0.152516 0.188468
0.730672 0.157793 0.193552
0.745980 0.163270 0.198717
0.760502 0.168495 0.203482
0.774841 0.173662 0.208155
0.789131 0.178808 0.212670
0.803413 0.183951 0.217156
0.818049 0.189164 0.221729
0.832737 0.194388 0.226315
0.847236 0.199899 0.231127
0.861716 0.205441 0.235962
0.875935 0.211485 0.240639
0.890136 0.217563 0.245305
0.903780 0.223648 0.249973
0.917406 0.229734 0.254641
0.014259 0.140596 0.070586
0.017352 0.142387 0.072219
0.020530 0.144167 0.073859
0.026322 0.145582 0.075717
0.032298 0.146988 0.077590
0.041041 0.148256 0.079693
0.050182 0.149491 0.081793
0.063163 0.150403 0.083856
0.076355 0.151323 0.085913
0.091015 0.152293 0.087923
0.105702 0.153306 0.089955
0.120541 0.154553 0.092099
0.135286 0.155904 0.094339
0.149624 0.157708 0.096990
0.164194 0.159381 0.099381
0.179596 0.160584 0.100843
0.195392 0.161609 0.101345
0.212373 0.162103 0.098966
0.229162 0.162402 0.097136
0.245461 0.162205 0.096706
0.261898 0.161874 0.096762
0.278642 0.161251 0.097886
0.295654 0.160593 0.099498
0.313179 0.159867 0.102042
0.330630 0.159027 0.104500
0.347956 0.157994 0.106815
0.364880 0.156894 0.109338
0.381217 0.155695 0.112167
0.397243 0.154737 0.114869
0.412870 0.154087 0.117408
0.428431 0.153152 0.119976
0.443918 0.151894 0.122576
0.459450 0.150341 0.125240
0.475027 0.148492 0.127967
0.490703 0.147114 0.130782
0.506466 0.146152 0.133674
0.522594 0.144515 0.136627
0.539007 0.142353 0.139628
0.554759 0.141374 0.142914
0.570060 0.141203 0.146394
0.584945 0.142154 0.150211
0.599580 0.143778 0.154231
0.614016 0.145874 0.158365
0.628350 0.148218 0.162560
0.642792 0.151143 0.166779
0.657285 0.154334 0.171011
0.672066 0.158428 0.175545
0.686959 0.162875 0.180198
0.702132 0.166983 0.184988
0.717399 0.170978 0.189823
0.732702 0.175173 0.194929
0.748015 0.179425 0.200110
0.762530 0.183908 0.204850
0.776861 0.188444 0.209487
0.791118 0.193443 0.214082
0.805361 0.198528 0.218670
0.819999 0.203772 0.223262
0.834692 0.209040 0.227855
0.849137 0.214069 0.232697
0.863556 0.219074 0.237564
0.877586 0.224382 0.242141
0.891592 0.229710 0.246698
0.905311 0.235853 0.251387
0.919021 0.242023 0.256080
0.013809 0.151509 0.076600
0.016950 0.153182 0.078100
0.020131 0.154853 0.079605
0.024569 0.156457 0.081281
0.029208 0.158049 0.082962
0.036881 0.159467 0.084711
0.044915 0.160860 0.086460
0.056448 0.162008 0.088200
0.068555 0.163140 0.089971
0.084679 0.164157 0.091958
0.100761 0.165203 0.093935
0.116615 0.166403 0.095859
0.132324 0.167645 0.097874
0.147402 0.169072 0.100281
0.162472 0.170496 0.102631
0.177512 0.171911 0.104778
0.192942 0.173155 0.106136
0.209544 0.173885 0.105127
0.226212 0.174475 0.104056
0.243046 0.174710 0.102823
0.259778 0.174828 0.102211
0.276285 0.174685 0.102965
0.293245 0.174404 0.104110
0.311070 0.173860 0.106000
0.328761 0.173268 0.108091
0.346228 0.172598 0.110516
0.363233 0.171869 0.112987
0.379562 0.171057 0.115524
0.395698 0.170319 0.118055
0.411584 0.169677 0.120579
0.427365 0.169012 0.123168
0.443026 0.168321 0.125831
0.458723 0.167452 0.128439
0.474457 0.166407 0.130993
0.490290 0.165313 0.133710
0.506211 0.164177 0.136571
0.522399 0.162770 0.139445
0.538796 0.161152 0.142327
0.554940 0.160197 0.145443
0.570910 0.159696 0.148719
0.586257 0.160459 0.152474
0.601230 0.161981 0.156516
0.615928 0.163835 0.160530
0.630482 0.165863 0.164528
0.645047 0.168452 0.168627
0.659619 0.171296 0.172771
0.674292 0.174812 0.177174
0.689004 0.178590 0.181677
0.704185 0.182389 0.186423
0.719522 0.186195 0.191250
0.734834 0.190496 0.196373
0.750140 0.194937 0.201579
0.764756 0.199161 0.206335
0.779213 0.203335 0.210989
