Plugins/FilmEmulator/Content/LUTs/FE_Kodak_Duraflex_Plus_64.cube
TITLE "FE_Kodak_Duraflex_Plus_33"
LUT_3D_SIZE 8
0.0039107 0.0000000 0.0198706
0.3073855 0.0883088 0.0363528
0.8727474 0.2965242 0.0923610
1.0000000 0.4503831 0.1487941
1.0000000 0.5364348 0.1898360
1.0000000 0.5874239 0.2201874
1.0000000 0.6173202 0.2397690
1.0000000 0.6373057 0.2560319
0.0912243 0.5283163 0.0855175
0.4246124 0.5526552 0.1077228
0.8624758 0.6384646 0.1703633
1.0000000 0.6982350 0.2263353
1.0000000 0.7303995 0.2638581
1.0000000 0.7454919 0.2863929
1.0000000 0.7494518 0.2991855
1.0000000 0.7496158 0.3116981
0.2630819 0.9127253 0.2305835
0.5777975 0.9153390 0.2596502
0.8592729 0.9272027 0.3218059
0.9660624 0.9363094 0.3725301
1.0000000 0.9405174 0.4074649
1.0000000 0.9418268 0.4338435
1.0000000 0.9408358 0.4526321
1.0000000 0.9390608 0.4659259
0.3797470 0.9963682 0.3883221
0.6869856 0.9911888 0.4180923
0.8841606 0.9904410 0.4621078
0.9564298 0.9911063 0.4956396
0.9822955 0.9913382 0.5155112
0.9932283 0.9911661 0.5260942
0.9985575 0.9898927 0.5456423
1.0000000 0.9884007 0.5665772
0.4580563 1.0000000 0.5342836
0.7491510 1.0000000 0.5567417
0.9074392 1.0000000 0.5869321
0.9620246 1.0000000 0.6102087
0.9803948 1.0000000 0.6206683
0.9885725 1.0000000 0.6240909
0.9918504 1.0000000 0.6218731
0.9941094 1.0000000 0.6250607
0.5296861 1.0000000 0.6582676
0.8012123 1.0000000 0.6781608
0.9266549 1.0000000 0.6986140
0.9685161 0.9999878 0.7113186
0.9835278 1.0000000 0.7149181
0.9894763 1.0000000 0.7143401
0.9920472 1.0000000 0.7077445
0.9934013 1.0000000 0.6996739
0.5945027 1.0000000 0.7593153
0.8413191 0.9981325 0.7711533
0.9421669 0.9973066 0.7836738
0.9748611 0.9976269 0.7905830
0.9868329 0.9980927 0.7910225
0.9915043 0.9984361 0.7888767
0.9936962 0.9988691 0.7827448
0.9948810 0.9992144 0.7770397
0.6543284 0.9991581 0.8353659
0.8740754 0.9948260 0.8440495
0.9532437 0.9947942 0.8499174
0.9795986 0.9953151 0.8541861
0.9896235 0.9959114 0.8530502
0.9934210 0.9963546 0.8488919
0.9951935 0.9967645 0.8429132
0.9962955 0.9971536 0.8364407
0.0153698 0.0771672 0.6694427
0.5908358 0.2435602 0.6460804
0.9657457 0.4227214 0.6384385
1.0000000 0.5375657 0.6321534
1.0000000 0.6046693 0.6317099
1.0000000 0.6429685 0.6286978
1.0000000 0.6646019 0.6195779
1.0000000 0.6809035 0.6103594
0.2085221 0.6722642 0.7828990
0.6681093 0.7220870 0.7741796
0.9250974 0.7754651 0.7689279
1.0000000 0.8092013 0.7679081
1.0000000 0.8225048 0.7601024
1.0000000 0.8273103 0.7501574
1.0000000 0.8264736 0.7376355
1.0000000 0.8206654 0.7234076
0.4293377 0.9191458 0.8630344
0.7702509 0.9284220 0.8612728
0.9296031 0.9412792 0.8634055
0.9833220 0.9486613 0.8641255
1.0000000 0.9521067 0.8623351
1.0000000 0.9531309 0.8563954
1.0000000 0.9527529 0.8510032
1.0000000 0.9517184 0.8446586
0.5596414 0.9721222 0.9080458
0.8341563 0.9725378 0.9096130
0.9437978 0.9766229 0.9116511
0.9801840 0.9794070 0.9124781
0.9936514 0.9809384 0.9116764
0.9991720 0.9815739 0.9107973
1.0000000 0.9817051 0.9074969
1.0000000 0.9816387 0.9036562
0.6424988 0.9850956 0.9355096
0.8716301 0.9836345 0.9354904
0.9554425 0.9856106 0.9379202
0.9823716 0.9871695 0.9382967
0.9924456 0.9881803 0.9386767
0.9965500 0.9885823 0.9369397
0.9985638 0.9888359 0.9357012
0.9999167 0.9890040 0.9331350
0.7040189 0.9887372 0.9525494
0.8963547 0.9873499 0.9522442
0.9630288 0.9887624 0.9537835
0.9843267 0.9899257 0.9545990
0.9925597 0.9906840 0.9547052
0.9958572 0.9910641 0.9533186
0.9975899 0.9912792 0.9523692
0.9986804 0.9914151 0.9512271
0.7553483 0.9900064 0.9631699
0.9142143 0.9890164 0.9633958
0.9682789 0.9902235 0.9644181
0.9858016 0.9912238 0.9649415
0.9929494 0.9918686 0.9649668
0.9956754 0.9921731 0.9644371
0.9971708 0.9923536 0.9636759
0.9981450 0.9924735 0.9627799
0.7923579 0.9906492 0.9709194
0.9284782 0.9900546 0.9709091
0.9726198 0.9911619 0.9715670
0.9873735 0.9920364 0.9719239
0.9931840 0.9925588 0.9718834
0.9956685 0.9928296 0.9714823
0.9970165 0.9930075 0.9709191
0.9978472 0.9931017 0.9702256
0.2216834 0.3023503 0.9904459
0.7507088 0.4647751 0.9643925
0.9789967 0.5904814 0.9485655
1.0000000 0.6667507 0.9403627
1.0000000 0.7146701 0.9367373
1.0000000 0.7416839 0.9336367
1.0000000 0.7600715 0.9311461
1.0000000 0.7749352 0.9301088
0.4658543 0.8019309 0.9725059
0.8178497 0.8409501 0.9630242
0.9523174 0.8713602 0.9583989
0.9992381 0.8881758 0.9559545
1.0000000 0.8952584 0.9540634
1.0000000 0.8974038 0.9522861
1.0000000 0.8966541 0.9504546
1.0000000 0.8948520 0.9485562
0.6370209 0.9447492 0.9743884
0.8727144 0.9541950 0.9708601
0.9576339 0.9620311 0.9701809
0.9857023 0.9663104 0.9696411
0.9968665 0.9687967 0.9691457
1.0000000 0.9693218 0.9687964
1.0000000 0.9695144 0.9679314
1.0000000 0.9689377 0.9668732
0.7323205 0.9766247 0.9788173
0.9051188 0.9789023 0.9770669
0.9655983 0.9823222 0.9771744
0.9857376 0.9843150 0.9771538
0.9935627 0.9853897 0.9772800
0.9967566 0.9857693 0.9769069
0.9985766 0.9858586 0.9763917
0.9997868 0.9858401 0.9761084
0.7813797 0.9850706 0.9819125
0.9245778 0.9860181 0.9810202
0.9718299 0.9879640 0.9810172
0.9869349 0.9892756 0.9813220
0.9932594 0.9900538 0.9812905
0.9958031 0.9903427 0.9810552
0.9972433 0.9905573 0.9809786
0.9981744 0.9905686 0.9805576
0.8225318 0.9881626 0.9839490
0.9381360 0.9887899 0.9833605
0.9759776 0.9903098 0.9836266
0.9884217 0.9912934 0.9837313
0.9933776 0.9918566 0.9838765
0.9955865 0.9921008 0.9837109
0.9968373 0.9922740 0.9836553
0.9976239 0.9923629 0.9833624
0.8569136 0.9895170 0.9855164
0.9490654 0.9902157 0.9851360
0.9788697 0.9914796 0.9853860
0.9895169 0.9923110 0.9854980
0.9935893 0.9927600 0.9856146
0.9955780 0.9930180 0.9856431
0.9966949 0.9931578 0.9854482
0.9973833 0.9932488 0.9853691
0.8820328 0.9903545 0.9867779
0.9568924 0.9911286 0.9865307
0.9813065 0.9921966 0.9866424
0.9904632 0.9929477 0.9868744
0.9939260 0.9933282 0.9869699
0.9956082 0.9935321 0.9868555
0.9966891 0.9936808 0.9868330
0.9972748 0.9937590 0.9867689
0.5296375 0.5250717 1.0000000
0.8652947 0.6359685 0.9939682
0.9945096 0.7100789 0.9843022
1.0000000 0.7484189 0.9794096
1.0000000 0.7733240 0.9768062
1.0000000 0.7943730 0.9753402
1.0000000 0.8097106 0.9744028
1.0000000 0.8228687 0.9737267
0.6848468 0.8762733 0.9900366
0.8955341 0.9020281 0.9842600
0.9706712 0.9189049 0.9815438
0.9963832 0.9281864 0.9804359
1.0000000 0.9316408 0.9797636
1.0000000 0.9319090 0.9790523
1.0000000 0.9302943 0.9785495
1.0000000 0.9286549 0.9781084
0.7878014 0.9610522 0.9876463
0.9273199 0.9683469 0.9854584
0.9731753 0.9731264 0.9847127
0.9891800 0.9759459 0.9845241
0.9957250 0.9772995 0.9844006
0.9988139 0.9774835 0.9842136
1.0000000 0.9775952 0.9840487
1.0000000 0.9771439 0.9836910
0.8428453 0.9806037 0.9881233
0.9442756 0.9835661 0.9870734
0.9774024 0.9859282 0.9869512
0.9893724 0.9873328 0.9870023
0.9940997 0.9881210 0.9870436
0.9962831 0.9884154 0.9870113
0.9976504 0.9885163 0.9869429
0.9984516 0.9884681 0.9867588
0.8759038 0.9865281 0.9887618
0.9556040 0.9882907 0.9881691
0.9809479 0.9898724 0.9882202
0.9902984 0.9907896 0.9882705
0.9939973 0.9912948 0.9883397
0.9957896 0.9915612 0.9883578
0.9969631 0.9916888 0.9883402
0.9975994 0.9917690 0.9882935
0.8986318 0.9889369 0.9892297
0.9629052 0.9903015 0.9888788
0.9832871 0.9915079 0.9889855
0.9910846 0.9922680 0.9891242
0.9941608 0.9926492 0.9891346
0.9957607 0.9928420 0.9891484
0.9967480 0.9929845 0.9891471
0.9973372 0.9930630 0.9891237
0.9154207 0.9901202 0.9895750
0.9679939 0.9913250 0.9893665
0.9852291 0.9923794 0.9895008
0.9918010 0.9930108 0.9896328
0.9943866 0.9933265 0.9896945
0.9957858 0.9935179 0.9897206
0.9966834 0.9936479 0.9897271
0.9972098 0.9937215 0.9897122
0.9290864 0.9909065 0.9899167
0.9722708 0.9920406 0.9898168
0.9866306 0.9929291 0.9899558
0.9923650 0.9934826 0.9900850
0.9946271 0.9937572 0.9901454
0.9959065 0.9939314 0.9901757
0.9966758 0.9940541 0.9901879
0.9971753 0.9941251 0.9901769
0.7413648 0.6892453 1.0000000
0.9356489 0.7576328 0.9932191
1.0000000 0.7963780 0.9880882
1.0000000 0.8161707 0.9855374
1.0000000 0.8247297 0.9841906
1.0000000 0.8268172 0.9834457
1.0000000 0.8407065 0.9827710
1.0000000 0.8516493 0.9824634
0.8303312 0.9204808 0.9905950
0.9432994 0.9355956 0.9875166
0.9819947 0.9448724 0.9862575
0.9969391 0.9495600 0.9856623
1.0000000 0.9505834 0.9852929
1.0000000 0.9508207 0.9850370
1.0000000 0.9498903 0.9847745
1.0000000 0.9482442 0.9845275
0.8803728 0.9714065 0.9896574
0.9572736 0.9765682 0.9885200
0.9822099 0.9793936 0.9882086
0.9919895 0.9810972 0.9881076
0.9959466 0.9817732 0.9880337
0.9980774 0.9820185 0.9879532
0.9994571 0.9820497 0.9878645
1.0000000 0.9816667 0.9877311
0.9080964 0.9838351 0.9900125
0.9662169 0.9863904 0.9894847
0.9845909 0.9881256 0.9894680
0.9919148 0.9890594 0.9895089
0.9948166 0.9895434 0.9895360
0.9964153 0.9897325 0.9895235
0.9974604 0.9898202 0.9894969
0.9980713 0.9898968 0.9894737
0.9257844 0.9880646 0.9903018
0.9716969 0.9898359 0.9900572
0.9862899 0.9910076 0.9901541
0.9923647 0.9916779 0.9902388
0.9947711 0.9920203 0.9902846
0.9961373 0.9922281 0.9903031
0.9969651 0.9923512 0.9903038
0.9975141 0.9923802 0.9902807
0.9386478 0.9899117 0.9905365
0.9757694 0.9913161 0.9904285
0.9879376 0.9922564 0.9905328
0.9927726 0.9927968 0.9906282
0.9948989 0.9930822 0.9906809
0.9961013 0.9932606 0.9907330
0.9968380 0.9933693 0.9907443
0.9973367 0.9934402 0.9907450
0.9492854 0.9909587 0.9906973
0.9786569 0.9921355 0.9906806
0.9891329 0.9929481 0.9908042
0.9932246 0.9934194 0.9909250
0.9950763 0.9936620 0.9909788
0.9961517 0.9938152 0.9910080
0.9968168 0.9939120 0.9910198
0.9972597 0.9939748 0.9910208
0.9577690 0.9916430 0.9908415
0.9811069 0.9926805 0.9908821
0.9901518 0.9934054 0.9910327
0.9935673 0.9937844 0.9911205
0.9952115 0.9940000 0.9911714
0.9962682 0.9941633 0.9912096
0.9968349 0.9942502 0.9912416
0.9972479 0.9943104 0.9912468
0.8598389 0.7988767 0.9963627
0.9689428 0.8375866 0.9905362
1.0000000 0.8567079 0.9879521
1.0000000 0.8660558 0.9865618
1.0000000 0.8686683 0.9858825
1.0000000 0.8679854 0.9854343
1.0000000 0.8654213 0.9851328
1.0000000 0.8725131 0.9849034
0.9023767 0.9451984 0.9900510
0.9668715 0.9549553 0.9884034
0.9885795 0.9604936 0.9878181
0.9975903 0.9621627 0.9874742
1.0000000 0.9626679 0.9872702
1.0000000 0.9625532 0.9871007
1.0000000 0.9619995 0.9869744
1.0000000 0.9611319 0.9868271
0.9310201 0.9781021 0.9901006
0.9732174 0.9816085 0.9895862
0.9877648 0.9835658 0.9894932
0.9936557 0.9845334 0.9894577
0.9963140 0.9849096 0.9894217
0.9978729 0.9850344 0.9893737
0.9988672 0.9850083 0.9893398
0.9995904 0.9848613 0.9892734
0.9455840 0.9863794 0.9905448
0.9774816 0.9884043 0.9903678
0.9889334 0.9895799 0.9904132
0.9934440 0.9902456 0.9904649
0.9955103 0.9905053 0.9904757
0.9967675 0.9907160 0.9904885
0.9974794 0.9907416 0.9904849
0.9979866 0.9907980 0.9904746
0.9561023 0.9895020 0.9908380
0.9809008 0.9908793 0.9907985
0.9900392 0.9917789 0.9908882
0.9936432 0.9922502 0.9909571
0.9953811 0.9925104 0.9910113
0.9965042 0.9926890 0.9910367
0.9971184 0.9927461 0.9910341
0.9975603 0.9928049 0.9910483
0.9630861 0.9909361 0.9910225
0.9832083 0.9920753 0.9910577
0.9908953 0.9928030 0.9911777
0.9939173 0.9931778 0.9912492
0.9954822 0.9934002 0.9912940
0.9964448 0.9935489 0.9913356
0.9970171 0.9936326 0.9913480
0.9974023 0.9936835 0.9913512
0.9680786 0.9917709 0.9911795
0.9851384 0.9927590 0.9912541
0.9916433 0.9933702 0.9913646
0.9941979 0.9936796 0.9914444
0.9955789 0.9938679 0.9914865
0.9964603 0.9940132 0.9915193
0.9969752 0.9940892 0.9915442
0.9973655 0.9941451 0.9915512
0.9727949 0.9923260 0.9912902
0.9865400 0.9931738 0.9913852
0.9922355 0.9937202 0.9914985
0.9944783 0.9939951 0.9915758
0.9957443 0.9941800 0.9916227
0.9965054 0.9942941 0.9916607
0.9969972 0.9943689 0.9916764
0.9973457 0.9944220 0.9916853
0.9283104 0.8665141 0.9919270
0.9847556 0.8886683 0.9889347
1.0000000 0.8989052 0.9875425
1.0000000 0.9030488 0.9868408
1.0000000 0.9026638 0.9864327
1.0000000 0.9017195 0.9861333
1.0000000 0.8985605 0.9859559
1.0000000 0.8947970 0.9857888
0.9458935 0.9619822 0.9897145
0.9794761 0.9672843 0.9889585
0.9922941 0.9699891 0.9886553
0.9976199 0.9709008 0.9884763
1.0000000 0.9713561 0.9883666
1.0000000 0.9710936 0.9882517
1.0000000 0.9704326 0.9881279
1.0000000 0.9696227 0.9880043
0.9588999 0.9826210 0.9903798
0.9821281 0.9849098 0.9901821
0.9911380 0.9861769 0.9901625
0.9947481 0.9867049 0.9901455
0.9966323 0.9870712 0.9901439
0.9978445 0.9871376 0.9901234
0.9986022 0.9870756 0.9900808
0.9991709 0.9869478 0.9900439
0.9668802 0.9884110 0.9908729
0.9846166 0.9898772 0.9908614
0.9916621 0.9906864 0.9909238
0.9944483 0.9910999 0.9909642
0.9960305 0.9912829 0.9909850
0.9969504 0.9914218 0.9909948
0.9975440 0.9914261 0.9909776
0.9979843 0.9914715 0.9909826
0.9719148 0.9906181 0.9911582
0.9862681 0.9916973 0.9912090
0.9922310 0.9923709 0.9913074
0.9945866 0.9926959 0.9913598
0.9959244 0.9928663 0.9913954
0.9967310 0.9929892 0.9914138
0.9972540 0.9930642 0.9914221
0.9976253 0.9931132 0.9914339
0.9758516 0.9917481 0.9913457
0.9878938 0.9926471 0.9914318
0.9926735 0.9931691 0.9915310
0.9947734 0.9934472 0.9915866
0.9959618 0.9936208 0.9916223
0.9966859 0.9937316 0.9916530
0.9971755 0.9938051 0.9916649
0.9975138 0.9938543 0.9916796
0.9786862 0.9924235 0.9914801
0.9890860 0.9932268 0.9915884
0.9931452 0.9936672 0.9916793
0.9949796 0.9939080 0.9917434
0.9960443 0.9940591 0.9917799
0.9967010 0.9941555 0.9918097
0.9971381 0.9942182 0.9918224
0.9974566 0.9942791 0.9918423
0.9814595 0.9928837 0.9915783
0.9901012 0.9935699 0.9916984
0.9934990 0.9939426 0.9917826
0.9951329 0.9941559 0.9918435
0.9961832 0.9943171 0.9918858
0.9967479 0.9944016 0.9919062
0.9971560 0.9944649 0.9919278
0.9974443 0.9945082 0.9919356
0.9612591 0.9111368 0.9898214
0.9920730 0.9207110 0.9883516
1.0000000 0.9258247 0.9875822
1.0000000 0.9270133 0.9872043
1.0000000 0.9260054 0.9869167
1.0000000 0.9249115 0.9867278
1.0000000 0.9228767 0.9865650
1.0000000 0.9205127 0.9864333
0.9674332 0.9714417 0.9897816
0.9866179 0.9748874 0.9894446
0.9943492 0.9762953 0.9892765
0.9976488 0.9769400 0.9892002
0.9996911 0.9768556 0.9890962
1.0000000 0.9768028 0.9890231
1.0000000 0.9762636 0.9889299
1.0000000 0.9759475 0.9888561
0.9738913 0.9857260 0.9906656
0.9875606 0.9872695 0.9906161
0.9930567 0.9880471 0.9906275
0.9955146 0.9883737 0.9906221
0.9969105 0.9886279 0.9906347
0.9978042 0.9886450 0.9906088
0.9984298 0.9885965 0.9905852
0.9988941 0.9884735 0.9905434
0.9777565 0.9897471 0.9911283
0.9888915 0.9908565 0.9911864
0.9932587 0.9914488 0.9912487
0.9952480 0.9917048 0.9912822
0.9964573 0.9919028 0.9913077
0.9971229 0.9920021 0.9913237
0.9976158 0.9920166 0.9913160
0.9979736 0.9920558 0.9913215
0.9810109 0.9915113 0.9914011
0.9900045 0.9923441 0.9914867
0.9935477 0.9927844 0.9915631
0.9952569 0.9930268 0.9916071
0.9963584 0.9931962 0.9916455
0.9969530 0.9932826 0.9916602
0.9973910 0.9933141 0.9916672
0.9977177 0.9933550 0.9916715
0.9832369 0.9923855 0.9915617
0.9908588 0.9930848 0.9916680
0.9938532 0.9934475 0.9917406
0.9954001 0.9936818 0.9917985
0.9963535 0.9938251 0.9918313
0.9969175 0.9939113 0.9918557
0.9972962 0.9939667 0.9918663
0.9976032 0.9940102 0.9918793
0.9851438 0.9929656 0.9916818
0.9916083 0.9935647 0.9917938
0.9941467 0.9938689 0.9918633
0.9955166 0.9940572 0.9919150
0.9963911 0.9941992 0.9919524
0.9969016 0.9942768 0.9919766
0.9972873 0.9943357 0.9919911
0.9975547 0.9943755 0.9920043
0.9865285 0.9933029 0.9917673
0.9922017 0.9938506 0.9918783
0.9944348 0.9941204 0.9919496
0.9956957 0.9942933 0.9919960
0.9964522 0.9944146 0.9920340
0.9969411 0.9944888 0.9920540
0.9972867 0.9945421 0.9920721
0.9975425 0.9945804 0.9920811
