Plugins/FilmEmulator/Content/LUTs/FE_Kodak_Polymax_Pro_64.cube
TITLE "FE_Kodak_Polymax_Pro_33"
LUT_3D_SIZE 8
0.0021468 0.0021468 0.0021468
0.0021468 0.0021468 0.0021468
0.0021468 0.0021468 0.0021468
0.0021468 0.0021468 0.0021468
0.0021468 0.0021468 0.0021468
0.0021604 0.0021604 0.0021604
0.0021721 0.0021721 0.0021721
0.0021802 0.0021802 0.0021802
0.0021823 0.0021823 0.0021823
0.0021938 0.0021938 0.0021938
0.0022146 0.0022146 0.0022146
0.0022816 0.0022816 0.0022816
0.0024591 0.0024591 0.0024591
0.0026786 0.0026786 0.0026786
0.0029884 0.0029884 0.0029884
0.0034773 0.0034773 0.0034773
0.0036030 0.0036030 0.0036030
0.0043064 0.0043064 0.0043064
0.0052857 0.0052857 0.0052857
0.0064736 0.0064736 0.0064736
0.0078792 0.0078792 0.0078792
0.0096645 0.0096645 0.0096645
0.0116885 0.0116885 0.0116885
0.0141680 0.0141680 0.0141680
0.0147256 0.0147256 0.0147256
0.0175103 0.0175103 0.0175103
0.0207963 0.0207963 0.0207963
0.0242082 0.0242082 0.0242082
0.0281969 0.0281969 0.0281969
0.0328664 0.0328664 0.0328664
0.0375889 0.0375889 0.0375889
0.0429871 0.0429871 0.0429871
0.0446738 0.0446738 0.0446738
0.0510873 0.0510873 0.0510873
0.0573060 0.0573060 0.0573060
0.0654791 0.0654791 0.0654791
0.0733701 0.0733701 0.0733701
0.0821515 0.0821515 0.0821515
0.0918998 0.0918998 0.0918998
0.1027070 0.1027070 0.1027070
0.1046152 0.1046152 0.1046152
0.1146345 0.1146345 0.1146345
0.1277770 0.1277770 0.1277770
0.1396957 0.1396957 0.1396957
0.1525424 0.1525424 0.1525424
0.1663419 0.1663419 0.1663419
0.1811222 0.1811222 0.1811222
0.1969035 0.1969035 0.1969035
0.2001785 0.2001785 0.2001785
0.2136857 0.2136857 0.2136857
0.2314866 0.2314866 0.2314866
0.2464653 0.2464653 0.2464653
0.2660850 0.2660850 0.2660850
0.2825193 0.2825193 0.2825193
0.2995681 0.2995681 0.2995681
0.3172075 0.3172075 0.3172075
0.3217247 0.3217247 0.3217247
0.3401234 0.3401234 0.3401234
0.3590173 0.3590173 0.3590173
0.3784914 0.3784914 0.3784914
0.3933828 0.3933828 0.3933828
0.4135461 0.4135461 0.4135461
0.4342205 0.4342205 0.4342205
0.4498823 0.4498823 0.4498823
0.0298635 0.0298635 0.0298635
0.0348061 0.0348061 0.0348061
0.0398168 0.0398168 0.0398168
0.0455407 0.0455407 0.0455407
0.0520718 0.0520718 0.0520718
0.0595350 0.0595350 0.0595350
0.0667371 0.0667371 0.0667371
0.0747676 0.0747676 0.0747676
0.0776385 0.0776385 0.0776385
0.0869020 0.0869020 0.0869020
0.0953796 0.0953796 0.0953796
0.1065546 0.1065546 0.1065546
0.1188792 0.1188792 0.1188792
0.1300885 0.1300885 0.1300885
0.1421904 0.1421904 0.1421904
0.1552251 0.1552251 0.1552251
0.1579462 0.1579462 0.1579462
0.1721349 0.1721349 0.1721349
0.1873143 0.1873143 0.1873143
0.2034943 0.2034943 0.2034943
0.2171643 0.2171643 0.2171643
0.2351708 0.2351708 0.2351708
0.2503102 0.2503102 0.2503102
0.2660850 0.2660850 0.2660850
0.2701264 0.2701264 0.2701264
0.2909701 0.2909701 0.2909701
0.3083096 0.3083096 0.3083096
0.3262756 0.3262756 0.3262756
0.3448022 0.3448022 0.3448022
0.3590173 0.3590173 0.3590173
0.3784914 0.3784914 0.3784914
0.3983926 0.3983926 0.3983926
0.4034236 0.4034236 0.4034236
0.4186893 0.4186893 0.4186893
0.4394281 0.4394281 0.4394281
0.4603809 0.4603809 0.4603809
0.4763056 0.4763056 0.4763056
0.4923697 0.4923697 0.4923697
0.5138069 0.5138069 0.5138069
0.5299604 0.5299604 0.5299604
0.5353761 0.5353761 0.5353761
0.5515683 0.5515683 0.5515683
0.5676516 0.5676516 0.5676516
0.5836482 0.5836482 0.5836482
0.5995779 0.5995779 0.5995779
0.6153000 0.6153000 0.6153000
0.6307846 0.6307846 0.6307846
0.6461371 0.6461371 0.6461371
0.6511957 0.6511957 0.6511957
0.6661648 0.6661648 0.6661648
0.6808065 0.6808065 0.6808065
0.6952231 0.6952231 0.6952231
0.7046514 0.7046514 0.7046514
0.7184706 0.7184706 0.7184706
0.7318892 0.7318892 0.7318892
0.7407153 0.7407153 0.7407153
0.7450565 0.7450565 0.7450565
0.7577913 0.7577913 0.7577913
0.7660372 0.7660372 0.7660372
0.7780728 0.7780728 0.7780728
0.7859298 0.7859298 0.7859298
0.7973319 0.7973319 0.7973319
0.8046783 0.8046783 0.8046783
0.8153343 0.8153343 0.8153343
0.3495112 0.3495112 0.3495112
0.3686878 0.3686878 0.3686878
0.3883954 0.3883954 0.3883954
0.4084752 0.4084752 0.4084752
0.4238501 0.4238501 0.4238501
0.4446490 0.4446490 0.4446490
0.4603809 0.4603809 0.4603809
0.4816565 0.4816565 0.4816565
0.4816565 0.4816565 0.4816565
0.5030895 0.5030895 0.5030895
0.5191615 0.5191615 0.5191615
0.5353761 0.5353761 0.5353761
0.5569432 0.5569432 0.5569432
0.5729828 0.5729828 0.5729828
0.5889792 0.5889792 0.5889792
0.6048432 0.6048432 0.6048432
0.6100842 0.6100842 0.6100842
0.6256511 0.6256511 0.6256511
0.6410456 0.6410456 0.6410456
0.6562204 0.6562204 0.6562204
0.6661648 0.6661648 0.6661648
0.6808065 0.6808065 0.6808065
0.6952231 0.6952231 0.6952231
0.7093015 0.7093015 0.7093015
0.7093015 0.7093015 0.7093015
0.7229887 0.7229887 0.7229887
0.7363259 0.7363259 0.7363259
0.7450565 0.7450565 0.7450565
0.7577913 0.7577913 0.7577913
0.7700865 0.7700865 0.7700865
0.7780728 0.7780728 0.7780728
0.7897817 0.7897817 0.7897817
0.7897817 0.7897817 0.7897817
0.8010306 0.8010306 0.8010306
0.8082752 0.8082752 0.8082752
0.8188308 0.8188308 0.8188308
0.8256691 0.8256691 0.8256691
0.8323020 0.8323020 0.8323020
0.8418711 0.8418711 0.8418711
0.8480011 0.8480011 0.8480011
0.8510407 0.8510407 0.8510407
0.8569694 0.8569694 0.8569694
0.8627002 0.8627002 0.8627002
0.8682367 0.8682367 0.8682367
0.8735825 0.8735825 0.8735825
0.8814933 0.8814933 0.8814933
0.8866495 0.8866495 0.8866495
0.8916089 0.8916089 0.8916089
0.8916089 0.8916089 0.8916089
0.8986903 0.8986903 0.8986903
0.9032162 0.9032162 0.9032162
0.9077327 0.9077327 0.9077327
0.9120589 0.9120589 0.9120589
0.9162011 0.9162011 0.9162011
0.9201651 0.9201651 0.9201651
0.9239572 0.9239572 0.9239572
0.9239572 0.9239572 0.9239572
0.9275196 0.9275196 0.9275196
0.9309276 0.9309276 0.9309276
0.9341868 0.9341868 0.9341868
0.9373025 0.9373025 0.9373025
0.9402801 0.9402801 0.9402801
0.9429297 0.9429297 0.9429297
0.9441937 0.9441937 0.9441937
0.7619389 0.7619389 0.7619389
0.7740861 0.7740861 0.7740861
0.7820268 0.7820268 0.7820268
0.7935822 0.7935822 0.7935822
0.8010306 0.8010306 0.8010306
0.8118212 0.8118212 0.8118212
0.8188308 0.8188308 0.8188308
0.8256691 0.8256691 0.8256691
0.8290110 0.8290110 0.8290110
0.8355420 0.8355420 0.8355420
0.8449608 0.8449608 0.8449608
0.8510407 0.8510407 0.8510407
0.8569694 0.8569694 0.8569694
0.8627002 0.8627002 0.8627002
0.8709332 0.8709332 0.8709332
0.8761854 0.8761854 0.8761854
0.8761854 0.8761854 0.8761854
0.8840962 0.8840962 0.8840962
0.8891534 0.8891534 0.8891534
0.8940164 0.8940164 0.8940164
0.8986903 0.8986903 0.8986903
0.9032162 0.9032162 0.9032162
0.9077327 0.9077327 0.9077327
0.9120589 0.9120589 0.9120589
0.9141526 0.9141526 0.9141526
0.9182050 0.9182050 0.9182050
0.9220823 0.9220823 0.9220823
0.9257581 0.9257581 0.9257581
0.9275196 0.9275196 0.9275196
0.9309276 0.9309276 0.9309276
0.9341868 0.9341868 0.9341868
0.9373025 0.9373025 0.9373025
0.9388082 0.9388082 0.9388082
0.9416390 0.9416390 0.9416390
0.9429297 0.9429297 0.9429297
0.9454311 0.9454311 0.9454311
0.9478290 0.9478290 0.9478290
0.9501271 0.9501271 0.9501271
0.9523290 0.9523290 0.9523290
0.9533508 0.9533508 0.9533508
0.9542648 0.9542648 0.9542648
0.9560421 0.9560421 0.9560421
0.9569058 0.9569058 0.9569058
0.9585848 0.9585848 0.9585848
0.9602012 0.9602012 0.9602012
0.9609866 0.9609866 0.9609866
0.9624348 0.9624348 0.9624348
0.9637558 0.9637558 0.9637558
0.9637558 0.9637558 0.9637558
0.9650321 0.9650321 0.9650321
0.9656538 0.9656538 0.9656538
0.9668655 0.9668655 0.9668655
0.9680359 0.9680359 0.9680359
0.9685544 0.9685544 0.9685544
0.9695169 0.9695169 0.9695169
0.9699874 0.9699874 0.9699874
0.9704508 0.9704508 0.9704508
0.9709073 0.9709073 0.9709073
0.9717999 0.9717999 0.9717999
0.9722362 0.9722362 0.9722362
0.9730681 0.9730681 0.9730681
0.9737738 0.9737738 0.9737738
0.9741199 0.9741199 0.9741199
0.9747988 0.9747988 0.9747988
0.9292426 0.9292426 0.9292426
0.9325755 0.9325755 0.9325755
0.9357622 0.9357622 0.9357622
0.9388082 0.9388082 0.9388082
0.9416390 0.9416390 0.9416390
0.9441937 0.9441937 0.9441937
0.9466428 0.9466428 0.9466428
0.9478290 0.9478290 0.9478290
0.9489903 0.9489903 0.9489903
0.9512398 0.9512398 0.9512398
0.9523290 0.9523290 0.9523290
0.9542648 0.9542648 0.9542648
0.9560421 0.9560421 0.9560421
0.9577532 0.9577532 0.9577532
0.9585848 0.9585848 0.9585848
0.9602012 0.9602012 0.9602012
0.9602012 0.9602012 0.9602012
0.9617570 0.9617570 0.9617570
0.9631010 0.9631010 0.9631010
0.9643995 0.9643995 0.9643995
0.9650321 0.9650321 0.9650321
0.9662650 0.9662650 0.9662650
0.9668655 0.9668655 0.9668655
0.9680359 0.9680359 0.9680359
0.9680359 0.9680359 0.9680359
0.9690393 0.9690393 0.9690393
0.9699874 0.9699874 0.9699874
0.9704508 0.9704508 0.9704508
0.9713570 0.9713570 0.9713570
0.9717999 0.9717999 0.9717999
0.9726658 0.9726658 0.9726658
0.9730681 0.9730681 0.9730681
0.9734232 0.9734232 0.9734232
0.9737738 0.9737738 0.9737738
0.9744616 0.9744616 0.9744616
0.9747988 0.9747988 0.9747988
0.9754603 0.9754603 0.9754603
0.9757847 0.9757847 0.9757847
0.9764209 0.9764209 0.9764209
0.9766724 0.9766724 0.9766724
0.9766724 0.9766724 0.9766724
0.9771676 0.9771676 0.9771676
0.9774114 0.9774114 0.9774114
0.9778913 0.9778913 0.9778913
0.9781275 0.9781275 0.9781275
0.9783612 0.9783612 0.9783612
0.9788213 0.9788213 0.9788213
0.9790260 0.9790260 0.9790260
0.9790260 0.9790260 0.9790260
0.9794078 0.9794078 0.9794078
0.9795963 0.9795963 0.9795963
0.9799680 0.9799680 0.9799680
0.9801514 0.9801514 0.9801514
0.9803331 0.9803331 0.9803331
0.9805133 0.9805133 0.9805133
0.9808533 0.9808533 0.9808533
0.9808533 0.9808533 0.9808533
0.9809828 0.9809828 0.9809828
0.9812395 0.9812395 0.9812395
0.9813666 0.9813666 0.9813666
0.9814928 0.9814928 0.9814928
0.9817427 0.9817427 0.9817427
0.9818664 0.9818664 0.9818664
0.9819893 0.9819893 0.9819893
0.9713570 0.9713570 0.9713570
0.9722362 0.9722362 0.9722362
0.9726658 0.9726658 0.9726658
0.9734232 0.9734232 0.9734232
0.9737738 0.9737738 0.9737738
0.9744616 0.9744616 0.9744616
0.9747988 0.9747988 0.9747988
0.9754603 0.9754603 0.9754603
0.9754603 0.9754603 0.9754603
0.9761049 0.9761049 0.9761049
0.9764209 0.9764209 0.9764209
0.9769213 0.9769213 0.9769213
0.9771676 0.9771676 0.9771676
0.9774114 0.9774114 0.9774114
0.9778913 0.9778913 0.9778913
0.9781275 0.9781275 0.9781275
0.9783612 0.9783612 0.9783612
0.9785925 0.9785925 0.9785925
0.9788213 0.9788213 0.9788213
0.9792178 0.9792178 0.9792178
0.9794078 0.9794078 0.9794078
0.9795963 0.9795963 0.9795963
0.9799680 0.9799680 0.9799680
0.9801514 0.9801514 0.9801514
0.9801514 0.9801514 0.9801514
0.9805133 0.9805133 0.9805133
0.9806917 0.9806917 0.9806917
0.9808533 0.9808533 0.9808533
0.9811116 0.9811116 0.9811116
0.9812395 0.9812395 0.9812395
0.9813666 0.9813666 0.9813666
0.9814928 0.9814928 0.9814928
0.9816181 0.9816181 0.9816181
0.9817427 0.9817427 0.9817427
0.9818664 0.9818664 0.9818664
0.9821113 0.9821113 0.9821113
0.9822001 0.9822001 0.9822001
0.9822884 0.9822884 0.9822884
0.9823763 0.9823763 0.9823763
0.9824638 0.9824638 0.9824638
0.9825509 0.9825509 0.9825509
0.9826375 0.9826375 0.9826375
0.9827238 0.9827238 0.9827238
0.9828095 0.9828095 0.9828095
0.9829799 0.9829799 0.9829799
0.9830538 0.9830538 0.9830538
0.9831221 0.9831221 0.9831221
0.9831902 0.9831902 0.9831902
0.9831902 0.9831902 0.9831902
0.9832579 0.9832579 0.9832579
0.9833927 0.9833927 0.9833927
0.9834597 0.9834597 0.9834597
0.9835263 0.9835263 0.9835263
0.9835927 0.9835927 0.9835927
0.9836589 0.9836589 0.9836589
0.9837224 0.9837224 0.9837224
0.9837809 0.9837809 0.9837809
0.9838392 0.9838392 0.9838392
0.9838972 0.9838972 0.9838972
0.9839550 0.9839550 0.9839550
0.9840127 0.9840127 0.9840127
0.9840701 0.9840701 0.9840701
0.9841273 0.9841273 0.9841273
0.9841843 0.9841843 0.9841843
0.9811116 0.9811116 0.9811116
0.9812395 0.9812395 0.9812395
0.9814928 0.9814928 0.9814928
0.9816181 0.9816181 0.9816181
0.9817427 0.9817427 0.9817427
0.9819893 0.9819893 0.9819893
0.9821113 0.9821113 0.9821113
0.9822001 0.9822001 0.9822001
0.9822001 0.9822001 0.9822001
0.9823763 0.9823763 0.9823763
0.9824638 0.9824638 0.9824638
0.9825509 0.9825509 0.9825509
0.9826375 0.9826375 0.9826375
0.9827238 0.9827238 0.9827238
0.9828950 0.9828950 0.9828950
0.9829799 0.9829799 0.9829799
0.9829799 0.9829799 0.9829799
0.9830538 0.9830538 0.9830538
0.9831221 0.9831221 0.9831221
0.9832579 0.9832579 0.9832579
0.9833254 0.9833254 0.9833254
0.9833927 0.9833927 0.9833927
0.9834597 0.9834597 0.9834597
0.9835263 0.9835263 0.9835263
0.9835263 0.9835263 0.9835263
0.9836589 0.9836589 0.9836589
0.9837224 0.9837224 0.9837224
0.9837809 0.9837809 0.9837809
0.9838392 0.9838392 0.9838392
0.9838972 0.9838972 0.9838972
0.9839550 0.9839550 0.9839550
0.9840127 0.9840127 0.9840127
0.9840127 0.9840127 0.9840127
0.9840701 0.9840701 0.9840701
0.9841843 0.9841843 0.9841843
0.9842411 0.9842411 0.9842411
0.9842978 0.9842978 0.9842978
0.9843515 0.9843515 0.9843515
0.9844051 0.9844051 0.9844051
0.9844585 0.9844585 0.9844585
0.9844585 0.9844585 0.9844585
0.9845117 0.9845117 0.9845117
0.9845647 0.9845647 0.9845647
0.9846177 0.9846177 0.9846177
0.9846703 0.9846703 0.9846703
0.9847229 0.9847229 0.9847229
0.9847752 0.9847752 0.9847752
0.9848273 0.9848273 0.9848273
0.9848749 0.9848749 0.9848749
0.9849201 0.9849201 0.9849201
0.9849653 0.9849653 0.9849653
0.9850102 0.9850102 0.9850102
0.9850550 0.9850550 0.9850550
0.9850998 0.9850998 0.9850998
0.9851444 0.9851444 0.9851444
0.9851888 0.9851888 0.9851888
0.9851888 0.9851888 0.9851888
0.9852331 0.9852331 0.9852331
0.9852773 0.9852773 0.9852773
0.9853176 0.9853176 0.9853176
0.9853501 0.9853501 0.9853501
0.9853827 0.9853827 0.9853827
0.9853827 0.9853827 0.9853827
0.9854151 0.9854151 0.9854151
0.9838392 0.9838392 0.9838392
0.9838972 0.9838972 0.9838972
0.9840127 0.9840127 0.9840127
0.9840701 0.9840701 0.9840701
0.9841273 0.9841273 0.9841273
0.9841843 0.9841843 0.9841843
0.9842411 0.9842411 0.9842411
0.9842978 0.9842978 0.9842978
0.9842978 0.9842978 0.9842978
0.9843515 0.9843515 0.9843515
0.9844051 0.9844051 0.9844051
0.9844585 0.9844585 0.9844585
0.9845117 0.9845117 0.9845117
0.9845647 0.9845647 0.9845647
0.9846177 0.9846177 0.9846177
0.9846703 0.9846703 0.9846703
0.9847229 0.9847229 0.9847229
0.9847752 0.9847752 0.9847752
0.9848273 0.9848273 0.9848273
0.9848749 0.9848749 0.9848749
0.9849201 0.9849201 0.9849201
0.9849653 0.9849653 0.9849653
0.9850102 0.9850102 0.9850102
0.9850550 0.9850550 0.9850550
0.9850550 0.9850550 0.9850550
0.9850998 0.9850998 0.9850998
0.9851444 0.9851444 0.9851444
0.9851888 0.9851888 0.9851888
0.9852331 0.9852331 0.9852331
0.9852773 0.9852773 0.9852773
0.9853176 0.9853176 0.9853176
0.9853501 0.9853501 0.9853501
0.9853501 0.9853501 0.9853501
0.9853827 0.9853827 0.9853827
0.9854151 0.9854151 0.9854151
0.9854475 0.9854475 0.9854475
0.9854798 0.9854798 0.9854798
0.9855120 0.9855120 0.9855120
0.9855442 0.9855442 0.9855442
0.9855763 0.9855763 0.9855763
0.9855763 0.9855763 0.9855763
0.9856083 0.9856083 0.9856083
0.9856403 0.9856403 0.9856403
0.9856650 0.9856650 0.9856650
0.9856650 0.9856650 0.9856650
0.9856896 0.9856896 0.9856896
0.9857141 0.9857141 0.9857141
0.9857387 0.9857387 0.9857387
0.9857387 0.9857387 0.9857387
0.9857632 0.9857632 0.9857632
0.9857876 0.9857876 0.9857876
0.9858121 0.9858121 0.9858121
0.9858364 0.9858364 0.9858364
0.9858608 0.9858608 0.9858608
0.9858850 0.9858850 0.9858850
0.9859073 0.9859073 0.9859073
0.9859073 0.9859073 0.9859073
0.9859286 0.9859286 0.9859286
0.9859286 0.9859286 0.9859286
0.9859499 0.9859499 0.9859499
0.9859711 0.9859711 0.9859711
0.9859923 0.9859923 0.9859923
0.9860134 0.9860134 0.9860134
0.9860346 0.9860346 0.9860346
