Plugins/FilmEmulator/Content/LUTs/FE_Kodak_Endura_Premier_64.cube
TITLE "FE_Kodak_Endura_Premier_33"
LUT_3D_SIZE 64
0.0143539 0.0063850 0.0096231
0.0155834 0.0065752 0.0096333
0.0092693 0.0056012 0.0095806
0.0155762 0.0065738 0.0096332
0.0150555 0.0064933 0.0096289
0.0173768 0.0068524 0.0096483
0.0264447 0.0082595 0.0097262
0.0380805 0.0100786 0.0098292
0.0565547 0.0129964 0.0099992
0.0887913 0.0157908 0.0080512
0.1294549 0.0209032 0.0071332
0.1750056 0.0296168 0.0090714
0.2286857 0.0408527 0.0116818
0.2873517 0.0521151 0.0129610
0.3534396 0.0650381 0.0141836
0.4187483 0.0785843 0.0155953
0.4827766 0.0918425 0.0159222
0.5502593 0.1058751 0.0156693
0.6082862 0.1193603 0.0163811
0.6619503 0.1335059 0.0179706
0.7096781 0.1472234 0.0199002
0.7636011 0.1639938 0.0225886
0.8112031 0.1800963 0.0254681
0.8558593 0.1965116 0.0286567
0.8960298 0.2125456 0.0319803
0.9342166 0.2291309 0.0356305
0.9648715 0.2435883 0.0389997
0.9958944 0.2595751 0.0430357
1.0000000 0.2755494 0.0478280
1.0000000 0.2887020 0.0520408
1.0000000 0.3046078 0.0575691
1.0000000 0.3175007 0.0620471
1.0000000 0.3303022 0.0664402
1.0000000 0.3428526 0.0707828
1.0000000 0.3547335 0.0748784
1.0000000 0.3639451 0.0781475
1.0000000 0.3748324 0.0820855
1.0000000 0.3826277 0.0849913
1.0000000 0.3902586 0.0878490
1.0000000 0.4000652 0.0916021
1.0000000 0.4078246 0.0946360
1.0000000 0.4157178 0.0977803
1.0000000 0.4218343 0.1002681
1.0000000 0.4298376 0.1035917
1.0000000 0.4368590 0.1065733
1.0000000 0.4416081 0.1086251
1.0000000 0.4478452 0.1113617
1.0000000 0.4528037 0.1135733
1.0000000 0.4595389 0.1166295
1.0000000 0.4644526 0.1188207
1.0000000 0.4692827 0.1210064
1.0000000 0.4740343 0.1231875
1.0000000 0.4786948 0.1253412
1.0000000 0.4831606 0.1274181
1.0000000 0.4866911 0.1290590
1.0000000 0.4901889 0.1307114
1.0000000 0.4936900 0.1324517
1.0000000 0.4968447 0.1340327
1.0000000 0.4998155 0.1355344
1.0000000 0.5028804 0.1372919
1.0000000 0.5049483 0.1385478
1.0000000 0.5077018 0.1402586
1.0000000 0.5094980 0.1413839
1.0000000 0.5122701 0.1432385
0.0141679 0.0005272 0.0091445
0.0154027 0.0007197 0.0091549
0.0090776 0.0000000 0.0091026
0.0153974 0.0007188 0.0091550
0.0147964 0.0006258 0.0091498
0.0171949 0.0009985 0.0091696
0.0262734 0.0024583 0.0092503
0.0373358 0.0042566 0.0093518
0.0554688 0.0071467 0.0080560
0.0867509 0.0122174 0.0067357
0.1266750 0.0191466 0.0074708
0.1717325 0.0279150 0.0097269
0.2239538 0.0386477 0.0117279
0.2819186 0.0505226 0.0128174
0.3477829 0.0639032 0.0140713
0.4126046 0.0772745 0.0154529
0.4827766 0.0918425 0.0159222
0.5433609 0.1043838 0.0156776
0.6022280 0.1179079 0.0162946
0.6557539 0.1317946 0.0177472
0.7035056 0.1453924 0.0196273
0.7571761 0.1619147 0.0222318
0.8112031 0.1800963 0.0254681
0.8558593 0.1965116 0.0286567
0.8960298 0.2125456 0.0319803
0.9289316 0.2267476 0.0350926
0.9593284 0.2408891 0.0383576
0.9909968 0.2568768 0.0422475
1.0000000 0.2729054 0.0470198
1.0000000 0.2887020 0.0520408
1.0000000 0.3019591 0.0566346
1.0000000 0.3149807 0.0611979
1.0000000 0.3303022 0.0664402
1.0000000 0.3404197 0.0699619
1.0000000 0.3523980 0.0740617
1.0000000 0.3639451 0.0781475
1.0000000 0.3728603 0.0813608
1.0000000 0.3826277 0.0849913
1.0000000 0.3902586 0.0878490
1.0000000 0.3980994 0.0908411
1.0000000 0.4059008 0.0938807
1.0000000 0.4136570 0.0969522
1.0000000 0.4218343 0.1002681
1.0000000 0.4298376 0.1035917
1.0000000 0.4352621 0.1058898
1.0000000 0.4416081 0.1086251
1.0000000 0.4478452 0.1113617
1.0000000 0.4528037 0.1135733
1.0000000 0.4578671 0.1158653
1.0000000 0.4644526 0.1188207
1.0000000 0.4692827 0.1210064
1.0000000 0.4740343 0.1231875
1.0000000 0.4786948 0.1253412
1.0000000 0.4831606 0.1274181
1.0000000 0.4866911 0.1290590
1.0000000 0.4901889 0.1307114
1.0000000 0.4936900 0.1324517
1.0000000 0.4968447 0.1340327
1.0000000 0.4998155 0.1355344
1.0000000 0.5018417 0.1366635
1.0000000 0.5049483 0.1385478
1.0000000 0.5077018 0.1402586
1.0000000 0.5094980 0.1413839
1.0000000 0.5122701 0.1432385
0.0143374 0.0048444 0.0087653
0.0155451 0.0052609 0.0095255
0.0096210 0.0044553 0.0094854
0.0155519 0.0054620 0.0095420
0.0148003 0.0054065 0.0095408
0.0179442 0.0059839 0.0095745
0.0271774 0.0072612 0.0075696
0.0387788 0.0089916 0.0065390
0.0576539 0.0120265 0.0073721
0.0887573 0.0171710 0.0094926
0.1293371 0.0239358 0.0107291
0.1749188 0.0317109 0.0112835
0.2286683 0.0412369 0.0120269
0.2873573 0.0521094 0.0128344
0.3534899 0.0649638 0.0130783
0.4188818 0.0783908 0.0127058
0.4828637 0.0924163 0.0130944
0.5501310 0.1082483 0.0143988
0.6079755 0.1228741 0.0161076
0.6553490 0.1356461 0.0178155
0.7030342 0.1493141 0.0198649
0.7566342 0.1658515 0.0226126
0.8038277 0.1815891 0.0254689
0.8491164 0.1979335 0.0286462
0.8898941 0.2139069 0.0319525
0.9282703 0.2300790 0.0355238
0.9587227 0.2437573 0.0387398
0.9904772 0.2591611 0.0426804
1.0000000 0.2740873 0.0471857
1.0000000 0.2861941 0.0511581
1.0000000 0.3019591 0.0566346
1.0000000 0.3149807 0.0611979
1.0000000 0.3277159 0.0655421
1.0000000 0.3404197 0.0699619
1.0000000 0.3523980 0.0740617
1.0000000 0.3616633 0.0773352
1.0000000 0.3728603 0.0813608
1.0000000 0.3806927 0.0842639
1.0000000 0.3902586 0.0878490
1.0000000 0.3980994 0.0908411
1.0000000 0.4059008 0.0938807
1.0000000 0.4136570 0.0969522
1.0000000 0.4218343 0.1002681
1.0000000 0.4278528 0.1027600
1.0000000 0.4352621 0.1058898
1.0000000 0.4416081 0.1086251
1.0000000 0.4462962 0.1106773
1.0000000 0.4528037 0.1135733
1.0000000 0.4578671 0.1158653
1.0000000 0.4628225 0.1180900
1.0000000 0.4692827 0.1210064
1.0000000 0.4740343 0.1231875
1.0000000 0.4786948 0.1253412
1.0000000 0.4831606 0.1274181
1.0000000 0.4866911 0.1290590
1.0000000 0.4901889 0.1307114
1.0000000 0.4936900 0.1324517
1.0000000 0.4968447 0.1340327
1.0000000 0.4988284 0.1350340
1.0000000 0.5018417 0.1366635
1.0000000 0.5049483 0.1385478
1.0000000 0.5067999 0.1396956
1.0000000 0.5094980 0.1413839
1.0000000 0.5122701 0.1432385
0.0145920 0.0137295 0.0102768
0.0151550 0.0131563 0.0096742
0.0107171 0.0117685 0.0084077
0.0158912 0.0118437 0.0070637
0.0149050 0.0111517 0.0068852
0.0188606 0.0112612 0.0067048
0.0276644 0.0122229 0.0078942
0.0395189 0.0139532 0.0096406
0.0591558 0.0166069 0.0103394
0.0908131 0.0212094 0.0106143
0.1321065 0.0275947 0.0110319
0.1781633 0.0349950 0.0111909
0.2287092 0.0436535 0.0108306
0.2928677 0.0549891 0.0099007
0.3592016 0.0675040 0.0100421
0.4189152 0.0794780 0.0107824
0.4893394 0.0947016 0.0122979
0.5501124 0.1087531 0.0139166
0.6079701 0.1230739 0.0158025
0.6615539 0.1372771 0.0178840
0.7092417 0.1508172 0.0200602
0.7631117 0.1674994 0.0229216
0.8106807 0.1834552 0.0258566
0.8553163 0.1996879 0.0290468
0.8954847 0.2154794 0.0323592
0.9283469 0.2296178 0.0358436
0.9586768 0.2437943 0.0397260
0.9902761 0.2598075 0.0442296
1.0000000 0.2754028 0.0492002
1.0000000 0.2906603 0.0541593
1.0000000 0.3031912 0.0581130
1.0000000 0.3155949 0.0621650
1.0000000 0.3279686 0.0661272
1.0000000 0.3403643 0.0702119
1.0000000 0.3523747 0.0742335
1.0000000 0.3616340 0.0774564
1.0000000 0.3728530 0.0814567
1.0000000 0.3806952 0.0843219
1.0000000 0.3883865 0.0871626
1.0000000 0.3981078 0.0908574
1.0000000 0.4059010 0.0938807
1.0000000 0.4136570 0.0969522
1.0000000 0.4198064 0.0994384
1.0000000 0.4278528 0.1027600
1.0000000 0.4352621 0.1058898
1.0000000 0.4400320 0.1079411
1.0000000 0.4462962 0.1106773
1.0000000 0.4510999 0.1128097
1.0000000 0.4578671 0.1158653
1.0000000 0.4628225 0.1180900
1.0000000 0.4676841 0.1202796
1.0000000 0.4724579 0.1224604
1.0000000 0.4786948 0.1253412
1.0000000 0.4831606 0.1274181
1.0000000 0.4866911 0.1290590
1.0000000 0.4901889 0.1307114
1.0000000 0.4925271 0.1318716
1.0000000 0.4958482 0.1335323
1.0000000 0.4988284 0.1350340
1.0000000 0.5018417 0.1366635
1.0000000 0.5049047 0.1384386
1.0000000 0.5067999 0.1396956
1.0000000 0.5094980 0.1413839
1.0000000 0.5113231 0.1425757
0.0145996 0.0387984 0.0088673
0.0141168 0.0369352 0.0108243
0.0126650 0.0360071 0.0116732
0.0165519 0.0350727 0.0120707
0.0153447 0.0341130 0.0119950
0.0200911 0.0332718 0.0119036
0.0289183 0.0338337 0.0119172
0.0409007 0.0348899 0.0119612
0.0611691 0.0365959 0.0120319
0.0932354 0.0410236 0.0116936
0.1351281 0.0471467 0.0108900
0.1783466 0.0530974 0.0096490
0.2334002 0.0620476 0.0093713
0.2979357 0.0732657 0.0099070
0.3586596 0.0838549 0.0107377
0.4242311 0.0967355 0.0119801
0.4883644 0.1098124 0.0135157
0.5557090 0.1251860 0.0155143
0.6125506 0.1390837 0.0175226
0.6600454 0.1510085 0.0193894
0.7075874 0.1642123 0.0215672
0.7613671 0.1799739 0.0243738
0.8088216 0.1954316 0.0273009
0.8533849 0.2108985 0.0309341
0.8934200 0.2263902 0.0348548
0.9262736 0.2398036 0.0385996
0.9620883 0.2561390 0.0434643
0.9931058 0.2712718 0.0480728
1.0000000 0.2837529 0.0518001
1.0000000 0.2982036 0.0562466
1.0000000 0.3102780 0.0598634
1.0000000 0.3220336 0.0635496
1.0000000 0.3362187 0.0681123
1.0000000 0.3457528 0.0712930
1.0000000 0.3571715 0.0752325
1.0000000 0.3681781 0.0791099
1.0000000 0.3768212 0.0822134
1.0000000 0.3861853 0.0856950
1.0000000 0.3934574 0.0884580
1.0000000 0.4010977 0.0913933
1.0000000 0.4085587 0.0943576
1.0000000 0.4159905 0.0973772
1.0000000 0.4238654 0.1006438
1.0000000 0.4296108 0.1030892
1.0000000 0.4368733 0.1061948
1.0000000 0.4429552 0.1088809
1.0000000 0.4473876 0.1108855
1.0000000 0.4519399 0.1129707
1.0000000 0.4584844 0.1158928
1.0000000 0.4632661 0.1180540
1.0000000 0.4679753 0.1202137
1.0000000 0.4726005 0.1223869
1.0000000 0.4771590 0.1244965
1.0000000 0.4817327 0.1266679
1.0000000 0.4855095 0.1284204
1.0000000 0.4890284 0.1301042
1.0000000 0.4925131 0.1318535
1.0000000 0.4957671 0.1335150
1.0000000 0.4988284 0.1350340
1.0000000 0.5018417 0.1366635
1.0000000 0.5039158 0.1379198
1.0000000 0.5067999 0.1396956
1.0000000 0.5094980 0.1413839
1.0000000 0.5113231 0.1425757
0.0166417 0.0977417 0.0122209
0.0146760 0.0932225 0.0119433
0.0164351 0.0913520 0.0119227
0.0189341 0.0895883 0.0119790
0.0174896 0.0851158 0.0118911
0.0228531 0.0841353 0.0125449
0.0312227 0.0836248 0.0136742
0.0441924 0.0838169 0.0151076
0.0642063 0.0849134 0.0141116
0.0965826 0.0879176 0.0127989
0.1386306 0.0926175 0.0121312
0.1820768 0.0978305 0.0122811
0.2378490 0.1054273 0.0127447
0.2971886 0.1141467 0.0134442
0.3629041 0.1246901 0.0145583
0.4284739 0.1347225 0.0157845
0.4924788 0.1468973 0.0174080
0.5529936 0.1592488 0.0191986
0.6094674 0.1716102 0.0211348
0.6626969 0.1841308 0.0232483
0.7109041 0.1962628 0.0254379
0.7573380 0.2089102 0.0284774
0.8111390 0.2251801 0.0323920
0.8548042 0.2394729 0.0362723
0.8889024 0.2505054 0.0398908
0.9268180 0.2654505 0.0441586
0.9573101 0.2783855 0.0478680
0.9882065 0.2927319 0.0520307
1.0000000 0.3067100 0.0560699
1.0000000 0.3179751 0.0595157
1.0000000 0.3306989 0.0636150
1.0000000 0.3416985 0.0672103
1.0000000 0.3528046 0.0709631
1.0000000 0.3641258 0.0748083
1.0000000 0.3728091 0.0778865
1.0000000 0.3829377 0.0816501
1.0000000 0.3910639 0.0846828
1.0000000 0.4000251 0.0881081
1.0000000 0.4069470 0.0908429
1.0000000 0.4136120 0.0936369
1.0000000 0.4207349 0.0965718
1.0000000 0.4279053 0.0995753
1.0000000 0.4351780 0.1027606
1.0000000 0.4426483 0.1060197
1.0000000 0.4476057 0.1082510
1.0000000 0.4531270 0.1108215
1.0000000 0.4573738 0.1127146
1.0000000 0.4634119 0.1154855
1.0000000 0.4677316 0.1175573
1.0000000 0.4723719 0.1196845
1.0000000 0.4766913 0.1217852
1.0000000 0.4827476 0.1246462
1.0000000 0.4871536 0.1267459
1.0000000 0.4911504 0.1288254
1.0000000 0.4944763 0.1305248
1.0000000 0.4975257 0.1321873
1.0000000 0.4996687 0.1333131
1.0000000 0.5026118 0.1350179
1.0000000 0.5054208 0.1367359
1.0000000 0.5080141 0.1384109
1.0000000 0.5098022 0.1397086
1.0000000 0.5121564 0.1412740
1.0000000 0.5143625 0.1429057
1.0000000 0.5159126 0.1441566
0.0235727 0.1792590 0.0205109
0.0176532 0.1711290 0.0196401
0.0213366 0.1679135 0.0192835
0.0227084 0.1643799 0.0189009
0.0212049 0.1612860 0.0185760
0.0271698 0.1591836 0.0183709
0.0355766 0.1574118 0.0182039
0.0482599 0.1562354 0.0181825
0.0685547 0.1561372 0.0182554
0.1011675 0.1578477 0.0184362
0.1403063 0.1635454 0.0187749
0.1867750 0.1676684 0.0190289
0.2425070 0.1735970 0.0196187
0.3016274 0.1805799 0.0204353
0.3665876 0.1892111 0.0215657
0.4257656 0.1978177 0.0227932
0.4888658 0.2081268 0.0243759
0.5551031 0.2200975 0.0263704
0.6098222 0.2327989 0.0286699
0.6565325 0.2421471 0.0311092
0.7040748 0.2525445 0.0339083
0.7560689 0.2652684 0.0376496
0.8030045 0.2777228 0.0413042
0.8461550 0.2901843 0.0449568
0.8850147 0.3023599 0.0485411
0.9173511 0.3131419 0.0517853
0.9476095 0.3242196 0.0550859
0.9782271 0.3369026 0.0589547
1.0000000 0.3492786 0.0628717
1.0000000 0.3613722 0.0668765
1.0000000 0.3711491 0.0702832
1.0000000 0.3807844 0.0737105
1.0000000 0.3905424 0.0773073
1.0000000 0.4002820 0.0810070
1.0000000 0.4096842 0.0846936
1.0000000 0.4166982 0.0875917
1.0000000 0.4252974 0.0911791
1.0000000 0.4313113 0.0937905
1.0000000 0.4372151 0.0964110
1.0000000 0.4433415 0.0991765
1.0000000 0.4494597 0.1019936
1.0000000 0.4555697 0.1048650
1.0000000 0.4620972 0.1079797
1.0000000 0.4684881 0.1110700
1.0000000 0.4724935 0.1130666
1.0000000 0.4773790 0.1155016
1.0000000 0.4807305 0.1172527
1.0000000 0.4859100 0.1198797
1.0000000 0.4897983 0.1218604
1.0000000 0.4936333 0.1238424
1.0000000 0.4989396 0.1266317
1.0000000 0.5026317 0.1286738
1.0000000 0.5062766 0.1307513
1.0000000 0.5089376 0.1325763
1.0000000 0.5115571 0.1341618
1.0000000 0.5141556 0.1358634
1.0000000 0.5168133 0.1377977
1.0000000 0.5183246 0.1389853
1.0000000 0.5206425 0.1406112
1.0000000 0.5229400 0.1422359
1.0000000 0.5246521 0.1440646
1.0000000 0.5257844 0.1452389
1.0000000 0.5276941 0.1468434
1.0000000 0.5287731 0.1479937
0.0301999 0.2799156 0.0351588
0.0245610 0.2747715 0.0330988
0.0290958 0.2708294 0.0320826
0.0295092 0.2663796 0.0310122
0.0277446 0.2616554 0.0301651
0.0347663 0.2624933 0.0302507
0.0426933 0.2589245 0.0297848
0.0556118 0.2559591 0.0293924
0.0766518 0.2540197 0.0291191
0.1078119 0.2537531 0.0290495
0.1462549 0.2547417 0.0291469
0.1928512 0.2611263 0.0299530
0.2436888 0.2643605 0.0304114
0.3065655 0.2698514 0.0312490
0.3650579 0.2752636 0.0321622
0.4286113 0.2861619 0.0339504
0.4907148 0.2936556 0.0356685
0.5494977 0.3014089 0.0379185
0.6033168 0.3090264 0.0403841
0.6545938 0.3208058 0.0438499
0.7021293 0.3287386 0.0466453
0.7465812 0.3367844 0.0493790
0.7989833 0.3484499 0.0530039
0.8402825 0.3615470 0.0566411
0.8728074 0.3696906 0.0593398
0.9095558 0.3803851 0.0628841
0.9395822 0.3896146 0.0661123
0.9692219 0.3997971 0.0697817
0.9910583 0.4103320 0.0732697
1.0000000 0.4200802 0.0770342
1.0000000 0.4277594 0.0802112
1.0000000 0.4353449 0.0834358
1.0000000 0.4430756 0.0868119
1.0000000 0.4532893 0.0907793
1.0000000 0.4607288 0.0942694
1.0000000 0.4679136 0.0977571
1.0000000 0.4733062 0.1004531
1.0000000 0.4780431 0.1029198
1.0000000 0.4826930 0.1053919
1.0000000 0.4910178 0.1091421
1.0000000 0.4958501 0.1118131
1.0000000 0.4990740 0.1137109
1.0000000 0.5043374 0.1165832
1.0000000 0.5094925 0.1194608
1.0000000 0.5138412 0.1220232
1.0000000 0.5162519 0.1235791
1.0000000 0.5216532 0.1261960
1.0000000 0.5242887 0.1279544
1.0000000 0.5272166 0.1297981
1.0000000 0.5316393 0.1325266
1.0000000 0.5345500 0.1344649
1.0000000 0.5374115 0.1364126
1.0000000 0.5402354 0.1383601
1.0000000 0.5429332 0.1404685
1.0000000 0.5448205 0.1421532
1.0000000 0.5480118 0.1441515
1.0000000 0.5498585 0.1459332
1.0000000 0.5514091 0.1475135
1.0000000 0.5519154 0.1486124
1.0000000 0.5533938 0.1502476
1.0000000 0.5550219 0.1519204
1.0000000 0.5555701 0.1529667
1.0000000 0.5568497 0.1544475
1.0000000 0.5573537 0.1554963
0.0362389 0.3849881 0.0522555
0.0341860 0.3796178 0.0511565
0.0394752 0.3801424 0.0508527
0.0393020 0.3749208 0.0497118
0.0373000 0.3694641 0.0484290
0.0442481 0.3648848 0.0469588
0.0525274 0.3657342 0.0464765
0.0648559 0.3617153 0.0450869
0.0858186 0.3586455 0.0441271
0.1189519 0.3569907 0.0433876
0.1572466 0.3614230 0.0438272
0.2008137 0.3615952 0.0439069
0.2510257 0.3633565 0.0442871
0.3080029 0.3709794 0.0456613
0.3699477 0.3752728 0.0470062
0.4322425 0.3803083 0.0488307
0.4928722 0.3903033 0.0517907
0.5503443 0.3960862 0.0543719
0.6019467 0.4015697 0.0566729
0.6463943 0.4106972 0.0595232
0.6926465 0.4165575 0.0618957
0.7417096 0.4239832 0.0645224
0.7863811 0.4356304 0.0680701
0.8271038 0.4429815 0.0709553
0.8639586 0.4502267 0.0739138
0.8940994 0.4604097 0.0774239
0.9234824 0.4670119 0.0803635
0.9523931 0.4750534 0.0838521
0.9776136 0.4861260 0.0880712
0.9972972 0.4920011 0.0909838
1.0000000 0.4997110 0.0947390
1.0000000 0.5085702 0.0984771
1.0000000 0.5145895 0.1017612
1.0000000 0.5205443 0.1051134
1.0000000 0.5274766 0.1083087
1.0000000 0.5330074 0.1116434
1.0000000 0.5365072 0.1140692
1.0000000 0.5408856 0.1169772
1.0000000 0.5465660 0.1198379
1.0000000 0.5497084 0.1221358
1.0000000 0.5527860 0.1244388
1.0000000 0.5587659 0.1275586
1.0000000 0.5608734 0.1293544
1.0000000 0.5645570 0.1319821
1.0000000 0.5675386 0.1343060
1.0000000 0.5711892 0.1362389
1.0000000 0.5736283 0.1383240
1.0000000 0.5751131 0.1399132
1.0000000 0.5780166 0.1423658
1.0000000 0.5818985 0.1446278
1.0000000 0.5834116 0.1463039
1.0000000 0.5848991 0.1482028
1.0000000 0.5863667 0.1501995
1.0000000 0.5899962 0.1526329
1.0000000 0.5906203 0.1540349
1.0000000 0.5913736 0.1555298
1.0000000 0.5923953 0.1572124
1.0000000 0.5931609 0.1589198
1.0000000 0.5948051 0.1603255
1.0000000 0.5954220 0.1617643
1.0000000 0.5960312 0.1632181
1.0000000 0.5956633 0.1640562
1.0000000 0.5959624 0.1653233
1.0000000 0.5980744 0.1670699
0.0478119 0.4865417 0.0699972
0.0468819 0.4816293 0.0690174
0.0515145 0.4771544 0.0681147
0.0517784 0.4771758 0.0680423
0.0500308 0.4721072 0.0670029
0.0574650 0.4727575 0.0670135
0.0650551 0.4684804 0.0661243
0.0775138 0.4646215 0.0653219
0.0995934 0.4666512 0.0653434
0.1309776 0.4646354 0.0646930
0.1682765 0.4631038 0.0640492
0.2114612 0.4675459 0.0642320
0.2607189 0.4676968 0.0636672
0.3163002 0.4689305 0.0636174
0.3766171 0.4763911 0.0661837
0.4319537 0.4786382 0.0680540
0.4907140 0.4870052 0.0708785
0.5463409 0.4905520 0.0727421
0.5960428 0.4988000 0.0756613
0.6447346 0.5025929 0.0775056
0.6903208 0.5065508 0.0794964
0.7311738 0.5151402 0.0825111
0.7749434 0.5203154 0.0850903
0.8137399 0.5300052 0.0887462
0.8494195 0.5349870 0.0914586
0.8793553 0.5391631 0.0939465
0.9070182 0.5481238 0.0976889
0.9351002 0.5537840 0.1009251
0.9594607 0.5632401 0.1051760
0.9820522 0.5688221 0.1086075
0.9996096 0.5729443 0.1114470
1.0000000 0.5805429 0.1152171
1.0000000 0.5847806 0.1182943
1.0000000 0.5924400 0.1223271
1.0000000 0.5949509 0.1246449
1.0000000 0.5988174 0.1277616
1.0000000 0.6043041 0.1308283
1.0000000 0.6071782 0.1334531
1.0000000 0.6087605 0.1353364
1.0000000 0.6138902 0.1383039
1.0000000 0.6156782 0.1403571
1.0000000 0.6208338 0.1434544
1.0000000 0.6229663 0.1457817
1.0000000 0.6238772 0.1473560
1.0000000 0.6285311 0.1502700
1.0000000 0.6300185 0.1522214
1.0000000 0.6304358 0.1534687
1.0000000 0.6337671 0.1556648
1.0000000 0.6356319 0.1579322
1.0000000 0.6363468 0.1597552
1.0000000 0.6396776 0.1622453
1.0000000 0.6403301 0.1639535
1.0000000 0.6409677 0.1657572
1.0000000 0.6441253 0.1683235
1.0000000 0.6440424 0.1697075
1.0000000 0.6439508 0.1710898
1.0000000 0.6464437 0.1732411
1.0000000 0.6461164 0.1744608
1.0000000 0.6456738 0.1756170
1.0000000 0.6471012 0.1770353
1.0000000 0.6470296 0.1783100
1.0000000 0.6467193 0.1794129
1.0000000 0.6479574 0.1806985
1.0000000 0.6476110 0.1817881
0.0616799 0.5723482 0.0877461
0.0605907 0.5665064 0.0864328
0.0648407 0.5609828 0.0852194
0.0650194 0.5609959 0.0852227
0.0633190 0.5557940 0.0840642
0.0708339 0.5563526 0.0841808
0.0779188 0.5521817 0.0832688
0.0919393 0.5532541 0.0835029
0.1122970 0.5501201 0.0828069
0.1434183 0.5478944 0.0823514
0.1810399 0.5510679 0.0830789
0.2228242 0.5500297 0.0829332
0.2717824 0.5545881 0.0840974
0.3261786 0.5552940 0.0844801
0.3798715 0.5563311 0.0848377
0.4393975 0.5631430 0.0869979
0.4963785 0.5656152 0.0886841
0.5502558 0.5728472 0.0913504
0.5978772 0.5752546 0.0929364
0.6397414 0.5818051 0.0955155
0.6837839 0.5848072 0.0974430
0.7295824 0.5932422 0.1009741
0.7711675 0.5974263 0.1035217
0.8081179 0.6055866 0.1071999
0.8374161 0.6087734 0.1094548
0.8699512 0.6172836 0.1135665
0.8974912 0.6213828 0.1164550
0.9232457 0.6294633 0.1206704
0.9434163 0.6326016 0.1232664
0.9643359 0.6403948 0.1276149
0.9812032 0.6435065 0.1303781
0.9966192 0.6465571 0.1331768
1.0000000 0.6531132 0.1371574
1.0000000 0.6563087 0.1402124
1.0000000 0.6625658 0.1442013
1.0000000 0.6642540 0.1463356
1.0000000 0.6699262 0.1500610
1.0000000 0.6709687 0.1518776
1.0000000 0.6750787 0.1546333
1.0000000 0.6763027 0.1565704
1.0000000 0.6805407 0.1595426
1.0000000 0.6818397 0.1616042
1.0000000 0.6831976 0.1638751
1.0000000 0.6876212 0.1671801
1.0000000 0.6873429 0.1682832
1.0000000 0.6908835 0.1709861
1.0000000 0.6904489 0.1721000
1.0000000 0.6942133 0.1752730
1.0000000 0.6940503 0.1768277
1.0000000 0.6938711 0.1782846
1.0000000 0.6966839 0.1807574
1.0000000 0.6973845 0.1830962
1.0000000 0.7001267 0.1857250
1.0000000 0.6996217 0.1872911
1.0000000 0.7017424 0.1894255
1.0000000 0.7001973 0.1899506
1.0000000 0.6993455 0.1910866
1.0000000 0.7012613 0.1930821
1.0000000 0.7001219 0.1939791
1.0000000 0.7013302 0.1953806
1.0000000 0.7004495 0.1963666
1.0000000 0.6994978 0.1972494
1.0000000 0.7005509 0.1985414
1.0000000 0.6995643 0.1992008
0.0796678 0.6578695 0.1091808
0.0783312 0.6522221 0.1076256
0.0835174 0.6525208 0.1077325
0.0822514 0.6468015 0.1061747
0.0818866 0.6467798 0.1061671
0.0880083 0.6414204 0.1047605
0.0960063 0.6419042 0.1049262
0.1083166 0.6368783 0.1036525
0.1294712 0.6382198 0.1041118
0.1595106 0.6343766 0.1032584
0.1967184 0.6369399 0.1041371
0.2371363 0.6340578 0.1036319
0.2844232 0.6318854 0.1033996
0.3382428 0.6363608 0.1050488
0.3908226 0.6361521 0.1054832
0.4430389 0.6411856 0.1074194
0.4980259 0.6420889 0.1084407
0.5556439 0.6486682 0.1114128
0.5960971 0.6489284 0.1124018
0.6415544 0.6550260 0.1153330
0.6847763 0.6566560 0.1170533
0.7233499 0.6627960 0.1201668
0.7630488 0.6696658 0.1237938
0.7992117 0.6719884 0.1261193
0.8316554 0.6787529 0.1299483
0.8590015 0.6804966 0.1321285
0.8849125 0.6869402 0.1360222
0.9105817 0.6895000 0.1388792
0.9328175 0.6961762 0.1431960
0.9504172 0.6975285 0.1454484
0.9658602 0.7030190 0.1492012
0.9835436 0.7054757 0.1523679
0.9965893 0.7110342 0.1563352
1.0000000 0.7114807 0.1580979
1.0000000 0.7167765 0.1620525
1.0000000 0.7186377 0.1647849
1.0000000 0.7224209 0.1676630
1.0000000 0.7229824 0.1693420
1.0000000 0.7264700 0.1720722
1.0000000 0.7280976 0.1747023
1.0000000 0.7316771 0.1776868
1.0000000 0.7315791 0.1789725
1.0000000 0.7353851 0.1822603
1.0000000 0.7362860 0.1844736
1.0000000 0.7386692 0.1867967
1.0000000 0.7388574 0.1886286
1.0000000 0.7410811 0.1908621
1.0000000 0.7414840 0.1929246
1.0000000 0.7439069 0.1955365
1.0000000 0.7435531 0.1970807
1.0000000 0.7467016 0.2004465
1.0000000 0.7463089 0.2019712
1.0000000 0.7486172 0.2045707
1.0000000 0.7479858 0.2058791
1.0000000 0.7497714 0.2080135
1.0000000 0.7489493 0.2091072
1.0000000 0.7501284 0.2106501
1.0000000 0.7493252 0.2116581
1.0000000 0.7484373 0.2125868
1.0000000 0.7499561 0.2144964
1.0000000 0.7485581 0.2149376
1.0000000 0.7499017 0.2166750
1.0000000 0.7483751 0.2169891
1.0000000 0.7496920 0.2187017
0.0987614 0.7290922 0.1307053
0.0973463 0.7243415 0.1292663
0.1024150 0.7245667 0.1294743
0.1009569 0.7198799 0.1279805
0.1009172 0.7198781 0.1279811
0.1070147 0.7154780 0.1265921
0.1152320 0.7158661 0.1267778
0.1277488 0.7117398 0.1255379
0.1498879 0.7128438 0.1260601
0.1792965 0.7096193 0.1252552
0.2141433 0.7115248 0.1261699
0.2534720 0.7090530 0.1257400
0.3005714 0.7119642 0.1271819
0.3526975 0.7107279 0.1273978
0.4042845 0.7144572 0.1293376
0.4544337 0.7137398 0.1298834
0.5079507 0.7183244 0.1323826
0.5573804 0.7183801 0.1334185
0.6009868 0.7228457 0.1360391
0.6400356 0.7271599 0.1386687
0.6814480 0.7276921 0.1401761
0.7242171 0.7333618 0.1438166
0.7620925 0.7345275 0.1458693
0.7958298 0.7399693 0.1496016
0.8229168 0.7404254 0.1513075
0.8485183 0.7453451 0.1548744
0.8775195 0.7514497 0.1594772
0.8979123 0.7519473 0.1614044
0.9192134 0.7573446 0.1657153
0.9390800 0.7586936 0.1684718
