Plugins/FilmEmulator/Content/LUTs/FE_Kodak_Ultramax_400_64.cube
TITLE "FE_Kodak_Ultramax_400_33"
LUT_3D_SIZE 4
0.0017057 0.0020110 0.0018263
0.2333698 0.0066346 0.0063429
0.4948565 0.0170119 0.0163819
0.6573278 0.0310771 0.0302563
0.0064678 0.2581079 0.0086452
0.2400067 0.2720501 0.0190529
0.4956663 0.2942770 0.0332847
0.6595237 0.3097015 0.0486783
0.0181610 0.4941225 0.0235514
0.2537705 0.5031659 0.0368853
0.5034533 0.5217289 0.0538074
0.6665677 0.5310066 0.0703228
0.0333368 0.6486780 0.0419212
0.2689724 0.6484817 0.0567594
0.5124348 0.6569747 0.0740684
0.6745163 0.6653994 0.0934474
0.0191589 0.0111641 0.3018680
0.2797985 0.0234020 0.3240650
0.5247195 0.0384560 0.3456770
0.6843965 0.0543482 0.3667108
0.0269904 0.2798093 0.3407484
0.2899032 0.2945657 0.3581905
0.5278220 0.3099515 0.3859594
0.6786340 0.3258139 0.4051815
0.0376135 0.5129775 0.3673000
0.3047693 0.5220427 0.3851072
0.5356095 0.5312725 0.4038409
0.6855133 0.5405200 0.4230188
0.0540932 0.6574143 0.3816807
0.3211206 0.6572289 0.3995419
0.5444912 0.6656150 0.4185373
0.6931831 0.6739243 0.4379219
0.0546445 0.0300138 0.5733834
0.3310724 0.0457617 0.5863352
0.5654573 0.0620201 0.5985157
0.7015477 0.0804253 0.6103247
0.0635651 0.3024604 0.6083153
0.3433694 0.3179777 0.6174550
0.5697359 0.3340385 0.6269646
0.7057180 0.3505707 0.6365120
0.0782146 0.5223024 0.6259886
0.3598585 0.5314257 0.6346990
0.5776231 0.5406471 0.6437216
0.7035596 0.5591168 0.6531025
0.0897607 0.6658971 0.6313391
0.3679247 0.6657475 0.6397115
0.5863363 0.6740328 0.6486818
0.7110777 0.6822392 0.6576784
0.0966445 0.0543810 0.7204717
0.3772494 0.0707028 0.7300122
0.5954901 0.0885124 0.7394018
0.7184063 0.1069067 0.7484165
0.1090921 0.3181435 0.7446327
0.3916944 0.3341404 0.7521389
0.6005816 0.3506538 0.7524247
0.7230434 0.3675961 0.7601241
0.1246232 0.5409069 0.7587898
0.3992671 0.5500321 0.7585866
0.5981060 0.5592093 0.7658197
0.7210513 0.5683718 0.7729773
0.1376972 0.6742519 0.7627372
0.4182440 0.6741330 0.7694150
0.6067438 0.6823234 0.7764359
0.7283037 0.6904170 0.7765353
