Plugins/FilmEmulator/Content/LUTs/FE_Kodak_16mm_64.cube
# FilmEmulator LUT (resampled to 64)
LUT_3D_SIZE 64
0.031006 0.031006 0.019897
0.035501 0.031021 0.019928
0.039988 0.031031 0.019959
0.044204 0.030876 0.020006
0.048406 0.030731 0.020048
0.052390 0.030731 0.020017
0.056404 0.030731 0.020012
0.060713 0.030731 0.020260
0.064982 0.030731 0.020479
0.068966 0.030731 0.020495
0.073073 0.030731 0.020520
0.077847 0.030731 0.020597
0.082845 0.030696 0.020657
0.088813 0.030510 0.020642
0.094635 0.030226 0.020793
0.099936 0.029591 0.021537
0.105400 0.029075 0.022219
0.111353 0.028920 0.022715
0.117445 0.028809 0.023163
0.123893 0.028809 0.023488
0.130312 0.028562 0.024453
0.136668 0.027771 0.026825
0.143594 0.027177 0.028632
0.151607 0.026961 0.029360
0.159534 0.026807 0.029770
0.167316 0.026761 0.029646
0.175223 0.026708 0.029515
0.183315 0.026646 0.029376
0.191236 0.026611 0.029589
0.198940 0.026611 0.030255
0.207502 0.026575 0.030994
0.217035 0.026498 0.031816
0.227266 0.026459 0.032227
0.238194 0.026459 0.032227
0.249674 0.026064 0.033009
0.261641 0.025320 0.034482
0.272395 0.024881 0.034795
0.282208 0.024679 0.034205
0.291956 0.024717 0.033368
0.301659 0.024918 0.032360
0.311043 0.025430 0.031982
0.320235 0.026127 0.031982
0.330414 0.026398 0.032847
0.341110 0.026444 0.034164
0.351901 0.026459 0.035077
0.362737 0.026459 0.035806
0.372535 0.026459 0.036178
0.381929 0.026459 0.036411
0.392450 0.026459 0.038108
0.403347 0.026459 0.040293
0.413603 0.026459 0.042176
0.423679 0.026459 0.043975
0.432671 0.026459 0.045281
0.441414 0.026459 0.046475
0.452851 0.026459 0.047446
0.464786 0.026459 0.048376
0.474660 0.026201 0.049401
0.484240 0.025907 0.050440
0.492457 0.025514 0.051422
0.500533 0.025110 0.052399
0.508696 0.024853 0.053012
0.516865 0.024605 0.053601
0.523817 0.024597 0.053619
0.530731 0.024597 0.053619
0.031021 0.035052 0.019975
0.035509 0.035059 0.019990
0.039988 0.035062 0.020008
0.044204 0.034931 0.020110
0.048406 0.034805 0.020206
0.052390 0.034758 0.020231
0.056417 0.034715 0.020277
0.060868 0.034715 0.020532
0.065257 0.034715 0.020754
0.069209 0.034715 0.020738
0.073321 0.034715 0.020727
0.078292 0.034715 0.020742
0.083458 0.034653 0.020777
0.089474 0.034326 0.020903
0.095358 0.033945 0.021187
0.100778 0.033372 0.022034
0.106405 0.032924 0.022727
0.112657 0.032848 0.022963
0.118935 0.032742 0.023406
0.125281 0.032561 0.024378
0.131770 0.032219 0.025705
0.138574 0.031522 0.027817
0.145897 0.031021 0.029310
0.154210 0.030890 0.029621
0.162321 0.030791 0.029775
0.170095 0.030744 0.029667
0.177912 0.030692 0.029617
0.185790 0.030630 0.029650
0.193631 0.030595 0.030053
0.201421 0.030595 0.030933
0.210501 0.030559 0.031597
0.221042 0.030481 0.032017
0.231962 0.030309 0.032495
0.243260 0.030041 0.033030
0.254700 0.029612 0.033750
0.266265 0.029042 0.034631
0.276906 0.028749 0.034429
0.286829 0.028673 0.033383
0.296434 0.028907 0.032664
0.305823 0.029353 0.032168
0.315561 0.029799 0.032331
0.325509 0.030244 0.032891
0.336170 0.030413 0.033823
0.347204 0.030436 0.034952
0.357441 0.030443 0.035551
0.367316 0.030443 0.035910
0.377564 0.030443 0.036908
0.387957 0.030443 0.038156
0.398433 0.030443 0.039960
0.408936 0.030443 0.041948
0.418976 0.030443 0.043641
0.428887 0.030443 0.045250
0.439275 0.030443 0.046438
0.449774 0.030443 0.047529
0.460734 0.030250 0.048637
0.471780 0.030022 0.049748
0.481122 0.029673 0.050817
0.490222 0.029308 0.051879
0.498615 0.029065 0.052471
0.506935 0.028835 0.053015
0.515018 0.028707 0.053320
0.523084 0.028585 0.053610
0.530682 0.028581 0.053733
0.538265 0.028581 0.053852
0.031035 0.039102 0.020059
0.035515 0.039102 0.020059
0.039986 0.039098 0.020064
0.044203 0.038986 0.020216
0.048406 0.038876 0.020364
0.052390 0.038783 0.020442
0.056431 0.038698 0.020538
0.061024 0.038698 0.020804
0.065533 0.038698 0.021031
0.069454 0.038698 0.020982
0.073570 0.038698 0.020934
0.078746 0.038696 0.020888
0.084088 0.038606 0.020900
0.090144 0.038136 0.021170
0.096089 0.037658 0.021585
0.101635 0.037154 0.022523
0.107430 0.036775 0.023225
0.113970 0.036771 0.023221
0.120432 0.036666 0.023671
0.126690 0.036304 0.025283
0.133262 0.035869 0.026963
0.140527 0.035274 0.028794
0.148248 0.034867 0.029964
0.156842 0.034821 0.029872
0.165127 0.034774 0.029781
0.172897 0.034728 0.029692
0.180629 0.034675 0.029726
0.188306 0.034613 0.029941
0.196091 0.034578 0.030530
0.204014 0.034577 0.031600
0.213625 0.034537 0.032190
0.225148 0.034453 0.032235
0.236738 0.034148 0.032780
0.248393 0.033622 0.033824
0.259784 0.033166 0.034463
0.270942 0.032770 0.034743
0.281458 0.032629 0.034042
0.291475 0.032685 0.032577
0.300956 0.033109 0.031994
0.310072 0.033783 0.032013
0.320170 0.034160 0.032705
0.330858 0.034358 0.033802
0.341965 0.034426 0.034790
0.353293 0.034426 0.035723
0.363009 0.034426 0.036040
0.371994 0.034426 0.036077
0.382673 0.034426 0.037687
0.394015 0.034426 0.039912
0.404443 0.034426 0.041811
0.414567 0.034426 0.043601
0.424434 0.034426 0.045103
0.434230 0.034426 0.046526
0.445954 0.034419 0.047603
0.458124 0.034409 0.048602
0.468616 0.034030 0.049837
0.478798 0.033582 0.051117
0.487626 0.033152 0.052211
0.496261 0.032725 0.053279
0.504831 0.032629 0.053493
0.513394 0.032568 0.053618
0.521401 0.032564 0.053635
0.529371 0.032564 0.053645
0.537577 0.032564 0.053874
0.545790 0.032564 0.054111
0.031004 0.043287 0.020354
0.035468 0.043287 0.020354
0.039925 0.043280 0.020356
0.044174 0.043066 0.020430
0.048406 0.042859 0.020505
0.052390 0.042766 0.020599
0.056445 0.042682 0.020716
0.061196 0.042682 0.021061
0.065839 0.042682 0.021348
0.069728 0.042682 0.021237
0.073890 0.042671 0.021134
0.079523 0.042598 0.021080
0.085208 0.042417 0.021123
0.091123 0.041765 0.021589
0.097043 0.041200 0.022103
0.102983 0.040949 0.022789
0.109065 0.040726 0.023393
0.115574 0.040588 0.023751
0.122117 0.040338 0.024595
0.128745 0.039803 0.026678
0.135826 0.039337 0.028396
0.143901 0.039025 0.029306
0.152052 0.038807 0.029880
0.160346 0.038768 0.029811
0.168491 0.038733 0.029782
0.176387 0.038702 0.029819
0.184249 0.038656 0.030104
0.192060 0.038586 0.030751
0.200598 0.038532 0.031371
0.210073 0.038500 0.031953
0.220607 0.038340 0.032497
0.232343 0.038035 0.032999
0.244007 0.037648 0.033615
0.255599 0.037177 0.034344
0.266655 0.036868 0.034332
0.277239 0.036700 0.033668
0.287278 0.036845 0.032979
0.296893 0.037232 0.032270
0.306819 0.037641 0.032363
0.316958 0.038063 0.033004
0.327588 0.038281 0.033842
0.338512 0.038377 0.034796
0.348972 0.038410 0.035452
0.359189 0.038410 0.035951
0.369452 0.038410 0.036961
0.379736 0.038410 0.038203
0.390316 0.038410 0.039993
0.401012 0.038410 0.041998
0.411309 0.038410 0.043647
0.421471 0.038410 0.045177
0.432498 0.038410 0.046518
0.443766 0.038410 0.047806
0.454986 0.038153 0.049025
0.466195 0.037836 0.050228
0.476464 0.037455 0.051303
0.486559 0.037063 0.052354
0.495411 0.036833 0.052938
0.504086 0.036626 0.053454
0.512845 0.036580 0.053667
0.521612 0.036550 0.053848
0.529698 0.036548 0.054156
0.537739 0.036548 0.054472
0.545405 0.036548 0.054833
0.553060 0.036548 0.055196
0.030975 0.047474 0.020647
0.035423 0.047473 0.020647
0.039866 0.047463 0.020646
0.044145 0.047154 0.020646
0.048406 0.046857 0.020653
0.052391 0.046757 0.020757
0.056463 0.046666 0.020891
0.061366 0.046666 0.021314
0.066140 0.046666 0.021662
0.070007 0.046666 0.021489
0.074221 0.046643 0.021334
0.080303 0.046497 0.021271
0.086329 0.046225 0.021345
0.092108 0.045410 0.022009
0.098007 0.044770 0.022623
0.104337 0.044755 0.023060
0.110705 0.044674 0.023577
0.117188 0.044396 0.024329
0.123824 0.044004 0.025565
0.130853 0.043322 0.028037
0.138440 0.042838 0.029749
0.147252 0.042791 0.029791
0.155797 0.042750 0.029802
0.163831 0.042720 0.029755
0.171860 0.042695 0.029795
0.179879 0.042678 0.029981
0.187903 0.042636 0.030508
0.195932 0.042557 0.031534
0.205230 0.042481 0.032174
0.216158 0.042409 0.032318
0.227562 0.042130 0.032828
0.239506 0.041617 0.033754
0.251230 0.041159 0.034401
0.262737 0.040754 0.034767
0.273454 0.040600 0.034141
0.283476 0.040667 0.032639
0.293102 0.041080 0.032006
0.302419 0.041762 0.032047
0.312796 0.042146 0.032782
0.323897 0.042326 0.033991
0.334998 0.042394 0.034950
0.346098 0.042394 0.035759
0.355969 0.042394 0.036142
0.365196 0.042394 0.036302
0.375954 0.042394 0.037968
0.387408 0.042394 0.040320
0.397928 0.042394 0.042264
0.408082 0.042394 0.044049
0.418298 0.042393 0.045456
0.428534 0.042392 0.046738
0.440610 0.042375 0.047937
0.453200 0.042353 0.049112
0.463933 0.041867 0.050443
0.474238 0.041275 0.051810
0.484289 0.040904 0.052708
0.494293 0.040573 0.053519
0.503197 0.040532 0.053640
0.511943 0.040532 0.053663
0.520859 0.040532 0.053887
0.529791 0.040532 0.054132
0.537935 0.040532 0.054724
0.546026 0.040532 0.055338
0.553191 0.040532 0.055830
0.560326 0.040532 0.056318
0.030975 0.051674 0.020926
0.035407 0.051666 0.020918
0.039835 0.051648 0.020910
0.044130 0.051355 0.020910
0.048408 0.051066 0.020912
0.052416 0.050848 0.020945
0.056517 0.050650 0.021022
0.061507 0.050650 0.021515
0.066372 0.050650 0.021921
0.070357 0.050650 0.021708
0.074724 0.050608 0.021519
0.081153 0.050344 0.021448
0.087450 0.049996 0.021554
0.093173 0.049292 0.022422
0.099105 0.048740 0.023155
0.105782 0.048733 0.023404
0.112422 0.048599 0.023997
0.118952 0.048084 0.025623
0.125864 0.047591 0.027239
0.133751 0.047153 0.028829
0.141812 0.046835 0.029913
0.150254 0.046780 0.029884
0.158667 0.046739 0.029843
0.167024 0.046725 0.029780
0.175287 0.046703 0.029996
0.183393 0.046671 0.030678
0.192073 0.046607 0.031321
0.201590 0.046496 0.031907
0.211725 0.046334 0.032430
0.222653 0.046104 0.032871
0.234116 0.045731 0.033515
0.246186 0.045194 0.034386
0.257761 0.044838 0.034466
0.268842 0.044662 0.033754
0.279163 0.044791 0.033032
0.288815 0.045189 0.032302
0.298992 0.045604 0.032382
0.309577 0.046035 0.033093
0.320492 0.046260 0.033950
0.331633 0.046346 0.034907
0.342301 0.046378 0.035644
0.352685 0.046378 0.036248
0.362836 0.046378 0.037263
0.372866 0.046378 0.038494
0.383356 0.046378 0.040273
0.394054 0.046378 0.042302
0.405080 0.046378 0.044002
0.416233 0.046378 0.045574
0.427142 0.046365 0.046870
0.437969 0.046348 0.048073
0.449442 0.046051 0.049414
0.461095 0.045674 0.050794
0.471608 0.045282 0.051799
0.481857 0.044887 0.052717
0.491767 0.044692 0.053193
0.501613 0.044535 0.053587
0.510986 0.044516 0.053980
0.520292 0.044516 0.054373
0.528874 0.044516 0.054810
0.537382 0.044516 0.055252
0.545263 0.044516 0.056003
0.553102 0.044516 0.056775
0.560336 0.044516 0.057386
0.567550 0.044516 0.057992
0.030969 0.055865 0.021192
0.035378 0.055849 0.021176
0.039785 0.055825 0.021161
0.044106 0.055548 0.021159
0.048409 0.055268 0.021156
0.052437 0.054935 0.021122
0.056564 0.054633 0.021145
0.061638 0.054633 0.021706
0.066592 0.054634 0.022165
0.070706 0.054635 0.021912
0.075231 0.054577 0.021690
0.081980 0.054194 0.021632
0.088533 0.053773 0.021777
0.094242 0.053191 0.022808
0.100230 0.052733 0.023640
0.107217 0.052721 0.023764
0.114117 0.052530 0.024456
0.120754 0.051802 0.026852
0.127963 0.051220 0.028784
0.136630 0.051007 0.029533
0.145134 0.050841 0.030020
0.153278 0.050778 0.029930
0.161593 0.050734 0.029863
0.170233 0.050727 0.029839
0.178745 0.050704 0.030239
0.187046 0.050653 0.031344
0.196405 0.050561 0.032082
0.207309 0.050411 0.032284
0.218237 0.050160 0.032721
0.229193 0.049779 0.033458
0.240687 0.049327 0.034179
0.252789 0.048796 0.034881
0.264173 0.048560 0.034422
0.274839 0.048620 0.032801
0.284848 0.049008 0.032056
0.294277 0.049687 0.032085
0.305000 0.050091 0.032825
0.316730 0.050283 0.034119
0.328109 0.050361 0.035073
0.339249 0.050361 0.035795
0.349542 0.050361 0.036383
0.359327 0.050361 0.036890
0.369714 0.050361 0.038489
0.380417 0.050361 0.040660
0.390707 0.050361 0.042517
0.400810 0.050361 0.044233
0.412322 0.050358 0.045704
0.424385 0.050353 0.047080
0.435899 0.050304 0.048289
0.447231 0.050242 0.049443
0.458155 0.049703 0.050872
0.468966 0.049032 0.052378
0.479309 0.048738 0.053066
0.489544 0.048532 0.053566
0.499346 0.048499 0.053692
0.509067 0.048499 0.053749
0.518814 0.048499 0.054406
0.528564 0.048499 0.055149
0.536847 0.048499 0.055796
0.544979 0.048499 0.056432
0.552613 0.048494 0.057341
0.560214 0.048488 0.058268
0.567452 0.048478 0.059026
0.574678 0.048468 0.059779
0.030907 0.059957 0.021332
0.035222 0.059941 0.021308
0.039541 0.059918 0.021284
0.043988 0.059665 0.021267
0.048408 0.059402 0.021247
0.052421 0.058990 0.021190
0.056538 0.058617 0.021194
0.061667 0.058617 0.021787
0.066698 0.058619 0.022267
0.071040 0.058637 0.021968
0.075768 0.058573 0.021738
0.082580 0.058072 0.021884
0.089254 0.057600 0.022147
0.095332 0.057254 0.022918
0.101601 0.056951 0.023657
0.108549 0.056805 0.024285
0.115592 0.056517 0.025294
0.122922 0.055806 0.027446
0.130635 0.055248 0.029078
0.139326 0.055082 0.029387
0.147972 0.054944 0.029580
0.156518 0.054865 0.029522
0.165061 0.054786 0.029673
0.173599 0.054709 0.030224
0.182511 0.054623 0.030876
0.192047 0.054525 0.031698
0.202306 0.054358 0.032338
0.213620 0.054089 0.032714
0.224912 0.053730 0.033361
0.236176 0.053255 0.034358
0.247423 0.052886 0.034619
0.258651 0.052638 0.034046
0.269441 0.052698 0.033319
0.279792 0.053064 0.032439
0.290293 0.053488 0.032376
0.300927 0.053962 0.033034
0.312151 0.054219 0.033908
0.323833 0.054309 0.034950
0.334965 0.054345 0.035760
0.345719 0.054345 0.036411
0.356197 0.054345 0.037562
0.366508 0.054345 0.039014
0.376694 0.054345 0.040726
0.386815 0.054345 0.042574
0.397578 0.054345 0.044180
0.408634 0.054345 0.045674
0.420436 0.054302 0.047056
0.432530 0.054241 0.048392
0.443811 0.053925 0.049769
0.454820 0.053524 0.051159
0.465722 0.053133 0.052141
0.476596 0.052746 0.053009
0.487264 0.052595 0.053475
0.497886 0.052498 0.053849
0.507907 0.052483 0.054328
0.517817 0.052483 0.054826
0.527009 0.052483 0.055676
0.536098 0.052483 0.056576
0.544405 0.052483 0.057394
0.552630 0.052483 0.058204
0.560175 0.052419 0.059249
0.567674 0.052350 0.060310
0.574290 0.052231 0.061485
0.580879 0.052110 0.062663
0.030851 0.064044 0.021466
0.035076 0.064029 0.021435
0.039312 0.064008 0.021404
0.043879 0.063787 0.021373
0.048412 0.063550 0.021338
0.052433 0.063066 0.021256
0.056560 0.062629 0.021236
0.061719 0.062642 0.021821
0.066810 0.062657 0.022294
0.071429 0.062685 0.021984
0.076397 0.062615 0.021777
0.083250 0.062018 0.022122
0.090021 0.061509 0.022501
0.096441 0.061384 0.023028
0.102991 0.061225 0.023675
0.110004 0.060945 0.024749
0.117259 0.060569 0.026030
0.125240 0.059906 0.027934
0.133418 0.059395 0.029288
0.142096 0.059275 0.029239
0.150838 0.059165 0.029196
0.159721 0.059077 0.029166
0.168496 0.058973 0.029494
0.177066 0.058838 0.030508
0.186427 0.058699 0.031376
0.197105 0.058552 0.032001
0.208216 0.058294 0.032615
0.219960 0.057875 0.033213
0.231571 0.057406 0.034007
0.243010 0.056874 0.035056
0.253989 0.056608 0.034857
0.264446 0.056643 0.033246
0.274745 0.056967 0.032361
0.284885 0.057578 0.032203
0.295886 0.058002 0.032782
0.307647 0.058259 0.034012
0.319285 0.058362 0.034983
0.330826 0.058344 0.035753
0.341738 0.058334 0.036486
0.352221 0.058330 0.037195
0.362861 0.058329 0.038863
0.373594 0.058329 0.041107
0.383698 0.058329 0.042893
0.393473 0.058329 0.044438
0.404704 0.058320 0.045817
0.416596 0.058307 0.047120
0.428585 0.058199 0.048435
0.440611 0.058054 0.049755
0.451678 0.057525 0.051214
0.462426 0.056868 0.052719
0.473361 0.056622 0.053302
0.484350 0.056491 0.053628
0.495267 0.056467 0.053938
0.506168 0.056467 0.054245
0.516350 0.056467 0.055064
0.526397 0.056467 0.055977
0.535113 0.056462 0.057019
0.543638 0.056456 0.058080
0.551881 0.056438 0.059115
0.560095 0.056418 0.060147
0.567557 0.056289 0.061332
0.574970 0.056154 0.062527
0.581039 0.055950 0.064024
0.587065 0.055744 0.065531
0.030836 0.068089 0.021559
0.035006 0.068083 0.021528
0.039190 0.068072 0.021497
0.043836 0.067946 0.021466
0.048454 0.067796 0.021429
0.052648 0.067289 0.021307
0.056918 0.066840 0.021225
0.061928 0.066955 0.021526
0.066965 0.067056 0.021783
0.072197 0.067061 0.021725
0.077666 0.066980 0.021755
0.084409 0.066437 0.022257
0.091118 0.065995 0.022741
0.097679 0.065988 0.023142
0.104513 0.065892 0.023699
0.112321 0.065479 0.024812
0.120263 0.065072 0.026055
0.128607 0.064684 0.027682
0.136970 0.064380 0.028903
0.145380 0.064291 0.029082
0.153901 0.064215 0.029198
0.162666 0.064167 0.029176
0.171699 0.064102 0.029399
0.181246 0.064007 0.030090
0.191397 0.063868 0.030910
0.202555 0.063658 0.031944
0.214185 0.063209 0.033031
0.226504 0.062412 0.034196
0.238111 0.061820 0.034693
0.248802 0.061493 0.034332
0.259361 0.061468 0.033676
0.269771 0.061787 0.032687
0.280302 0.062158 0.032412
0.290954 0.062581 0.032853
0.302509 0.062757 0.033800
0.314861 0.062715 0.035195
0.326305 0.062607 0.036004
0.337043 0.062447 0.036356
0.347942 0.062361 0.037490
0.358952 0.062326 0.039160
0.369593 0.062313 0.041016
0.380011 0.062313 0.042985
0.390870 0.062313 0.044567
0.401960 0.062313 0.045947
0.413618 0.062233 0.047279
0.425534 0.062118 0.048590
0.436980 0.061772 0.050009
0.448243 0.061336 0.051471
0.459243 0.060976 0.052416
0.470155 0.060642 0.053189
0.481502 0.060522 0.053711
0.492971 0.060462 0.054162
0.503601 0.060451 0.054778
0.514038 0.060451 0.055431
0.523960 0.060451 0.056503
0.533788 0.060451 0.057653
0.542579 0.060404 0.058883
0.551222 0.060351 0.060125
0.558792 0.060186 0.061691
0.566250 0.060009 0.063289
0.573687 0.059782 0.064635
0.581123 0.059551 0.065964
0.587163 0.059428 0.067130
0.593157 0.059309 0.068290
0.030857 0.072191 0.021642
0.034975 0.072183 0.021608
0.039111 0.072174 0.021575
0.043805 0.072101 0.021544
0.048483 0.072003 0.021505
0.052914 0.071514 0.021350
0.057387 0.071092 0.021215
0.062265 0.071306 0.021267
0.067245 0.071489 0.021333
0.072938 0.071445 0.021494
0.078798 0.071336 0.021727
0.085556 0.070869 0.022352
0.092304 0.070507 0.022914
0.099011 0.070603 0.023207
0.106116 0.070573 0.023689
0.114643 0.070092 0.024845
0.123209 0.069699 0.026031
0.131893 0.069563 0.027308
0.140461 0.069436 0.028362
0.148731 0.069328 0.028846
0.157090 0.069251 0.029173
0.165643 0.069242 0.029157
0.174885 0.069216 0.029311
0.185443 0.069159 0.029789
0.196407 0.069029 0.030579
0.208049 0.068778 0.031886
0.220140 0.068210 0.033275
0.232886 0.067180 0.034786
0.244497 0.066534 0.035011
0.254650 0.066380 0.033583
0.264906 0.066539 0.032642
0.275281 0.067051 0.032252
0.286035 0.067424 0.032560
0.297166 0.067658 0.033566
0.309168 0.067621 0.034845
0.321937 0.067343 0.036365
0.333233 0.067066 0.037086
0.343383 0.066788 0.037185
0.354263 0.066635 0.038658
0.365643 0.066567 0.041071
0.376367 0.066535 0.043072
0.386697 0.066525 0.044827
0.398188 0.066510 0.046323
0.410288 0.066491 0.047683
0.422216 0.066302 0.048935
0.434066 0.066035 0.050137
0.445063 0.065487 0.051520
0.455726 0.064830 0.052975
0.466713 0.064616 0.053472
0.477807 0.064551 0.053650
0.489461 0.064531 0.054163
0.501272 0.064525 0.054769
0.511651 0.064521 0.055682
0.521699 0.064517 0.056666
0.531388 0.064495 0.057989
0.541010 0.064469 0.059374
0.549843 0.064358 0.060844
0.558563 0.064234 0.062326
0.565562 0.063949 0.064283
0.572382 0.063648 0.066290
0.579808 0.063360 0.067779
0.587274 0.063073 0.069234
0.593324 0.063023 0.070135
0.599329 0.062981 0.071018
0.031074 0.076593 0.021673
0.035161 0.076539 0.021624
0.039263 0.076478 0.021575
0.043838 0.076240 0.021544
0.048442 0.076002 0.021505
0.053455 0.075757 0.021350
0.058454 0.075564 0.021209
0.063300 0.075865 0.021198
0.068206 0.076101 0.021214
0.073529 0.075876 0.021414
0.079185 0.075643 0.021669
0.086636 0.075366 0.022223
0.093978 0.075161 0.022727
0.100851 0.075272 0.023012
0.108152 0.075320 0.023500
0.116986 0.075139 0.024710
0.125837 0.075001 0.025749
0.134742 0.074991 0.026270
0.143623 0.074872 0.026982
0.152445 0.074473 0.028183
0.160959 0.074208 0.029001
0.168795 0.074238 0.028976
0.177978 0.074249 0.029257
0.189733 0.074224 0.030122
0.201634 0.074143 0.030978
0.213780 0.073971 0.031820
0.226020 0.073674 0.032588
0.238395 0.073195 0.033248
0.250057 0.072862 0.033340
0.260800 0.072716 0.032700
0.271385 0.072742 0.032402
0.281791 0.072963 0.032492
0.292714 0.073096 0.033233
0.304153 0.073141 0.034625
0.316022 0.073073 0.036035
0.328272 0.072907 0.037460
0.339663 0.072682 0.038498
0.350388 0.072412 0.039236
0.361216 0.072238 0.040711
0.372116 0.072131 0.042691
0.383369 0.072045 0.044603
0.394833 0.071972 0.046476
0.406296 0.071857 0.048519
0.417757 0.071721 0.050651
0.429107 0.071208 0.051635
0.440405 0.070524 0.052097
0.451457 0.069972 0.052689
0.462412 0.069472 0.053332
0.473672 0.069280 0.053739
0.485034 0.069191 0.054067
0.496433 0.069135 0.054852
0.507843 0.069090 0.055765
0.518165 0.069059 0.056934
0.528237 0.069032 0.058162
0.537823 0.068866 0.059722
0.547319 0.068675 0.061344
0.556012 0.068371 0.063333
0.564591 0.068050 0.065374
0.571576 0.067797 0.066970
0.578397 0.067551 0.068519
0.585881 0.067407 0.070061
0.593410 0.067270 0.071603
0.599692 0.067247 0.072598
0.605933 0.067228 0.073575
0.031328 0.081123 0.021701
0.035393 0.081039 0.021640
0.039470 0.080944 0.021581
0.043933 0.080519 0.021544
0.048458 0.080123 0.021500
0.053916 0.080170 0.021348
0.059322 0.080243 0.021204
0.064227 0.080575 0.021137
0.069154 0.080831 0.021109
0.074231 0.080555 0.021345
0.079759 0.080299 0.021622
0.087724 0.080145 0.022115
0.095541 0.080060 0.022563
0.102709 0.080274 0.022812
0.110306 0.080463 0.023276
0.119431 0.080562 0.024505
0.128563 0.080671 0.025414
0.137717 0.080808 0.025362
0.146882 0.080747 0.025780
0.156072 0.080181 0.027396
0.164729 0.079823 0.028515
0.172212 0.079920 0.028540
0.181497 0.079978 0.028983
0.194222 0.079960 0.030226
0.206861 0.079864 0.031201
0.219360 0.079637 0.031727
0.231695 0.079489 0.032028
0.243792 0.079455 0.031999
0.255553 0.079379 0.031981
0.266881 0.079250 0.031980
0.277844 0.079171 0.032319
0.288396 0.079150 0.033045
0.299527 0.079087 0.034257
0.311237 0.078981 0.035956
0.323006 0.078866 0.037480
0.334826 0.078743 0.038847
0.346298 0.078530 0.040123
0.357499 0.078247 0.041327
0.368334 0.078024 0.042746
0.378918 0.077842 0.044312
0.390569 0.077698 0.046196
0.402862 0.077577 0.048272
0.414185 0.077362 0.050770
0.425000 0.077098 0.053488
0.435860 0.076349 0.054273
0.446740 0.075379 0.054179
0.457915 0.074845 0.054125
0.469206 0.074480 0.054085
0.480643 0.074299 0.054365
0.492130 0.074178 0.054751
0.503347 0.074066 0.055826
0.514489 0.073956 0.057093
0.524700 0.073891 0.058558
0.534695 0.073838 0.060068
0.544210 0.073570 0.061775
0.553635 0.073262 0.063517
0.562244 0.072825 0.065845
0.570736 0.072369 0.068257
0.577776 0.072148 0.069593
0.584666 0.071951 0.070819
0.592132 0.071923 0.072297
0.599637 0.071906 0.073793
0.606060 0.071903 0.074763
0.612449 0.071900 0.075717
0.031747 0.086207 0.021717
0.035827 0.086170 0.021664
0.039917 0.086112 0.021611
0.044293 0.085404 0.021542
0.048728 0.084773 0.021470
0.054028 0.085316 0.021333
0.059333 0.085819 0.021202
0.064687 0.085938 0.021111
0.070043 0.086073 0.021065
0.075411 0.086308 0.021325
0.081145 0.086459 0.021620
0.088850 0.086148 0.022097
0.096617 0.086025 0.022502
0.104652 0.086719 0.022594
0.112974 0.087327 0.022904
0.122319 0.087622 0.023992
0.131711 0.087937 0.024849
0.141244 0.088311 0.025018
0.150560 0.088524 0.025343
0.159325 0.088328 0.026070
0.168071 0.088283 0.026670
0.176774 0.088570 0.026995
0.186857 0.088719 0.027754
0.199574 0.088607 0.029343
0.212094 0.088215 0.030658
0.224285 0.087359 0.031516
0.236486 0.086830 0.032016
0.248701 0.086780 0.031994
0.260773 0.086720 0.031978
0.272660 0.086646 0.031969
0.284220 0.086582 0.032917
0.295409 0.086529 0.034949
0.306918 0.086458 0.036799
0.318746 0.086368 0.038467
0.330549 0.086130 0.040030
0.342330 0.085763 0.041500
0.353816 0.085386 0.042665
0.365073 0.085001 0.043593
0.376164 0.084600 0.044704
0.387141 0.084190 0.045939
0.398630 0.083970 0.048059
0.410426 0.083865 0.050710
0.421129 0.083547 0.053260
0.431259 0.083118 0.055758
0.442013 0.082512 0.056642
0.453051 0.081826 0.056792
0.464650 0.081399 0.056716
0.476468 0.081074 0.056551
0.487665 0.080855 0.056545
0.498655 0.080671 0.056592
0.510010 0.080410 0.058029
0.521468 0.080126 0.059856
0.531321 0.079998 0.061790
0.540805 0.079905 0.063749
