Plugins/FilmEmulator/Content/LUTs/FE_Kodak_Vision_200T_5274_64.cube
# FilmEmulator LUT (resampled to 64)
LUT_3D_SIZE 4
0.000000 0.000000 0.000000
0.200134 0.029175 0.000000
0.334961 0.060852 0.000000
0.414825 0.080536 0.000000
0.000000 0.129812 0.010783
0.386780 0.280294 0.000000
0.589806 0.310086 0.000000
0.715851 0.320943 0.000000
0.000000 0.347666 0.001322
0.359965 0.499508 0.000000
0.709046 0.570024 0.000000
0.892883 0.574260 0.000000
0.000000 0.636078 0.000000
0.258636 0.749146 0.009216
0.698862 0.828226 0.007345
0.952759 0.848785 0.011841
0.000000 0.007345 0.100037
0.160530 0.042670 0.154806
0.347517 0.076637 0.146040
0.428385 0.071238 0.138774
0.000000 0.159495 0.198632
0.262499 0.291268 0.254241
0.578409 0.338954 0.246677
0.682363 0.316087 0.207903
0.000000 0.387153 0.258725
0.233741 0.486102 0.257687
0.668918 0.600272 0.287733
0.880588 0.609612 0.278344
0.000000 0.679606 0.285939
0.186008 0.763462 0.305461
0.652374 0.849528 0.268948
0.953857 0.889007 0.299103
0.001587 0.025767 0.187805
0.098155 0.028385 0.222365
0.383613 0.103031 0.306156
0.476430 0.112335 0.303325
0.000000 0.184794 0.343726
0.150796 0.273820 0.396548
0.529087 0.378488 0.480740
0.679986 0.336321 0.442363
0.000000 0.436944 0.479085
0.176577 0.502979 0.506803
0.601673 0.624496 0.572192
0.873427 0.637583 0.569919
0.008138 0.752177 0.565287
0.209110 0.812195 0.595177
0.590722 0.871151 0.609897
0.945007 0.936452 0.635417
0.003937 0.028381 0.227234
0.083527 0.019195 0.250610
0.338237 0.073445 0.331726
0.482147 0.108276 0.361237
0.004995 0.199432 0.447032
0.104231 0.247172 0.478197
0.433818 0.312968 0.553904
0.675537 0.333273 0.570313
0.000000 0.447683 0.629415
0.199914 0.520606 0.667331
0.542528 0.613675 0.741943
0.840556 0.660644 0.784261
0.011841 0.768250 0.775635
0.248077 0.836863 0.820069
0.626262 0.908447 0.868866
0.942383 0.972107 0.926544
