Plugins/FilmEmulator/Content/LUTs/FE_Kodak_Polymax_Grade_4_64.cube
TITLE "FE_Kodak_Polymax_Grade_4_33"
LUT_3D_SIZE 64
0.0021919 0.0021919 0.0021919
0.0021919 0.0021919 0.0021919
0.0021919 0.0021919 0.0021919
0.0021919 0.0021919 0.0021919
0.0021919 0.0021919 0.0021919
0.0021919 0.0021919 0.0021919
0.0021919 0.0021919 0.0021919
0.0021919 0.0021919 0.0021919
0.0021919 0.0021919 0.0021919
0.0021919 0.0021919 0.0021919
0.0021919 0.0021919 0.0021919
0.0021919 0.0021919 0.0021919
0.0021919 0.0021919 0.0021919
0.0021919 0.0021919 0.0021919
0.0021919 0.0021919 0.0021919
0.0021919 0.0021919 0.0021919
0.0021919 0.0021919 0.0021919
0.0021919 0.0021919 0.0021919
0.0021919 0.0021919 0.0021919
0.0021919 0.0021919 0.0021919
0.0021919 0.0021919 0.0021919
0.0021919 0.0021919 0.0021919
0.0021919 0.0021919 0.0021919
0.0021919 0.0021919 0.0021919
0.0021919 0.0021919 0.0021919
0.0021919 0.0021919 0.0021919
0.0021919 0.0021919 0.0021919
0.0021919 0.0021919 0.0021919
0.0021919 0.0021919 0.0021919
0.0021919 0.0021919 0.0021919
0.0021919 0.0021919 0.0021919
0.0021919 0.0021919 0.0021919
0.0021948 0.0021948 0.0021948
0.0021992 0.0021992 0.0021992
0.0022033 0.0022033 0.0022033
0.0022073 0.0022073 0.0022073
0.0022103 0.0022103 0.0022103
0.0022138 0.0022138 0.0022138
0.0022164 0.0022164 0.0022164
0.0022188 0.0022188 0.0022188
0.0022210 0.0022210 0.0022210
0.0022229 0.0022229 0.0022229
0.0022246 0.0022246 0.0022246
0.0022259 0.0022259 0.0022259
0.0022274 0.0022274 0.0022274
0.0022286 0.0022286 0.0022286
0.0022300 0.0022300 0.0022300
0.0022310 0.0022310 0.0022310
0.0022320 0.0022320 0.0022320
0.0022328 0.0022328 0.0022328
0.0022335 0.0022335 0.0022335
0.0022340 0.0022340 0.0022340
0.0022343 0.0022343 0.0022343
0.0022346 0.0022346 0.0022346
0.0022346 0.0022346 0.0022346
0.0022346 0.0022346 0.0022346
0.0022346 0.0022346 0.0022346
0.0022346 0.0022346 0.0022346
0.0022346 0.0022346 0.0022346
0.0022346 0.0022346 0.0022346
0.0022346 0.0022346 0.0022346
0.0022346 0.0022346 0.0022346
0.0022346 0.0022346 0.0022346
0.0022346 0.0022346 0.0022346
0.0021919 0.0021919 0.0021919
0.0021919 0.0021919 0.0021919
0.0021919 0.0021919 0.0021919
0.0021919 0.0021919 0.0021919
0.0021919 0.0021919 0.0021919
0.0021919 0.0021919 0.0021919
0.0021919 0.0021919 0.0021919
0.0021919 0.0021919 0.0021919
0.0021919 0.0021919 0.0021919
0.0021919 0.0021919 0.0021919
0.0021919 0.0021919 0.0021919
0.0021919 0.0021919 0.0021919
0.0021919 0.0021919 0.0021919
0.0021919 0.0021919 0.0021919
0.0021919 0.0021919 0.0021919
0.0021919 0.0021919 0.0021919
0.0021919 0.0021919 0.0021919
0.0021919 0.0021919 0.0021919
0.0021919 0.0021919 0.0021919
0.0021919 0.0021919 0.0021919
0.0021919 0.0021919 0.0021919
0.0021919 0.0021919 0.0021919
0.0021919 0.0021919 0.0021919
0.0021919 0.0021919 0.0021919
0.0021919 0.0021919 0.0021919
0.0021956 0.0021956 0.0021956
0.0022006 0.0022006 0.0022006
0.0022040 0.0022040 0.0022040
0.0022079 0.0022079 0.0022079
0.0022115 0.0022115 0.0022115
0.0022143 0.0022143 0.0022143
0.0022169 0.0022169 0.0022169
0.0022193 0.0022193 0.0022193
0.0022214 0.0022214 0.0022214
0.0022233 0.0022233 0.0022233
0.0022249 0.0022249 0.0022249
0.0022262 0.0022262 0.0022262
0.0022277 0.0022277 0.0022277
0.0022289 0.0022289 0.0022289
0.0022303 0.0022303 0.0022303
0.0022313 0.0022313 0.0022313
0.0022322 0.0022322 0.0022322
0.0022330 0.0022330 0.0022330
0.0022337 0.0022337 0.0022337
0.0022341 0.0022341 0.0022341
0.0022344 0.0022344 0.0022344
0.0022346 0.0022346 0.0022346
0.0022346 0.0022346 0.0022346
0.0022346 0.0022346 0.0022346
0.0022346 0.0022346 0.0022346
0.0022346 0.0022346 0.0022346
0.0022346 0.0022346 0.0022346
0.0022346 0.0022346 0.0022346
0.0022346 0.0022346 0.0022346
0.0022346 0.0022346 0.0022346
0.0022346 0.0022346 0.0022346
0.0022346 0.0022346 0.0022346
0.0022346 0.0022346 0.0022346
0.0022346 0.0022346 0.0022346
0.0022346 0.0022346 0.0022346
0.0022346 0.0022346 0.0022346
0.0022346 0.0022346 0.0022346
0.0022347 0.0022347 0.0022347
0.0022348 0.0022348 0.0022348
0.0021919 0.0021919 0.0021919
0.0021919 0.0021919 0.0021919
0.0021919 0.0021919 0.0021919
0.0021919 0.0021919 0.0021919
0.0021919 0.0021919 0.0021919
0.0021919 0.0021919 0.0021919
0.0021919 0.0021919 0.0021919
0.0021919 0.0021919 0.0021919
0.0021919 0.0021919 0.0021919
0.0021919 0.0021919 0.0021919
0.0021919 0.0021919 0.0021919
0.0021919 0.0021919 0.0021919
0.0021919 0.0021919 0.0021919
0.0021919 0.0021919 0.0021919
0.0021919 0.0021919 0.0021919
0.0021919 0.0021919 0.0021919
0.0021919 0.0021919 0.0021919
0.0021926 0.0021926 0.0021926
0.0021970 0.0021970 0.0021970
0.0022013 0.0022013 0.0022013
0.0022053 0.0022053 0.0022053
0.0022085 0.0022085 0.0022085
0.0022121 0.0022121 0.0022121
0.0022148 0.0022148 0.0022148
0.0022174 0.0022174 0.0022174
0.0022197 0.0022197 0.0022197
0.0022218 0.0022218 0.0022218
0.0022236 0.0022236 0.0022236
0.0022252 0.0022252 0.0022252
0.0022265 0.0022265 0.0022265
0.0022280 0.0022280 0.0022280
0.0022292 0.0022292 0.0022292
0.0022305 0.0022305 0.0022305
0.0022316 0.0022316 0.0022316
0.0022324 0.0022324 0.0022324
0.0022332 0.0022332 0.0022332
0.0022338 0.0022338 0.0022338
0.0022342 0.0022342 0.0022342
0.0022344 0.0022344 0.0022344
0.0022346 0.0022346 0.0022346
0.0022346 0.0022346 0.0022346
0.0022346 0.0022346 0.0022346
0.0022346 0.0022346 0.0022346
0.0022346 0.0022346 0.0022346
0.0022346 0.0022346 0.0022346
0.0022346 0.0022346 0.0022346
0.0022346 0.0022346 0.0022346
0.0022346 0.0022346 0.0022346
0.0022346 0.0022346 0.0022346
0.0022346 0.0022346 0.0022346
0.0022346 0.0022346 0.0022346
0.0022346 0.0022346 0.0022346
0.0022346 0.0022346 0.0022346
0.0022346 0.0022346 0.0022346
0.0022346 0.0022346 0.0022346
0.0022347 0.0022347 0.0022347
0.0022349 0.0022349 0.0022349
0.0022350 0.0022350 0.0022350
0.0022351 0.0022351 0.0022351
0.0022364 0.0022364 0.0022364
0.0022378 0.0022378 0.0022378
0.0022388 0.0022388 0.0022388
0.0022403 0.0022403 0.0022403
0.0022420 0.0022420 0.0022420
0.0021919 0.0021919 0.0021919
0.0021919 0.0021919 0.0021919
0.0021919 0.0021919 0.0021919
0.0021919 0.0021919 0.0021919
0.0021919 0.0021919 0.0021919
0.0021919 0.0021919 0.0021919
0.0021919 0.0021919 0.0021919
0.0021919 0.0021919 0.0021919
0.0021919 0.0021919 0.0021919
0.0021919 0.0021919 0.0021919
0.0021934 0.0021934 0.0021934
0.0021978 0.0021978 0.0021978
0.0022020 0.0022020 0.0022020
0.0022060 0.0022060 0.0022060
0.0022097 0.0022097 0.0022097
0.0022127 0.0022127 0.0022127
0.0022153 0.0022153 0.0022153
0.0022180 0.0022180 0.0022180
0.0022205 0.0022205 0.0022205
0.0022222 0.0022222 0.0022222
0.0022239 0.0022239 0.0022239
0.0022256 0.0022256 0.0022256
0.0022268 0.0022268 0.0022268
0.0022283 0.0022283 0.0022283
0.0022295 0.0022295 0.0022295
0.0022308 0.0022308 0.0022308
0.0022318 0.0022318 0.0022318
0.0022326 0.0022326 0.0022326
0.0022334 0.0022334 0.0022334
0.0022339 0.0022339 0.0022339
0.0022342 0.0022342 0.0022342
0.0022345 0.0022345 0.0022345
0.0022346 0.0022346 0.0022346
0.0022346 0.0022346 0.0022346
0.0022346 0.0022346 0.0022346
0.0022346 0.0022346 0.0022346
0.0022346 0.0022346 0.0022346
0.0022346 0.0022346 0.0022346
0.0022346 0.0022346 0.0022346
0.0022346 0.0022346 0.0022346
0.0022346 0.0022346 0.0022346
0.0022346 0.0022346 0.0022346
0.0022346 0.0022346 0.0022346
0.0022346 0.0022346 0.0022346
0.0022346 0.0022346 0.0022346
0.0022346 0.0022346 0.0022346
0.0022346 0.0022346 0.0022346
0.0022346 0.0022346 0.0022346
0.0022347 0.0022347 0.0022347
0.0022349 0.0022349 0.0022349
0.0022350 0.0022350 0.0022350
0.0022355 0.0022355 0.0022355
0.0022364 0.0022364 0.0022364
0.0022378 0.0022378 0.0022378
0.0022392 0.0022392 0.0022392
0.0022403 0.0022403 0.0022403
0.0022429 0.0022429 0.0022429
0.0022447 0.0022447 0.0022447
0.0022473 0.0022473 0.0022473
0.0022490 0.0022490 0.0022490
0.0022526 0.0022526 0.0022526
0.0022549 0.0022549 0.0022549
0.0022585 0.0022585 0.0022585
0.0022608 0.0022608 0.0022608
0.0021919 0.0021919 0.0021919
0.0021919 0.0021919 0.0021919
0.0021919 0.0021919 0.0021919
0.0021948 0.0021948 0.0021948
0.0021992 0.0021992 0.0021992
0.0022033 0.0022033 0.0022033
0.0022067 0.0022067 0.0022067
0.0022103 0.0022103 0.0022103
0.0022133 0.0022133 0.0022133
0.0022164 0.0022164 0.0022164
0.0022188 0.0022188 0.0022188
0.0022210 0.0022210 0.0022210
0.0022229 0.0022229 0.0022229
0.0022243 0.0022243 0.0022243
0.0022259 0.0022259 0.0022259
0.0022271 0.0022271 0.0022271
0.0022286 0.0022286 0.0022286
0.0022297 0.0022297 0.0022297
0.0022308 0.0022308 0.0022308
0.0022320 0.0022320 0.0022320
0.0022328 0.0022328 0.0022328
0.0022335 0.0022335 0.0022335
0.0022340 0.0022340 0.0022340
0.0022342 0.0022342 0.0022342
0.0022346 0.0022346 0.0022346
0.0022346 0.0022346 0.0022346
0.0022346 0.0022346 0.0022346
0.0022346 0.0022346 0.0022346
0.0022346 0.0022346 0.0022346
0.0022346 0.0022346 0.0022346
0.0022346 0.0022346 0.0022346
0.0022346 0.0022346 0.0022346
0.0022346 0.0022346 0.0022346
0.0022346 0.0022346 0.0022346
0.0022346 0.0022346 0.0022346
0.0022346 0.0022346 0.0022346
0.0022346 0.0022346 0.0022346
0.0022346 0.0022346 0.0022346
0.0022346 0.0022346 0.0022346
0.0022346 0.0022346 0.0022346
0.0022346 0.0022346 0.0022346
0.0022348 0.0022348 0.0022348
0.0022349 0.0022349 0.0022349
0.0022351 0.0022351 0.0022351
0.0022355 0.0022355 0.0022355
0.0022369 0.0022369 0.0022369
0.0022383 0.0022383 0.0022383
0.0022392 0.0022392 0.0022392
0.0022412 0.0022412 0.0022412
0.0022429 0.0022429 0.0022429
0.0022455 0.0022455 0.0022455
0.0022473 0.0022473 0.0022473
0.0022502 0.0022502 0.0022502
0.0022526 0.0022526 0.0022526
0.0022561 0.0022561 0.0022561
0.0022585 0.0022585 0.0022585
0.0022608 0.0022608 0.0022608
0.0022649 0.0022649 0.0022649
0.0022677 0.0022677 0.0022677
0.0022704 0.0022704 0.0022704
0.0022746 0.0022746 0.0022746
0.0022778 0.0022778 0.0022778
0.0022813 0.0022813 0.0022813
0.0022847 0.0022847 0.0022847
0.0022109 0.0022109 0.0022109
0.0022138 0.0022138 0.0022138
0.0022169 0.0022169 0.0022169
0.0022193 0.0022193 0.0022193
0.0022214 0.0022214 0.0022214
0.0022233 0.0022233 0.0022233
0.0022246 0.0022246 0.0022246
0.0022262 0.0022262 0.0022262
0.0022277 0.0022277 0.0022277
0.0022289 0.0022289 0.0022289
0.0022300 0.0022300 0.0022300
0.0022310 0.0022310 0.0022310
0.0022322 0.0022322 0.0022322
0.0022330 0.0022330 0.0022330
0.0022337 0.0022337 0.0022337
0.0022341 0.0022341 0.0022341
0.0022343 0.0022343 0.0022343
0.0022346 0.0022346 0.0022346
0.0022346 0.0022346 0.0022346
0.0022346 0.0022346 0.0022346
0.0022346 0.0022346 0.0022346
0.0022346 0.0022346 0.0022346
0.0022346 0.0022346 0.0022346
0.0022346 0.0022346 0.0022346
0.0022346 0.0022346 0.0022346
0.0022346 0.0022346 0.0022346
0.0022346 0.0022346 0.0022346
0.0022346 0.0022346 0.0022346
0.0022346 0.0022346 0.0022346
0.0022346 0.0022346 0.0022346
0.0022346 0.0022346 0.0022346
0.0022346 0.0022346 0.0022346
0.0022346 0.0022346 0.0022346
0.0022347 0.0022347 0.0022347
0.0022348 0.0022348 0.0022348
0.0022350 0.0022350 0.0022350
0.0022351 0.0022351 0.0022351
0.0022359 0.0022359 0.0022359
0.0022373 0.0022373 0.0022373
0.0022383 0.0022383 0.0022383
0.0022397 0.0022397 0.0022397
0.0022420 0.0022420 0.0022420
0.0022438 0.0022438 0.0022438
0.0022464 0.0022464 0.0022464
0.0022482 0.0022482 0.0022482
0.0022502 0.0022502 0.0022502
0.0022538 0.0022538 0.0022538
0.0022561 0.0022561 0.0022561
0.0022597 0.0022597 0.0022597
0.0022621 0.0022621 0.0022621
0.0022649 0.0022649 0.0022649
0.0022690 0.0022690 0.0022690
0.0022718 0.0022718 0.0022718
0.0022746 0.0022746 0.0022746
0.0022778 0.0022778 0.0022778
0.0022813 0.0022813 0.0022813
0.0022865 0.0022865 0.0022865
0.0022899 0.0022899 0.0022899
0.0022934 0.0022934 0.0022934
0.0022987 0.0022987 0.0022987
0.0023040 0.0023040 0.0023040
0.0023094 0.0023094 0.0023094
0.0023147 0.0023147 0.0023147
0.0023200 0.0023200 0.0023200
0.0022265 0.0022265 0.0022265
0.0022280 0.0022280 0.0022280
0.0022292 0.0022292 0.0022292
0.0022303 0.0022303 0.0022303
0.0022313 0.0022313 0.0022313
0.0022324 0.0022324 0.0022324
0.0022332 0.0022332 0.0022332
0.0022338 0.0022338 0.0022338
0.0022341 0.0022341 0.0022341
0.0022344 0.0022344 0.0022344
0.0022346 0.0022346 0.0022346
0.0022346 0.0022346 0.0022346
0.0022346 0.0022346 0.0022346
0.0022346 0.0022346 0.0022346
0.0022346 0.0022346 0.0022346
0.0022346 0.0022346 0.0022346
0.0022346 0.0022346 0.0022346
0.0022346 0.0022346 0.0022346
0.0022346 0.0022346 0.0022346
0.0022346 0.0022346 0.0022346
0.0022346 0.0022346 0.0022346
0.0022346 0.0022346 0.0022346
0.0022346 0.0022346 0.0022346
0.0022346 0.0022346 0.0022346
0.0022346 0.0022346 0.0022346
0.0022346 0.0022346 0.0022346
0.0022347 0.0022347 0.0022347
0.0022348 0.0022348 0.0022348
0.0022350 0.0022350 0.0022350
0.0022351 0.0022351 0.0022351
0.0022364 0.0022364 0.0022364
0.0022373 0.0022373 0.0022373
0.0022388 0.0022388 0.0022388
0.0022403 0.0022403 0.0022403
0.0022420 0.0022420 0.0022420
0.0022447 0.0022447 0.0022447
0.0022464 0.0022464 0.0022464
0.0022490 0.0022490 0.0022490
0.0022514 0.0022514 0.0022514
0.0022538 0.0022538 0.0022538
0.0022573 0.0022573 0.0022573
0.0022597 0.0022597 0.0022597
0.0022621 0.0022621 0.0022621
0.0022663 0.0022663 0.0022663
0.0022690 0.0022690 0.0022690
0.0022718 0.0022718 0.0022718
0.0022761 0.0022761 0.0022761
0.0022795 0.0022795 0.0022795
0.0022830 0.0022830 0.0022830
0.0022865 0.0022865 0.0022865
0.0022899 0.0022899 0.0022899
0.0022934 0.0022934 0.0022934
0.0022987 0.0022987 0.0022987
0.0023040 0.0023040 0.0023040
0.0023094 0.0023094 0.0023094
0.0023147 0.0023147 0.0023147
0.0023200 0.0023200 0.0023200
0.0023269 0.0023269 0.0023269
0.0023341 0.0023341 0.0023341
0.0023413 0.0023413 0.0023413
0.0023485 0.0023485 0.0023485
0.0023558 0.0023558 0.0023558
0.0023642 0.0023642 0.0023642
0.0023732 0.0023732 0.0023732
0.0022338 0.0022338 0.0022338
0.0022342 0.0022342 0.0022342
0.0022345 0.0022345 0.0022345
0.0022346 0.0022346 0.0022346
0.0022346 0.0022346 0.0022346
0.0022346 0.0022346 0.0022346
0.0022346 0.0022346 0.0022346
0.0022346 0.0022346 0.0022346
0.0022346 0.0022346 0.0022346
0.0022346 0.0022346 0.0022346
0.0022346 0.0022346 0.0022346
0.0022346 0.0022346 0.0022346
0.0022346 0.0022346 0.0022346
0.0022346 0.0022346 0.0022346
0.0022346 0.0022346 0.0022346
0.0022346 0.0022346 0.0022346
0.0022346 0.0022346 0.0022346
0.0022346 0.0022346 0.0022346
0.0022346 0.0022346 0.0022346
0.0022347 0.0022347 0.0022347
0.0022349 0.0022349 0.0022349
0.0022350 0.0022350 0.0022350
0.0022355 0.0022355 0.0022355
0.0022364 0.0022364 0.0022364
0.0022378 0.0022378 0.0022378
0.0022392 0.0022392 0.0022392
0.0022403 0.0022403 0.0022403
0.0022429 0.0022429 0.0022429
0.0022447 0.0022447 0.0022447
0.0022473 0.0022473 0.0022473
0.0022490 0.0022490 0.0022490
0.0022526 0.0022526 0.0022526
0.0022549 0.0022549 0.0022549
0.0022573 0.0022573 0.0022573
0.0022608 0.0022608 0.0022608
0.0022635 0.0022635 0.0022635
0.0022663 0.0022663 0.0022663
0.0022704 0.0022704 0.0022704
0.0022732 0.0022732 0.0022732
0.0022761 0.0022761 0.0022761
0.0022795 0.0022795 0.0022795
0.0022830 0.0022830 0.0022830
0.0022882 0.0022882 0.0022882
0.0022917 0.0022917 0.0022917
0.0022961 0.0022961 0.0022961
0.0023014 0.0023014 0.0023014
0.0023067 0.0023067 0.0023067
0.0023120 0.0023120 0.0023120
0.0023174 0.0023174 0.0023174
0.0023233 0.0023233 0.0023233
0.0023305 0.0023305 0.0023305
0.0023377 0.0023377 0.0023377
0.0023449 0.0023449 0.0023449
0.0023521 0.0023521 0.0023521
0.0023597 0.0023597 0.0023597
0.0023642 0.0023642 0.0023642
0.0023732 0.0023732 0.0023732
0.0023823 0.0023823 0.0023823
0.0023914 0.0023914 0.0023914
0.0024006 0.0024006 0.0024006
0.0024121 0.0024121 0.0024121
0.0024191 0.0024191 0.0024191
0.0024331 0.0024331 0.0024331
0.0024471 0.0024471 0.0024471
0.0022346 0.0022346 0.0022346
0.0022346 0.0022346 0.0022346
0.0022346 0.0022346 0.0022346
0.0022346 0.0022346 0.0022346
0.0022346 0.0022346 0.0022346
0.0022346 0.0022346 0.0022346
0.0022346 0.0022346 0.0022346
0.0022346 0.0022346 0.0022346
0.0022346 0.0022346 0.0022346
0.0022346 0.0022346 0.0022346
0.0022346 0.0022346 0.0022346
0.0022346 0.0022346 0.0022346
0.0022348 0.0022348 0.0022348
0.0022349 0.0022349 0.0022349
0.0022350 0.0022350 0.0022350
0.0022355 0.0022355 0.0022355
0.0022369 0.0022369 0.0022369
0.0022383 0.0022383 0.0022383
0.0022392 0.0022392 0.0022392
0.0022412 0.0022412 0.0022412
0.0022429 0.0022429 0.0022429
0.0022455 0.0022455 0.0022455
0.0022473 0.0022473 0.0022473
0.0022502 0.0022502 0.0022502
0.0022526 0.0022526 0.0022526
0.0022561 0.0022561 0.0022561
0.0022585 0.0022585 0.0022585
0.0022608 0.0022608 0.0022608
0.0022649 0.0022649 0.0022649
0.0022677 0.0022677 0.0022677
0.0022704 0.0022704 0.0022704
0.0022732 0.0022732 0.0022732
0.0022778 0.0022778 0.0022778
0.0022813 0.0022813 0.0022813
0.0022847 0.0022847 0.0022847
0.0022882 0.0022882 0.0022882
0.0022917 0.0022917 0.0022917
0.0022961 0.0022961 0.0022961
0.0023014 0.0023014 0.0023014
0.0023067 0.0023067 0.0023067
0.0023120 0.0023120 0.0023120
0.0023174 0.0023174 0.0023174
0.0023233 0.0023233 0.0023233
0.0023305 0.0023305 0.0023305
0.0023377 0.0023377 0.0023377
0.0023449 0.0023449 0.0023449
0.0023521 0.0023521 0.0023521
0.0023597 0.0023597 0.0023597
0.0023687 0.0023687 0.0023687
0.0023778 0.0023778 0.0023778
0.0023869 0.0023869 0.0023869
0.0023914 0.0023914 0.0023914
0.0024006 0.0024006 0.0024006
0.0024121 0.0024121 0.0024121
0.0024261 0.0024261 0.0024261
0.0024331 0.0024331 0.0024331
0.0024471 0.0024471 0.0024471
0.0024613 0.0024613 0.0024613
0.0024755 0.0024755 0.0024755
0.0024847 0.0024847 0.0024847
0.0025052 0.0025052 0.0025052
0.0025259 0.0025259 0.0025259
0.0025363 0.0025363 0.0025363
0.0025572 0.0025572 0.0025572
0.0022346 0.0022346 0.0022346
0.0022346 0.0022346 0.0022346
0.0022346 0.0022346 0.0022346
0.0022346 0.0022346 0.0022346
0.0022347 0.0022347 0.0022347
0.0022348 0.0022348 0.0022348
0.0022349 0.0022349 0.0022349
0.0022351 0.0022351 0.0022351
0.0022359 0.0022359 0.0022359
0.0022369 0.0022369 0.0022369
0.0022383 0.0022383 0.0022383
0.0022397 0.0022397 0.0022397
0.0022412 0.0022412 0.0022412
0.0022438 0.0022438 0.0022438
0.0022455 0.0022455 0.0022455
0.0022482 0.0022482 0.0022482
0.0022502 0.0022502 0.0022502
0.0022538 0.0022538 0.0022538
0.0022561 0.0022561 0.0022561
0.0022585 0.0022585 0.0022585
0.0022621 0.0022621 0.0022621
0.0022649 0.0022649 0.0022649
0.0022677 0.0022677 0.0022677
0.0022718 0.0022718 0.0022718
0.0022746 0.0022746 0.0022746
0.0022778 0.0022778 0.0022778
0.0022813 0.0022813 0.0022813
0.0022847 0.0022847 0.0022847
0.0022882 0.0022882 0.0022882
0.0022934 0.0022934 0.0022934
0.0022987 0.0022987 0.0022987
0.0023040 0.0023040 0.0023040
0.0023094 0.0023094 0.0023094
0.0023147 0.0023147 0.0023147
0.0023200 0.0023200 0.0023200
0.0023269 0.0023269 0.0023269
0.0023341 0.0023341 0.0023341
0.0023413 0.0023413 0.0023413
0.0023485 0.0023485 0.0023485
0.0023558 0.0023558 0.0023558
0.0023597 0.0023597 0.0023597
0.0023687 0.0023687 0.0023687
0.0023778 0.0023778 0.0023778
0.0023869 0.0023869 0.0023869
0.0023960 0.0023960 0.0023960
0.0024052 0.0024052 0.0024052
0.0024121 0.0024121 0.0024121
0.0024261 0.0024261 0.0024261
0.0024401 0.0024401 0.0024401
0.0024542 0.0024542 0.0024542
0.0024613 0.0024613 0.0024613
0.0024755 0.0024755 0.0024755
0.0024949 0.0024949 0.0024949
0.0025052 0.0025052 0.0025052
0.0025259 0.0025259 0.0025259
0.0025467 0.0025467 0.0025467
0.0025572 0.0025572 0.0025572
0.0025783 0.0025783 0.0025783
0.0026025 0.0026025 0.0026025
0.0026154 0.0026154 0.0026154
0.0026415 0.0026415 0.0026415
0.0026546 0.0026546 0.0026546
0.0026810 0.0026810 0.0026810
0.0026943 0.0026943 0.0026943
0.0022351 0.0022351 0.0022351
0.0022359 0.0022359 0.0022359
0.0022373 0.0022373 0.0022373
0.0022388 0.0022388 0.0022388
0.0022397 0.0022397 0.0022397
0.0022420 0.0022420 0.0022420
0.0022438 0.0022438 0.0022438
0.0022464 0.0022464 0.0022464
0.0022482 0.0022482 0.0022482
0.0022514 0.0022514 0.0022514
0.0022538 0.0022538 0.0022538
0.0022573 0.0022573 0.0022573
0.0022597 0.0022597 0.0022597
0.0022621 0.0022621 0.0022621
0.0022663 0.0022663 0.0022663
0.0022690 0.0022690 0.0022690
0.0022718 0.0022718 0.0022718
0.0022746 0.0022746 0.0022746
0.0022795 0.0022795 0.0022795
0.0022830 0.0022830 0.0022830
0.0022865 0.0022865 0.0022865
0.0022899 0.0022899 0.0022899
0.0022934 0.0022934 0.0022934
0.0022987 0.0022987 0.0022987
0.0023040 0.0023040 0.0023040
0.0023094 0.0023094 0.0023094
0.0023147 0.0023147 0.0023147
0.0023200 0.0023200 0.0023200
0.0023269 0.0023269 0.0023269
0.0023341 0.0023341 0.0023341
0.0023413 0.0023413 0.0023413
0.0023485 0.0023485 0.0023485
0.0023558 0.0023558 0.0023558
0.0023642 0.0023642 0.0023642
0.0023732 0.0023732 0.0023732
0.0023823 0.0023823 0.0023823
0.0023869 0.0023869 0.0023869
0.0023960 0.0023960 0.0023960
0.0024052 0.0024052 0.0024052
0.0024191 0.0024191 0.0024191
0.0024331 0.0024331 0.0024331
0.0024401 0.0024401 0.0024401
0.0024542 0.0024542 0.0024542
0.0024684 0.0024684 0.0024684
0.0024755 0.0024755 0.0024755
0.0024949 0.0024949 0.0024949
0.0025155 0.0025155 0.0025155
0.0025259 0.0025259 0.0025259
0.0025467 0.0025467 0.0025467
0.0025677 0.0025677 0.0025677
0.0025783 0.0025783 0.0025783
0.0026025 0.0026025 0.0026025
0.0026284 0.0026284 0.0026284
0.0026415 0.0026415 0.0026415
0.0026678 0.0026678 0.0026678
0.0026810 0.0026810 0.0026810
0.0027077 0.0027077 0.0027077
0.0027211 0.0027211 0.0027211
0.0027568 0.0027568 0.0027568
0.0027749 0.0027749 0.0027749
0.0028113 0.0028113 0.0028113
0.0028297 0.0028297 0.0028297
0.0028668 0.0028668 0.0028668
0.0028855 0.0028855 0.0028855
0.0022473 0.0022473 0.0022473
0.0022490 0.0022490 0.0022490
0.0022514 0.0022514 0.0022514
0.0022549 0.0022549 0.0022549
0.0022573 0.0022573 0.0022573
0.0022608 0.0022608 0.0022608
0.0022635 0.0022635 0.0022635
0.0022663 0.0022663 0.0022663
0.0022690 0.0022690 0.0022690
0.0022732 0.0022732 0.0022732
0.0022761 0.0022761 0.0022761
0.0022795 0.0022795 0.0022795
0.0022830 0.0022830 0.0022830
0.0022865 0.0022865 0.0022865
0.0022899 0.0022899 0.0022899
0.0022961 0.0022961 0.0022961
0.0023014 0.0023014 0.0023014
0.0023067 0.0023067 0.0023067
0.0023120 0.0023120 0.0023120
0.0023174 0.0023174 0.0023174
0.0023233 0.0023233 0.0023233
0.0023305 0.0023305 0.0023305
0.0023377 0.0023377 0.0023377
0.0023449 0.0023449 0.0023449
0.0023485 0.0023485 0.0023485
0.0023558 0.0023558 0.0023558
0.0023642 0.0023642 0.0023642
0.0023732 0.0023732 0.0023732
0.0023823 0.0023823 0.0023823
0.0023914 0.0023914 0.0023914
0.0024006 0.0024006 0.0024006
0.0024052 0.0024052 0.0024052
0.0024191 0.0024191 0.0024191
0.0024331 0.0024331 0.0024331
0.0024471 0.0024471 0.0024471
0.0024542 0.0024542 0.0024542
0.0024684 0.0024684 0.0024684
0.0024847 0.0024847 0.0024847
0.0024949 0.0024949 0.0024949
0.0025155 0.0025155 0.0025155
0.0025363 0.0025363 0.0025363
0.0025467 0.0025467 0.0025467
0.0025677 0.0025677 0.0025677
0.0025897 0.0025897 0.0025897
0.0026025 0.0026025 0.0026025
0.0026284 0.0026284 0.0026284
0.0026415 0.0026415 0.0026415
0.0026678 0.0026678 0.0026678
0.0026943 0.0026943 0.0026943
0.0027077 0.0027077 0.0027077
0.0027389 0.0027389 0.0027389
0.0027568 0.0027568 0.0027568
0.0027930 0.0027930 0.0027930
0.0028113 0.0028113 0.0028113
0.0028482 0.0028482 0.0028482
0.0028668 0.0028668 0.0028668
0.0029044 0.0029044 0.0029044
0.0029256 0.0029256 0.0029256
0.0029480 0.0029480 0.0029480
0.0029934 0.0029934 0.0029934
0.0030163 0.0030163 0.0030163
0.0030627 0.0030627 0.0030627
0.0030862 0.0030862 0.0030862
0.0031336 0.0031336 0.0031336
0.0022677 0.0022677 0.0022677
0.0022704 0.0022704 0.0022704
0.0022732 0.0022732 0.0022732
0.0022761 0.0022761 0.0022761
0.0022813 0.0022813 0.0022813
0.0022847 0.0022847 0.0022847
0.0022882 0.0022882 0.0022882
0.0022917 0.0022917 0.0022917
0.0022961 0.0022961 0.0022961
0.0023014 0.0023014 0.0023014
0.0023067 0.0023067 0.0023067
0.0023120 0.0023120 0.0023120
0.0023174 0.0023174 0.0023174
0.0023233 0.0023233 0.0023233
0.0023305 0.0023305 0.0023305
0.0023377 0.0023377 0.0023377
0.0023449 0.0023449 0.0023449
0.0023521 0.0023521 0.0023521
0.0023597 0.0023597 0.0023597
0.0023687 0.0023687 0.0023687
0.0023778 0.0023778 0.0023778
0.0023823 0.0023823 0.0023823
0.0023914 0.0023914 0.0023914
0.0024006 0.0024006 0.0024006
0.0024121 0.0024121 0.0024121
0.0024261 0.0024261 0.0024261
0.0024331 0.0024331 0.0024331
0.0024471 0.0024471 0.0024471
0.0024613 0.0024613 0.0024613
0.0024684 0.0024684 0.0024684
