Plugins/FilmEmulator/Content/LUTs/FE_Kodak_TriX_400_Dev9_64.cube
TITLE "FE_Kodak_TriX_400_Dev9_33"
LUT_3D_SIZE 64
0.0013594 0.0013594 0.0013594
0.0014305 0.0014305 0.0014305
0.0017524 0.0017524 0.0017524
0.0022108 0.0022108 0.0022108
0.0028319 0.0028319 0.0028319
0.0036448 0.0036448 0.0036448
0.0046352 0.0046352 0.0046352
0.0056914 0.0056914 0.0056914
0.0068763 0.0068763 0.0068763
0.0081127 0.0081127 0.0081127
0.0095818 0.0095818 0.0095818
0.0110508 0.0110508 0.0110508
0.0123846 0.0123846 0.0123846
0.0139042 0.0139042 0.0139042
0.0156134 0.0156134 0.0156134
0.0175276 0.0175276 0.0175276
0.0191096 0.0191096 0.0191096
0.0214383 0.0214383 0.0214383
0.0233660 0.0233660 0.0233660
0.0247466 0.0247466 0.0247466
0.0269677 0.0269677 0.0269677
0.0293822 0.0293822 0.0293822
0.0311078 0.0311078 0.0311078
0.0329356 0.0329356 0.0329356
0.0358731 0.0358731 0.0358731
0.0379700 0.0379700 0.0379700
0.0401843 0.0401843 0.0401843
0.0425183 0.0425183 0.0425183
0.0449775 0.0449775 0.0449775
0.0475720 0.0475720 0.0475720
0.0489220 0.0489220 0.0489220
0.0517316 0.0517316 0.0517316
0.0546934 0.0546934 0.0546934
0.0562238 0.0562238 0.0562238
0.0593960 0.0593960 0.0593960
0.0627353 0.0627353 0.0627353
0.0644699 0.0644699 0.0644699
0.0680738 0.0680738 0.0680738
0.0699450 0.0699450 0.0699450
0.0718636 0.0718636 0.0718636
0.0758256 0.0758256 0.0758256
0.0778753 0.0778753 0.0778753
0.0799757 0.0799757 0.0799757
0.0821277 0.0821277 0.0821277
0.0865905 0.0865905 0.0865905
0.0889032 0.0889032 0.0889032
0.0912716 0.0912716 0.0912716
0.0936966 0.0936966 0.0936966
0.0961792 0.0961792 0.0961792
0.0987297 0.0987297 0.0987297
0.1013404 0.1013404 0.1013404
0.1040120 0.1040120 0.1040120
0.1067457 0.1067457 0.1067457
0.1095425 0.1095425 0.1095425
0.1124034 0.1124034 0.1124034
0.1153293 0.1153293 0.1153293
0.1183212 0.1183212 0.1183212
0.1213800 0.1213800 0.1213800
0.1245068 0.1245068 0.1245068
0.1277376 0.1277376 0.1277376
0.1310578 0.1310578 0.1310578
0.1344509 0.1344509 0.1344509
0.1379179 0.1379179 0.1379179
0.1414597 0.1414597 0.1414597
0.0017524 0.0017524 0.0017524
0.0022108 0.0022108 0.0022108
0.0028319 0.0028319 0.0028319
0.0036448 0.0036448 0.0036448
0.0046352 0.0046352 0.0046352
0.0056914 0.0056914 0.0056914
0.0068763 0.0068763 0.0068763
0.0081127 0.0081127 0.0081127
0.0095818 0.0095818 0.0095818
0.0110508 0.0110508 0.0110508
0.0123846 0.0123846 0.0123846
0.0139042 0.0139042 0.0139042
0.0156134 0.0156134 0.0156134
0.0175276 0.0175276 0.0175276
0.0191096 0.0191096 0.0191096
0.0214383 0.0214383 0.0214383
0.0233660 0.0233660 0.0233660
0.0247466 0.0247466 0.0247466
0.0269677 0.0269677 0.0269677
0.0293822 0.0293822 0.0293822
0.0311078 0.0311078 0.0311078
0.0329356 0.0329356 0.0329356
0.0358731 0.0358731 0.0358731
0.0379700 0.0379700 0.0379700
0.0401843 0.0401843 0.0401843
0.0425183 0.0425183 0.0425183
0.0449775 0.0449775 0.0449775
0.0475720 0.0475720 0.0475720
0.0489220 0.0489220 0.0489220
0.0517316 0.0517316 0.0517316
0.0546934 0.0546934 0.0546934
0.0562238 0.0562238 0.0562238
0.0593960 0.0593960 0.0593960
0.0627353 0.0627353 0.0627353
0.0644699 0.0644699 0.0644699
0.0680738 0.0680738 0.0680738
0.0699450 0.0699450 0.0699450
0.0718636 0.0718636 0.0718636
0.0758256 0.0758256 0.0758256
0.0778753 0.0778753 0.0778753
0.0799757 0.0799757 0.0799757
0.0821277 0.0821277 0.0821277
0.0865905 0.0865905 0.0865905
0.0889032 0.0889032 0.0889032
0.0912716 0.0912716 0.0912716
0.0936966 0.0936966 0.0936966
0.0961792 0.0961792 0.0961792
0.0987297 0.0987297 0.0987297
0.1013404 0.1013404 0.1013404
0.1040120 0.1040120 0.1040120
0.1067457 0.1067457 0.1067457
0.1095425 0.1095425 0.1095425
0.1124034 0.1124034 0.1124034
0.1153293 0.1153293 0.1153293
0.1183212 0.1183212 0.1183212
0.1213800 0.1213800 0.1213800
0.1245068 0.1245068 0.1245068
0.1277376 0.1277376 0.1277376
0.1310578 0.1310578 0.1310578
0.1344509 0.1344509 0.1344509
0.1379179 0.1379179 0.1379179
0.1414597 0.1414597 0.1414597
0.1414597 0.1414597 0.1414597
0.1450772 0.1450772 0.1450772
0.0028319 0.0028319 0.0028319
0.0036448 0.0036448 0.0036448
0.0046352 0.0046352 0.0046352
0.0056914 0.0056914 0.0056914
0.0068763 0.0068763 0.0068763
0.0081127 0.0081127 0.0081127
0.0095818 0.0095818 0.0095818
0.0110508 0.0110508 0.0110508
0.0123846 0.0123846 0.0123846
0.0139042 0.0139042 0.0139042
0.0156134 0.0156134 0.0156134
0.0175276 0.0175276 0.0175276
0.0191096 0.0191096 0.0191096
0.0214383 0.0214383 0.0214383
0.0233660 0.0233660 0.0233660
0.0247466 0.0247466 0.0247466
0.0269677 0.0269677 0.0269677
0.0293822 0.0293822 0.0293822
0.0311078 0.0311078 0.0311078
0.0329356 0.0329356 0.0329356
0.0358731 0.0358731 0.0358731
0.0379700 0.0379700 0.0379700
0.0401843 0.0401843 0.0401843
0.0425183 0.0425183 0.0425183
0.0449775 0.0449775 0.0449775
0.0475720 0.0475720 0.0475720
0.0489220 0.0489220 0.0489220
0.0517316 0.0517316 0.0517316
0.0546934 0.0546934 0.0546934
0.0562238 0.0562238 0.0562238
0.0593960 0.0593960 0.0593960
0.0627353 0.0627353 0.0627353
0.0644699 0.0644699 0.0644699
0.0680738 0.0680738 0.0680738
0.0699450 0.0699450 0.0699450
0.0718636 0.0718636 0.0718636
0.0758256 0.0758256 0.0758256
0.0778753 0.0778753 0.0778753
0.0799757 0.0799757 0.0799757
0.0821277 0.0821277 0.0821277
0.0865905 0.0865905 0.0865905
0.0889032 0.0889032 0.0889032
0.0912716 0.0912716 0.0912716
0.0936966 0.0936966 0.0936966
0.0961792 0.0961792 0.0961792
0.0987297 0.0987297 0.0987297
0.1013404 0.1013404 0.1013404
0.1040120 0.1040120 0.1040120
0.1067457 0.1067457 0.1067457
0.1095425 0.1095425 0.1095425
0.1124034 0.1124034 0.1124034
0.1153293 0.1153293 0.1153293
0.1183212 0.1183212 0.1183212
0.1213800 0.1213800 0.1213800
0.1245068 0.1245068 0.1245068
0.1277376 0.1277376 0.1277376
0.1310578 0.1310578 0.1310578
0.1344509 0.1344509 0.1344509
0.1379179 0.1379179 0.1379179
0.1414597 0.1414597 0.1414597
0.1414597 0.1414597 0.1414597
0.1450772 0.1450772 0.1450772
0.1487712 0.1487712 0.1487712
0.1525424 0.1525424 0.1525424
0.0046352 0.0046352 0.0046352
0.0056914 0.0056914 0.0056914
0.0068763 0.0068763 0.0068763
0.0081127 0.0081127 0.0081127
0.0095818 0.0095818 0.0095818
0.0110508 0.0110508 0.0110508
0.0123846 0.0123846 0.0123846
0.0139042 0.0139042 0.0139042
0.0156134 0.0156134 0.0156134
0.0175276 0.0175276 0.0175276
0.0191096 0.0191096 0.0191096
0.0214383 0.0214383 0.0214383
0.0233660 0.0233660 0.0233660
0.0247466 0.0247466 0.0247466
0.0269677 0.0269677 0.0269677
0.0293822 0.0293822 0.0293822
0.0311078 0.0311078 0.0311078
0.0329356 0.0329356 0.0329356
0.0358731 0.0358731 0.0358731
0.0379700 0.0379700 0.0379700
0.0401843 0.0401843 0.0401843
0.0425183 0.0425183 0.0425183
0.0449775 0.0449775 0.0449775
0.0475720 0.0475720 0.0475720
0.0489220 0.0489220 0.0489220
0.0517316 0.0517316 0.0517316
0.0546934 0.0546934 0.0546934
0.0562238 0.0562238 0.0562238
0.0593960 0.0593960 0.0593960
0.0627353 0.0627353 0.0627353
0.0644699 0.0644699 0.0644699
0.0680738 0.0680738 0.0680738
0.0699450 0.0699450 0.0699450
0.0718636 0.0718636 0.0718636
0.0758256 0.0758256 0.0758256
0.0778753 0.0778753 0.0778753
0.0799757 0.0799757 0.0799757
0.0821277 0.0821277 0.0821277
0.0865905 0.0865905 0.0865905
0.0889032 0.0889032 0.0889032
0.0912716 0.0912716 0.0912716
0.0936966 0.0936966 0.0936966
0.0961792 0.0961792 0.0961792
0.0987297 0.0987297 0.0987297
0.1013404 0.1013404 0.1013404
0.1040120 0.1040120 0.1040120
0.1067457 0.1067457 0.1067457
0.1095425 0.1095425 0.1095425
0.1124034 0.1124034 0.1124034
0.1153293 0.1153293 0.1153293
0.1183212 0.1183212 0.1183212
0.1213800 0.1213800 0.1213800
0.1245068 0.1245068 0.1245068
0.1277376 0.1277376 0.1277376
0.1310578 0.1310578 0.1310578
0.1344509 0.1344509 0.1344509
0.1379179 0.1379179 0.1379179
0.1414597 0.1414597 0.1414597
0.1414597 0.1414597 0.1414597
0.1450772 0.1450772 0.1450772
0.1487712 0.1487712 0.1487712
0.1525424 0.1525424 0.1525424
0.1563917 0.1563917 0.1563917
0.1563917 0.1563917 0.1563917
0.0068763 0.0068763 0.0068763
0.0081127 0.0081127 0.0081127
0.0095818 0.0095818 0.0095818
0.0110508 0.0110508 0.0110508
0.0123846 0.0123846 0.0123846
0.0139042 0.0139042 0.0139042
0.0156134 0.0156134 0.0156134
0.0175276 0.0175276 0.0175276
0.0191096 0.0191096 0.0191096
0.0214383 0.0214383 0.0214383
0.0233660 0.0233660 0.0233660
0.0247466 0.0247466 0.0247466
0.0269677 0.0269677 0.0269677
0.0293822 0.0293822 0.0293822
0.0311078 0.0311078 0.0311078
0.0329356 0.0329356 0.0329356
0.0358731 0.0358731 0.0358731
0.0379700 0.0379700 0.0379700
0.0401843 0.0401843 0.0401843
0.0425183 0.0425183 0.0425183
0.0449775 0.0449775 0.0449775
0.0475720 0.0475720 0.0475720
0.0489220 0.0489220 0.0489220
0.0517316 0.0517316 0.0517316
0.0546934 0.0546934 0.0546934
0.0577895 0.0577895 0.0577895
0.0593960 0.0593960 0.0593960
0.0627353 0.0627353 0.0627353
0.0644699 0.0644699 0.0644699
0.0680738 0.0680738 0.0680738
0.0699450 0.0699450 0.0699450
0.0718636 0.0718636 0.0718636
0.0758256 0.0758256 0.0758256
0.0778753 0.0778753 0.0778753
0.0799757 0.0799757 0.0799757
0.0821277 0.0821277 0.0821277
0.0865905 0.0865905 0.0865905
0.0889032 0.0889032 0.0889032
0.0912716 0.0912716 0.0912716
0.0936966 0.0936966 0.0936966
0.0961792 0.0961792 0.0961792
0.0987297 0.0987297 0.0987297
0.1013404 0.1013404 0.1013404
0.1040120 0.1040120 0.1040120
0.1067457 0.1067457 0.1067457
0.1095425 0.1095425 0.1095425
0.1124034 0.1124034 0.1124034
0.1153293 0.1153293 0.1153293
0.1183212 0.1183212 0.1183212
0.1213800 0.1213800 0.1213800
0.1245068 0.1245068 0.1245068
0.1277376 0.1277376 0.1277376
0.1310578 0.1310578 0.1310578
0.1344509 0.1344509 0.1344509
0.1379179 0.1379179 0.1379179
0.1414597 0.1414597 0.1414597
0.1414597 0.1414597 0.1414597
0.1450772 0.1450772 0.1450772
0.1487712 0.1487712 0.1487712
0.1525424 0.1525424 0.1525424
0.1563917 0.1563917 0.1563917
0.1563917 0.1563917 0.1563917
0.1603197 0.1603197 0.1603197
0.1643535 0.1643535 0.1643535
0.0095818 0.0095818 0.0095818
0.0110508 0.0110508 0.0110508
0.0123846 0.0123846 0.0123846
0.0139042 0.0139042 0.0139042
0.0156134 0.0156134 0.0156134
0.0175276 0.0175276 0.0175276
0.0191096 0.0191096 0.0191096
0.0214383 0.0214383 0.0214383
0.0233660 0.0233660 0.0233660
0.0247466 0.0247466 0.0247466
0.0269677 0.0269677 0.0269677
0.0293822 0.0293822 0.0293822
0.0311078 0.0311078 0.0311078
0.0329356 0.0329356 0.0329356
0.0358731 0.0358731 0.0358731
0.0379700 0.0379700 0.0379700
0.0401843 0.0401843 0.0401843
0.0425183 0.0425183 0.0425183
0.0449775 0.0449775 0.0449775
0.0475720 0.0475720 0.0475720
0.0489220 0.0489220 0.0489220
0.0517316 0.0517316 0.0517316
0.0546934 0.0546934 0.0546934
0.0577895 0.0577895 0.0577895
0.0593960 0.0593960 0.0593960
0.0627353 0.0627353 0.0627353
0.0644699 0.0644699 0.0644699
0.0680738 0.0680738 0.0680738
0.0699450 0.0699450 0.0699450
0.0718636 0.0718636 0.0718636
0.0758256 0.0758256 0.0758256
0.0778753 0.0778753 0.0778753
0.0799757 0.0799757 0.0799757
0.0821277 0.0821277 0.0821277
0.0865905 0.0865905 0.0865905
0.0889032 0.0889032 0.0889032
0.0912716 0.0912716 0.0912716
0.0936966 0.0936966 0.0936966
0.0961792 0.0961792 0.0961792
0.0987297 0.0987297 0.0987297
0.1013404 0.1013404 0.1013404
0.1040120 0.1040120 0.1040120
0.1067457 0.1067457 0.1067457
0.1095425 0.1095425 0.1095425
0.1124034 0.1124034 0.1124034
0.1153293 0.1153293 0.1153293
0.1183212 0.1183212 0.1183212
0.1213800 0.1213800 0.1213800
0.1245068 0.1245068 0.1245068
0.1277376 0.1277376 0.1277376
0.1310578 0.1310578 0.1310578
0.1344509 0.1344509 0.1344509
0.1379179 0.1379179 0.1379179
0.1414597 0.1414597 0.1414597
0.1414597 0.1414597 0.1414597
0.1450772 0.1450772 0.1450772
0.1487712 0.1487712 0.1487712
0.1525424 0.1525424 0.1525424
0.1563917 0.1563917 0.1563917
0.1563917 0.1563917 0.1563917
0.1603197 0.1603197 0.1603197
0.1643535 0.1643535 0.1643535
0.1685222 0.1685222 0.1685222
0.1685222 0.1685222 0.1685222
0.0123846 0.0123846 0.0123846
0.0139042 0.0139042 0.0139042
0.0156134 0.0156134 0.0156134
0.0175276 0.0175276 0.0175276
0.0191096 0.0191096 0.0191096
0.0214383 0.0214383 0.0214383
0.0233660 0.0233660 0.0233660
0.0247466 0.0247466 0.0247466
0.0269677 0.0269677 0.0269677
0.0293822 0.0293822 0.0293822
0.0311078 0.0311078 0.0311078
0.0329356 0.0329356 0.0329356
0.0358731 0.0358731 0.0358731
0.0379700 0.0379700 0.0379700
0.0401843 0.0401843 0.0401843
0.0425183 0.0425183 0.0425183
0.0449775 0.0449775 0.0449775
0.0475720 0.0475720 0.0475720
0.0489220 0.0489220 0.0489220
0.0517316 0.0517316 0.0517316
0.0546934 0.0546934 0.0546934
0.0577895 0.0577895 0.0577895
0.0593960 0.0593960 0.0593960
0.0627353 0.0627353 0.0627353
0.0644699 0.0644699 0.0644699
0.0680738 0.0680738 0.0680738
0.0699450 0.0699450 0.0699450
0.0718636 0.0718636 0.0718636
0.0758256 0.0758256 0.0758256
0.0778753 0.0778753 0.0778753
0.0799757 0.0799757 0.0799757
0.0821277 0.0821277 0.0821277
0.0865905 0.0865905 0.0865905
0.0889032 0.0889032 0.0889032
0.0912716 0.0912716 0.0912716
0.0936966 0.0936966 0.0936966
0.0961792 0.0961792 0.0961792
0.0987297 0.0987297 0.0987297
0.1013404 0.1013404 0.1013404
0.1040120 0.1040120 0.1040120
0.1067457 0.1067457 0.1067457
0.1095425 0.1095425 0.1095425
0.1124034 0.1124034 0.1124034
0.1153293 0.1153293 0.1153293
0.1183212 0.1183212 0.1183212
0.1213800 0.1213800 0.1213800
0.1245068 0.1245068 0.1245068
0.1277376 0.1277376 0.1277376
0.1310578 0.1310578 0.1310578
0.1344509 0.1344509 0.1344509
0.1379179 0.1379179 0.1379179
0.1414597 0.1414597 0.1414597
0.1414597 0.1414597 0.1414597
0.1450772 0.1450772 0.1450772
0.1487712 0.1487712 0.1487712
0.1525424 0.1525424 0.1525424
0.1563917 0.1563917 0.1563917
0.1563917 0.1563917 0.1563917
0.1603197 0.1603197 0.1603197
0.1643535 0.1643535 0.1643535
0.1685222 0.1685222 0.1685222
0.1685222 0.1685222 0.1685222
0.1727748 0.1727748 0.1727748
0.1771118 0.1771118 0.1771118
0.0156134 0.0156134 0.0156134
0.0175276 0.0175276 0.0175276
0.0191096 0.0191096 0.0191096
0.0214383 0.0214383 0.0214383
0.0233660 0.0233660 0.0233660
0.0247466 0.0247466 0.0247466
0.0269677 0.0269677 0.0269677
0.0293822 0.0293822 0.0293822
0.0311078 0.0311078 0.0311078
0.0329356 0.0329356 0.0329356
0.0358731 0.0358731 0.0358731
0.0379700 0.0379700 0.0379700
0.0401843 0.0401843 0.0401843
0.0425183 0.0425183 0.0425183
0.0449775 0.0449775 0.0449775
0.0475720 0.0475720 0.0475720
0.0489220 0.0489220 0.0489220
0.0517316 0.0517316 0.0517316
0.0546934 0.0546934 0.0546934
0.0577895 0.0577895 0.0577895
0.0593960 0.0593960 0.0593960
0.0627353 0.0627353 0.0627353
0.0644699 0.0644699 0.0644699
0.0680738 0.0680738 0.0680738
0.0699450 0.0699450 0.0699450
0.0718636 0.0718636 0.0718636
0.0758256 0.0758256 0.0758256
0.0778753 0.0778753 0.0778753
0.0799757 0.0799757 0.0799757
0.0821277 0.0821277 0.0821277
0.0865905 0.0865905 0.0865905
0.0889032 0.0889032 0.0889032
0.0912716 0.0912716 0.0912716
0.0936966 0.0936966 0.0936966
0.0961792 0.0961792 0.0961792
0.0987297 0.0987297 0.0987297
0.1013404 0.1013404 0.1013404
0.1040120 0.1040120 0.1040120
0.1067457 0.1067457 0.1067457
0.1095425 0.1095425 0.1095425
0.1124034 0.1124034 0.1124034
0.1153293 0.1153293 0.1153293
0.1183212 0.1183212 0.1183212
0.1213800 0.1213800 0.1213800
0.1245068 0.1245068 0.1245068
0.1277376 0.1277376 0.1277376
0.1310578 0.1310578 0.1310578
0.1344509 0.1344509 0.1344509
0.1379179 0.1379179 0.1379179
0.1414597 0.1414597 0.1414597
0.1414597 0.1414597 0.1414597
0.1450772 0.1450772 0.1450772
0.1487712 0.1487712 0.1487712
0.1525424 0.1525424 0.1525424
0.1563917 0.1563917 0.1563917
0.1563917 0.1563917 0.1563917
0.1603197 0.1603197 0.1603197
0.1643535 0.1643535 0.1643535
0.1685222 0.1685222 0.1685222
0.1685222 0.1685222 0.1685222
0.1727748 0.1727748 0.1727748
0.1771118 0.1771118 0.1771118
0.1771118 0.1771118 0.1771118
0.1815338 0.1815338 0.1815338
0.0191096 0.0191096 0.0191096
0.0214383 0.0214383 0.0214383
0.0233660 0.0233660 0.0233660
0.0247466 0.0247466 0.0247466
0.0269677 0.0269677 0.0269677
0.0293822 0.0293822 0.0293822
0.0311078 0.0311078 0.0311078
0.0329356 0.0329356 0.0329356
0.0358731 0.0358731 0.0358731
0.0379700 0.0379700 0.0379700
0.0401843 0.0401843 0.0401843
0.0425183 0.0425183 0.0425183
0.0449775 0.0449775 0.0449775
0.0475720 0.0475720 0.0475720
0.0489220 0.0489220 0.0489220
0.0517316 0.0517316 0.0517316
0.0546934 0.0546934 0.0546934
0.0577895 0.0577895 0.0577895
0.0593960 0.0593960 0.0593960
0.0627353 0.0627353 0.0627353
0.0644699 0.0644699 0.0644699
0.0680738 0.0680738 0.0680738
0.0699450 0.0699450 0.0699450
0.0718636 0.0718636 0.0718636
0.0758256 0.0758256 0.0758256
0.0778753 0.0778753 0.0778753
0.0799757 0.0799757 0.0799757
0.0821277 0.0821277 0.0821277
0.0865905 0.0865905 0.0865905
0.0889032 0.0889032 0.0889032
0.0912716 0.0912716 0.0912716
0.0936966 0.0936966 0.0936966
0.0961792 0.0961792 0.0961792
0.0987297 0.0987297 0.0987297
0.1013404 0.1013404 0.1013404
0.1040120 0.1040120 0.1040120
0.1067457 0.1067457 0.1067457
0.1095425 0.1095425 0.1095425
0.1124034 0.1124034 0.1124034
0.1153293 0.1153293 0.1153293
0.1183212 0.1183212 0.1183212
0.1213800 0.1213800 0.1213800
0.1245068 0.1245068 0.1245068
0.1277376 0.1277376 0.1277376
0.1310578 0.1310578 0.1310578
0.1344509 0.1344509 0.1344509
0.1379179 0.1379179 0.1379179
0.1414597 0.1414597 0.1414597
0.1414597 0.1414597 0.1414597
0.1450772 0.1450772 0.1450772
0.1487712 0.1487712 0.1487712
0.1525424 0.1525424 0.1525424
0.1563917 0.1563917 0.1563917
0.1563917 0.1563917 0.1563917
0.1603197 0.1603197 0.1603197
0.1643535 0.1643535 0.1643535
0.1685222 0.1685222 0.1685222
0.1685222 0.1685222 0.1685222
0.1727748 0.1727748 0.1727748
0.1771118 0.1771118 0.1771118
0.1771118 0.1771118 0.1771118
0.1815338 0.1815338 0.1815338
0.1860412 0.1860412 0.1860412
0.1906345 0.1906345 0.1906345
0.0233660 0.0233660 0.0233660
0.0247466 0.0247466 0.0247466
0.0269677 0.0269677 0.0269677
0.0293822 0.0293822 0.0293822
0.0311078 0.0311078 0.0311078
0.0329356 0.0329356 0.0329356
0.0358731 0.0358731 0.0358731
0.0379700 0.0379700 0.0379700
0.0401843 0.0401843 0.0401843
0.0425183 0.0425183 0.0425183
0.0449775 0.0449775 0.0449775
0.0475720 0.0475720 0.0475720
0.0489220 0.0489220 0.0489220
0.0517316 0.0517316 0.0517316
0.0546934 0.0546934 0.0546934
0.0577895 0.0577895 0.0577895
0.0593960 0.0593960 0.0593960
0.0627353 0.0627353 0.0627353
0.0644699 0.0644699 0.0644699
0.0680738 0.0680738 0.0680738
0.0699450 0.0699450 0.0699450
0.0718636 0.0718636 0.0718636
0.0758256 0.0758256 0.0758256
0.0778753 0.0778753 0.0778753
0.0799757 0.0799757 0.0799757
0.0821277 0.0821277 0.0821277
0.0865905 0.0865905 0.0865905
0.0889032 0.0889032 0.0889032
0.0912716 0.0912716 0.0912716
0.0936966 0.0936966 0.0936966
0.0961792 0.0961792 0.0961792
0.0987297 0.0987297 0.0987297
0.1013404 0.1013404 0.1013404
0.1040120 0.1040120 0.1040120
0.1067457 0.1067457 0.1067457
0.1095425 0.1095425 0.1095425
0.1124034 0.1124034 0.1124034
0.1153293 0.1153293 0.1153293
0.1183212 0.1183212 0.1183212
0.1213800 0.1213800 0.1213800
0.1245068 0.1245068 0.1245068
0.1277376 0.1277376 0.1277376
0.1310578 0.1310578 0.1310578
0.1344509 0.1344509 0.1344509
0.1379179 0.1379179 0.1379179
0.1414597 0.1414597 0.1414597
0.1414597 0.1414597 0.1414597
0.1450772 0.1450772 0.1450772
0.1487712 0.1487712 0.1487712
0.1525424 0.1525424 0.1525424
0.1563917 0.1563917 0.1563917
0.1563917 0.1563917 0.1563917
0.1603197 0.1603197 0.1603197
0.1643535 0.1643535 0.1643535
0.1685222 0.1685222 0.1685222
0.1685222 0.1685222 0.1685222
0.1727748 0.1727748 0.1727748
0.1771118 0.1771118 0.1771118
0.1771118 0.1771118 0.1771118
0.1815338 0.1815338 0.1815338
0.1860412 0.1860412 0.1860412
0.1906345 0.1906345 0.1906345
0.1906345 0.1906345 0.1906345
0.1953139 0.1953139 0.1953139
0.0269677 0.0269677 0.0269677
0.0293822 0.0293822 0.0293822
0.0311078 0.0311078 0.0311078
0.0329356 0.0329356 0.0329356
0.0358731 0.0358731 0.0358731
0.0379700 0.0379700 0.0379700
0.0401843 0.0401843 0.0401843
0.0425183 0.0425183 0.0425183
0.0449775 0.0449775 0.0449775
0.0475720 0.0475720 0.0475720
0.0489220 0.0489220 0.0489220
0.0517316 0.0517316 0.0517316
0.0546934 0.0546934 0.0546934
0.0577895 0.0577895 0.0577895
0.0593960 0.0593960 0.0593960
0.0627353 0.0627353 0.0627353
0.0644699 0.0644699 0.0644699
0.0680738 0.0680738 0.0680738
0.0699450 0.0699450 0.0699450
0.0718636 0.0718636 0.0718636
0.0758256 0.0758256 0.0758256
0.0778753 0.0778753 0.0778753
0.0799757 0.0799757 0.0799757
0.0821277 0.0821277 0.0821277
0.0865905 0.0865905 0.0865905
0.0889032 0.0889032 0.0889032
0.0912716 0.0912716 0.0912716
0.0936966 0.0936966 0.0936966
0.0961792 0.0961792 0.0961792
0.0987297 0.0987297 0.0987297
0.1013404 0.1013404 0.1013404
0.1040120 0.1040120 0.1040120
0.1067457 0.1067457 0.1067457
0.1095425 0.1095425 0.1095425
0.1124034 0.1124034 0.1124034
0.1153293 0.1153293 0.1153293
0.1183212 0.1183212 0.1183212
0.1213800 0.1213800 0.1213800
0.1245068 0.1245068 0.1245068
0.1277376 0.1277376 0.1277376
0.1310578 0.1310578 0.1310578
0.1344509 0.1344509 0.1344509
0.1379179 0.1379179 0.1379179
0.1414597 0.1414597 0.1414597
0.1414597 0.1414597 0.1414597
0.1450772 0.1450772 0.1450772
0.1487712 0.1487712 0.1487712
0.1525424 0.1525424 0.1525424
0.1563917 0.1563917 0.1563917
0.1563917 0.1563917 0.1563917
0.1603197 0.1603197 0.1603197
0.1643535 0.1643535 0.1643535
0.1685222 0.1685222 0.1685222
0.1685222 0.1685222 0.1685222
0.1727748 0.1727748 0.1727748
0.1771118 0.1771118 0.1771118
0.1771118 0.1771118 0.1771118
0.1815338 0.1815338 0.1815338
0.1860412 0.1860412 0.1860412
0.1906345 0.1906345 0.1906345
0.1906345 0.1906345 0.1906345
0.1953139 0.1953139 0.1953139
0.2000800 0.2000800 0.2000800
0.2000800 0.2000800 0.2000800
0.0311078 0.0311078 0.0311078
0.0329356 0.0329356 0.0329356
0.0358731 0.0358731 0.0358731
0.0379700 0.0379700 0.0379700
0.0401843 0.0401843 0.0401843
0.0425183 0.0425183 0.0425183
0.0449775 0.0449775 0.0449775
0.0475720 0.0475720 0.0475720
0.0489220 0.0489220 0.0489220
0.0517316 0.0517316 0.0517316
0.0546934 0.0546934 0.0546934
0.0577895 0.0577895 0.0577895
0.0593960 0.0593960 0.0593960
0.0627353 0.0627353 0.0627353
0.0644699 0.0644699 0.0644699
0.0680738 0.0680738 0.0680738
0.0699450 0.0699450 0.0699450
0.0718636 0.0718636 0.0718636
0.0758256 0.0758256 0.0758256
0.0778753 0.0778753 0.0778753
0.0799757 0.0799757 0.0799757
0.0821277 0.0821277 0.0821277
0.0865905 0.0865905 0.0865905
0.0889032 0.0889032 0.0889032
0.0912716 0.0912716 0.0912716
0.0936966 0.0936966 0.0936966
0.0961792 0.0961792 0.0961792
0.0987297 0.0987297 0.0987297
0.1013404 0.1013404 0.1013404
0.1040120 0.1040120 0.1040120
0.1067457 0.1067457 0.1067457
0.1095425 0.1095425 0.1095425
0.1124034 0.1124034 0.1124034
0.1153293 0.1153293 0.1153293
0.1183212 0.1183212 0.1183212
0.1213800 0.1213800 0.1213800
0.1245068 0.1245068 0.1245068
0.1277376 0.1277376 0.1277376
0.1310578 0.1310578 0.1310578
0.1344509 0.1344509 0.1344509
0.1379179 0.1379179 0.1379179
0.1414597 0.1414597 0.1414597
0.1414597 0.1414597 0.1414597
0.1450772 0.1450772 0.1450772
0.1487712 0.1487712 0.1487712
0.1525424 0.1525424 0.1525424
0.1563917 0.1563917 0.1563917
0.1563917 0.1563917 0.1563917
0.1603197 0.1603197 0.1603197
0.1643535 0.1643535 0.1643535
0.1685222 0.1685222 0.1685222
0.1685222 0.1685222 0.1685222
0.1727748 0.1727748 0.1727748
0.1771118 0.1771118 0.1771118
0.1771118 0.1771118 0.1771118
0.1815338 0.1815338 0.1815338
0.1860412 0.1860412 0.1860412
0.1906345 0.1906345 0.1906345
0.1906345 0.1906345 0.1906345
0.1953139 0.1953139 0.1953139
0.2000800 0.2000800 0.2000800
0.2000800 0.2000800 0.2000800
0.2049325 0.2049325 0.2049325
0.2049325 0.2049325 0.2049325
0.0358731 0.0358731 0.0358731
0.0379700 0.0379700 0.0379700
0.0401843 0.0401843 0.0401843
0.0425183 0.0425183 0.0425183
0.0449775 0.0449775 0.0449775
0.0475720 0.0475720 0.0475720
0.0489220 0.0489220 0.0489220
0.0517316 0.0517316 0.0517316
0.0546934 0.0546934 0.0546934
0.0577895 0.0577895 0.0577895
0.0593960 0.0593960 0.0593960
0.0627353 0.0627353 0.0627353
0.0644699 0.0644699 0.0644699
0.0680738 0.0680738 0.0680738
0.0699450 0.0699450 0.0699450
0.0718636 0.0718636 0.0718636
0.0758256 0.0758256 0.0758256
0.0778753 0.0778753 0.0778753
0.0799757 0.0799757 0.0799757
0.0821277 0.0821277 0.0821277
0.0865905 0.0865905 0.0865905
0.0889032 0.0889032 0.0889032
0.0912716 0.0912716 0.0912716
0.0936966 0.0936966 0.0936966
0.0961792 0.0961792 0.0961792
0.0987297 0.0987297 0.0987297
0.1013404 0.1013404 0.1013404
0.1040120 0.1040120 0.1040120
0.1067457 0.1067457 0.1067457
0.1095425 0.1095425 0.1095425
