Plugins/FilmEmulator/Content/LUTs/FE_Kodak_2302_Dev9_64.cube
TITLE "FE_Kodak_2302_Dev9_33"
LUT_3D_SIZE 4
0.0019023 0.0019023 0.0019023
0.0035443 0.0035443 0.0035443
0.0122435 0.0122435 0.0122435
0.0423541 0.0423541 0.0423541
0.0027568 0.0027568 0.0027568
0.0085175 0.0085175 0.0085175
0.0299879 0.0299879 0.0299879
0.0911594 0.0911594 0.0911594
0.0058962 0.0058962 0.0058962
0.0210838 0.0210838 0.0210838
0.0671333 0.0671333 0.0671333
0.1754502 0.1754502 0.1754502
0.0145114 0.0145114 0.0145114
0.0498114 0.0498114 0.0498114
0.1378200 0.1378200 0.1378200
0.3054742 0.3054742 0.3054742
0.5870757 0.5870757 0.5870757
0.7415762 0.7415762 0.7415762
0.8362744 0.8362744 0.8362744
0.8969161 0.8969161 0.8969161
0.6972006 0.6972006 0.6972006
0.8104387 0.8104387 0.8104387
0.8839616 0.8839616 0.8839616
0.9252411 0.9252411 0.9252411
0.7816994 0.7816994 0.7816994
0.8644962 0.8644962 0.8644962
0.9156328 0.9156328 0.9156328
0.9438457 0.9438457 0.9438457
0.8480926 0.8480926 0.8480926
0.9048260 0.9048260 0.9048260
0.9364887 0.9364887 0.9364887
0.9578739 0.9578739 0.9578739
0.9756199 0.9756199 0.9756199
0.9825125 0.9825125 0.9825125
0.9867557 0.9867557 0.9867557
0.9898566 0.9898566 0.9898566
0.9809937 0.9809937 0.9809937
0.9856890 0.9856890 0.9856890
0.9890910 0.9890910 0.9890910
0.9914933 0.9914933 0.9914933
0.9845379 0.9845379 0.9845379
0.9882102 0.9882102 0.9882102
0.9908726 0.9908726 0.9908726
0.9926118 0.9926118 0.9926118
0.9872591 0.9872591 0.9872591
0.9902071 0.9902071 0.9902071
0.9923466 0.9923466 0.9923466
0.9937260 0.9937260 0.9937260
0.9951399 0.9951399 0.9951399
0.9958235 0.9958235 0.9958235
0.9964783 0.9964783 0.9964783
0.9969215 0.9969215 0.9969215
0.9956949 0.9956949 0.9956949
0.9962837 0.9962837 0.9962837
0.9967513 0.9967513 0.9967513
0.9971543 0.9971543 0.9971543
0.9961824 0.9961824 0.9961824
0.9966627 0.9966627 0.9966627
0.9970033 0.9970033 0.9970033
0.9973584 0.9973584 0.9973584
0.9964783 0.9964783 0.9964783
0.9969215 0.9969215 0.9969215
0.9972920 0.9972920 0.9972920
0.9975479 0.9975479 0.9975479
