Plugins/FilmEmulator/Content/LUTs/FE_Kodak_EXR_5248_64.cube
TITLE "FE_Kodak_EXR_5248_33"
LUT_3D_SIZE 8
0.0010210 0.0007672 0.0010671
0.0748132 0.0013552 0.0017030
0.1861396 0.0037145 0.0044618
0.3084785 0.0068283 0.0079285
0.4152869 0.0106292 0.0120414
0.5043913 0.0149263 0.0165987
0.5766588 0.0195882 0.0214259
0.6388307 0.0248419 0.0267572
0.0041659 0.0891501 0.0064628
0.0796706 0.0957428 0.0071417
0.1912689 0.1057099 0.0097227
0.3043629 0.1129022 0.0141565
0.4048198 0.1167233 0.0187343
0.4956935 0.1244623 0.0240272
0.5698373 0.1326137 0.0298529
0.6340375 0.1411927 0.0359344
0.0114556 0.2359639 0.0174952
0.0930951 0.2435189 0.0182854
0.2032590 0.2506646 0.0199492
0.3133469 0.2577823 0.0211523
0.4150741 0.2650822 0.0270681
0.4973409 0.2724261 0.0325498
0.5718443 0.2798645 0.0379302
0.6365985 0.2874155 0.0441923
0.0202431 0.3723614 0.0310212
0.1067797 0.3819453 0.0325266
0.2180977 0.3824567 0.0333054
0.3251764 0.3914427 0.0352986
0.4194102 0.4004014 0.0363149
0.5116062 0.4007129 0.0409578
0.5766293 0.4097797 0.0477066
0.6415165 0.4189406 0.0538432
0.0305081 0.4892119 0.0466965
0.1228562 0.4994038 0.0490527
0.2280831 0.4998870 0.0502571
0.3382295 0.5096138 0.0516259
0.4341499 0.5098876 0.0530482
0.5172756 0.5194806 0.0545895
0.5824750 0.5196655 0.0561601
0.6474127 0.5292864 0.0633446
0.0417415 0.5826113 0.0637413
0.1374068 0.5925377 0.0650344
0.2457400 0.5929893 0.0666312
0.3525483 0.5933201 0.0683843
0.4404207 0.6022056 0.0703249
0.5240561 0.6024274 0.0722777
0.5891019 0.6109799 0.0743847
0.6540451 0.6111639 0.0764814
0.0535430 0.6500949 0.0839162
0.1493368 0.6586895 0.0831882
0.2578909 0.6590939 0.0852233
0.3675618 0.6594040 0.0874299
0.4566056 0.6674928 0.0898683
0.5312711 0.6676570 0.0896534
0.5967776 0.6678253 0.0921529
0.6520617 0.6757425 0.0948141
0.0664430 0.7025360 0.1035564
0.1671734 0.7098978 0.1027518
0.2780052 0.7102541 0.1052453
0.3744941 0.7105024 0.1079863
0.4642802 0.7106924 0.1076707
0.5388382 0.7175840 0.1106770
0.6045029 0.7177393 0.1137036
0.6596016 0.7178577 0.1134943
0.0043694 0.0022654 0.1014744
0.0868341 0.0048723 0.1036937
0.1985768 0.0081283 0.1041368
0.3202395 0.0118150 0.1076248
0.4207897 0.0160370 0.1080362
0.5106371 0.0210423 0.1116342
0.5834370 0.0257897 0.1152167
0.6459109 0.0315913 0.1155392
0.0110486 0.0992210 0.1274312
0.0955990 0.1062852 0.1289645
0.2079410 0.1134673 0.1282381
0.3193730 0.1210024 0.1315647
0.4219410 0.1249685 0.1312192
0.5041721 0.1330928 0.1348874
0.5782907 0.1416502 0.1386827
0.6427205 0.1461319 0.1385076
0.0199214 0.2440361 0.1496695
0.1084606 0.2515545 0.1518758
0.2148054 0.2587581 0.1510386
0.3288873 0.2660113 0.1547486
0.4235566 0.2732919 0.1543941
0.5156138 0.2807023 0.1584363
0.5805785 0.2881639 0.1582488
0.6452609 0.2957725 0.1624954
0.0298768 0.3824695 0.1737474
0.1204788 0.3919588 0.1718895
0.2302947 0.3924374 0.1756087
0.3410759 0.4014656 0.1750233
0.4370219 0.4105045 0.1746316
0.5204952 0.4107257 0.1790124
0.5853487 0.4197922 0.1788061
0.6503935 0.4199779 0.1833579
0.0407681 0.4998428 0.1950378
0.1345000 0.5006394 0.1931461
0.2474965 0.5104909 0.1974387
0.3547347 0.5108063 0.1967003
0.4427867 0.5203956 0.1963260
0.5264623 0.5206255 0.2011449
0.5914296 0.5301401 0.2009194
0.6472473 0.5302829 0.2005815
0.0538749 0.5929180 0.2123186
0.1503183 0.5936189 0.2161488
0.2593914 0.5940265 0.2150867
0.3691483 0.6029937 0.2201214
0.4585785 0.6032121 0.2195492
0.5329930 0.6117558 0.2192426
0.5984472 0.6119351 0.2245893
0.6538885 0.6120722 0.2242218
0.0667742 0.6590279 0.2363811
0.1680694 0.6596072 0.2346388
0.2793128 0.6599939 0.2395965
0.3757883 0.6680936 0.2390278
0.4656632 0.6682974 0.2384205
0.5404740 0.6684844 0.2440427
0.6058293 0.6763892 0.2437646
0.6608506 0.6765164 0.2433748
0.0801666 0.7101575 0.2557564
0.1825727 0.7106410 0.2540902
0.2928268 0.7109796 0.2594122
0.3915852 0.7179195 0.2587995
0.4823893 0.7181067 0.2581580
0.5480407 0.7182602 0.2641808
0.6137691 0.7183957 0.2637100
0.6680890 0.7251252 0.2634608
0.0120296 0.0063644 0.2427043
0.1023820 0.0099567 0.2472047
0.2133386 0.0139991 0.2474137
0.3331640 0.0183829 0.2477416
0.4358054 0.0233231 0.2482101
0.5172850 0.0285887 0.2550189
0.5902864 0.0338531 0.2553956
0.6529996 0.0400632 0.2558254
0.0198225 0.1095913 0.2762312
0.1079225 0.1135487 0.2730517
0.2196034 0.1211559 0.2785757
0.3349667 0.1291247 0.2778794
0.4303114 0.1333101 0.2773286
0.5128782 0.1418783 0.2771035
0.5870764 0.1463882 0.2835346
0.6511247 0.1556379 0.2834210
0.0303924 0.2514189 0.3015099
0.1224032 0.2589355 0.2987446
0.2333577 0.2662661 0.2974214
0.3449920 0.2736208 0.2965645
0.4413295 0.2810549 0.3030597
0.5246074 0.2885587 0.3026184
0.5893617 0.2961486 0.3023162
0.6539061 0.3038844 0.3091652
0.0412593 0.3918559 0.3189201
0.1359921 0.3926104 0.3162676
0.2499173 0.4017827 0.3223191
0.3574788 0.4108882 0.3214950
0.4460439 0.4111064 0.3207600
0.5294904 0.4202189 0.3203049
0.5943732 0.4293736 0.3274120
0.6500352 0.4295132 0.3269424
0.0527034 0.5005871 0.3434169
0.1515568 0.5106694 0.3411551
0.2612764 0.5110891 0.3397280
0.3628675 0.5207451 0.3389602
0.4610370 0.5210194 0.3457670
0.5354483 0.5305550 0.3453720
0.6008300 0.5307165 0.3448271
0.6558763 0.5401961 0.3445638
0.0651690 0.5935766 0.3606149
0.1690407 0.6028529 0.3585011
0.2733988 0.6032175 0.3571866
0.3776994 0.6035250 0.3640096
0.4674370 0.6121085 0.3634365
0.5422570 0.6122835 0.3628064
0.6075498 0.6207407 0.3624538
0.6624694 0.6208766 0.3619597
0.0806497 0.6595988 0.3776209
0.1834123 0.6679780 0.3757521
0.2940092 0.6683192 0.3744067
0.3931881 0.6685858 0.3814524
0.4745468 0.6765256 0.3809478
0.5494626 0.6766883 0.3803038
0.6151346 0.6768340 0.3797268
0.6693548 0.6844696 0.3874818
0.0936687 0.7106444 0.3948244
0.1991819 0.7110952 0.3928510
0.3079721 0.7181044 0.3917611
0.4003281 0.7183310 0.3990296
0.4916779 0.7185186 0.3982165
0.5663151 0.7252787 0.3977628
0.6227762 0.7253945 0.3972539
0.6765630 0.7255311 0.4049714
0.0212264 0.0121576 0.3814300
0.1140926 0.0165649 0.3794015
0.2297013 0.0210468 0.3790862
0.3471491 0.0258207 0.3791459
0.4423746 0.0316477 0.3796058
0.5243526 0.0374730 0.3880996
0.5974162 0.0428767 0.3883521
0.6603189 0.0490220 0.3886656
0.0302164 0.1170192 0.4040066
0.1253300 0.1250063 0.4092297
0.2382801 0.1291784 0.4076894
0.3509968 0.1375876 0.4069228
0.4479151 0.1420024 0.4062528
0.5310075 0.1510404 0.4059768
0.5955802 0.1557814 0.4139224
0.6505325 0.1655079 0.4138682
0.0405964 0.2656420 0.4263897
0.1378880 0.2733603 0.4235281
0.2463418 0.2737257 0.4302869
0.3615140 0.2812130 0.4292695
0.4501300 0.2887373 0.4286703
0.5336298 0.2963673 0.4281522
0.5983974 0.3040805 0.4277955
0.6535842 0.3118955 0.4275030
0.0532858 0.4011017 0.4465664
0.1532279 0.4017870 0.4438240
0.2635977 0.4109929 0.4424798
0.3656732 0.4201905 0.4416249
0.4640706 0.4204566 0.4491913
0.5385013 0.4296093 0.4487523
0.6037828 0.4297672 0.4481510
0.6586657 0.4389363 0.4478569
0.0657575 0.5104772 0.4659441
0.1654788 0.5204772 0.4637368
0.2753611 0.5208766 0.4622208
0.3800445 0.5211700 0.4611182
0.4699150 0.5307492 0.4605152
0.5447330 0.5309571 0.4683934
0.6099167 0.5404557 0.4680274
0.6646949 0.5405983 0.4674906
0.0786604 0.6026804 0.4764664
0.1846279 0.6032585 0.4741588
0.2879149 0.6119927 0.4816245
0.3949066 0.6122742 0.4805155
0.4766187 0.6124696 0.4797499
0.5512630 0.6209442 0.4792908
0.6168623 0.6210998 0.4786753
0.6712109 0.6212358 0.4781369
0.0941469 0.6678716 0.4951669
0.2000954 0.6683561 0.4930861
0.3094157 0.6686779 0.4917225
0.4017152 0.6766563 0.4910108
0.4931257 0.6768807 0.4989260
0.5587105 0.6770233 0.4983226
0.6241353 0.6846538 0.4979245
0.6778363 0.6847789 0.4973863
0.1060335 0.7109903 0.5049133
0.2107219 0.7181379 0.5119780
0.3238029 0.7184340 0.5106117
0.4181300 0.7186398 0.5096711
0.5007564 0.7254153 0.5091142
0.5754983 0.7255647 0.5084245
0.6319586 0.7256812 0.5078854
0.6846083 0.7257960 0.5073525
0.0319819 0.0189216 0.4846246
0.1313937 0.0240739 0.4913923
0.2475719 0.0285667 0.4907409
0.3616905 0.0350110 0.4908915
0.4587244 0.0400860 0.4909090
0.5410808 0.0474094 0.4913350
0.6045302 0.0541959 0.4916914
0.6675789 0.0599084 0.5005534
0.0416900 0.1248211 0.5150244
0.1411396 0.1332036 0.5123247
0.2512619 0.1375882 0.5108812
0.3588769 0.1464446 0.5101663
0.4564804 0.1510983 0.5094677
0.5397484 0.1606310 0.5179524
0.6043180 0.1656064 0.5175875
0.6589142 0.1758310 0.5175300
0.0524441 0.2730893 0.5296397
0.1553357 0.2808835 0.5270160
0.2667803 0.2885803 0.5344076
0.3695056 0.2962810 0.5335377
0.4682079 0.2964875 0.5326008
0.5426524 0.3042210 0.5321543
0.6075207 0.3120542 0.5317851
0.6621883 0.3199851 0.5314854
0.0665489 0.4015345 0.5502913
0.1672871 0.4109474 0.5480779
0.2777774 0.4202480 0.5467994
0.3829193 0.4205328 0.5456938
0.4729750 0.4297289 0.5450853
0.5475150 0.4389367 0.5446417
0.6128683 0.4390966 0.5440311
0.6672082 0.4483401 0.5524518
0.0793633 0.5202488 0.5616204
0.1807247 0.5208258 0.5594125
0.2899412 0.5305578 0.5582230
0.3972872 0.5308511 0.5571218
0.4788303 0.5403907 0.5566043
0.5537254 0.5405988 0.5645997
0.6189497 0.5500739 0.5642323
0.6731648 0.5502158 0.5636989
0.0919173 0.6030548 0.5720364
0.1955105 0.6119403 0.5702149
0.3031418 0.6122829 0.5688719
0.4037113 0.6125673 0.5764507
0.4949514 0.6210827 0.5758366
0.5605181 0.6212351 0.5752441
0.6258549 0.6296213 0.5748582
0.6794410 0.6297557 0.5743296
0.1065744 0.6681789 0.5819920
0.2118475 0.6686499 0.5886210
0.3250682 0.6767263 0.5875126
0.4195460 0.6769476 0.5865962
0.5024681 0.6771290 0.5858454
0.5676842 0.6847543 0.5854743
0.6333175 0.6848999 0.5848643
0.6858732 0.6850236 0.5843439
0.1234395 0.7180253 0.6000099
0.2292612 0.7184040 0.5983033
0.3318701 0.7186639 0.5971450
0.4268645 0.7254754 0.5964410
0.5101023 0.7256421 0.5956945
0.5849172 0.7257919 0.5950236
0.6408322 0.7324131 0.5947063
0.6843436 0.7325274 0.6027040
0.0437473 0.0265880 0.5819376
0.1470430 0.0315793 0.5799918
0.2596417 0.0374297 0.5795126
0.3684006 0.0443103 0.5795121
0.4659489 0.0506791 0.5795303
0.5489775 0.0560448 0.5794813
0.6124082 0.0640111 0.5798298
0.6662760 0.0706821 0.5800076
0.0537899 0.1330220 0.6012190
0.1541333 0.1418194 0.5989968
0.2719764 0.1464442 0.5975948
0.3754671 0.1557660 0.5969859
0.4650857 0.1606531 0.5963926
0.5484886 0.1706645 0.5961120
0.6131392 0.1758920 0.5957549
0.6674671 0.1812362 0.5954652
0.0654477 0.2806148 0.6150397
0.1695595 0.2884785 0.6128348
0.2810839 0.2962654 0.6116031
0.3865771 0.3040891 0.6107687
0.4771351 0.3042796 0.6099514
0.5516668 0.3121315 0.6095221
0.6165884 0.3200808 0.6091639
0.6706990 0.3281483 0.6172020
0.0803121 0.4106773 0.6264071
0.1825082 0.4201480 0.6245281
0.2924488 0.4294907 0.6233885
0.4002254 0.4297777 0.6223362
0.4819112 0.4390064 0.6218378
0.5567930 0.4391860 0.6211851
0.6218857 0.4484503 0.6290609
0.6756595 0.4577106 0.6287804
0.0927328 0.5205845 0.6369276
0.1970557 0.5304764 0.6352156
0.3052369 0.5308334 0.6339407
0.4058454 0.5404404 0.6332097
0.4974470 0.5406662 0.6324096
0.5626975 0.5501633 0.6402085
0.6281850 0.5503268 0.6396311
0.6813618 0.5597498 0.6393586
0.1072480 0.6117470 0.6468750
0.2130477 0.6122248 0.6451012
0.3186215 0.6208469 0.6441289
0.4213264 0.6211049 0.6431798
0.5043051 0.6212991 0.6424671
0.5694832 0.6297047 0.6501596
0.6350254 0.6298609 0.6495856
0.6874617 0.6299939 0.6490960
0.1203443 0.6762212 0.6562327
0.2302811 0.6766480 0.6545482
0.3331614 0.6769277 0.6534548
0.4282874 0.6846329 0.6527994
0.5115636 0.6848127 0.6520943
0.5768796 0.6849756 0.6593820
0.6424141 0.6851220 0.6588116
0.6856179 0.6922703 0.6586031
0.1352732 0.7182466 0.6648842
0.2423767 0.7186087 0.6633646
0.3481468 0.7254746 0.6624764
0.4450297 0.7256773 0.6616277
0.5194570 0.7258261 0.6610072
0.5846319 0.7324804 0.6681898
0.6498485 0.7326145 0.6676254
0.6923037 0.7327071 0.6672333
0.0560787 0.0348638 0.6490337
0.1644115 0.0413575 0.6474972
0.2797050 0.0473488 0.6468986
0.3841372 0.0541604 0.6467594
0.4830177 0.0598869 0.6465586
0.5565825 0.0683731 0.6468122
0.6203698 0.0754893 0.6469169
0.6737365 0.0832953 0.6547624
0.0670430 0.1416407 0.6655397
0.1731178 0.1508881 0.6636788
0.2862327 0.1557381 0.6625180
0.3923867 0.1655476 0.6619498
0.4829915 0.1706851 0.6613966
0.5574887 0.1759254 0.6609926
0.6218971 0.1866640 0.6608739
0.6756711 0.1922482 0.6606027
0.0789913 0.2882093 0.6779211
0.1849509 0.2961549 0.6760885
0.2958696 0.3040484 0.6750195
0.3950816 0.3119725 0.6743221
0.4858080 0.3199748 0.6737777
0.5606582 0.3201329 0.6731659
0.6255856 0.3281973 0.6728303
0.6791168 0.3363518 0.6725634
0.0937374 0.4198843 0.6881815
0.1989709 0.4293811 0.6865851
0.3078278 0.4297305 0.6853977
0.4088155 0.4390253 0.6847136
0.4908708 0.4483033 0.6842544
0.5657634 0.4484839 0.6836520
0.6308383 0.4577658 0.6833202
0.6840845 0.4579068 0.6828493
0.1081831 0.5302190 0.6903479
0.2147018 0.5307420 0.6958963
0.3207655 0.5404139 0.6950097
0.4237511 0.5406843 0.6941296
0.5065162 0.5501996 0.6936795
0.5719268 0.5503588 0.6931607
0.6370755 0.5598047 0.6928341
0.6813328 0.5599221 0.6924483
0.1212098 0.6119947 0.6991168
0.2315620 0.6207556 0.6977370
0.3347769 0.6210783 0.7038244
0.4303345 0.6213146 0.7030311
0.5133954 0.6297380 0.7025729
0.5786804 0.6298891 0.7020625
0.6438671 0.6382012 0.7017237
0.6872010 0.6383107 0.7013485
0.1359442 0.6764508 0.7074484
0.2434425 0.6768407 0.7060338
0.3494649 0.6846051 0.7052150
0.4464694 0.6848454 0.7114307
0.5209188 0.6850054 0.7108603
0.5860634 0.6921931 0.7105333
0.6511942 0.6923380 0.7100085
0.6935660 0.6924382 0.7096438
0.1524733 0.7250704 0.7153760
0.2628514 0.7254117 0.7140474
0.3650424 0.7256504 0.7131277
0.4541669 0.7258350 0.7124203
0.5285608 0.7324869 0.7120271
0.5941457 0.7326365 0.7184288
0.6587739 0.7327704 0.7179124
0.7001593 0.7328619 0.7175583
0.0695148 0.0441406 0.7018403
0.1785150 0.0505666 0.7004913
0.2933010 0.0578535 0.7000110
0.4004098 0.0639598 0.6996794
0.4908605 0.0706518 0.6995677
0.5647238 0.0780008 0.6995983
0.6285403 0.0860457 0.6996922
0.6813754 0.0948384 0.6998485
0.0808133 0.1507040 0.7160706
0.1885995 0.1604118 0.7145610
0.3009520 0.1655022 0.7135646
0.4009432 0.1706639 0.7129148
0.4916761 0.1811896 0.7126077
0.5661839 0.1866807 0.7122365
0.6308517 0.1922784 0.7119240
0.6840243 0.1979930 0.7116752
0.0922197 0.2958693 0.7204682
0.2015925 0.3039091 0.7188990
0.3111254 0.3119048 0.7179787
0.4125777 0.3199663 0.7241584
0.4947805 0.3280635 0.7237313
0.5696205 0.3282241 0.7231726
0.6345066 0.3363983 0.7228636
0.6872517 0.3446574 0.7226216
0.1060227 0.4290824 0.7299978
0.2165654 0.4386181 0.7285877
0.3234425 0.4389484 0.7275611
0.4264964 0.4482925 0.7269313
0.5096267 0.4484943 0.7263123
0.5747012 0.4577950 0.7324290
0.6399703 0.4579589 0.7319325
0.6838089 0.4672310 0.7317685
0.1221330 0.5398124 0.7383140
0.2333104 0.5402912 0.7368646
0.3369877 0.5406050 0.7359229
0.4325029 0.5501648 0.7353758
0.5158834 0.5503681 0.7347679
0.5808357 0.5598083 0.7344853
0.6461472 0.5599732 0.7339881
0.6890938 0.5693331 0.7338319
0.1367846 0.6205421 0.7459484
0.2447757 0.6209596 0.7446503
0.3513601 0.6212595 0.7437266
0.4482840 0.6297248 0.7431771
0.5227594 0.6298965 0.7426461
0.5878413 0.6382033 0.7423536
0.6528647 0.6383594 0.7418649
0.6951315 0.6384670 0.7415252
0.1533445 0.6766564 0.7469194
0.2639692 0.6845353 0.7519640
0.3663911 0.6847926 0.7511222
0.4556179 0.6849915 0.7504748
0.5300260 0.6921978 0.7501149
0.5955729 0.6923384 0.7496513
0.6511697 0.6924624 0.7492400
0.7011972 0.6995380 0.7490047
0.1666468 0.7252396 0.7539531
0.2772535 0.7255651 0.7528000
0.3823057 0.7258041 0.7519602
0.4630993 0.7324734 0.7515403
0.5379004 0.7326390 0.7570454
0.6036001 0.7327696 0.7565874
0.6585237 0.7392852 0.7563431
0.7076982 0.7393929 0.7559569
