Plugins/FilmEmulator/Content/LUTs/FE_Kodak_5381_64.cube
TITLE "FE_Kodak_5381_33"
LUT_3D_SIZE 4
0.0000000 0.1718453 0.1992958
0.7554768 0.3074342 0.2575477
1.0000000 0.4423976 0.4036934
1.0000000 0.5416100 0.5922576
0.1843342 0.7803404 0.4513485
0.7535259 0.8322279 0.5137670
0.9408226 0.8794234 0.6133301
0.9780467 0.9074587 0.7317101
0.3764395 0.9560742 0.6317701
0.8142695 0.9591966 0.6920191
0.9415174 0.9683588 0.7518933
0.9710506 0.9732559 0.8006976
0.4885620 0.9902520 0.7392198
0.8509333 0.9848274 0.7864260
0.9499381 0.9873025 0.8362067
0.9734635 0.9889070 0.8729530
0.8240668 0.8134599 0.9675111
0.9316170 0.8658308 0.9750253
0.9637526 0.8962615 0.9805178
0.9777409 0.9172463 0.9847174
0.8814500 0.9560683 0.9734737
0.9499288 0.9677522 0.9803045
0.9707471 0.9743372 0.9846605
0.9804307 0.9786913 0.9878326
0.9087471 0.9805990 0.9779656
0.9611546 0.9853466 0.9837558
0.9770225 0.9880957 0.9873227
0.9843311 0.9899545 0.9899387
0.9237728 0.9888372 0.9806545
0.9672861 0.9912730 0.9856664
0.9806677 0.9928637 0.9888468
0.9867675 0.9939011 0.9910738
0.9536777 0.9640721 0.9962456
0.9708764 0.9709362 0.9965439
0.9797021 0.9755956 0.9968815
0.9849123 0.9791359 0.9971851
0.9664761 0.9855574 0.9961503
0.9785697 0.9881186 0.9966334
0.9848322 0.9898382 0.9970266
0.9884953 0.9911792 0.9973724
0.9728031 0.9917228 0.9964712
0.9827227 0.9931442 0.9969338
0.9876927 0.9941166 0.9973105
0.9906156 0.9948341 0.9976182
0.9768875 0.9945076 0.9967604
0.9852669 0.9954121 0.9971832
0.9895092 0.9960465 0.9975386
0.9919912 0.9965118 0.9978155
0.9793203 0.9867704 0.9990166
0.9849266 0.9887338 0.9990095
0.9883701 0.9901825 0.9990600
0.9906288 0.9913039 0.9991088
0.9839368 0.9929957 0.9988698
0.9882131 0.9939373 0.9989312
0.9907961 0.9946308 0.9989980
0.9925721 0.9951946 0.9990773
0.9865913 0.9954621 0.9988909
0.9901900 0.9960786 0.9989519
0.9923355 0.9965195 0.9990367
0.9937693 0.9968617 0.9991065
0.9882972 0.9967017 0.9989234
0.9914446 0.9971397 0.9989989
0.9933111 0.9974499 0.9990820
0.9945699 0.9977053 0.9991511
