Plugins/FilmEmulator/Content/LUTs/FE_Kodak_5383_64.cube
TITLE "FE_Kodak_5383_33"
LUT_3D_SIZE 8
0.0007250 0.0228393 0.0492378
0.2367619 0.0724037 0.0574383
0.6740493 0.1916386 0.1285565
0.9603187 0.3175588 0.2511616
1.0000000 0.4047500 0.3640041
1.0000000 0.4687948 0.4489259
1.0000000 0.5242422 0.5220543
1.0000000 0.5759090 0.5893040
0.0000000 0.2933278 0.1222415
0.2151203 0.3541558 0.1401406
0.6280124 0.4642013 0.1927520
0.8901920 0.5746701 0.3099356
0.9919150 0.6520054 0.4209806
1.0000000 0.7104464 0.5133579
1.0000000 0.7554790 0.5841439
1.0000000 0.7895679 0.6450288
0.0573840 0.7110866 0.3009413
0.2518495 0.7363789 0.3189360
0.6100820 0.7869381 0.3704197
0.8362747 0.8321300 0.4347031
0.9321504 0.8639547 0.5257488
0.9746758 0.8885454 0.6059971
0.9978169 0.9066085 0.6647100
1.0000000 0.9200251 0.7144315
0.1520191 0.8915848 0.4507261
0.3276134 0.8991439 0.4734344
0.6382923 0.9159473 0.5181064
0.8379851 0.9345633 0.5692532
0.9187521 0.9476317 0.6120908
0.9576274 0.9563596 0.6685324
0.9794138 0.9631548 0.7216128
0.9906836 0.9674585 0.7609767
0.2264254 0.9600394 0.5619000
0.3935750 0.9605756 0.5815171
0.6744348 0.9659949 0.6205410
0.8487899 0.9730718 0.6601583
0.9203385 0.9784857 0.6948411
0.9546668 0.9823263 0.7251605
0.9742509 0.9851044 0.7557930
0.9847618 0.9865956 0.7906501
0.2989267 0.9872249 0.6402977
0.4419708 0.9857411 0.6551902
0.6990407 0.9855568 0.6865752
0.8596302 0.9884560 0.7214172
0.9247329 0.9908174 0.7495966
0.9559155 0.9928807 0.7744762
0.9735069 0.9944807 0.7955757
0.9827732 0.9953289 0.8114150
0.3765770 1.0000000 0.7035635
0.4852059 1.0000000 0.7146156
0.7246233 0.9967222 0.7409999
0.8726211 0.9970831 0.7708390
0.9301372 0.9979217 0.7939384
0.9584774 0.9988987 0.8140385
0.9743205 0.9994767 0.8301224
0.9827177 0.9997376 0.8443966
0.4356300 1.0000000 0.7530871
0.5207278 1.0000000 0.7614923
0.7439033 1.0000000 0.7842633
0.8815873 1.0000000 0.8071139
0.9358079 1.0000000 0.8261462
0.9611112 1.0000000 0.8423807
0.9756651 1.0000000 0.8563434
0.9833526 1.0000000 0.8687088
0.3534743 0.2881357 0.7303025
0.7209544 0.4209363 0.7639925
0.9314463 0.5419167 0.7958182
1.0000000 0.6191344 0.8240511
1.0000000 0.6850972 0.8493270
1.0000000 0.7343458 0.8710707
1.0000000 0.7723523 0.8902603
1.0000000 0.8020925 0.9065769
0.3710535 0.6611692 0.7580599
0.6958608 0.7320218 0.7930698
0.8852507 0.7935518 0.8235778
0.9487042 0.8342926 0.8496312
0.9860853 0.8662645 0.8735369
1.0000000 0.8878905 0.8932671
1.0000000 0.9057994 0.9098217
1.0000000 0.9195461 0.9227340
0.4348851 0.8619127 0.7964634
0.7178358 0.8875303 0.8259929
0.8804534 0.9139927 0.8537455
0.9363298 0.9290762 0.8756206
0.9689552 0.9425582 0.8950454
0.9857542 0.9518508 0.9111496
0.9941283 0.9587805 0.9245725
0.9986033 0.9641567 0.9360232
0.4933324 0.9359027 0.8226175
0.7457564 0.9468985 0.8506465
0.8866541 0.9580863 0.8737317
0.9377838 0.9658751 0.8928937
0.9666131 0.9716958 0.9087874
0.9816360 0.9764740 0.9234788
0.9894367 0.9795550 0.9344653
0.9938014 0.9822054 0.9443837
0.5331435 0.9675564 0.8389912
0.7636971 0.9709383 0.8642087
0.8950810 0.9767825 0.8862870
0.9404290 0.9806294 0.9036774
0.9674313 0.9840633 0.9179256
0.9811027 0.9865272 0.9305219
0.9879829 0.9882310 0.9409461
0.9923861 0.9896600 0.9497624
0.5665421 0.9846688 0.8509219
0.7816301 0.9846545 0.8748929
0.9027158 0.9870470 0.8959812
0.9444309 0.9892318 0.9118993
0.9691195 0.9912477 0.9257097
0.9811919 0.9926506 0.9369496
0.9878416 0.9934968 0.9460599
0.9918995 0.9943013 0.9540372
0.5938929 0.9957530 0.8605493
0.7967675 0.9929419 0.8833342
0.9098979 0.9936137 0.9038171
0.9482171 0.9943907 0.9185652
0.9709370 0.9954407 0.9311922
0.9819797 0.9960514 0.9410526
0.9881458 0.9965546 0.9501367
0.9918851 0.9968659 0.9570080
0.6146990 1.0000000 0.8673684
0.8066543 0.9980505 0.8895383
0.9138935 0.9972361 0.9086543
0.9514373 0.9975304 0.9231905
0.9725347 0.9978842 0.9351331
0.9828374 0.9981284 0.9448217
0.9885476 0.9982852 0.9528444
0.9919268 0.9984413 0.9599007
0.7721691 0.7041267 0.9458144
0.9078144 0.7685716 0.9506352
0.9608837 0.8096785 0.9556585
0.9914056 0.8445256 0.9608892
1.0000000 0.8710178 0.9659413
1.0000000 0.8899066 0.9698249
1.0000000 0.9073055 0.9740632
1.0000000 0.9195036 0.9771740
0.7862826 0.8760808 0.9497701
0.9013347 0.9039873 0.9555692
0.9469088 0.9208834 0.9613723
0.9739267 0.9357988 0.9664329
0.9872097 0.9466333 0.9709644
0.9944587 0.9540602 0.9744207
0.9982138 0.9605730 0.9780180
1.0000000 0.9653018 0.9806546
0.8055540 0.9384038 0.9558854
0.9089590 0.9523677 0.9606625
0.9485311 0.9613086 0.9661412
0.9720017 0.9686266 0.9706183
0.9837734 0.9738735 0.9746529
0.9902742 0.9774225 0.9780998
0.9939757 0.9804741 0.9811646
0.9964111 0.9826378 0.9834055
0.8249208 0.9654266 0.9600068
0.9171603 0.9727452 0.9650832
0.9524458 0.9778422 0.9694592
0.9732241 0.9818004 0.9738417
0.9837326 0.9846171 0.9773815
0.9895879 0.9867328 0.9804444
0.9930342 0.9883336 0.9827883
0.9952693 0.9896521 0.9851402
0.8394444 0.9785579 0.9629568
0.9230338 0.9829923 0.9678471
0.9552996 0.9860734 0.9723082
0.9749691 0.9885631 0.9758860
0.9844939 0.9904582 0.9791588
0.9897956 0.9918568 0.9820091
0.9929121 0.9929135 0.9845142
0.9949585 0.9936458 0.9865875
0.8500370 0.9869982 0.9657915
0.9293662 0.9892948 0.9702354
0.9589590 0.9912153 0.9743977
0.9768742 0.9928099 0.9781186
0.9855170 0.9940333 0.9810655
0.9902985 0.9948223 0.9835904
0.9931448 0.9955003 0.9858552
0.9950140 0.9959649 0.9875134
0.8599468 0.9917442 0.9676910
0.9345636 0.9930832 0.9721009
0.9618858 0.9941598 0.9759073
0.9784797 0.9952244 0.9793931
0.9864047 0.9959694 0.9820576
0.9906792 0.9965509 0.9847758
0.9934616 0.9969656 0.9868024
0.9951022 0.9972707 0.9883519
0.8685495 0.9950033 0.9693456
0.9386746 0.9954173 0.9734785
0.9643707 0.9960840 0.9771048
0.9795790 0.9968584 0.9805126
0.9870827 0.9973507 0.9833463
0.9912442 0.9977188 0.9855257
0.9938213 0.9979995 0.9874603
0.9953431 0.9981964 0.9891334
0.9146115 0.8906481 0.9884104
0.9559612 0.9127637 0.9885711
0.9784459 0.9285315 0.9888217
0.9892724 0.9396158 0.9894084
0.9955195 0.9483643 0.9900819
0.9991827 0.9553537 0.9907688
1.0000000 0.9606062 0.9914647
1.0000000 0.9645287 0.9921227
0.9212933 0.9480657 0.9881092
0.9565678 0.9581204 0.9888368
0.9752600 0.9656146 0.9895208
0.9853292 0.9711353 0.9902727
0.9909648 0.9753183 0.9912039
0.9942834 0.9785026 0.9919032
0.9963554 0.9810128 0.9924260
0.9976122 0.9830604 0.9930509
0.9295562 0.9714175 0.9888240
0.9603779 0.9771027 0.9897193
0.9765686 0.9810200 0.9904844
0.9853278 0.9839049 0.9913883
0.9903415 0.9862378 0.9921159
0.9933342 0.9878266 0.9927533
0.9952411 0.9890793 0.9933334
0.9964718 0.9900776 0.9938628
0.9351252 0.9818893 0.9897708
0.9636905 0.9852126 0.9904092
0.9782825 0.9878777 0.9913760
0.9861581 0.9898123 0.9921136
0.9906492 0.9912463 0.9927935
0.9933430 0.9923509 0.9934196
0.9950644 0.9932158 0.9939758
0.9961869 0.9937816 0.9944467
0.9409321 0.9881639 0.9904190
0.9664090 0.9904966 0.9911796
0.9802433 0.9923365 0.9921246
0.9872471 0.9935037 0.9928212
0.9912683 0.9944695 0.9935814
0.9936632 0.9950973 0.9941221
0.9952164 0.9956675 0.9946315
0.9962264 0.9960401 0.9950580
0.9458574 0.9920417 0.9910151
0.9691530 0.9934754 0.9919235
0.9817679 0.9946549 0.9926365
0.9882342 0.9955747 0.9934751
0.9917091 0.9961520 0.9940419
0.9940503 0.9966243 0.9945590
0.9954699 0.9970257 0.9950426
0.9963913 0.9972876 0.9954415
0.9496167 0.9943293 0.9914512
0.9714020 0.9953334 0.9923667
0.9831241 0.9961931 0.9930826
0.9888956 0.9968465 0.9938854
0.9923058 0.9972938 0.9944505
0.9944548 0.9976423 0.9949448
0.9957426 0.9978947 0.9954565
0.9965380 0.9980797 0.9958249
0.9529595 0.9959682 0.9918603
0.9734063 0.9966484 0.9927608
0.9843445 0.9972680 0.9934851
0.9897078 0.9977471 0.9942560
0.9928614 0.9980757 0.9948085
0.9948425 0.9983289 0.9953585
0.9960278 0.9985126 0.9957623
0.9967598 0.9986457 0.9961120
0.9631518 0.9533377 0.9955717
0.9786837 0.9618554 0.9955193
0.9872395 0.9676914 0.9955769
0.9921434 0.9721270 0.9957771
0.9949667 0.9755060 0.9960284
0.9968076 0.9783041 0.9962900
0.9978606 0.9805315 0.9965703
0.9985630 0.9824175 0.9968377
0.9661897 0.9756566 0.9954365
0.9795496 0.9800106 0.9954872
0.9866078 0.9828564 0.9957700
0.9909827 0.9852811 0.9960383
0.9937282 0.9869766 0.9963056
0.9954446 0.9882955 0.9965700
0.9964801 0.9894853 0.9968420
0.9972277 0.9903322 0.9970884
0.9692578 0.9848494 0.9956352
0.9810823 0.9874356 0.9957592
0.9873797 0.9892763 0.9959732
0.9912648 0.9907436 0.9963259
0.9937215 0.9918756 0.9965979
0.9952664 0.9927505 0.9968578
0.9962300 0.9933087 0.9970912
0.9969229 0.9938867 0.9973258
0.9722067 0.9902256 0.9958330
0.9827529 0.9918650 0.9960846
0.9884019 0.9931421 0.9963186
0.9918839 0.9941265 0.9965686
0.9940514 0.9947986 0.9969000
0.9953651 0.9953730 0.9971491
0.9962507 0.9958294 0.9973779
0.9968877 0.9961388 0.9975824
0.9747202 0.9933864 0.9961410
0.9842950 0.9945147 0.9963200
0.9893940 0.9953938 0.9966305
0.9925011 0.9959959 0.9968517
0.9944642 0.9964597 0.9970885
0.9956546 0.9968525 0.9973270
0.9964458 0.9971184 0.9975877
0.9970269 0.9973365 0.9977757
0.9766977 0.9952387 0.9963299
0.9852617 0.9960455 0.9965841
0.9901953 0.9966636 0.9968047
0.9930837 0.9971746 0.9971012
0.9948754 0.9975166 0.9973180
0.9959475 0.9977629 0.9975299
0.9966754 0.9979565 0.9977228
0.9972080 0.9981169 0.9978989
0.9780611 0.9965348 0.9965925
0.9864327 0.9971502 0.9968337
0.9909813 0.9976082 0.9970493
0.9936050 0.9979449 0.9972616
0.9952532 0.9982026 0.9975128
0.9962385 0.9983867 0.9977129
0.9969070 0.9985308 0.9978940
0.9973962 0.9986497 0.9980589
0.9795639 0.9974135 0.9968095
0.9873949 0.9978727 0.9969866
0.9916329 0.9982189 0.9972484
0.9940679 0.9984752 0.9974515
0.9955937 0.9986709 0.9976413
0.9965046 0.9988098 0.9978698
0.9971220 0.9989181 0.9980401
0.9975620 0.9989866 0.9981833
0.9816104 0.9779692 0.9983712
0.9880016 0.9814041 0.9982910
0.9917875 0.9839807 0.9982925
0.9941132 0.9856918 0.9982872
0.9955633 0.9872695 0.9983615
0.9965232 0.9883193 0.9984051
0.9972391 0.9894202 0.9984943
0.9977574 0.9901643 0.9985442
0.9830683 0.9868974 0.9982119
0.9886492 0.9888060 0.9982169
0.9919835 0.9902380 0.9982735
0.9940433 0.9913058 0.9983046
0.9953611 0.9921492 0.9983946
0.9962336 0.9928043 0.9984521
0.9969110 0.9934117 0.9985473
0.9973929 0.9939085 0.9986048
0.9846061 0.9915615 0.9982199
0.9893838 0.9928335 0.9982708
0.9925254 0.9937475 0.9983426
0.9943622 0.9944940 0.9983960
0.9955428 0.9950820 0.9984932
0.9963180 0.9954509 0.9985520
0.9969332 0.9958641 0.9986473
0.9973353 0.9961849 0.9987095
0.9860953 0.9944192 0.9982949
0.9903333 0.9952012 0.9983593
0.9930466 0.9958755 0.9984114
0.9947898 0.9963419 0.9985058
0.9958493 0.9967349 0.9986017
0.9965420 0.9969844 0.9986604
0.9970894 0.9972075 0.9987451
0.9974566 0.9974218 0.9988062
0.9872265 0.9959645 0.9983713
0.9911526 0.9966042 0.9984515
0.9935930 0.9970439 0.9985044
0.9951831 0.9973921 0.9986004
0.9960949 0.9976748 0.9986972
0.9967832 0.9978730 0.9987551
0.9972818 0.9980381 0.9988360
0.9976101 0.9981618 0.9988894
0.9883111 0.9970973 0.9984637
0.9918773 0.9975304 0.9985428
0.9941171 0.9978646 0.9986006
0.9955713 0.9981261 0.9986952
0.9963875 0.9983028 0.9987838
0.9970179 0.9984530 0.9988406
0.9974750 0.9985772 0.9989175
0.9977863 0.9986967 0.9989746
0.9891797 0.9978139 0.9985424
0.9924915 0.9981446 0.9985923
0.9945635 0.9984020 0.9986845
0.9958406 0.9985932 0.9987763
0.9966576 0.9987366 0.9988630
0.9972371 0.9988509 0.9989178
0.9976576 0.9989449 0.9989905
0.9979342 0.9990150 0.9990388
0.9897188 0.9983004 0.9985746
0.9930145 0.9985717 0.9986672
0.9949471 0.9987732 0.9987578
0.9961352 0.9989229 0.9988467
0.9968940 0.9990348 0.9989305
0.9974311 0.9991242 0.9989845
0.9977919 0.9991927 0.9990531
0.9980669 0.9992365 0.9990939
0.9894756 0.9880572 0.9991781
0.9925543 0.9895465 0.9991310
0.9942971 0.9905897 0.9991056
0.9955478 0.9914591 0.9990987
0.9963760 0.9921538 0.9991082
0.9969701 0.9927386 0.9991246
0.9973962 0.9932305 0.9991461
0.9977466 0.9936743 0.9991695
0.9902734 0.9923169 0.9991182
0.9930221 0.9933525 0.9990798
0.9945749 0.9940839 0.9990790
0.9956790 0.9945887 0.9990892
0.9964241 0.9950762 0.9991114
0.9969617 0.9954820 0.9991382
0.9973471 0.9958302 0.9991841
0.9976677 0.9960625 0.9992099
0.9912129 0.9950458 0.9991077
0.9936196 0.9956588 0.9990933
0.9950020 0.9961506 0.9991066
0.9959800 0.9964917 0.9991254
0.9966468 0.9968154 0.9991537
0.9971181 0.9970319 0.9991983
0.9974722 0.9972559 0.9992278
0.9977603 0.9974098 0.9992543
0.9919710 0.9964983 0.9991280
0.9940472 0.9969261 0.9991296
0.9954029 0.9972999 0.9991478
0.9962322 0.9975340 0.9991718
0.9968756 0.9977391 0.9992142
0.9973171 0.9979321 0.9992453
0.9976317 0.9980591 0.9992728
0.9978944 0.9981739 0.9992995
0.9926550 0.9974658 0.9991623
0.9945527 0.9977900 0.9991726
0.9957696 0.9980360 0.9991928
0.9965267 0.9982172 0.9992345
0.9971159 0.9983718 0.9992614
0.9975218 0.9985203 0.9992935
0.9978085 0.9986154 0.9993213
0.9980478 0.9987004 0.9993474
0.9932634 0.9981301 0.9992024
0.9950051 0.9983755 0.9992176
0.9961187 0.9985612 0.9992412
0.9968109 0.9986970 0.9992823
0.9973484 0.9988129 0.9993094
0.9977071 0.9989010 0.9993370
0.9979700 0.9989728 0.9993641
0.9981894 0.9990368 0.9993896
0.9937484 0.9985563 0.9992381
0.9953687 0.9987494 0.9992563
0.9964016 0.9988961 0.9992958
0.9970431 0.9990016 0.9993221
0.9975078 0.9990873 0.9993490
0.9978718 0.9991610 0.9993758
0.9981047 0.9992015 0.9993985
0.9983085 0.9992521 0.9994236
0.9941601 0.9988583 0.9992709
0.9956785 0.9990134 0.9992911
0.9966445 0.9991310 0.9993308
0.9972284 0.9992012 0.9993536
0.9976639 0.9992710 0.9993802
0.9980046 0.9993308 0.9994063
0.9982319 0.9993759 0.9994316
0.9984213 0.9994164 0.9994655
0.9933680 0.9927619 0.9995037
0.9948759 0.9935313 0.9994532
0.9957717 0.9940023 0.9994447
0.9964929 0.9945152 0.9994412
0.9970089 0.9949518 0.9994457
0.9973868 0.9953252 0.9994540
0.9977007 0.9956611 0.9994640
0.9979463 0.9958702 0.9994648
0.9939216 0.9953229 0.9994537
0.9951851 0.9958375 0.9994413
0.9960494 0.9961787 0.9994400
0.9966966 0.9965218 0.9994336
0.9971595 0.9968082 0.9994455
0.9974939 0.9969927 0.9994587
0.9977803 0.9972122 0.9994732
0.9979976 0.9973532 0.9994875
0.9944529 0.9967840 0.9994478
0.9955870 0.9971406 0.9994456
0.9963617 0.9973820 0.9994505
0.9969296 0.9975808 0.9994601
0.9973501 0.9977828 0.9994746
0.9976540 0.9979117 0.9994794
0.9979080 0.9980298 0.9994939
0.9980924 0.9981589 0.9995112
0.9949390 0.9977109 0.9994605
0.9959502 0.9979398 0.9994629
0.9966549 0.9981215 0.9994716
0.9971709 0.9982705 0.9994836
0.9975436 0.9983916 0.9994981
0.9978312 0.9985230 0.9995160
0.9980623 0.9986119 0.9995308
0.9982257 0.9986819 0.9995383
0.9953619 0.9983139 0.9994801
0.9962872 0.9984885 0.9994868
0.9969308 0.9986266 0.9994978
0.9974015 0.9987395 0.9995112
0.9977413 0.9988306 0.9995263
0.9979933 0.9989054 0.9995420
0.9981859 0.9989683 0.9995576
0.9983537 0.9990259 0.9995722
0.9957300 0.9987275 0.9995127
0.9965822 0.9988624 0.9995211
0.9971582 0.9989492 0.9995305
0.9975932 0.9990368 0.9995360
0.9979066 0.9991077 0.9995512
0.9981390 0.9991657 0.9995667
0.9983166 0.9992143 0.9995822
0.9984713 0.9992588 0.9995966
0.9960229 0.9989957 0.9995319
0.9968182 0.9991041 0.9995423
0.9973693 0.9991895 0.9995547
0.9977591 0.9992451 0.9995664
0.9980504 0.9993016 0.9995811
0.9982665 0.9993473 0.9995890
0.9984316 0.9993858 0.9996040
0.9985752 0.9994210 0.9996184
0.9962713 0.9991885 0.9995496
0.9970186 0.9992774 0.9995609
0.9975359 0.9993473 0.9995742
0.9979014 0.9993932 0.9995860
0.9981742 0.9994393 0.9996006
0.9983762 0.9994768 0.9996151
0.9985306 0.9995080 0.9996294
0.9986650 0.9995363 0.9996373
