Plugins/FilmEmulator/Content/LUTs/FE_Kodak_TriX_400_Dev11_64.cube
TITLE "FE_Kodak_TriX_400_Dev11_33"
LUT_3D_SIZE 8
0.0004614 0.0004614 0.0004614
0.0043839 0.0043839 0.0043839
0.0162364 0.0162364 0.0162364
0.0332848 0.0332848 0.0332848
0.0545259 0.0545259 0.0545259
0.0809169 0.0809169 0.0809169
0.1091044 0.1091044 0.1091044
0.1378848 0.1378848 0.1378848
0.0162364 0.0162364 0.0162364
0.0332848 0.0332848 0.0332848
0.0545259 0.0545259 0.0545259
0.0809169 0.0809169 0.0809169
0.1091044 0.1091044 0.1091044
0.1378848 0.1378848 0.1378848
0.1683354 0.1683354 0.1683354
0.1991292 0.1991292 0.1991292
0.0545259 0.0545259 0.0545259
0.0809169 0.0809169 0.0809169
0.1091044 0.1091044 0.1091044
0.1378848 0.1378848 0.1378848
0.1683354 0.1683354 0.1683354
0.1991292 0.1991292 0.1991292
0.2344048 0.2344048 0.2344048
0.2680278 0.2680278 0.2680278
0.1091044 0.1091044 0.1091044
0.1378848 0.1378848 0.1378848
0.1683354 0.1683354 0.1683354
0.1991292 0.1991292 0.1991292
0.2344048 0.2344048 0.2344048
0.2680278 0.2680278 0.2680278
0.2983354 0.2983354 0.2983354
0.3302919 0.3302919 0.3302919
0.1683354 0.1683354 0.1683354
0.1991292 0.1991292 0.1991292
0.2344048 0.2344048 0.2344048
0.2680278 0.2680278 0.2680278
0.2983354 0.2983354 0.2983354
0.3302919 0.3302919 0.3302919
0.3569595 0.3569595 0.3569595
0.3844792 0.3844792 0.3844792
0.2344048 0.2344048 0.2344048
0.2680278 0.2680278 0.2680278
0.2983354 0.2983354 0.2983354
0.3302919 0.3302919 0.3302919
0.3569595 0.3569595 0.3569595
0.3844792 0.3844792 0.3844792
0.4125595 0.4125595 0.4125595
0.4412208 0.4412208 0.4412208
0.2983354 0.2983354 0.2983354
0.3302919 0.3302919 0.3302919
0.3569595 0.3569595 0.3569595
0.3844792 0.3844792 0.3844792
0.4125595 0.4125595 0.4125595
0.4412208 0.4412208 0.4412208
0.4624562 0.4624562 0.4624562
0.4903996 0.4903996 0.4903996
0.3569595 0.3569595 0.3569595
0.3844792 0.3844792 0.3844792
0.4125595 0.4125595 0.4125595
0.4412208 0.4412208 0.4412208
0.4624562 0.4624562 0.4624562
0.4903996 0.4903996 0.4903996
0.5114064 0.5114064 0.5114064
0.5320104 0.5320104 0.5320104
0.0352995 0.0352995 0.0352995
0.0577340 0.0577340 0.0577340
0.0831884 0.0831884 0.0831884
0.1120493 0.1120493 0.1120493
0.1414367 0.1414367 0.1414367
0.1724818 0.1724818 0.1724818
0.2039136 0.2039136 0.2039136
0.2344048 0.2344048 0.2344048
0.0831884 0.0831884 0.0831884
0.1120493 0.1120493 0.1120493
0.1414367 0.1414367 0.1414367
0.1724818 0.1724818 0.1724818
0.2039136 0.2039136 0.2039136
0.2344048 0.2344048 0.2344048
0.2680278 0.2680278 0.2680278
0.2983354 0.2983354 0.2983354
0.1414367 0.1414367 0.1414367
0.1724818 0.1724818 0.1724818
0.2039136 0.2039136 0.2039136
0.2344048 0.2344048 0.2344048
0.2680278 0.2680278 0.2680278
0.2983354 0.2983354 0.2983354
0.3302919 0.3302919 0.3302919
0.3569595 0.3569595 0.3569595
0.2039136 0.2039136 0.2039136
0.2344048 0.2344048 0.2344048
0.2680278 0.2680278 0.2680278
0.2983354 0.2983354 0.2983354
0.3302919 0.3302919 0.3302919
0.3637754 0.3637754 0.3637754
0.3914354 0.3914354 0.3914354
0.4196775 0.4196775 0.4196775
0.2680278 0.2680278 0.2680278
0.2983354 0.2983354 0.2983354
0.3302919 0.3302919 0.3302919
0.3637754 0.3637754 0.3637754
0.3914354 0.3914354 0.3914354
0.4196775 0.4196775 0.4196775
0.4412208 0.4412208 0.4412208
0.4694269 0.4694269 0.4694269
0.3302919 0.3302919 0.3302919
0.3637754 0.3637754 0.3637754
0.3914354 0.3914354 0.3914354
0.4196775 0.4196775 0.4196775
0.4412208 0.4412208 0.4412208
0.4694269 0.4694269 0.4694269
0.4903996 0.4903996 0.4903996
0.5114064 0.5114064 0.5114064
0.3914354 0.3914354 0.3914354
0.4196775 0.4196775 0.4196775
0.4412208 0.4412208 0.4412208
0.4694269 0.4694269 0.4694269
0.4903996 0.4903996 0.4903996
0.5114064 0.5114064 0.5114064
0.5320104 0.5320104 0.5320104
0.5520567 0.5520567 0.5520567
0.4412208 0.4412208 0.4412208
0.4694269 0.4694269 0.4694269
0.4903996 0.4903996 0.4903996
0.5114064 0.5114064 0.5114064
0.5320104 0.5320104 0.5320104
0.5520567 0.5520567 0.5520567
0.5653316 0.5653316 0.5653316
0.5850638 0.5850638 0.5850638
0.1120493 0.1120493 0.1120493
0.1450647 0.1450647 0.1450647
0.1724818 0.1724818 0.1724818
0.2039136 0.2039136 0.2039136
0.2397830 0.2397830 0.2397830
0.2680278 0.2680278 0.2680278
0.3046283 0.3046283 0.3046283
0.3302919 0.3302919 0.3302919
0.1767087 0.1767087 0.1767087
0.2039136 0.2039136 0.2039136
0.2397830 0.2397830 0.2397830
0.2680278 0.2680278 0.2680278
0.3046283 0.3046283 0.3046283
0.3302919 0.3302919 0.3302919
0.3637754 0.3637754 0.3637754
0.3914354 0.3914354 0.3914354
0.2397830 0.2397830 0.2397830
0.2680278 0.2680278 0.2680278
0.3046283 0.3046283 0.3046283
0.3302919 0.3302919 0.3302919
0.3637754 0.3637754 0.3637754
0.3914354 0.3914354 0.3914354
0.4196775 0.4196775 0.4196775
0.4412208 0.4412208 0.4412208
0.3046283 0.3046283 0.3046283
0.3302919 0.3302919 0.3302919
0.3637754 0.3637754 0.3637754
0.3914354 0.3914354 0.3914354
0.4196775 0.4196775 0.4196775
0.4412208 0.4412208 0.4412208
0.4694269 0.4694269 0.4694269
0.4903996 0.4903996 0.4903996
0.3637754 0.3637754 0.3637754
0.3914354 0.3914354 0.3914354
0.4196775 0.4196775 0.4196775
0.4412208 0.4412208 0.4412208
0.4694269 0.4694269 0.4694269
0.4903996 0.4903996 0.4903996
0.5114064 0.5114064 0.5114064
0.5320104 0.5320104 0.5320104
0.4196775 0.4196775 0.4196775
0.4412208 0.4412208 0.4412208
0.4694269 0.4694269 0.4694269
0.4903996 0.4903996 0.4903996
0.5114064 0.5114064 0.5114064
0.5320104 0.5320104 0.5320104
0.5520567 0.5520567 0.5520567
0.5719351 0.5719351 0.5719351
0.4694269 0.4694269 0.4694269
0.4903996 0.4903996 0.4903996
0.5114064 0.5114064 0.5114064
0.5320104 0.5320104 0.5320104
0.5520567 0.5520567 0.5520567
0.5719351 0.5719351 0.5719351
0.5850638 0.5850638 0.5850638
0.6041253 0.6041253 0.6041253
0.5114064 0.5114064 0.5114064
0.5320104 0.5320104 0.5320104
0.5520567 0.5520567 0.5520567
0.5719351 0.5719351 0.5719351
0.5850638 0.5850638 0.5850638
0.6041253 0.6041253 0.6041253
0.6165310 0.6165310 0.6165310
0.6287869 0.6287869 0.6287869
0.2087831 0.2087831 0.2087831
0.2397830 0.2397830 0.2397830
0.2739308 0.2739308 0.2739308
0.3046283 0.3046283 0.3046283
0.3368653 0.3368653 0.3368653
0.3637754 0.3637754 0.3637754
0.3914354 0.3914354 0.3914354
0.4196775 0.4196775 0.4196775
0.2739308 0.2739308 0.2739308
0.3046283 0.3046283 0.3046283
0.3368653 0.3368653 0.3368653
0.3637754 0.3637754 0.3637754
0.3914354 0.3914354 0.3914354
0.4196775 0.4196775 0.4196775
0.4484558 0.4484558 0.4484558
0.4694269 0.4694269 0.4694269
0.3368653 0.3368653 0.3368653
0.3637754 0.3637754 0.3637754
0.3914354 0.3914354 0.3914354
0.4196775 0.4196775 0.4196775
0.4484558 0.4484558 0.4484558
0.4694269 0.4694269 0.4694269
0.4903996 0.4903996 0.4903996
0.5114064 0.5114064 0.5114064
0.3914354 0.3914354 0.3914354
0.4196775 0.4196775 0.4196775
0.4484558 0.4484558 0.4484558
0.4694269 0.4694269 0.4694269
0.4903996 0.4903996 0.4903996
0.5114064 0.5114064 0.5114064
0.5320104 0.5320104 0.5320104
0.5520567 0.5520567 0.5520567
0.4484558 0.4484558 0.4484558
0.4694269 0.4694269 0.4694269
0.4903996 0.4903996 0.4903996
0.5114064 0.5114064 0.5114064
0.5320104 0.5320104 0.5320104
0.5520567 0.5520567 0.5520567
0.5719351 0.5719351 0.5719351
0.5850638 0.5850638 0.5850638
0.4903996 0.4903996 0.4903996
0.5114064 0.5114064 0.5114064
0.5320104 0.5320104 0.5320104
0.5520567 0.5520567 0.5520567
0.5719351 0.5719351 0.5719351
0.5850638 0.5850638 0.5850638
0.6041253 0.6041253 0.6041253
0.6165310 0.6165310 0.6165310
0.5320104 0.5320104 0.5320104
0.5520567 0.5520567 0.5520567
0.5719351 0.5719351 0.5719351
0.5850638 0.5850638 0.5850638
0.6041253 0.6041253 0.6041253
0.6165310 0.6165310 0.6165310
0.6287869 0.6287869 0.6287869
0.6468598 0.6468598 0.6468598
0.5719351 0.5719351 0.5719351
0.5850638 0.5850638 0.5850638
0.6041253 0.6041253 0.6041253
0.6165310 0.6165310 0.6165310
0.6287869 0.6287869 0.6287869
0.6468598 0.6468598 0.6468598
0.6585699 0.6585699 0.6585699
0.6698680 0.6698680 0.6698680
0.3046283 0.3046283 0.3046283
0.3368653 0.3368653 0.3368653
0.3637754 0.3637754 0.3637754
0.3984358 0.3984358 0.3984358
0.4196775 0.4196775 0.4196775
0.4484558 0.4484558 0.4484558
0.4694269 0.4694269 0.4694269
0.4974018 0.4974018 0.4974018
0.3637754 0.3637754 0.3637754
0.3984358 0.3984358 0.3984358
0.4196775 0.4196775 0.4196775
0.4484558 0.4484558 0.4484558
0.4694269 0.4694269 0.4694269
0.4974018 0.4974018 0.4974018
0.5184031 0.5184031 0.5184031
0.5387073 0.5387073 0.5387073
0.4196775 0.4196775 0.4196775
0.4484558 0.4484558 0.4484558
0.4694269 0.4694269 0.4694269
0.4974018 0.4974018 0.4974018
0.5184031 0.5184031 0.5184031
0.5387073 0.5387073 0.5387073
0.5520567 0.5520567 0.5520567
0.5719351 0.5719351 0.5719351
0.4694269 0.4694269 0.4694269
0.4974018 0.4974018 0.4974018
0.5184031 0.5184031 0.5184031
0.5387073 0.5387073 0.5387073
0.5520567 0.5520567 0.5520567
0.5719351 0.5719351 0.5719351
0.5915843 0.5915843 0.5915843
0.6041253 0.6041253 0.6041253
0.5184031 0.5184031 0.5184031
0.5387073 0.5387073 0.5387073
0.5520567 0.5520567 0.5520567
0.5719351 0.5719351 0.5719351
0.5915843 0.5915843 0.5915843
0.6041253 0.6041253 0.6041253
0.6165310 0.6165310 0.6165310
0.6348542 0.6348542 0.6348542
0.5520567 0.5520567 0.5520567
0.5719351 0.5719351 0.5719351
0.5915843 0.5915843 0.5915843
0.6041253 0.6041253 0.6041253
0.6165310 0.6165310 0.6165310
0.6348542 0.6348542 0.6348542
0.6468598 0.6468598 0.6468598
0.6585699 0.6585699 0.6585699
0.5915843 0.5915843 0.5915843
0.6041253 0.6041253 0.6041253
0.6165310 0.6165310 0.6165310
0.6348542 0.6348542 0.6348542
0.6468598 0.6468598 0.6468598
0.6585699 0.6585699 0.6585699
0.6698680 0.6698680 0.6698680
0.6809734 0.6809734 0.6809734
0.6165310 0.6165310 0.6165310
0.6348542 0.6348542 0.6348542
0.6468598 0.6468598 0.6468598
0.6585699 0.6585699 0.6585699
0.6698680 0.6698680 0.6698680
0.6809734 0.6809734 0.6809734
0.6918769 0.6918769 0.6918769
0.7025707 0.7025707 0.7025707
0.3984358 0.3984358 0.3984358
0.4268288 0.4268288 0.4268288
0.4484558 0.4484558 0.4484558
0.4764095 0.4764095 0.4764095
0.4974018 0.4974018 0.4974018
0.5184031 0.5184031 0.5184031
0.5387073 0.5387073 0.5387073
0.5587047 0.5587047 0.5587047
0.4484558 0.4484558 0.4484558
0.4764095 0.4764095 0.4764095
0.4974018 0.4974018 0.4974018
0.5184031 0.5184031 0.5184031
0.5387073 0.5387073 0.5387073
0.5587047 0.5587047 0.5587047
0.5719351 0.5719351 0.5719351
0.5915843 0.5915843 0.5915843
0.4974018 0.4974018 0.4974018
0.5184031 0.5184031 0.5184031
0.5387073 0.5387073 0.5387073
0.5587047 0.5587047 0.5587047
0.5719351 0.5719351 0.5719351
0.5915843 0.5915843 0.5915843
0.6041253 0.6041253 0.6041253
0.6165310 0.6165310 0.6165310
0.5387073 0.5387073 0.5387073
0.5587047 0.5587047 0.5587047
0.5719351 0.5719351 0.5719351
0.5915843 0.5915843 0.5915843
0.6041253 0.6041253 0.6041253
0.6165310 0.6165310 0.6165310
0.6348542 0.6348542 0.6348542
0.6468598 0.6468598 0.6468598
0.5719351 0.5719351 0.5719351
0.5915843 0.5915843 0.5915843
0.6041253 0.6041253 0.6041253
0.6165310 0.6165310 0.6165310
0.6348542 0.6348542 0.6348542
0.6468598 0.6468598 0.6468598
0.6585699 0.6585699 0.6585699
0.6698680 0.6698680 0.6698680
0.6041253 0.6041253 0.6041253
0.6165310 0.6165310 0.6165310
0.6348542 0.6348542 0.6348542
0.6468598 0.6468598 0.6468598
0.6585699 0.6585699 0.6585699
0.6698680 0.6698680 0.6698680
0.6809734 0.6809734 0.6809734
0.6918769 0.6918769 0.6918769
0.6348542 0.6348542 0.6348542
0.6468598 0.6468598 0.6468598
0.6585699 0.6585699 0.6585699
0.6698680 0.6698680 0.6698680
0.6809734 0.6809734 0.6809734
0.6918769 0.6918769 0.6918769
0.7025707 0.7025707 0.7025707
0.7078365 0.7078365 0.7078365
0.6585699 0.6585699 0.6585699
0.6698680 0.6698680 0.6698680
0.6809734 0.6809734 0.6809734
0.6918769 0.6918769 0.6918769
0.7025707 0.7025707 0.7025707
0.7078365 0.7078365 0.7078365
0.7179539 0.7179539 0.7179539
0.7277341 0.7277341 0.7277341
0.4764095 0.4764095 0.4764095
0.4974018 0.4974018 0.4974018
0.5184031 0.5184031 0.5184031
0.5387073 0.5387073 0.5387073
0.5587047 0.5587047 0.5587047
0.5719351 0.5719351 0.5719351
0.5915843 0.5915843 0.5915843
0.6041253 0.6041253 0.6041253
0.5184031 0.5184031 0.5184031
0.5387073 0.5387073 0.5387073
0.5587047 0.5587047 0.5587047
0.5719351 0.5719351 0.5719351
0.5915843 0.5915843 0.5915843
0.6041253 0.6041253 0.6041253
0.6226785 0.6226785 0.6226785
0.6348542 0.6348542 0.6348542
0.5587047 0.5587047 0.5587047
0.5719351 0.5719351 0.5719351
0.5915843 0.5915843 0.5915843
0.6041253 0.6041253 0.6041253
0.6226785 0.6226785 0.6226785
0.6348542 0.6348542 0.6348542
0.6468598 0.6468598 0.6468598
0.6585699 0.6585699 0.6585699
0.5915843 0.5915843 0.5915843
0.6041253 0.6041253 0.6041253
0.6226785 0.6226785 0.6226785
0.6348542 0.6348542 0.6348542
0.6468598 0.6468598 0.6468598
0.6585699 0.6585699 0.6585699
0.6698680 0.6698680 0.6698680
0.6809734 0.6809734 0.6809734
0.6226785 0.6226785 0.6226785
0.6348542 0.6348542 0.6348542
0.6468598 0.6468598 0.6468598
0.6585699 0.6585699 0.6585699
0.6698680 0.6698680 0.6698680
0.6809734 0.6809734 0.6809734
0.6918769 0.6918769 0.6918769
0.7025707 0.7025707 0.7025707
0.6468598 0.6468598 0.6468598
0.6585699 0.6585699 0.6585699
0.6698680 0.6698680 0.6698680
0.6809734 0.6809734 0.6809734
0.6918769 0.6918769 0.6918769
0.7025707 0.7025707 0.7025707
0.7129844 0.7129844 0.7129844
0.7179539 0.7179539 0.7179539
0.6698680 0.6698680 0.6698680
0.6809734 0.6809734 0.6809734
0.6918769 0.6918769 0.6918769
0.7025707 0.7025707 0.7025707
0.7129844 0.7129844 0.7129844
0.7179539 0.7179539 0.7179539
0.7277341 0.7277341 0.7277341
0.7372994 0.7372994 0.7372994
0.6918769 0.6918769 0.6918769
0.7025707 0.7025707 0.7025707
0.7129844 0.7129844 0.7129844
0.7179539 0.7179539 0.7179539
0.7277341 0.7277341 0.7277341
0.7372994 0.7372994 0.7372994
0.7420001 0.7420001 0.7420001
0.7512354 0.7512354 0.7512354
0.5387073 0.5387073 0.5387073
0.5587047 0.5587047 0.5587047
0.5785133 0.5785133 0.5785133
0.5915843 0.5915843 0.5915843
0.6041253 0.6041253 0.6041253
0.6226785 0.6226785 0.6226785
0.6348542 0.6348542 0.6348542
0.6468598 0.6468598 0.6468598
0.5785133 0.5785133 0.5785133
0.5915843 0.5915843 0.5915843
0.6041253 0.6041253 0.6041253
0.6226785 0.6226785 0.6226785
0.6348542 0.6348542 0.6348542
0.6468598 0.6468598 0.6468598
0.6585699 0.6585699 0.6585699
0.6698680 0.6698680 0.6698680
0.6041253 0.6041253 0.6041253
0.6226785 0.6226785 0.6226785
0.6348542 0.6348542 0.6348542
0.6468598 0.6468598 0.6468598
0.6585699 0.6585699 0.6585699
0.6698680 0.6698680 0.6698680
0.6809734 0.6809734 0.6809734
0.6918769 0.6918769 0.6918769
0.6348542 0.6348542 0.6348542
0.6468598 0.6468598 0.6468598
0.6585699 0.6585699 0.6585699
0.6698680 0.6698680 0.6698680
0.6809734 0.6809734 0.6809734
0.6918769 0.6918769 0.6918769
0.7025707 0.7025707 0.7025707
0.7129844 0.7129844 0.7129844
0.6585699 0.6585699 0.6585699
0.6698680 0.6698680 0.6698680
0.6809734 0.6809734 0.6809734
0.6918769 0.6918769 0.6918769
0.7025707 0.7025707 0.7025707
0.7129844 0.7129844 0.7129844
0.7179539 0.7179539 0.7179539
0.7277341 0.7277341 0.7277341
0.6809734 0.6809734 0.6809734
0.6918769 0.6918769 0.6918769
0.7025707 0.7025707 0.7025707
0.7129844 0.7129844 0.7129844
0.7179539 0.7179539 0.7179539
0.7277341 0.7277341 0.7277341
0.7372994 0.7372994 0.7372994
0.7420001 0.7420001 0.7420001
0.7025707 0.7025707 0.7025707
0.7129844 0.7129844 0.7129844
0.7179539 0.7179539 0.7179539
0.7277341 0.7277341 0.7277341
0.7372994 0.7372994 0.7372994
0.7420001 0.7420001 0.7420001
0.7512354 0.7512354 0.7512354
0.7557693 0.7557693 0.7557693
0.7179539 0.7179539 0.7179539
0.7277341 0.7277341 0.7277341
0.7372994 0.7372994 0.7372994
0.7420001 0.7420001 0.7420001
0.7512354 0.7512354 0.7512354
0.7557693 0.7557693 0.7557693
0.7644784 0.7644784 0.7644784
0.7686579 0.7686579 0.7686579
