Plugins/FilmEmulator/Content/LUTs/FE_Kodak_5222_Dev5_64.cube
TITLE "FE_Kodak_5222_Dev5_33"
LUT_3D_SIZE 4
0.0069229 0.0069229 0.0069229
0.0375990 0.0375990 0.0375990
0.0784556 0.0784556 0.0784556
0.1193692 0.1193692 0.1193692
0.0784556 0.0784556 0.0784556
0.1193692 0.1193692 0.1193692
0.1586545 0.1586545 0.1586545
0.1996563 0.1996563 0.1996563
0.1586545 0.1586545 0.1586545
0.1996563 0.1996563 0.1996563
0.2350784 0.2350784 0.2350784
0.2650695 0.2650695 0.2650695
0.2350784 0.2350784 0.2350784
0.2650695 0.2650695 0.2650695
0.2966306 0.2966306 0.2966306
0.3251490 0.3251490 0.3251490
0.1714729 0.1714729 0.1714729
0.2072341 0.2072341 0.2072341
0.2434338 0.2434338 0.2434338
0.2738649 0.2738649 0.2738649
0.2434338 0.2434338 0.2434338
0.2738649 0.2738649 0.2738649
0.3060372 0.3060372 0.3060372
0.3300183 0.3300183 0.3300183
0.3060372 0.3060372 0.3060372
0.3300183 0.3300183 0.3300183
0.3548997 0.3548997 0.3548997
0.3798326 0.3798326 0.3798326
0.3548997 0.3548997 0.3548997
0.3798326 0.3798326 0.3798326
0.4001585 0.4001585 0.4001585
0.4206038 0.4206038 0.4206038
0.3107689 0.3107689 0.3107689
0.3398663 0.3398663 0.3398663
0.3648561 0.3648561 0.3648561
0.3848778 0.3848778 0.3848778
0.3648561 0.3648561 0.3648561
0.3848778 0.3848778 0.3848778
0.4052972 0.4052972 0.4052972
0.4257031 0.4257031 0.4257031
0.4052972 0.4052972 0.4052972
0.4257031 0.4257031 0.4257031
0.4462491 0.4462491 0.4462491
0.4617837 0.4617837 0.4617837
0.4462491 0.4462491 0.4462491
0.4617837 0.4617837 0.4617837
0.4765688 0.4765688 0.4765688
0.4912918 0.4912918 0.4912918
0.4155212 0.4155212 0.4155212
0.4308186 0.4308186 0.4308186
0.4514171 0.4514171 0.4514171
0.4667745 0.4667745 0.4667745
0.4514171 0.4514171 0.4514171
0.4667745 0.4667745 0.4667745
0.4814731 0.4814731 0.4814731
0.4962039 0.4962039 0.4962039
0.4814731 0.4814731 0.4814731
0.4962039 0.4962039 0.4962039
0.5109414 0.5109414 0.5109414
0.5204991 0.5204991 0.5204991
0.5109414 0.5109414 0.5109414
0.5204991 0.5204991 0.5204991
0.5346122 0.5346122 0.5346122
0.5439915 0.5439915 0.5439915
