Plugins/FilmEmulator/Content/LUTs/FE_Kodak_2302_Dev9_64.cube
TITLE "FE_Kodak_2302_Dev9_33"
LUT_3D_SIZE 64
0.0019023 0.0019023 0.0019023
0.0019023 0.0019023 0.0019023
0.0019039 0.0019039 0.0019039
0.0019167 0.0019167 0.0019167
0.0019349 0.0019349 0.0019349
0.0019709 0.0019709 0.0019709
0.0020113 0.0020113 0.0020113
0.0020577 0.0020577 0.0020577
0.0021259 0.0021259 0.0021259
0.0022066 0.0022066 0.0022066
0.0022904 0.0022904 0.0022904
0.0023868 0.0023868 0.0023868
0.0024743 0.0024743 0.0024743
0.0025689 0.0025689 0.0025689
0.0026638 0.0026638 0.0026638
0.0027568 0.0027568 0.0027568
0.0028806 0.0028806 0.0028806
0.0029891 0.0029891 0.0029891
0.0031059 0.0031059 0.0031059
0.0032426 0.0032426 0.0032426
0.0033961 0.0033961 0.0033961
0.0035443 0.0035443 0.0035443
0.0037180 0.0037180 0.0037180
0.0039302 0.0039302 0.0039302
0.0041661 0.0041661 0.0041661
0.0043846 0.0043846 0.0043846
0.0046768 0.0046768 0.0046768
0.0049602 0.0049602 0.0049602
0.0052607 0.0052607 0.0052607
0.0055102 0.0055102 0.0055102
0.0058962 0.0058962 0.0058962
0.0063091 0.0063091 0.0063091
0.0066545 0.0066545 0.0066545
0.0071637 0.0071637 0.0071637
0.0075709 0.0075709 0.0075709
0.0080191 0.0080191 0.0080191
0.0085175 0.0085175 0.0085175
0.0090466 0.0090466 0.0090466
0.0096083 0.0096083 0.0096083
0.0102609 0.0102609 0.0102609
0.0109574 0.0109574 0.0109574
0.0114475 0.0114475 0.0114475
0.0122435 0.0122435 0.0122435
0.0128531 0.0128531 0.0128531
0.0138242 0.0138242 0.0138242
0.0145114 0.0145114 0.0145114
0.0156210 0.0156210 0.0156210
0.0164924 0.0164924 0.0164924
0.0174116 0.0174116 0.0174116
0.0188854 0.0188854 0.0188854
0.0199353 0.0199353 0.0199353
0.0210838 0.0210838 0.0210838
0.0223410 0.0223410 0.0223410
0.0236714 0.0236714 0.0236714
0.0250790 0.0250790 0.0250790
0.0265680 0.0265680 0.0265680
0.0281852 0.0281852 0.0281852
0.0299879 0.0299879 0.0299879
0.0319021 0.0319021 0.0319021
0.0339342 0.0339342 0.0339342
0.0360909 0.0360909 0.0360909
0.0384047 0.0384047 0.0384047
0.0396802 0.0396802 0.0396802
0.0423541 0.0423541 0.0423541
0.0019023 0.0019023 0.0019023
0.0019024 0.0019024 0.0019024
0.0019125 0.0019125 0.0019125
0.0019283 0.0019283 0.0019283
0.0019585 0.0019585 0.0019585
0.0019993 0.0019993 0.0019993
0.0020453 0.0020453 0.0020453
0.0021044 0.0021044 0.0021044
0.0021798 0.0021798 0.0021798
0.0022667 0.0022667 0.0022667
0.0023598 0.0023598 0.0023598
0.0024447 0.0024447 0.0024447
0.0025366 0.0025366 0.0025366
0.0026385 0.0026385 0.0026385
0.0027280 0.0027280 0.0027280
0.0028492 0.0028492 0.0028492
0.0029517 0.0029517 0.0029517
0.0030846 0.0030846 0.0030846
0.0032194 0.0032194 0.0032194
0.0033385 0.0033385 0.0033385
0.0035142 0.0035142 0.0035142
0.0036769 0.0036769 0.0036769
0.0038868 0.0038868 0.0038868
0.0040632 0.0040632 0.0040632
0.0043289 0.0043289 0.0043289
0.0045559 0.0045559 0.0045559
0.0048164 0.0048164 0.0048164
0.0051082 0.0051082 0.0051082
0.0054176 0.0054176 0.0054176
0.0057972 0.0057972 0.0057972
0.0062033 0.0062033 0.0062033
0.0065329 0.0065329 0.0065329
0.0070329 0.0070329 0.0070329
0.0074327 0.0074327 0.0074327
0.0078595 0.0078595 0.0078595
0.0083481 0.0083481 0.0083481
0.0088667 0.0088667 0.0088667
0.0094173 0.0094173 0.0094173
0.0100386 0.0100386 0.0100386
0.0107202 0.0107202 0.0107202
0.0111998 0.0111998 0.0111998
0.0119592 0.0119592 0.0119592
0.0128531 0.0128531 0.0128531
0.0134927 0.0134927 0.0134927
0.0145114 0.0145114 0.0145114
0.0152322 0.0152322 0.0152322
0.0160509 0.0160509 0.0160509
0.0174116 0.0174116 0.0174116
0.0183810 0.0183810 0.0183810
0.0194034 0.0194034 0.0194034
0.0204814 0.0204814 0.0204814
0.0223410 0.0223410 0.0223410
0.0236714 0.0236714 0.0236714
0.0250790 0.0250790 0.0250790
0.0265680 0.0265680 0.0265680
0.0281852 0.0281852 0.0281852
0.0299879 0.0299879 0.0299879
0.0319021 0.0319021 0.0319021
0.0329030 0.0329030 0.0329030
0.0349965 0.0349965 0.0349965
0.0372182 0.0372182 0.0372182
0.0396802 0.0396802 0.0396802
0.0423541 0.0423541 0.0423541
0.0437547 0.0437547 0.0437547
0.0019023 0.0019023 0.0019023
0.0019083 0.0019083 0.0019083
0.0019229 0.0019229 0.0019229
0.0019482 0.0019482 0.0019482
0.0019866 0.0019866 0.0019866
0.0020314 0.0020314 0.0020314
0.0020860 0.0020860 0.0020860
0.0021534 0.0021534 0.0021534
0.0022433 0.0022433 0.0022433
0.0023331 0.0023331 0.0023331
0.0024251 0.0024251 0.0024251
0.0025154 0.0025154 0.0025154
0.0026015 0.0026015 0.0026015
0.0027021 0.0027021 0.0027021
0.0028180 0.0028180 0.0028180
0.0029148 0.0029148 0.0029148
0.0030461 0.0030461 0.0030461
0.0031735 0.0031735 0.0031735
0.0033132 0.0033132 0.0033132
0.0034546 0.0034546 0.0034546
0.0036054 0.0036054 0.0036054
0.0038014 0.0038014 0.0038014
0.0040184 0.0040184 0.0040184
0.0042739 0.0042739 0.0042739
0.0044981 0.0044981 0.0044981
0.0047461 0.0047461 0.0047461
0.0050337 0.0050337 0.0050337
0.0053386 0.0053386 0.0053386
0.0056999 0.0056999 0.0056999
0.0060992 0.0060992 0.0060992
0.0064167 0.0064167 0.0064167
0.0069044 0.0069044 0.0069044
0.0072970 0.0072970 0.0072970
0.0077117 0.0077117 0.0077117
0.0081819 0.0081819 0.0081819
0.0086904 0.0086904 0.0086904
0.0092301 0.0092301 0.0092301
0.0098211 0.0098211 0.0098211
0.0104880 0.0104880 0.0104880
0.0111998 0.0111998 0.0111998
0.0117006 0.0117006 0.0117006
0.0125446 0.0125446 0.0125446
0.0134927 0.0134927 0.0134927
0.0141636 0.0141636 0.0141636
0.0148675 0.0148675 0.0148675
0.0160509 0.0160509 0.0160509
0.0169459 0.0169459 0.0169459
0.0178899 0.0178899 0.0178899
0.0194034 0.0194034 0.0194034
0.0204814 0.0204814 0.0204814
0.0217035 0.0217035 0.0217035
0.0229968 0.0229968 0.0229968
0.0243653 0.0243653 0.0243653
0.0258130 0.0258130 0.0258130
0.0273444 0.0273444 0.0273444
0.0290730 0.0290730 0.0290730
0.0309307 0.0309307 0.0309307
0.0329030 0.0329030 0.0329030
0.0349965 0.0349965 0.0349965
0.0372182 0.0372182 0.0372182
0.0384047 0.0384047 0.0384047
0.0409963 0.0409963 0.0409963
0.0437547 0.0437547 0.0437547
0.0466898 0.0466898 0.0466898
0.0019050 0.0019050 0.0019050
0.0019184 0.0019184 0.0019184
0.0019394 0.0019394 0.0019394
0.0019745 0.0019745 0.0019745
0.0020185 0.0020185 0.0020185
0.0020658 0.0020658 0.0020658
0.0021367 0.0021367 0.0021367
0.0022133 0.0022133 0.0022133
0.0023068 0.0023068 0.0023068
0.0023960 0.0023960 0.0023960
0.0024843 0.0024843 0.0024843
0.0025797 0.0025797 0.0025797
0.0026765 0.0026765 0.0026765
0.0027720 0.0027720 0.0027720
0.0028806 0.0028806 0.0028806
0.0030080 0.0030080 0.0030080
0.0031283 0.0031283 0.0031283
0.0032659 0.0032659 0.0032659
0.0034252 0.0034252 0.0034252
0.0035747 0.0035747 0.0035747
0.0037595 0.0037595 0.0037595
0.0039740 0.0039740 0.0039740
0.0041661 0.0041661 0.0041661
0.0044410 0.0044410 0.0044410
0.0046768 0.0046768 0.0046768
0.0049602 0.0049602 0.0049602
0.0052607 0.0052607 0.0052607
0.0056042 0.0056042 0.0056042
0.0059968 0.0059968 0.0059968
0.0063091 0.0063091 0.0063091
0.0067783 0.0067783 0.0067783
0.0071637 0.0071637 0.0071637
0.0075709 0.0075709 0.0075709
0.0080191 0.0080191 0.0080191
0.0085175 0.0085175 0.0085175
0.0090466 0.0090466 0.0090466
0.0096083 0.0096083 0.0096083
0.0102609 0.0102609 0.0102609
0.0109574 0.0109574 0.0109574
0.0117006 0.0117006 0.0117006
0.0122435 0.0122435 0.0122435
0.0131691 0.0131691 0.0131691
0.0138242 0.0138242 0.0138242
0.0148675 0.0148675 0.0148675
0.0156210 0.0156210 0.0156210
0.0164924 0.0164924 0.0164924
0.0178899 0.0178899 0.0178899
0.0188854 0.0188854 0.0188854
0.0199353 0.0199353 0.0199353
0.0210838 0.0210838 0.0210838
0.0223410 0.0223410 0.0223410
0.0243653 0.0243653 0.0243653
0.0258130 0.0258130 0.0258130
0.0273444 0.0273444 0.0273444
0.0290730 0.0290730 0.0290730
0.0299879 0.0299879 0.0299879
0.0319021 0.0319021 0.0319021
0.0339342 0.0339342 0.0339342
0.0360909 0.0360909 0.0360909
0.0384047 0.0384047 0.0384047
0.0409963 0.0409963 0.0409963
0.0423541 0.0423541 0.0423541
0.0451996 0.0451996 0.0451996
0.0482266 0.0482266 0.0482266
0.0019144 0.0019144 0.0019144
0.0019312 0.0019312 0.0019312
0.0019637 0.0019637 0.0019637
0.0020065 0.0020065 0.0020065
0.0020509 0.0020509 0.0020509
0.0021151 0.0021151 0.0021151
0.0021932 0.0021932 0.0021932
0.0022746 0.0022746 0.0022746
0.0023688 0.0023688 0.0023688
0.0024644 0.0024644 0.0024644
0.0025581 0.0025581 0.0025581
0.0026511 0.0026511 0.0026511
0.0027417 0.0027417 0.0027417
0.0028492 0.0028492 0.0028492
0.0029703 0.0029703 0.0029703
0.0030846 0.0030846 0.0030846
0.0032194 0.0032194 0.0032194
0.0033672 0.0033672 0.0033672
0.0035142 0.0035142 0.0035142
0.0037180 0.0037180 0.0037180
0.0038868 0.0038868 0.0038868
0.0041132 0.0041132 0.0041132
0.0043846 0.0043846 0.0043846
0.0046145 0.0046145 0.0046145
0.0048878 0.0048878 0.0048878
0.0051839 0.0051839 0.0051839
0.0055102 0.0055102 0.0055102
0.0058962 0.0058962 0.0058962
0.0062033 0.0062033 0.0062033
0.0066545 0.0066545 0.0066545
0.0070329 0.0070329 0.0070329
0.0074327 0.0074327 0.0074327
0.0078595 0.0078595 0.0078595
0.0085175 0.0085175 0.0085175
0.0090466 0.0090466 0.0090466
0.0094173 0.0094173 0.0094173
0.0100386 0.0100386 0.0100386
0.0107202 0.0107202 0.0107202
0.0114475 0.0114475 0.0114475
0.0119592 0.0119592 0.0119592
0.0128531 0.0128531 0.0128531
0.0138242 0.0138242 0.0138242
0.0145114 0.0145114 0.0145114
0.0152322 0.0152322 0.0152322
0.0164924 0.0164924 0.0164924
0.0174116 0.0174116 0.0174116
0.0183810 0.0183810 0.0183810
0.0199353 0.0199353 0.0199353
0.0210838 0.0210838 0.0210838
0.0223410 0.0223410 0.0223410
0.0236714 0.0236714 0.0236714
0.0250790 0.0250790 0.0250790
0.0265680 0.0265680 0.0265680
0.0281852 0.0281852 0.0281852
0.0299879 0.0299879 0.0299879
0.0319021 0.0319021 0.0319021
0.0339342 0.0339342 0.0339342
0.0360909 0.0360909 0.0360909
0.0372182 0.0372182 0.0372182
0.0396802 0.0396802 0.0396802
0.0423541 0.0423541 0.0423541
0.0451996 0.0451996 0.0451996
0.0466898 0.0466898 0.0466898
0.0498114 0.0498114 0.0498114
0.0019248 0.0019248 0.0019248
0.0019526 0.0019526 0.0019526
0.0019930 0.0019930 0.0019930
0.0020370 0.0020370 0.0020370
0.0020941 0.0020941 0.0020941
0.0021666 0.0021666 0.0021666
0.0022511 0.0022511 0.0022511
0.0023420 0.0023420 0.0023420
0.0024348 0.0024348 0.0024348
0.0025260 0.0025260 0.0025260
0.0026134 0.0026134 0.0026134
0.0027151 0.0027151 0.0027151
0.0028180 0.0028180 0.0028180
0.0029332 0.0029332 0.0029332
0.0030653 0.0030653 0.0030653
0.0031964 0.0031964 0.0031964
0.0033132 0.0033132 0.0033132
0.0034843 0.0034843 0.0034843
0.0036363 0.0036363 0.0036363
0.0038439 0.0038439 0.0038439
0.0040632 0.0040632 0.0040632
0.0042739 0.0042739 0.0042739
0.0045559 0.0045559 0.0045559
0.0048164 0.0048164 0.0048164
0.0051082 0.0051082 0.0051082
0.0054176 0.0054176 0.0054176
0.0057972 0.0057972 0.0057972
0.0060992 0.0060992 0.0060992
0.0065329 0.0065329 0.0065329
0.0069044 0.0069044 0.0069044
0.0072970 0.0072970 0.0072970
0.0078595 0.0078595 0.0078595
0.0083481 0.0083481 0.0083481
0.0088667 0.0088667 0.0088667
0.0094173 0.0094173 0.0094173
0.0100386 0.0100386 0.0100386
0.0104880 0.0104880 0.0104880
0.0111998 0.0111998 0.0111998
0.0119592 0.0119592 0.0119592
0.0125446 0.0125446 0.0125446
0.0134927 0.0134927 0.0134927
0.0141636 0.0141636 0.0141636
0.0152322 0.0152322 0.0152322
0.0160509 0.0160509 0.0160509
0.0169459 0.0169459 0.0169459
0.0183810 0.0183810 0.0183810
0.0194034 0.0194034 0.0194034
0.0204814 0.0204814 0.0204814
0.0217035 0.0217035 0.0217035
0.0229968 0.0229968 0.0229968
0.0243653 0.0243653 0.0243653
0.0258130 0.0258130 0.0258130
0.0273444 0.0273444 0.0273444
0.0290730 0.0290730 0.0290730
0.0309307 0.0309307 0.0309307
0.0329030 0.0329030 0.0329030
0.0349965 0.0349965 0.0349965
0.0372182 0.0372182 0.0372182
0.0396802 0.0396802 0.0396802
0.0409963 0.0409963 0.0409963
0.0437547 0.0437547 0.0437547
0.0466898 0.0466898 0.0466898
0.0482266 0.0482266 0.0482266
0.0514455 0.0514455 0.0514455
0.0019428 0.0019428 0.0019428
0.0019803 0.0019803 0.0019803
0.0020233 0.0020233 0.0020233
0.0020738 0.0020738 0.0020738
0.0021421 0.0021421 0.0021421
0.0022278 0.0022278 0.0022278
0.0023155 0.0023155 0.0023155
0.0024057 0.0024057 0.0024057
0.0024943 0.0024943 0.0024943
0.0025906 0.0025906 0.0025906
0.0026893 0.0026893 0.0026893
0.0027873 0.0027873 0.0027873
0.0028965 0.0028965 0.0028965
0.0030269 0.0030269 0.0030269
0.0031508 0.0031508 0.0031508
0.0032895 0.0032895 0.0032895
0.0034252 0.0034252 0.0034252
0.0036054 0.0036054 0.0036054
0.0038014 0.0038014 0.0038014
0.0039740 0.0039740 0.0039740
0.0042197 0.0042197 0.0042197
0.0044410 0.0044410 0.0044410
0.0047461 0.0047461 0.0047461
0.0050337 0.0050337 0.0050337
0.0053386 0.0053386 0.0053386
0.0056042 0.0056042 0.0056042
0.0059968 0.0059968 0.0059968
0.0064167 0.0064167 0.0064167
0.0067783 0.0067783 0.0067783
0.0071637 0.0071637 0.0071637
0.0077117 0.0077117 0.0077117
0.0081819 0.0081819 0.0081819
0.0086904 0.0086904 0.0086904
0.0092301 0.0092301 0.0092301
0.0098211 0.0098211 0.0098211
0.0104880 0.0104880 0.0104880
0.0109574 0.0109574 0.0109574
0.0117006 0.0117006 0.0117006
0.0125446 0.0125446 0.0125446
0.0131691 0.0131691 0.0131691
0.0141636 0.0141636 0.0141636
0.0148675 0.0148675 0.0148675
0.0156210 0.0156210 0.0156210
0.0169459 0.0169459 0.0169459
0.0178899 0.0178899 0.0178899
0.0188854 0.0188854 0.0188854
0.0199353 0.0199353 0.0199353
0.0217035 0.0217035 0.0217035
0.0229968 0.0229968 0.0229968
0.0243653 0.0243653 0.0243653
0.0258130 0.0258130 0.0258130
0.0273444 0.0273444 0.0273444
0.0290730 0.0290730 0.0290730
0.0309307 0.0309307 0.0309307
0.0329030 0.0329030 0.0329030
0.0339342 0.0339342 0.0339342
0.0360909 0.0360909 0.0360909
0.0384047 0.0384047 0.0384047
0.0409963 0.0409963 0.0409963
0.0437547 0.0437547 0.0437547
0.0451996 0.0451996 0.0451996
0.0482266 0.0482266 0.0482266
0.0514455 0.0514455 0.0514455
0.0531302 0.0531302 0.0531302
0.0019691 0.0019691 0.0019691
0.0020113 0.0020113 0.0020113
0.0020577 0.0020577 0.0020577
0.0021205 0.0021205 0.0021205
0.0021999 0.0021999 0.0021999
0.0022904 0.0022904 0.0022904
0.0023777 0.0023777 0.0023777
0.0024743 0.0024743 0.0024743
0.0025689 0.0025689 0.0025689
0.0026638 0.0026638 0.0026638
0.0027568 0.0027568 0.0027568
0.0028649 0.0028649 0.0028649
0.0029891 0.0029891 0.0029891
0.0031059 0.0031059 0.0031059
0.0032426 0.0032426 0.0032426
0.0033961 0.0033961 0.0033961
0.0035443 0.0035443 0.0035443
0.0037180 0.0037180 0.0037180
0.0039302 0.0039302 0.0039302
0.0041661 0.0041661 0.0041661
0.0043846 0.0043846 0.0043846
0.0046145 0.0046145 0.0046145
0.0049602 0.0049602 0.0049602
0.0052607 0.0052607 0.0052607
0.0055102 0.0055102 0.0055102
0.0058962 0.0058962 0.0058962
0.0063091 0.0063091 0.0063091
0.0066545 0.0066545 0.0066545
0.0070329 0.0070329 0.0070329
0.0075709 0.0075709 0.0075709
0.0080191 0.0080191 0.0080191
0.0085175 0.0085175 0.0085175
0.0090466 0.0090466 0.0090466
0.0096083 0.0096083 0.0096083
0.0102609 0.0102609 0.0102609
0.0107202 0.0107202 0.0107202
0.0114475 0.0114475 0.0114475
0.0122435 0.0122435 0.0122435
0.0128531 0.0128531 0.0128531
0.0138242 0.0138242 0.0138242
0.0145114 0.0145114 0.0145114
0.0156210 0.0156210 0.0156210
0.0164924 0.0164924 0.0164924
0.0174116 0.0174116 0.0174116
0.0188854 0.0188854 0.0188854
0.0199353 0.0199353 0.0199353
0.0210838 0.0210838 0.0210838
0.0223410 0.0223410 0.0223410
0.0236714 0.0236714 0.0236714
0.0250790 0.0250790 0.0250790
0.0265680 0.0265680 0.0265680
0.0281852 0.0281852 0.0281852
0.0299879 0.0299879 0.0299879
0.0319021 0.0319021 0.0319021
0.0339342 0.0339342 0.0339342
0.0360909 0.0360909 0.0360909
0.0384047 0.0384047 0.0384047
0.0396802 0.0396802 0.0396802
0.0423541 0.0423541 0.0423541
0.0451996 0.0451996 0.0451996
0.0466898 0.0466898 0.0466898
0.0498114 0.0498114 0.0498114
0.0531302 0.0531302 0.0531302
0.0549471 0.0549471 0.0549471
0.0019993 0.0019993 0.0019993
0.0020426 0.0020426 0.0020426
0.0020990 0.0020990 0.0020990
0.0021798 0.0021798 0.0021798
0.0022667 0.0022667 0.0022667
0.0023509 0.0023509 0.0023509
0.0024447 0.0024447 0.0024447
0.0025366 0.0025366 0.0025366
0.0026259 0.0026259 0.0026259
0.0027280 0.0027280 0.0027280
0.0028336 0.0028336 0.0028336
0.0029517 0.0029517 0.0029517
0.0030653 0.0030653 0.0030653
0.0031964 0.0031964 0.0031964
0.0033385 0.0033385 0.0033385
0.0035142 0.0035142 0.0035142
0.0036769 0.0036769 0.0036769
0.0038868 0.0038868 0.0038868
0.0040632 0.0040632 0.0040632
0.0043289 0.0043289 0.0043289
0.0045559 0.0045559 0.0045559
0.0048164 0.0048164 0.0048164
0.0051082 0.0051082 0.0051082
0.0054176 0.0054176 0.0054176
0.0057972 0.0057972 0.0057972
0.0062033 0.0062033 0.0062033
0.0065329 0.0065329 0.0065329
0.0069044 0.0069044 0.0069044
0.0074327 0.0074327 0.0074327
0.0078595 0.0078595 0.0078595
0.0083481 0.0083481 0.0083481
0.0088667 0.0088667 0.0088667
0.0094173 0.0094173 0.0094173
0.0100386 0.0100386 0.0100386
0.0107202 0.0107202 0.0107202
0.0111998 0.0111998 0.0111998
0.0119592 0.0119592 0.0119592
0.0128531 0.0128531 0.0128531
0.0134927 0.0134927 0.0134927
0.0145114 0.0145114 0.0145114
0.0152322 0.0152322 0.0152322
0.0160509 0.0160509 0.0160509
0.0174116 0.0174116 0.0174116
0.0183810 0.0183810 0.0183810
0.0194034 0.0194034 0.0194034
0.0204814 0.0204814 0.0204814
0.0223410 0.0223410 0.0223410
0.0236714 0.0236714 0.0236714
0.0250790 0.0250790 0.0250790
0.0265680 0.0265680 0.0265680
0.0281852 0.0281852 0.0281852
0.0299879 0.0299879 0.0299879
0.0319021 0.0319021 0.0319021
0.0329030 0.0329030 0.0329030
0.0349965 0.0349965 0.0349965
0.0372182 0.0372182 0.0372182
0.0396802 0.0396802 0.0396802
0.0423541 0.0423541 0.0423541
0.0437547 0.0437547 0.0437547
0.0466898 0.0466898 0.0466898
0.0498114 0.0498114 0.0498114
0.0514455 0.0514455 0.0514455
0.0549471 0.0549471 0.0549471
0.0587579 0.0587579 0.0587579
0.0020286 0.0020286 0.0020286
0.0020819 0.0020819 0.0020819
0.0021534 0.0021534 0.0021534
0.0022355 0.0022355 0.0022355
0.0023243 0.0023243 0.0023243
0.0024154 0.0024154 0.0024154
0.0025154 0.0025154 0.0025154
0.0026015 0.0026015 0.0026015
0.0027021 0.0027021 0.0027021
0.0028026 0.0028026 0.0028026
0.0029148 0.0029148 0.0029148
0.0030461 0.0030461 0.0030461
0.0031735 0.0031735 0.0031735
0.0033132 0.0033132 0.0033132
0.0034546 0.0034546 0.0034546
0.0036054 0.0036054 0.0036054
0.0038014 0.0038014 0.0038014
0.0040184 0.0040184 0.0040184
0.0042739 0.0042739 0.0042739
0.0044981 0.0044981 0.0044981
0.0047461 0.0047461 0.0047461
0.0050337 0.0050337 0.0050337
0.0053386 0.0053386 0.0053386
0.0056999 0.0056999 0.0056999
0.0060992 0.0060992 0.0060992
0.0064167 0.0064167 0.0064167
0.0069044 0.0069044 0.0069044
0.0072970 0.0072970 0.0072970
0.0077117 0.0077117 0.0077117
0.0081819 0.0081819 0.0081819
0.0086904 0.0086904 0.0086904
0.0092301 0.0092301 0.0092301
0.0098211 0.0098211 0.0098211
0.0104880 0.0104880 0.0104880
0.0111998 0.0111998 0.0111998
0.0117006 0.0117006 0.0117006
0.0125446 0.0125446 0.0125446
0.0131691 0.0131691 0.0131691
0.0141636 0.0141636 0.0141636
0.0148675 0.0148675 0.0148675
0.0160509 0.0160509 0.0160509
0.0169459 0.0169459 0.0169459
0.0178899 0.0178899 0.0178899
0.0194034 0.0194034 0.0194034
0.0204814 0.0204814 0.0204814
0.0217035 0.0217035 0.0217035
0.0229968 0.0229968 0.0229968
0.0243653 0.0243653 0.0243653
0.0258130 0.0258130 0.0258130
0.0273444 0.0273444 0.0273444
0.0290730 0.0290730 0.0290730
0.0309307 0.0309307 0.0309307
0.0329030 0.0329030 0.0329030
0.0349965 0.0349965 0.0349965
0.0372182 0.0372182 0.0372182
0.0384047 0.0384047 0.0384047
0.0409963 0.0409963 0.0409963
0.0437547 0.0437547 0.0437547
0.0466898 0.0466898 0.0466898
0.0482266 0.0482266 0.0482266
0.0514455 0.0514455 0.0514455
0.0531302 0.0531302 0.0531302
0.0568225 0.0568225 0.0568225
0.0607551 0.0607551 0.0607551
0.0020658 0.0020658 0.0020658
0.0021313 0.0021313 0.0021313
0.0022133 0.0022133 0.0022133
0.0022983 0.0022983 0.0022983
0.0023960 0.0023960 0.0023960
0.0024843 0.0024843 0.0024843
0.0025797 0.0025797 0.0025797
0.0026765 0.0026765 0.0026765
0.0027720 0.0027720 0.0027720
0.0028806 0.0028806 0.0028806
0.0030080 0.0030080 0.0030080
0.0031283 0.0031283 0.0031283
0.0032659 0.0032659 0.0032659
0.0033961 0.0033961 0.0033961
0.0035747 0.0035747 0.0035747
0.0037595 0.0037595 0.0037595
0.0039740 0.0039740 0.0039740
0.0041661 0.0041661 0.0041661
0.0044410 0.0044410 0.0044410
0.0046768 0.0046768 0.0046768
0.0049602 0.0049602 0.0049602
0.0052607 0.0052607 0.0052607
0.0056042 0.0056042 0.0056042
0.0059968 0.0059968 0.0059968
0.0063091 0.0063091 0.0063091
0.0067783 0.0067783 0.0067783
0.0071637 0.0071637 0.0071637
0.0075709 0.0075709 0.0075709
0.0080191 0.0080191 0.0080191
0.0085175 0.0085175 0.0085175
0.0090466 0.0090466 0.0090466
0.0096083 0.0096083 0.0096083
0.0102609 0.0102609 0.0102609
0.0109574 0.0109574 0.0109574
0.0117006 0.0117006 0.0117006
0.0122435 0.0122435 0.0122435
0.0131691 0.0131691 0.0131691
0.0138242 0.0138242 0.0138242
0.0148675 0.0148675 0.0148675
0.0156210 0.0156210 0.0156210
0.0164924 0.0164924 0.0164924
0.0178899 0.0178899 0.0178899
0.0188854 0.0188854 0.0188854
0.0199353 0.0199353 0.0199353
0.0210838 0.0210838 0.0210838
0.0223410 0.0223410 0.0223410
0.0236714 0.0236714 0.0236714
0.0258130 0.0258130 0.0258130
0.0273444 0.0273444 0.0273444
0.0281852 0.0281852 0.0281852
0.0299879 0.0299879 0.0299879
0.0319021 0.0319021 0.0319021
0.0339342 0.0339342 0.0339342
0.0360909 0.0360909 0.0360909
0.0384047 0.0384047 0.0384047
0.0409963 0.0409963 0.0409963
0.0423541 0.0423541 0.0423541
0.0451996 0.0451996 0.0451996
0.0482266 0.0482266 0.0482266
0.0498114 0.0498114 0.0498114
0.0531302 0.0531302 0.0531302
0.0568225 0.0568225 0.0568225
0.0587579 0.0587579 0.0587579
0.0628155 0.0628155 0.0628155
0.0021097 0.0021097 0.0021097
0.0021865 0.0021865 0.0021865
0.0022746 0.0022746 0.0022746
0.0023688 0.0023688 0.0023688
0.0024545 0.0024545 0.0024545
0.0025473 0.0025473 0.0025473
0.0026385 0.0026385 0.0026385
0.0027417 0.0027417 0.0027417
0.0028492 0.0028492 0.0028492
0.0029703 0.0029703 0.0029703
0.0030846 0.0030846 0.0030846
0.0032194 0.0032194 0.0032194
0.0033672 0.0033672 0.0033672
0.0035142 0.0035142 0.0035142
0.0036769 0.0036769 0.0036769
0.0038868 0.0038868 0.0038868
0.0041132 0.0041132 0.0041132
0.0043289 0.0043289 0.0043289
0.0046145 0.0046145 0.0046145
0.0048878 0.0048878 0.0048878
0.0051839 0.0051839 0.0051839
0.0055102 0.0055102 0.0055102
0.0057972 0.0057972 0.0057972
0.0062033 0.0062033 0.0062033
0.0066545 0.0066545 0.0066545
0.0070329 0.0070329 0.0070329
0.0074327 0.0074327 0.0074327
0.0078595 0.0078595 0.0078595
0.0083481 0.0083481 0.0083481
0.0088667 0.0088667 0.0088667
0.0094173 0.0094173 0.0094173
0.0100386 0.0100386 0.0100386
0.0107202 0.0107202 0.0107202
0.0114475 0.0114475 0.0114475
0.0119592 0.0119592 0.0119592
0.0128531 0.0128531 0.0128531
0.0134927 0.0134927 0.0134927
0.0145114 0.0145114 0.0145114
0.0152322 0.0152322 0.0152322
0.0164924 0.0164924 0.0164924
0.0174116 0.0174116 0.0174116
0.0183810 0.0183810 0.0183810
0.0194034 0.0194034 0.0194034
0.0210838 0.0210838 0.0210838
0.0223410 0.0223410 0.0223410
0.0236714 0.0236714 0.0236714
0.0250790 0.0250790 0.0250790
0.0265680 0.0265680 0.0265680
0.0281852 0.0281852 0.0281852
0.0299879 0.0299879 0.0299879
0.0319021 0.0319021 0.0319021
0.0339342 0.0339342 0.0339342
0.0349965 0.0349965 0.0349965
0.0372182 0.0372182 0.0372182
0.0396802 0.0396802 0.0396802
0.0423541 0.0423541 0.0423541
0.0451996 0.0451996 0.0451996
0.0466898 0.0466898 0.0466898
0.0498114 0.0498114 0.0498114
0.0531302 0.0531302 0.0531302
0.0549471 0.0549471 0.0549471
0.0587579 0.0587579 0.0587579
0.0607551 0.0607551 0.0607551
0.0649410 0.0649410 0.0649410
0.0021666 0.0021666 0.0021666
0.0022511 0.0022511 0.0022511
0.0023420 0.0023420 0.0023420
0.0024348 0.0024348 0.0024348
0.0025260 0.0025260 0.0025260
0.0026134 0.0026134 0.0026134
0.0027151 0.0027151 0.0027151
0.0028180 0.0028180 0.0028180
0.0029332 0.0029332 0.0029332
0.0030461 0.0030461 0.0030461
0.0031964 0.0031964 0.0031964
0.0033132 0.0033132 0.0033132
0.0034843 0.0034843 0.0034843
0.0036363 0.0036363 0.0036363
0.0038439 0.0038439 0.0038439
0.0040632 0.0040632 0.0040632
0.0042739 0.0042739 0.0042739
0.0045559 0.0045559 0.0045559
0.0048164 0.0048164 0.0048164
0.0051082 0.0051082 0.0051082
0.0054176 0.0054176 0.0054176
0.0056999 0.0056999 0.0056999
0.0060992 0.0060992 0.0060992
0.0065329 0.0065329 0.0065329
0.0069044 0.0069044 0.0069044
0.0072970 0.0072970 0.0072970
0.0077117 0.0077117 0.0077117
0.0083481 0.0083481 0.0083481
0.0088667 0.0088667 0.0088667
0.0094173 0.0094173 0.0094173
