Plugins/FilmEmulator/Content/LUTs/FE_Kodak_Vision3_500T_5230_64.cube
# FilmEmulator LUT (resampled to 64)
LUT_3D_SIZE 8
0.001587 0.000000 0.000000
0.126208 0.008837 0.000000
0.253047 0.020848 0.000000
0.379390 0.033273 0.000000
0.495501 0.044046 0.000000
0.605473 0.051902 0.000000
0.706887 0.056981 0.000000
0.798370 0.062317 0.000000
0.003593 0.088645 0.000000
0.102783 0.102777 0.000000
0.266092 0.136333 0.000000
0.399788 0.145821 0.000000
0.516913 0.153151 0.000000
0.626668 0.158328 0.000000
0.726011 0.161650 0.000000
0.816916 0.166125 0.000000
0.034694 0.160475 0.000000
0.096174 0.173389 0.000000
0.222938 0.205690 0.000000
0.404770 0.261401 0.000000
0.541314 0.276338 0.000000
0.656008 0.284646 0.000000
0.756906 0.285665 0.000000
0.848236 0.287859 0.000279
0.071237 0.248060 0.000445
0.141121 0.266564 0.000000
0.255849 0.290770 0.000000
0.380184 0.326879 0.000000
0.538064 0.385120 0.000000
0.674564 0.408685 0.000000
0.791222 0.422607 0.010148
0.885062 0.423506 0.015812
0.125157 0.349474 0.000000
0.207122 0.372056 0.000000
0.325339 0.398238 0.000000
0.437237 0.424832 0.000000
0.539974 0.458224 0.000000
0.655699 0.498730 0.000000
0.792021 0.532906 0.012868
0.902017 0.546539 0.027453
0.184078 0.451342 0.000000
0.289701 0.476383 0.000000
0.391171 0.505191 0.000000
0.499264 0.532437 0.000000
0.595366 0.551617 0.005108
0.668062 0.577633 0.020064
0.765126 0.608074 0.020634
0.891567 0.642099 0.029153
0.264269 0.548662 0.000000
0.353012 0.576754 0.003761
0.455344 0.605472 0.015781
0.556270 0.625940 0.034221
0.637934 0.639613 0.055123
0.707075 0.646489 0.071121
0.766248 0.669015 0.072938
0.856044 0.709015 0.064798
0.346130 0.643372 0.049683
0.420380 0.665135 0.057173
0.516475 0.692034 0.062056
0.599696 0.705523 0.072401
0.672320 0.715707 0.089364
0.738216 0.722282 0.111437
0.786133 0.725603 0.133894
0.840851 0.751495 0.136902
0.000000 0.014854 0.092904
0.080149 0.016440 0.081966
0.231680 0.017972 0.109496
0.368511 0.023646 0.108388
0.493026 0.029670 0.103358
0.609405 0.039050 0.102308
0.716207 0.048490 0.102744
0.810625 0.057482 0.103376
0.000000 0.089907 0.105534
0.108574 0.114760 0.112767
0.268756 0.138179 0.118840
0.404435 0.143868 0.112602
0.527728 0.151001 0.111841
0.640048 0.156064 0.109861
0.740602 0.158869 0.107725
0.832281 0.164409 0.107237
0.005423 0.159586 0.091224
0.114201 0.187326 0.091865
0.245708 0.216240 0.078903
0.421647 0.270808 0.110661
0.556797 0.281694 0.110222
0.673518 0.289734 0.111628
0.776407 0.291736 0.112599
0.867609 0.290668 0.113438
0.064293 0.244017 0.087268
0.150763 0.278942 0.088803
0.276579 0.311158 0.065966
0.405426 0.343627 0.041191
0.563502 0.400352 0.089487
0.697090 0.424862 0.118100
0.807946 0.434693 0.131581
0.901127 0.433503 0.135404
0.127445 0.346759 0.101502
0.202220 0.387573 0.089637
0.343857 0.423543 0.062447
0.459983 0.450911 0.028349
0.562997 0.479361 0.044744
0.677088 0.516487 0.093257
0.808346 0.547467 0.134418
0.918662 0.561104 0.151400
0.175345 0.449945 0.103833
0.272019 0.488381 0.090411
0.402227 0.528740 0.094933
0.518475 0.555229 0.084180
0.611972 0.573347 0.092633
0.682016 0.592769 0.099998
0.775377 0.620527 0.122122
0.901639 0.653279 0.148619
0.241641 0.550087 0.121147
0.335012 0.581175 0.131919
0.455090 0.618770 0.149946
0.562370 0.638822 0.154163
0.645630 0.651878 0.158970
0.714920 0.658186 0.161309
0.773658 0.679839 0.163124
0.860370 0.717468 0.173201
0.327061 0.644087 0.176034
0.404945 0.664980 0.194418
0.509023 0.696255 0.213486
0.597353 0.713169 0.224138
0.670660 0.721912 0.224021
0.738837 0.729439 0.229955
0.786129 0.733075 0.243020
0.841025 0.758026 0.236150
0.000000 0.031298 0.148629
0.022419 0.032589 0.190343
0.165659 0.037242 0.161382
0.309593 0.044617 0.183061
0.485950 0.024579 0.224851
0.607958 0.029296 0.226187
0.715946 0.028126 0.221219
0.812997 0.036403 0.217726
0.000000 0.096231 0.179059
0.024373 0.120642 0.225923
0.220576 0.134475 0.197383
0.370582 0.144903 0.212530
0.519826 0.148486 0.238570
0.638222 0.151863 0.239542
0.742541 0.151526 0.235533
0.837325 0.152978 0.231017
0.000000 0.159590 0.185156
0.003425 0.190596 0.212798
0.272837 0.251168 0.233770
0.426336 0.274005 0.236165
0.559074 0.286686 0.255568
0.674497 0.292299 0.258701
0.780187 0.293682 0.257646
0.873597 0.289749 0.253194
0.000000 0.243722 0.188095
0.083204 0.273424 0.200884
0.290531 0.330054 0.210234
0.418494 0.363201 0.213286
0.580237 0.421350 0.262651
0.704980 0.437982 0.276537
0.811890 0.442227 0.282156
0.907176 0.439145 0.279731
0.084805 0.338365 0.194282
0.163889 0.375543 0.203742
0.346766 0.435734 0.219653
0.467874 0.468062 0.229548
0.561285 0.488536 0.231153
0.696564 0.542568 0.273285
0.824170 0.571799 0.298235
0.930590 0.579890 0.306172
0.166723 0.431037 0.201235
0.232072 0.475346 0.209321
0.392842 0.536975 0.250250
0.518922 0.569965 0.269837
0.606801 0.580860 0.268411
0.674481 0.596972 0.264711
0.782712 0.636198 0.283573
0.915390 0.674179 0.305373
0.207806 0.528989 0.222869
0.263370 0.569352 0.236427
0.441629 0.623620 0.286948
0.556037 0.648545 0.310654
0.639250 0.659569 0.314498
0.707224 0.664593 0.312539
0.767578 0.686394 0.310691
0.857059 0.724046 0.313168
0.242288 0.625837 0.250811
0.360909 0.657676 0.282343
0.486911 0.697960 0.326794
0.588331 0.720871 0.348611
0.665501 0.730251 0.356510
0.731306 0.735171 0.356528
0.780687 0.739388 0.361609
0.837402 0.764757 0.358303
0.000000 0.056658 0.214303
0.000000 0.057776 0.250392
0.126576 0.062361 0.279880
0.267686 0.063403 0.245529
0.399189 0.075073 0.247804
0.563470 0.062662 0.312511
0.720375 0.032291 0.343883
0.821943 0.037354 0.339831
0.000000 0.114803 0.247562
0.000000 0.137138 0.294521
0.142325 0.144172 0.322390
0.327065 0.153634 0.284517
0.454778 0.168950 0.289932
0.606183 0.167023 0.343090
0.746985 0.158505 0.360264
0.846462 0.157266 0.355335
0.000000 0.175799 0.257401
0.000000 0.208616 0.297601
0.189508 0.257101 0.359366
0.397223 0.283584 0.334193
0.538917 0.298194 0.350581
0.658492 0.297619 0.366922
0.779271 0.295312 0.381216
0.876122 0.287981 0.373590
0.000000 0.246020 0.270164
0.000000 0.273911 0.297270
0.173448 0.329223 0.338339
0.463276 0.418129 0.376018
0.599488 0.441651 0.381083
0.701692 0.449921 0.403208
0.809969 0.446122 0.411061
0.904559 0.436320 0.402341
0.000000 0.334423 0.286850
0.016147 0.365284 0.302936
0.253863 0.431018 0.334199
0.466390 0.481239 0.355396
0.571697 0.509732 0.369067
0.712589 0.568858 0.417893
0.827241 0.583038 0.432188
0.928371 0.584392 0.432802
0.051613 0.427392 0.304692
0.142786 0.461896 0.320330
0.320179 0.526508 0.347408
0.506601 0.574948 0.383363
0.596766 0.588505 0.391305
0.665061 0.604145 0.391790
0.801223 0.665236 0.428700
0.929850 0.696349 0.445215
0.151248 0.516463 0.319317
0.209856 0.549644 0.332946
0.388739 0.610457 0.368996
0.540852 0.651507 0.411028
0.629521 0.665982 0.422660
0.695675 0.670756 0.424300
0.761226 0.693067 0.423402
0.862436 0.738462 0.433859
0.215724 0.607849 0.341714
0.281087 0.640049 0.358242
0.442650 0.684057 0.398974
0.572018 0.721736 0.437937
0.654902 0.735922 0.454843
0.724583 0.742711 0.459737
0.776607 0.746366 0.460637
0.834743 0.772313 0.458614
0.000000 0.090415 0.283870
0.000000 0.094758 0.311233
0.049773 0.085089 0.372854
0.242002 0.094227 0.376069
0.373654 0.085154 0.339692
0.496616 0.094424 0.333001
0.634636 0.083989 0.382984
0.781573 0.072675 0.432207
0.000000 0.136623 0.314746
0.001809 0.154991 0.349575
0.069567 0.161945 0.398017
0.281779 0.172805 0.408571
0.433066 0.179870 0.378052
0.558340 0.198336 0.376452
0.678305 0.198050 0.417763
0.812199 0.185333 0.458442
0.001238 0.200920 0.341572
0.004485 0.230178 0.379750
0.119294 0.273198 0.441948
0.335672 0.289859 0.445924
0.517531 0.314599 0.426416
0.624914 0.335290 0.433533
0.726430 0.327097 0.466281
0.853918 0.299663 0.481537
0.001238 0.257672 0.338697
0.004050 0.286193 0.369376
0.098119 0.343949 0.425936
0.403182 0.425821 0.485544
0.573787 0.459028 0.481644
0.688198 0.471357 0.499312
0.781485 0.464926 0.507328
0.881837 0.444685 0.509787
0.003823 0.344039 0.366618
0.006031 0.371945 0.389635
0.103806 0.421803 0.427930
0.405393 0.487323 0.461688
0.619705 0.576918 0.521945
0.726423 0.597472 0.535809
0.810698 0.601403 0.547491
0.907386 0.591476 0.548377
0.005969 0.422396 0.384858
0.007203 0.449484 0.397294
0.161781 0.505224 0.431518
0.469364 0.574710 0.468297
0.590021 0.596615 0.484874
0.677261 0.626737 0.507192
0.813485 0.693257 0.560192
0.923154 0.713380 0.573300
0.007669 0.503270 0.397957
0.091232 0.533388 0.417171
0.269521 0.591503 0.449782
0.507793 0.647118 0.486352
0.618243 0.670507 0.513323
0.686537 0.678132 0.518137
0.752040 0.698598 0.522856
0.890874 0.773585 0.564247
0.112069 0.589508 0.419804
0.189296 0.617493 0.436225
0.368483 0.667184 0.466002
0.535301 0.711479 0.504520
0.639094 0.735405 0.533005
0.714009 0.745859 0.544007
0.769872 0.750186 0.548044
0.829176 0.776144 0.548262
0.001447 0.115256 0.350834
0.002756 0.119040 0.367711
0.008246 0.107823 0.429148
0.214052 0.121000 0.469577
0.360713 0.122774 0.465810
0.474457 0.110935 0.430742
0.594769 0.116365 0.421129
0.699515 0.117083 0.445334
0.004163 0.158769 0.377930
0.005932 0.169144 0.397910
0.013295 0.186705 0.456070
0.245503 0.196457 0.497656
0.408853 0.208973 0.498885
0.538554 0.209887 0.468053
0.651319 0.226866 0.462232
0.742902 0.219450 0.477952
0.007080 0.222648 0.410837
0.009865 0.244203 0.443882
0.091512 0.292900 0.505614
0.295330 0.308832 0.538697
0.471368 0.326634 0.531851
0.610900 0.341175 0.515434
0.710114 0.355994 0.514232
0.785393 0.345050 0.528594
0.006974 0.278592 0.408979
0.009706 0.308845 0.438404
0.077051 0.365395 0.500974
0.366530 0.444843 0.576335
0.528565 0.456669 0.563971
0.661458 0.480225 0.563963
0.754400 0.495154 0.576486
0.821668 0.481802 0.587256
0.008281 0.350228 0.420444
0.010816 0.377673 0.446652
0.090158 0.429181 0.497235
0.361405 0.497619 0.549446
0.586543 0.585296 0.604919
0.705238 0.608463 0.617480
0.791639 0.615182 0.631456
0.863911 0.607433 0.629765
0.011491 0.431277 0.449038
0.013184 0.461789 0.471136
0.132333 0.509174 0.512006
0.381730 0.549190 0.536678
0.574725 0.618234 0.584093
0.732175 0.696692 0.641117
0.820758 0.718578 0.657137
0.890792 0.723977 0.665555
0.012797 0.503813 0.464166
0.028208 0.528214 0.482379
0.178283 0.574493 0.515081
0.427915 0.627767 0.550453
0.591747 0.665554 0.577252
0.679027 0.683181 0.590731
0.770874 0.727628 0.623532
0.893642 0.793615 0.676988
0.014082 0.568534 0.471867
0.065169 0.596859 0.493776
0.254769 0.644477 0.530997
0.475342 0.696772 0.564690
0.616974 0.733104 0.595652
0.705139 0.747858 0.612230
0.761705 0.752432 0.615728
0.817335 0.771319 0.622297
0.007433 0.137495 0.418383
0.008227 0.139927 0.426799
0.011890 0.146124 0.476127
0.170711 0.142335 0.542462
0.352313 0.158990 0.563025
0.470329 0.152118 0.553263
0.575074 0.132414 0.522453
0.678336 0.144540 0.512486
0.009266 0.182566 0.440392
0.010444 0.188664 0.454601
0.016111 0.219867 0.523641
0.193619 0.217523 0.567886
0.385204 0.236183 0.586317
0.521265 0.241248 0.581194
0.626665 0.236545 0.555872
0.724694 0.243210 0.543346
0.011482 0.242549 0.468857
0.013511 0.254570 0.490099
0.052697 0.306910 0.554853
0.248950 0.332906 0.608471
0.430475 0.340788 0.614048
0.579095 0.354634 0.607983
0.680861 0.358226 0.596904
0.769520 0.366916 0.592497
0.013301 0.303259 0.483777
0.015454 0.330819 0.509815
0.095100 0.384140 0.563869
0.320165 0.459903 0.643713
0.484227 0.464269 0.642532
0.622311 0.477188 0.634806
0.730161 0.490488 0.635902
0.810695 0.502760 0.643397
0.012646 0.357277 0.470558
0.014660 0.380291 0.495038
0.063449 0.430368 0.549003
0.317047 0.511373 0.618851
0.547201 0.582263 0.669265
0.666019 0.598085 0.667459
0.766429 0.614749 0.676370
0.842259 0.628185 0.690747
0.015211 0.435306 0.498551
0.017256 0.463083 0.525543
0.118213 0.510197 0.567459
0.335749 0.555478 0.602626
0.538295 0.618276 0.644927
0.714069 0.704711 0.710149
0.803522 0.724929 0.727511
0.872848 0.731501 0.737341
0.017705 0.511943 0.526648
0.027184 0.534400 0.546733
0.159899 0.579701 0.580653
0.374978 0.615692 0.604274
0.531250 0.638104 0.616214
0.688496 0.719203 0.679296
0.824232 0.792147 0.745029
0.901924 0.812774 0.760549
0.019261 0.576900 0.538243
0.090646 0.599844 0.557023
0.206194 0.633795 0.583956
0.398889 0.664608 0.602534
0.565627 0.710612 0.635496
0.681347 0.742082 0.661387
0.757880 0.758332 0.676109
0.843196 0.806885 0.718366
0.011841 0.156189 0.470947
0.012634 0.159785 0.481267
0.016684 0.175506 0.536316
0.081369 0.164891 0.589129
0.324193 0.185320 0.629517
0.463379 0.196703 0.642265
0.567597 0.181056 0.634478
0.651855 0.153351 0.599365
0.013864 0.204027 0.493343
0.015243 0.207944 0.512702
0.020281 0.239489 0.575344
0.103755 0.239189 0.618553
0.348734 0.254426 0.648193
0.499320 0.269201 0.662061
0.604183 0.263613 0.653991
0.695286 0.252764 0.626705
0.016545 0.259932 0.529232
0.017401 0.265513 0.539649
0.026301 0.314724 0.599027
0.186862 0.350909 0.656870
0.392410 0.353725 0.672228
0.534635 0.363853 0.680582
0.651400 0.372405 0.678525
0.736878 0.366603 0.665270
0.019487 0.328662 0.556719
0.020864 0.345267 0.574204
0.099044 0.397912 0.617773
0.262925 0.468444 0.694649
0.455786 0.481131 0.708219
0.578360 0.476011 0.702526
0.691085 0.487987 0.704049
0.777091 0.491569 0.702497
0.017365 0.372964 0.533486
0.019383 0.395880 0.555934
0.077046 0.448148 0.604288
0.259001 0.515452 0.669332
0.524886 0.594535 0.734591
0.629186 0.594144 0.729506
0.732786 0.605612 0.731047
0.813415 0.615631 0.736647
0.018812 0.435185 0.541958
0.020848 0.461218 0.565451
0.090335 0.505619 0.608037
0.274556 0.558419 0.654000
0.522451 0.632561 0.711777
0.681213 0.694945 0.755006
0.775624 0.712640 0.764918
0.850124 0.726441 0.775138
0.021301 0.510851 0.568290
0.024039 0.532745 0.590039
0.148003 0.578664 0.625679
0.313444 0.618675 0.660004
0.516636 0.648770 0.676892
0.663658 0.716120 0.728524
0.815889 0.798248 0.797632
0.887137 0.817496 0.814855
0.022888 0.581604 0.590698
0.096318 0.605713 0.611738
0.192231 0.638193 0.638715
0.368486 0.669800 0.661730
0.525919 0.683489 0.666870
0.646654 0.727377 0.698487
0.784886 0.801749 0.765930
0.907196 0.877258 0.830322
