Plugins/FilmEmulator/Content/LUTs/FE_Kodak_Portra_800_At1600_64.cube
TITLE "FE_Kodak_Portra_800_At1600_33"
LUT_3D_SIZE 8
0.0005262 0.0009172 0.0000993
0.0585905 0.0012202 0.0002255
0.2015769 0.0025813 0.0008079
0.3705380 0.0052160 0.0019295
0.5032199 0.0090232 0.0037363
0.6122931 0.0129306 0.0060647
0.6938577 0.0176914 0.0088852
0.7587544 0.0230158 0.0119467
0.0008708 0.0761854 0.0003083
0.0607122 0.0853915 0.0009226
0.2016747 0.0960516 0.0021574
0.3722757 0.1038262 0.0039157
0.5056985 0.1165785 0.0063114
0.6156458 0.1258166 0.0091496
0.6975108 0.1356651 0.0122180
0.7539410 0.1461724 0.0163511
0.0020619 0.2380535 0.0011774
0.0652566 0.2453567 0.0024864
0.2071619 0.2531108 0.0044825
0.3689541 0.2687374 0.0068625
0.5135462 0.2767689 0.0099478
0.6125978 0.2849719 0.0132588
0.6947964 0.3018716 0.0177595
0.7605180 0.3105237 0.0226947
0.0043004 0.3846726 0.0029699
0.0705602 0.3937763 0.0048198
0.2137436 0.4032384 0.0073498
0.3779004 0.4128613 0.0101722
0.5115719 0.4225983 0.0142167
0.6214737 0.4324148 0.0181271
0.6931992 0.4422401 0.0231623
0.7591454 0.4519768 0.0296917
0.0075575 0.5122346 0.0056773
0.0764081 0.5217542 0.0078392
0.2209278 0.5215628 0.0108455
0.3873124 0.5313651 0.0151503
0.5213150 0.5411892 0.0193391
0.6202415 0.5411367 0.0246679
0.7017379 0.5507621 0.0301152
0.7581679 0.5603660 0.0368125
0.0112038 0.6086589 0.0087278
0.0829813 0.6083217 0.0115348
0.2284749 0.6174424 0.0153523
0.3863443 0.6173423 0.0205433
0.5202894 0.6264918 0.0262289
0.6192573 0.6264419 0.0320199
0.7008595 0.6355299 0.0391239
0.7661157 0.6443934 0.0454706
0.0158797 0.6794648 0.0128604
0.0863459 0.6792032 0.0162776
0.2363874 0.6873632 0.0207831
0.3963206 0.6872731 0.0264909
0.5305423 0.6954191 0.0323759
0.6290877 0.6953745 0.0395015
0.7001926 0.6953397 0.0482665
0.7655452 0.7033927 0.0563252
0.0215328 0.7274681 0.0181350
0.0937813 0.7347093 0.0220293
0.2446732 0.7345732 0.0280863
0.4065182 0.7418169 0.0343245
0.5298946 0.7417679 0.0418596
0.6284658 0.7417280 0.0486625
0.7093638 0.7488889 0.0597462
0.7650658 0.7488605 0.0695194
0.0022039 0.0017744 0.0816396
0.0783834 0.0037189 0.0969729
0.2325760 0.0070317 0.1093708
0.3911751 0.0110238 0.1225888
0.5245876 0.0157301 0.1367989
0.6329820 0.0205631 0.1519826
0.7030420 0.0257563 0.1683517
0.7671388 0.0320198 0.1861061
0.0032758 0.0890203 0.1036347
0.0820591 0.0999600 0.1202110
0.2346088 0.1079880 0.1328374
0.3942183 0.1211771 0.1468924
0.5284265 0.1307085 0.1620030
0.6266776 0.1408825 0.1784035
0.7073164 0.1517250 0.1961354
0.7629170 0.1632624 0.2057883
0.0047276 0.2536537 0.1191739
0.0845403 0.2610559 0.1311598
0.2407577 0.2688481 0.1516895
0.4018904 0.2851022 0.1671275
0.5251918 0.2934451 0.1836571
0.6343843 0.3019395 0.1924707
0.7048384 0.3105933 0.2110384
0.7694134 0.3283538 0.2312300
0.0079596 0.4038558 0.1343544
0.0913841 0.4131757 0.1477534
0.2480273 0.4228039 0.1625549
0.4000652 0.4227060 0.1784516
0.5344371 0.4325075 0.1958450
0.6326120 0.4423197 0.2146297
0.7130075 0.4520500 0.2347753
0.7681391 0.4618331 0.2454507
0.0117837 0.5221412 0.1502049
0.0989662 0.5316780 0.1649761
0.2560646 0.5315002 0.1809608
0.4096193 0.5412964 0.1985009
0.5329735 0.5509013 0.2174450
0.6313421 0.5508455 0.2272620
0.7118859 0.5604367 0.2482404
0.7671708 0.5699989 0.2705469
0.0166862 0.6086436 0.1669577
0.1028468 0.6176288 0.1831232
0.2643820 0.6266761 0.1917348
0.4196242 0.6265827 0.2098494
0.5430245 0.6356506 0.2296273
0.6408950 0.6355993 0.2504777
0.7109851 0.6444631 0.2616206
0.7749738 0.6444204 0.2843963
0.0226001 0.6794526 0.1765600
0.1114801 0.6875216 0.1935076
0.2637619 0.6873826 0.2116568
0.4187225 0.6955042 0.2314980
0.5422059 0.6954467 0.2417424
0.6400201 0.7034900 0.2636155
0.7200829 0.7034484 0.2864920
0.7743063 0.7113836 0.2986469
0.0280382 0.7349111 0.1951706
0.1159496 0.7347130 0.2133098
0.2723354 0.7419102 0.2230533
0.4291723 0.7418366 0.2433998
0.5525122 0.7489811 0.2653428
0.6498240 0.7489403 0.2766095
0.7195146 0.7489084 0.3001967
0.7738130 0.7559438 0.3126881
0.0077324 0.0051936 0.3351529
0.1002656 0.0089957 0.3645765
0.2579388 0.0129086 0.3806146
0.4229287 0.0176793 0.3966574
0.5459185 0.0230121 0.4125608
0.6427586 0.0287213 0.4280263
0.7215360 0.0344229 0.4431321
0.7752164 0.0413498 0.4720431
0.0097068 0.1040750 0.3888383
0.1058075 0.1167143 0.4025208
0.2612236 0.1259188 0.4165129
0.4160628 0.1357561 0.4308095
0.5505779 0.1462563 0.4450233
0.6476474 0.1574422 0.4592549
0.7168902 0.1693347 0.4735994
0.7714115 0.1818629 0.4880084
0.0119402 0.2692811 0.4128809
0.1090464 0.2770733 0.4260565
0.2680661 0.2851885 0.4398416
0.4240186 0.3020534 0.4540004
0.5475073 0.3106884 0.4678000
0.6449355 0.3194742 0.4816970
0.7145917 0.3284061 0.4956679
0.7779390 0.3374678 0.5096528
0.0147689 0.4135126 0.4325150
0.1176993 0.4229640 0.4459038
0.2757679 0.4326823 0.4595675
0.4333231 0.4424510 0.4733048
0.5567058 0.4521637 0.4871691
0.6431816 0.4619380 0.5011178
0.7228458 0.4618866 0.5147018
0.7767006 0.4717060 0.5286785
0.0182931 0.5320025 0.4507396
0.1220908 0.5415599 0.4640326
0.2841564 0.5413987 0.4772707
0.4319989 0.5509784 0.4910779
0.5553657 0.5605505 0.5049725
0.6524606 0.5604944 0.5185409
0.7217481 0.5700512 0.5324903
0.7757491 0.5795655 0.5464141
0.0237027 0.6178998 0.4676302
0.1268142 0.6268294 0.4809422
0.2929259 0.6266781 0.4942332
0.4421564 0.6357222 0.5080703
0.5653427 0.6445626 0.5219629
0.6514672 0.6445167 0.5355251
0.7208672 0.6532185 0.5494160
0.7833505 0.6531752 0.5628850
0.0306951 0.6877404 0.4703848
0.1373526 0.6875082 0.4834122
0.2921551 0.6955891 0.5108246
0.4413472 0.6955115 0.5242938
0.5645305 0.7035426 0.5381558
0.6610153 0.7034964 0.5516495
0.7297650 0.7114266 0.5654627
0.7827742 0.7113926 0.5653563
0.0364431 0.7422085 0.4864658
0.1427083 0.7420202 0.4995862
0.3013857 0.7419110 0.5129377
0.4518113 0.7490361 0.5267560
0.5748340 0.7489865 0.5402555
0.6602678 0.7560139 0.5541060
0.7291998 0.7559815 0.5675523
0.7822935 0.7559522 0.5809243
0.0169649 0.0110107 0.5829434
0.1228443 0.0157096 0.5986732
0.2851397 0.0205470 0.6137967
0.4442814 0.0257486 0.6284544
0.5671295 0.0320198 0.6303617
0.6628283 0.0370006 0.6441293
0.7305247 0.0445365 0.6580903
0.7830862 0.0516235 0.6714687
0.0196036 0.1214004 0.6197281
0.1301984 0.1308324 0.6324492
0.2893433 0.1409745 0.6453799
0.4494025 0.1518042 0.6459129
0.5614184 0.1633392 0.6588348
0.6577805 0.1755880 0.6715491
0.7263467 0.1882115 0.6840333
0.7796261 0.2013514 0.6846463
0.0230685 0.2855552 0.6418934
0.1342092 0.2937041 0.6415583
0.2965418 0.3021292 0.6539369
0.4464944 0.3107463 0.6662458
0.5695516 0.3284936 0.6787376
0.6552510 0.3375551 0.6906941
0.7336959 0.3465995 0.6909058
0.7860891 0.3557014 0.7026315
0.0261188 0.4232393 0.6471811
0.1389525 0.4328246 0.6591679
0.3048539 0.4425429 0.6712517
0.4559221 0.4522330 0.6832398
0.5678002 0.4619943 0.6834180
0.6638950 0.4717986 0.6952524
0.7323017 0.4816418 0.7068671
0.7849731 0.4816006 0.7179308
0.0296101 0.5418266 0.6634851
0.1500252 0.5512078 0.6752077
0.3137703 0.5510644 0.6866904
0.4545726 0.5606188 0.6868093
0.5774568 0.5701519 0.6985402
0.6627898 0.5701022 0.7097604
0.7313188 0.5796109 0.7099639
0.7840403 0.5890714 0.7212566
0.0336186 0.6270666 0.6783652
0.1556525 0.6359345 0.6781026
0.3230551 0.6358013 0.6895323
0.4648441 0.6446257 0.7011670
0.5765128 0.6445688 0.7123039
0.6719477 0.6532588 0.7124735
0.7399019 0.6532171 0.7233994
0.7914404 0.6618254 0.7341628
0.0381830 0.6959189 0.6808442
0.1615990 0.6956974 0.6919994
0.3222413 0.7036690 0.7034774
0.4754135 0.7035944 0.7145018
0.5865083 0.7115091 0.7146575
0.6712145 0.7114685 0.7255225
0.7392589 0.7114311 0.7359414
0.7908795 0.7192401 0.7361383
0.0473054 0.7421834 0.6942945
0.1677358 0.7491981 0.7055466
0.3320038 0.7490978 0.7052530
0.4747082 0.7490367 0.7162536
0.5858308 0.7560547 0.7273384
0.6705946 0.7560189 0.7377033
0.7386143 0.7629165 0.7378827
0.7904130 0.7628879 0.7480126
0.0298116 0.0176748 0.7415140
0.1503053 0.0229995 0.7430381
0.3139138 0.0287128 0.7545341
0.4660932 0.0344212 0.7654805
0.5883151 0.0413548 0.7667133
0.6722920 0.0479593 0.7771359
0.7393737 0.0556136 0.7781295
0.7907910 0.0625365 0.7880028
0.0330957 0.1359636 0.7576746
0.1532082 0.1463822 0.7674989
0.3189718 0.1575371 0.7772528
0.4718212 0.1694153 0.7776733
0.5831141 0.1819398 0.7872557
0.6677336 0.1947341 0.7877138
0.7356735 0.2013775 0.7967268
0.7876971 0.2152135 0.8057217
0.0356867 0.3024594 0.7743388
0.1643530 0.3109265 0.7741451
0.3267286 0.3196493 0.7834027
0.4690477 0.3285501 0.7924680
0.5914189 0.3375959 0.7926053
0.6755830 0.3466433 0.8014422
0.7428766 0.3649929 0.8018562
0.7939912 0.3743143 0.8104124
0.0403802 0.4429215 0.7783585
0.1699782 0.4524479 0.7872920
0.3355157 0.4621388 0.7961474
0.4786784 0.4620538 0.7959983
0.5897069 0.4718527 0.8047000
0.6740142 0.4816903 0.8048520
0.7416140 0.4915537 0.8132963
0.7929006 0.5014346 0.8134605
0.0457602 0.5514310 0.7902029
0.1760630 0.5608268 0.7900509
0.3344239 0.5607001 0.7985902
0.4773329 0.5702169 0.8071675
0.5883830 0.5797088 0.8072931
0.6829058 0.5796527 0.8154094
0.7406551 0.5891136 0.8155690
0.7920855 0.5985141 0.8236501
0.0496934 0.6361365 0.7923888
0.1824698 0.6448171 0.8009330
0.3440424 0.6447003 0.8091412
0.4875727 0.6533638 0.8092245
0.5982949 0.6533080 0.8172696
0.6819500 0.6619059 0.8174045
0.7490478 0.6618642 0.8251988
0.7994071 0.6703695 0.8253457
0.0540344 0.6958749 0.8026662
0.1891803 0.7037648 0.8025390
0.3540236 0.7036602 0.8106975
0.4979128 0.7115572 0.8188768
0.5974874 0.7115117 0.8187860
0.6812278 0.7193124 0.8267355
0.7484107 0.7192750 0.8266639
0.7988701 0.7269129 0.8343507
0.0587343 0.7493480 0.8042369
0.1961685 0.7491831 0.8122126
0.3641615 0.7561513 0.8202755
0.4972064 0.7560965 0.8201520
0.6077154 0.7560527 0.8278291
0.6904646 0.7629465 0.8279542
0.7478812 0.7629184 0.8353975
0.7984102 0.7696858 0.8355342
0.0458627 0.0257540 0.8325901
0.1828579 0.0320162 0.8335007
0.3444901 0.0369991 0.8414347
0.4881369 0.0445415 0.8423457
0.5985303 0.0516342 0.8500463
0.6816846 0.0601516 0.8508003
0.7480936 0.0676064 0.8580329
0.7982714 0.0759208 0.8585874
0.0488724 0.1520080 0.8429437
0.1866625 0.1634633 0.8500460
0.3501891 0.1756846 0.8503142
0.4942799 0.1882957 0.8573135
0.6045008 0.2014304 0.8576338
0.6875507 0.2082450 0.8577682
0.7537071 0.2224287 0.8645195
0.7955227 0.2297746 0.8646704
0.0527222 0.3111065 0.8476559
0.1922148 0.3287209 0.8545603
0.3584735 0.3377188 0.8545926
0.4916374 0.3467447 0.8612218
0.6020910 0.3558292 0.8613268
0.6853904 0.3650368 0.8677298
0.7519318 0.3743532 0.8678511
0.8018739 0.3837762 0.8740113
0.0570915 0.4526524 0.8573212
0.1986177 0.4622514 0.8572312
0.3568722 0.4719938 0.8637056
0.5010363 0.4817989 0.8637782
0.6113867 0.4817369 0.8698956
0.6839597 0.4916013 0.8700134
0.7506999 0.5014776 0.8760774
0.8008157 0.5113635 0.8761954
0.0619231 0.5610238 0.8593315
0.2054560 0.5704057 0.8656143
0.3666576 0.5702878 0.8654688
0.4998132 0.5797657 0.8716714
0.6100874 0.5892037 0.8717628
0.6927099 0.5891545 0.8775878
0.7497646 0.5985546 0.8777021
0.8000255 0.6078879 0.8834602
0.0672055 0.6449931 0.8672286
0.2127191 0.6447972 0.8669856
0.3764051 0.6534293 0.8730792
0.5100142 0.6533598 0.8729874
0.6091702 0.6619531 0.8789138
0.6918753 0.6619071 0.8788555
0.7579563 0.6704068 0.8789575
0.8074669 0.6703699 0.8845117
0.0729739 0.7039179 0.8683826
0.2201945 0.7117105 0.8743349
0.3756286 0.7116200 0.8742063
0.5091795 0.7115580 0.8741153
0.6191643 0.7193487 0.8799891
0.7008339 0.7193080 0.8799313
0.7573434 0.7269461 0.8855947
0.8069383 0.7269127 0.8855501
0.0792992 0.7493132 0.8693529
0.2280248 0.7562262 0.8752732
0.3856765 0.7561471 0.8751460
0.5195387 0.7630219 0.8809604
0.6184943 0.7629828 0.8808966
0.7002454 0.7629478 0.8863627
0.7568186 0.7697151 0.8864637
0.8064998 0.7696865 0.8917016
0.0618435 0.0344363 0.8853160
0.2047290 0.0413601 0.8858724
0.3764341 0.0479659 0.8863682
0.5099878 0.0556255 0.8921446
0.6195179 0.0625525 0.8925603
0.7008128 0.0702868 0.8979690
0.7566975 0.0789086 0.8983874
0.8057448 0.0887428 0.8988146
0.0660212 0.1696180 0.8921806
0.2171424 0.1820671 0.8923000
0.3717090 0.1948363 0.8975069
0.5164348 0.2014624 0.8975767
0.6151649 0.2152957 0.9026067
0.6970257 0.2298284 0.9028492
0.7623850 0.2373413 0.9029505
0.8031759 0.2529283 0.9077652
0.0711936 0.3288843 0.8954196
0.2235774 0.3378103 0.9002554
0.3801785 0.3468069 0.9002920
0.5138183 0.3651347 0.9051681
0.6235425 0.3744381 0.9052439
0.6950200 0.3838585 0.9053367
0.7606717 0.3933719 0.9098908
0.8096848 0.4029776 0.9099824
0.0770249 0.4624320 0.9022250
0.2307534 0.4720907 0.9021805
0.3892730 0.4818693 0.9022130
0.5233480 0.4917032 0.9068712
0.6219937 0.5015693 0.9069489
0.7033683 0.5015180 0.9113035
0.7595568 0.5114049 0.9113923
0.8087401 0.5212879 0.9114802
0.0835468 0.5705759 0.9036734
0.2298099 0.5799422 0.9036399
0.3989709 0.5798281 0.9080763
0.5221163 0.5892587 0.9081384
0.6208386 0.5986436 0.9125575
0.7023284 0.5985937 0.9125141
0.7673413 0.6079199 0.9125935
0.8080519 0.6078864 0.9167227
0.0906589 0.6536861 0.9048196
0.2377061 0.6535228 0.9091596
0.3979328 0.6620652 0.9091853
0.5323175 0.6619979 0.9134239
0.6305987 0.6704884 0.9134918
0.7015105 0.6704487 0.9134542
0.7666509 0.6788421 0.9176467
0.8074431 0.6788111 0.9176192
0.0943277 0.7118450 0.9101412
0.2458837 0.7116978 0.9099942
0.4080812 0.7194481 0.9100204
0.5314846 0.7193935 0.9142291
0.6298147 0.7270176 0.9142957
0.7106202 0.7269779 0.9183382
0.7661309 0.7269455 0.9183061
0.8146825 0.7343671 0.9183809
0.1024054 0.7563402 0.9108343
0.2543513 0.7562152 0.9106943
0.4074163 0.7630702 0.9149613
0.5419176 0.7630177 0.9148982
0.6397380 0.7697740 0.9190173
0.7100340 0.7697431 0.9189819
0.7656192 0.7697147 0.9189501
0.8142571 0.7763474 0.9229016
0.0831468 0.0445660 0.9147821
0.2371210 0.0516477 0.9191627
0.3976123 0.0578562 0.9194354
0.5317063 0.0676245 0.9198684
0.6296360 0.0759436 0.9240181
0.7098076 0.0853214 0.9243352
0.7649814 0.0960151 0.9246675
0.8132473 0.1038014 0.9280387
0.0889342 0.1884940 0.9234743
0.2422869 0.2015647 0.9235760
0.4040318 0.2083489 0.9236122
0.5384226 0.2225219 0.9274554
0.6363161 0.2298570 0.9275264
0.7064344 0.2450925 0.9277169
0.7708528 0.2529522 0.9308419
0.8109365 0.2686263 0.9310237
0.0959431 0.3470507 0.9257219
0.2493485 0.3560338 0.9257061
0.4126454 0.3651918 0.9293156
0.5360798 0.3744894 0.9293696
0.6341270 0.3838996 0.9294326
0.7143278 0.3934094 0.9324800
0.7692763 0.4030164 0.9325515
0.8173306 0.4127043 0.9326220
0.0994781 0.4821431 0.9271932
0.2572044 0.4819647 0.9305934
0.4110675 0.4917724 0.9306236
0.5455747 0.5016189 0.9306703
0.6431394 0.5114906 0.9336627
0.7130814 0.5114447 0.9336334
0.7681906 0.5213289 0.9337017
0.8164223 0.5312014 0.9365818
0.1077586 0.5800879 0.9316687
0.2654347 0.5894183 0.9316553
0.4209410 0.5893196 0.9315883
0.5443618 0.5986912 0.9345335
0.6420020 0.6080082 0.9345886
0.7120628 0.6079645 0.9345598
0.7757902 0.6172175 0.9373999
0.8157499 0.6171833 0.9373785
0.1119874 0.6536566 0.9324181
0.2739255 0.6621426 0.9324028
0.4200120 0.6620591 0.9352099
0.5544978 0.6705317 0.9352502
0.6412196 0.6704872 0.9352180
0.7210230 0.6788766 0.9380270
0.7751952 0.6788402 0.9380023
0.8151615 0.6871334 0.9380661
0.1213800 0.7118115 0.9330505
0.2826971 0.7195167 0.9330401
0.4303379 0.7194428 0.9358230
0.5536708 0.7270558 0.9358664
0.6508818 0.7270116 0.9358307
0.7203444 0.7344307 0.9386171
0.7746055 0.7343987 0.9385927
0.8221784 0.7416923 0.9386502
0.1261927 0.7632394 0.9336735
0.2821437 0.7631303 0.9363974
0.4408603 0.7630605 0.9363355
0.5529735 0.7698112 0.9363817
0.6502460 0.7697731 0.9390567
0.7198662 0.7697420 0.9390295
0.7741065 0.7763746 0.9390875
0.8218349 0.7763458 0.9416645
