Plugins/FilmEmulator/Content/LUTs/FE_Kodak_5222_Dev9_64.cube
TITLE "FE_Kodak_5222_Dev9_33"
LUT_3D_SIZE 8
0.0010388 0.0010388 0.0010388
0.0054609 0.0054609 0.0054609
0.0175261 0.0175261 0.0175261
0.0331180 0.0331180 0.0331180
0.0508682 0.0508682 0.0508682
0.0703431 0.0703431 0.0703431
0.0904254 0.0904254 0.0904254
0.1133373 0.1133373 0.1133373
0.0175261 0.0175261 0.0175261
0.0331180 0.0331180 0.0331180
0.0508682 0.0508682 0.0508682
0.0703431 0.0703431 0.0703431
0.0904254 0.0904254 0.0904254
0.1133373 0.1133373 0.1133373
0.1330328 0.1330328 0.1330328
0.1555102 0.1555102 0.1555102
0.0508682 0.0508682 0.0508682
0.0703431 0.0703431 0.0703431
0.0904254 0.0904254 0.0904254
0.1133373 0.1133373 0.1133373
0.1330328 0.1330328 0.1330328
0.1555102 0.1555102 0.1555102
0.1775776 0.1775776 0.1775776
0.2018925 0.2018925 0.2018925
0.0904254 0.0904254 0.0904254
0.1133373 0.1133373 0.1133373
0.1356885 0.1356885 0.1356885
0.1555102 0.1555102 0.1555102
0.1775776 0.1775776 0.1775776
0.2018925 0.2018925 0.2018925
0.2244960 0.2244960 0.2244960
0.2446126 0.2446126 0.2446126
0.1356885 0.1356885 0.1356885
0.1555102 0.1555102 0.1555102
0.1775776 0.1775776 0.1775776
0.2018925 0.2018925 0.2018925
0.2244960 0.2244960 0.2244960
0.2446126 0.2446126 0.2446126
0.2656280 0.2656280 0.2656280
0.2876859 0.2876859 0.2876859
0.1775776 0.1775776 0.1775776
0.2018925 0.2018925 0.2018925
0.2244960 0.2244960 0.2244960
0.2446126 0.2446126 0.2446126
0.2656280 0.2656280 0.2656280
0.2876859 0.2876859 0.2876859
0.3057389 0.3057389 0.3057389
0.3242242 0.3242242 0.3242242
0.2244960 0.2244960 0.2244960
0.2446126 0.2446126 0.2446126
0.2656280 0.2656280 0.2656280
0.2876859 0.2876859 0.2876859
0.3057389 0.3057389 0.3057389
0.3242242 0.3242242 0.3242242
0.3432527 0.3432527 0.3432527
0.3576811 0.3576811 0.3576811
0.2656280 0.2656280 0.2656280
0.2876859 0.2876859 0.2876859
0.3057389 0.3057389 0.3057389
0.3242242 0.3242242 0.3242242
0.3432527 0.3432527 0.3432527
0.3576811 0.3576811 0.3576811
0.3773235 0.3773235 0.3773235
0.3923285 0.3923285 0.3923285
0.0567558 0.0567558 0.0567558
0.0765463 0.0765463 0.0765463
0.0962119 0.0962119 0.0962119
0.1180105 0.1180105 0.1180105
0.1411338 0.1411338 0.1411338
0.1615869 0.1615869 0.1615869
0.1842811 0.1842811 0.1842811
0.2055618 0.2055618 0.2055618
0.0962119 0.0962119 0.0962119
0.1180105 0.1180105 0.1180105
0.1411338 0.1411338 0.1411338
0.1615869 0.1615869 0.1615869
0.1842811 0.1842811 0.1842811
0.2092693 0.2092693 0.2092693
0.2284234 0.2284234 0.2284234
0.2487790 0.2487790 0.2487790
0.1411338 0.1411338 0.1411338
0.1615869 0.1615869 0.1615869
0.1842811 0.1842811 0.1842811
0.2092693 0.2092693 0.2092693
0.2284234 0.2284234 0.2284234
0.2487790 0.2487790 0.2487790
0.2699521 0.2699521 0.2699521
0.2922264 0.2922264 0.2922264
0.1842811 0.1842811 0.1842811
0.2092693 0.2092693 0.2092693
0.2284234 0.2284234 0.2284234
0.2487790 0.2487790 0.2487790
0.2699521 0.2699521 0.2699521
0.2922264 0.2922264 0.2922264
0.3103050 0.3103050 0.3103050
0.3289356 0.3289356 0.3289356
0.2284234 0.2284234 0.2284234
0.2487790 0.2487790 0.2487790
0.2699521 0.2699521 0.2699521
0.2922264 0.2922264 0.2922264
0.3103050 0.3103050 0.3103050
0.3289356 0.3289356 0.3289356
0.3480317 0.3480317 0.3480317
0.3625500 0.3625500 0.3625500
0.2699521 0.2699521 0.2699521
0.2922264 0.2922264 0.2922264
0.3103050 0.3103050 0.3103050
0.3289356 0.3289356 0.3289356
0.3480317 0.3480317 0.3480317
0.3625500 0.3625500 0.3625500
0.3823006 0.3823006 0.3823006
0.3972707 0.3972707 0.3972707
0.3103050 0.3103050 0.3103050
0.3289356 0.3289356 0.3289356
0.3480317 0.3480317 0.3480317
0.3625500 0.3625500 0.3625500
0.3823006 0.3823006 0.3823006
0.3972707 0.3972707 0.3972707
0.4122207 0.4122207 0.4122207
0.4273343 0.4273343 0.4273343
0.3480317 0.3480317 0.3480317
0.3625500 0.3625500 0.3625500
0.3823006 0.3823006 0.3823006
0.3972707 0.3972707 0.3972707
0.4122207 0.4122207 0.4122207
0.4273343 0.4273343 0.4273343
0.4425848 0.4425848 0.4425848
0.4577034 0.4577034 0.4577034
0.1467463 0.1467463 0.1467463
0.1678538 0.1678538 0.1678538
0.1911790 0.1911790 0.1911790
0.2130034 0.2130034 0.2130034
0.2364224 0.2364224 0.2364224
0.2571133 0.2571133 0.2571133
0.2787325 0.2787325 0.2787325
0.2967208 0.2967208 0.2967208
0.1911790 0.1911790 0.1911790
0.2130034 0.2130034 0.2130034
0.2364224 0.2364224 0.2364224
0.2571133 0.2571133 0.2571133
0.2787325 0.2787325 0.2787325
0.2967208 0.2967208 0.2967208
0.3149083 0.3149083 0.3149083
0.3336817 0.3336817 0.3336817
0.2364224 0.2364224 0.2364224
0.2571133 0.2571133 0.2571133
0.2787325 0.2787325 0.2787325
0.2967208 0.2967208 0.2967208
0.3149083 0.3149083 0.3149083
0.3336817 0.3336817 0.3336817
0.3528415 0.3528415 0.3528415
0.3674473 0.3674473 0.3674473
0.2787325 0.2787325 0.2787325
0.2967208 0.2967208 0.2967208
0.3149083 0.3149083 0.3149083
0.3336817 0.3336817 0.3336817
0.3528415 0.3528415 0.3528415
0.3674473 0.3674473 0.3674473
0.3873025 0.3873025 0.3873025
0.4022344 0.4022344 0.4022344
0.3149083 0.3149083 0.3149083
0.3336817 0.3336817 0.3336817
0.3528415 0.3528415 0.3528415
0.3674473 0.3674473 0.3674473
0.3873025 0.3873025 0.3873025
0.4022344 0.4022344 0.4022344
0.4172418 0.4172418 0.4172418
0.4324040 0.4324040 0.4324040
0.3528415 0.3528415 0.3528415
0.3674473 0.3674473 0.3674473
0.3873025 0.3873025 0.3873025
0.4022344 0.4022344 0.4022344
0.4172418 0.4172418 0.4172418
0.4324040 0.4324040 0.4324040
0.4476337 0.4476337 0.4476337
0.4577034 0.4577034 0.4577034
0.3873025 0.3873025 0.3873025
0.4022344 0.4022344 0.4022344
0.4172418 0.4172418 0.4172418
0.4324040 0.4324040 0.4324040
0.4476337 0.4476337 0.4476337
0.4577034 0.4577034 0.4577034
0.4728700 0.4728700 0.4728700
0.4830106 0.4830106 0.4830106
0.4172418 0.4172418 0.4172418
0.4324040 0.4324040 0.4324040
0.4476337 0.4476337 0.4476337
0.4577034 0.4577034 0.4577034
0.4728700 0.4728700 0.4728700
0.4830106 0.4830106 0.4830106
0.4982072 0.4982072 0.4982072
0.5081376 0.5081376 0.5081376
0.2404936 0.2404936 0.2404936
0.2613482 0.2613482 0.2613482
0.2831878 0.2831878 0.2831878
0.3012106 0.3012106 0.3012106
0.3195483 0.3195483 0.3195483
0.3384616 0.3384616 0.3384616
0.3576811 0.3576811 0.3576811
0.3723721 0.3723721 0.3723721
0.2831878 0.2831878 0.2831878
0.3012106 0.3012106 0.3012106
0.3195483 0.3195483 0.3195483
0.3384616 0.3384616 0.3384616
0.3576811 0.3576811 0.3576811
0.3723721 0.3723721 0.3723721
0.3923285 0.3923285 0.3923285
0.4072181 0.4072181 0.4072181
0.3195483 0.3195483 0.3195483
0.3384616 0.3384616 0.3384616
0.3576811 0.3576811 0.3576811
0.3723721 0.3723721 0.3723721
0.3923285 0.3923285 0.3923285
0.4072181 0.4072181 0.4072181
0.4222798 0.4222798 0.4222798
0.4374877 0.4374877 0.4374877
0.3576811 0.3576811 0.3576811
0.3723721 0.3723721 0.3723721
0.3923285 0.3923285 0.3923285
0.4072181 0.4072181 0.4072181
0.4222798 0.4222798 0.4222798
0.4374877 0.4374877 0.4374877
0.4476337 0.4476337 0.4476337
0.4627514 0.4627514 0.4627514
0.3923285 0.3923285 0.3923285
0.4072181 0.4072181 0.4072181
0.4222798 0.4222798 0.4222798
0.4374877 0.4374877 0.4374877
0.4476337 0.4476337 0.4476337
0.4627514 0.4627514 0.4627514
0.4779379 0.4779379 0.4779379
0.4880866 0.4880866 0.4880866
0.4222798 0.4222798 0.4222798
0.4374877 0.4374877 0.4374877
0.4476337 0.4476337 0.4476337
0.4627514 0.4627514 0.4627514
0.4779379 0.4779379 0.4779379
0.4880866 0.4880866 0.4880866
0.4982072 0.4982072 0.4982072
0.5131007 0.5131007 0.5131007
0.4476337 0.4476337 0.4476337
0.4627514 0.4627514 0.4627514
0.4779379 0.4779379 0.4779379
0.4880866 0.4880866 0.4880866
0.4982072 0.4982072 0.4982072
0.5131007 0.5131007 0.5131007
0.5230187 0.5230187 0.5230187
0.5329185 0.5329185 0.5329185
0.4779379 0.4779379 0.4779379
0.4880866 0.4880866 0.4880866
0.4982072 0.4982072 0.4982072
0.5131007 0.5131007 0.5131007
0.5230187 0.5230187 0.5230187
0.5329185 0.5329185 0.5329185
0.5427924 0.5427924 0.5427924
0.5524656 0.5524656 0.5524656
0.3242242 0.3242242 0.3242242
0.3432527 0.3432527 0.3432527
0.3625500 0.3625500 0.3625500
0.3773235 0.3773235 0.3773235
0.3972707 0.3972707 0.3972707
0.4122207 0.4122207 0.4122207
0.4273343 0.4273343 0.4273343
0.4374877 0.4374877 0.4374877
0.3625500 0.3625500 0.3625500
0.3773235 0.3773235 0.3773235
0.3972707 0.3972707 0.3972707
0.4122207 0.4122207 0.4122207
0.4273343 0.4273343 0.4273343
0.4374877 0.4374877 0.4374877
0.4526637 0.4526637 0.4526637
0.4678074 0.4678074 0.4678074
0.3972707 0.3972707 0.3972707
0.4122207 0.4122207 0.4122207
0.4273343 0.4273343 0.4273343
0.4374877 0.4374877 0.4374877
0.4526637 0.4526637 0.4526637
0.4678074 0.4678074 0.4678074
0.4779379 0.4779379 0.4779379
0.4931653 0.4931653 0.4931653
0.4273343 0.4273343 0.4273343
0.4374877 0.4374877 0.4374877
0.4526637 0.4526637 0.4526637
0.4678074 0.4678074 0.4678074
0.4779379 0.4779379 0.4779379
0.4931653 0.4931653 0.4931653
0.5031726 0.5031726 0.5031726
0.5131007 0.5131007 0.5131007
0.4526637 0.4526637 0.4526637
0.4678074 0.4678074 0.4678074
0.4779379 0.4779379 0.4779379
0.4931653 0.4931653 0.4931653
0.5031726 0.5031726 0.5031726
0.5131007 0.5131007 0.5131007
0.5230187 0.5230187 0.5230187
0.5378592 0.5378592 0.5378592
0.4779379 0.4779379 0.4779379
0.4931653 0.4931653 0.4931653
0.5031726 0.5031726 0.5031726
0.5131007 0.5131007 0.5131007
0.5230187 0.5230187 0.5230187
0.5378592 0.5378592 0.5378592
0.5477173 0.5477173 0.5477173
0.5572045 0.5572045 0.5572045
0.5031726 0.5031726 0.5031726
0.5131007 0.5131007 0.5131007
0.5230187 0.5230187 0.5230187
0.5378592 0.5378592 0.5378592
0.5477173 0.5477173 0.5477173
0.5572045 0.5572045 0.5572045
0.5666502 0.5666502 0.5666502
0.5713555 0.5713555 0.5713555
0.5230187 0.5230187 0.5230187
0.5378592 0.5378592 0.5378592
0.5477173 0.5477173 0.5477173
0.5572045 0.5572045 0.5572045
0.5666502 0.5666502 0.5666502
0.5713555 0.5713555 0.5713555
0.5807266 0.5807266 0.5807266
0.5900397 0.5900397 0.5900397
0.3972707 0.3972707 0.3972707
0.4122207 0.4122207 0.4122207
0.4273343 0.4273343 0.4273343
0.4425848 0.4425848 0.4425848
0.4577034 0.4577034 0.4577034
0.4678074 0.4678074 0.4678074
0.4830106 0.4830106 0.4830106
0.4931653 0.4931653 0.4931653
0.4273343 0.4273343 0.4273343
0.4425848 0.4425848 0.4425848
0.4577034 0.4577034 0.4577034
0.4678074 0.4678074 0.4678074
0.4830106 0.4830106 0.4830106
0.4931653 0.4931653 0.4931653
0.5081376 0.5081376 0.5081376
0.5180615 0.5180615 0.5180615
0.4577034 0.4577034 0.4577034
0.4678074 0.4678074 0.4678074
0.4830106 0.4830106 0.4830106
0.4931653 0.4931653 0.4931653
0.5081376 0.5081376 0.5081376
0.5180615 0.5180615 0.5180615
0.5279713 0.5279713 0.5279713
0.5378592 0.5378592 0.5378592
0.4830106 0.4830106 0.4830106
0.4931653 0.4931653 0.4931653
0.5081376 0.5081376 0.5081376
0.5180615 0.5180615 0.5180615
0.5279713 0.5279713 0.5279713
0.5378592 0.5378592 0.5378592
0.5477173 0.5477173 0.5477173
0.5572045 0.5572045 0.5572045
0.5081376 0.5081376 0.5081376
0.5180615 0.5180615 0.5180615
0.5279713 0.5279713 0.5279713
0.5378592 0.5378592 0.5378592
0.5477173 0.5477173 0.5477173
0.5572045 0.5572045 0.5572045
0.5666502 0.5666502 0.5666502
0.5760478 0.5760478 0.5760478
0.5279713 0.5279713 0.5279713
0.5378592 0.5378592 0.5378592
0.5477173 0.5477173 0.5477173
0.5572045 0.5572045 0.5572045
0.5666502 0.5666502 0.5666502
0.5760478 0.5760478 0.5760478
0.5853909 0.5853909 0.5853909
0.5946727 0.5946727 0.5946727
0.5477173 0.5477173 0.5477173
0.5572045 0.5572045 0.5572045
0.5666502 0.5666502 0.5666502
0.5760478 0.5760478 0.5760478
0.5853909 0.5853909 0.5853909
0.5946727 0.5946727 0.5946727
0.5991489 0.5991489 0.5991489
0.6079122 0.6079122 0.6079122
0.5666502 0.5666502 0.5666502
0.5760478 0.5760478 0.5760478
0.5853909 0.5853909 0.5853909
0.5946727 0.5946727 0.5946727
0.5991489 0.5991489 0.5991489
0.6079122 0.6079122 0.6079122
0.6166065 0.6166065 0.6166065
0.6209263 0.6209263 0.6209263
0.4627514 0.4627514 0.4627514
0.4728700 0.4728700 0.4728700
0.4880866 0.4880866 0.4880866
0.4982072 0.4982072 0.4982072
0.5081376 0.5081376 0.5081376
0.5230187 0.5230187 0.5230187
0.5329185 0.5329185 0.5329185
0.5427924 0.5427924 0.5427924
0.4880866 0.4880866 0.4880866
0.4982072 0.4982072 0.4982072
0.5081376 0.5081376 0.5081376
0.5230187 0.5230187 0.5230187
0.5329185 0.5329185 0.5329185
0.5427924 0.5427924 0.5427924
0.5524656 0.5524656 0.5524656
0.5619332 0.5619332 0.5619332
0.5081376 0.5081376 0.5081376
0.5230187 0.5230187 0.5230187
0.5329185 0.5329185 0.5329185
0.5427924 0.5427924 0.5427924
0.5524656 0.5524656 0.5524656
0.5619332 0.5619332 0.5619332
0.5713555 0.5713555 0.5713555
0.5760478 0.5760478 0.5760478
0.5329185 0.5329185 0.5329185
0.5427924 0.5427924 0.5427924
0.5524656 0.5524656 0.5524656
0.5619332 0.5619332 0.5619332
0.5713555 0.5713555 0.5713555
0.5760478 0.5760478 0.5760478
0.5853909 0.5853909 0.5853909
0.5946727 0.5946727 0.5946727
0.5524656 0.5524656 0.5524656
0.5619332 0.5619332 0.5619332
0.5713555 0.5713555 0.5713555
0.5760478 0.5760478 0.5760478
0.5853909 0.5853909 0.5853909
0.5946727 0.5946727 0.5946727
0.6035389 0.6035389 0.6035389
0.6079122 0.6079122 0.6079122
0.5713555 0.5713555 0.5713555
0.5760478 0.5760478 0.5760478
0.5853909 0.5853909 0.5853909
0.5946727 0.5946727 0.5946727
0.6035389 0.6035389 0.6035389
0.6079122 0.6079122 0.6079122
0.6166065 0.6166065 0.6166065
0.6252268 0.6252268 0.6252268
0.5853909 0.5853909 0.5853909
0.5946727 0.5946727 0.5946727
0.6035389 0.6035389 0.6035389
0.6079122 0.6079122 0.6079122
0.6166065 0.6166065 0.6166065
0.6252268 0.6252268 0.6252268
0.6295080 0.6295080 0.6295080
0.6380084 0.6380084 0.6380084
0.6035389 0.6035389 0.6035389
0.6079122 0.6079122 0.6079122
0.6166065 0.6166065 0.6166065
0.6252268 0.6252268 0.6252268
0.6295080 0.6295080 0.6295080
0.6380084 0.6380084 0.6380084
0.6421860 0.6421860 0.6421860
0.6503142 0.6503142 0.6503142
0.5131007 0.5131007 0.5131007
0.5230187 0.5230187 0.5230187
0.5329185 0.5329185 0.5329185
0.5427924 0.5427924 0.5427924
0.5524656 0.5524656 0.5524656
0.5619332 0.5619332 0.5619332
0.5713555 0.5713555 0.5713555
0.5807266 0.5807266 0.5807266
0.5329185 0.5329185 0.5329185
0.5427924 0.5427924 0.5427924
0.5524656 0.5524656 0.5524656
0.5619332 0.5619332 0.5619332
0.5713555 0.5713555 0.5713555
0.5807266 0.5807266 0.5807266
0.5900397 0.5900397 0.5900397
0.5991489 0.5991489 0.5991489
0.5524656 0.5524656 0.5524656
0.5619332 0.5619332 0.5619332
0.5713555 0.5713555 0.5713555
0.5807266 0.5807266 0.5807266
0.5900397 0.5900397 0.5900397
0.5991489 0.5991489 0.5991489
0.6035389 0.6035389 0.6035389
0.6122682 0.6122682 0.6122682
0.5713555 0.5713555 0.5713555
0.5807266 0.5807266 0.5807266
0.5900397 0.5900397 0.5900397
0.5991489 0.5991489 0.5991489
0.6035389 0.6035389 0.6035389
0.6122682 0.6122682 0.6122682
0.6166065 0.6166065 0.6166065
0.6252268 0.6252268 0.6252268
0.5900397 0.5900397 0.5900397
0.5991489 0.5991489 0.5991489
0.6035389 0.6035389 0.6035389
0.6122682 0.6122682 0.6122682
0.6166065 0.6166065 0.6166065
0.6252268 0.6252268 0.6252268
0.6337684 0.6337684 0.6337684
0.6380084 0.6380084 0.6380084
0.6035389 0.6035389 0.6035389
0.6122682 0.6122682 0.6122682
0.6166065 0.6166065 0.6166065
0.6252268 0.6252268 0.6252268
0.6337684 0.6337684 0.6337684
0.6380084 0.6380084 0.6380084
0.6462605 0.6462605 0.6462605
0.6503142 0.6503142 0.6503142
0.6166065 0.6166065 0.6166065
0.6252268 0.6252268 0.6252268
0.6337684 0.6337684 0.6337684
0.6380084 0.6380084 0.6380084
0.6462605 0.6462605 0.6462605
0.6503142 0.6503142 0.6503142
0.6543461 0.6543461 0.6543461
0.6623433 0.6623433 0.6623433
0.6337684 0.6337684 0.6337684
0.6380084 0.6380084 0.6380084
0.6462605 0.6462605 0.6462605
0.6503142 0.6503142 0.6503142
0.6543461 0.6543461 0.6543461
0.6623433 0.6623433 0.6623433
0.6663076 0.6663076 0.6663076
0.6702486 0.6702486 0.6702486
