Plugins/FilmEmulator/Content/LUTs/FE_Kodak_Portra_800_At3200_64.cube
TITLE "FE_Kodak_Portra_800_At3200_33"
LUT_3D_SIZE 64
0.0003143 0.0004332 0.0005816
0.0007704 0.0004330 0.0005808
0.0025391 0.0004328 0.0005798
0.0058201 0.0004506 0.0006257
0.0105229 0.0004728 0.0006741
0.0171892 0.0004911 0.0007097
0.0255521 0.0005121 0.0007451
0.0346904 0.0005378 0.0007828
0.0449734 0.0005684 0.0008316
0.0581201 0.0006277 0.0008946
0.0717714 0.0006869 0.0009621
0.0847442 0.0007768 0.0010629
0.0998259 0.0008591 0.0011528
0.1173107 0.0009339 0.0012678
0.1373439 0.0010561 0.0013753
0.1541774 0.0011581 0.0014902
0.1726903 0.0012776 0.0016183
0.1929408 0.0014267 0.0017658
0.2150019 0.0015930 0.0019266
0.2307325 0.0017145 0.0020991
0.2471706 0.0019248 0.0022405
0.2735546 0.0020871 0.0023909
0.2921522 0.0022621 0.0026314
0.3115168 0.0024517 0.0028079
0.3315976 0.0026571 0.0030005
0.3523407 0.0028861 0.0032291
0.3736804 0.0031383 0.0033552
0.3957313 0.0034125 0.0036109
0.4068536 0.0037094 0.0038860
0.4297961 0.0038690 0.0041754
0.4529366 0.0042067 0.0043383
0.4644573 0.0046051 0.0047247
0.4880525 0.0048199 0.0049306
0.4998296 0.0050434 0.0053604
0.5237551 0.0055220 0.0056034
0.5357026 0.0057780 0.0058474
0.5474774 0.0063249 0.0063678
0.5712987 0.0066191 0.0066447
0.5830383 0.0069241 0.0069395
0.5947033 0.0072423 0.0075620
0.6061155 0.0079219 0.0079138
0.6175640 0.0082858 0.0082678
0.6404833 0.0086671 0.0086372
0.6516875 0.0090650 0.0090234
0.6627330 0.0094810 0.0094266
0.6736104 0.0099159 0.0098479
0.6843107 0.0103707 0.0102877
0.6948291 0.0108302 0.0107391
0.7051620 0.0112766 0.0111934
0.7152938 0.0117414 0.0116668
0.7252185 0.0122251 0.0121599
0.7349520 0.0127286 0.0126738
0.7445107 0.0132527 0.0132092
0.7538447 0.0137981 0.0137669
0.7629500 0.0143658 0.0143479
0.7628574 0.0149561 0.0149541
0.7717349 0.0155709 0.0155846
0.7804739 0.0155714 0.0162169
0.7888747 0.0162112 0.0162406
0.7970562 0.0168142 0.0169160
0.7969815 0.0174391 0.0176201
0.8049293 0.0180873 0.0183521
0.8127185 0.0180876 0.0190878
0.8201894 0.0187594 0.0191129
0.0003106 0.0011121 0.0006026
0.0008099 0.0012185 0.0006039
0.0026106 0.0013598 0.0006530
0.0060045 0.0014632 0.0007002
0.0108378 0.0016338 0.0007430
0.0169114 0.0018288 0.0007779
0.0251294 0.0019829 0.0008156
0.0341071 0.0021499 0.0008673
0.0442095 0.0023311 0.0009272
0.0571557 0.0025277 0.0009967
0.0706024 0.0027423 0.0010934
0.0834164 0.0029835 0.0011852
0.1024050 0.0032462 0.0012954
0.1155493 0.0035312 0.0014395
0.1353804 0.0038417 0.0015592
0.1520943 0.0040075 0.0016898
0.1704219 0.0043748 0.0018421
0.1905914 0.0045798 0.0020050
0.2124856 0.0050171 0.0021265
0.2281462 0.0052514 0.0023272
0.2531082 0.0057524 0.0024843
0.2708007 0.0060209 0.0026475
0.2893691 0.0063018 0.0028214
0.3085958 0.0068998 0.0030118
0.3286766 0.0072189 0.0032276
0.3494403 0.0075526 0.0034686
0.3708272 0.0079016 0.0037275
0.3929325 0.0082665 0.0040057
0.4155983 0.0086481 0.0041559
0.4268800 0.0094614 0.0044735
0.4501112 0.0098976 0.0046684
0.4617699 0.0103528 0.0050755
0.4853542 0.0108136 0.0052962
0.4971435 0.0112605 0.0057568
0.5212377 0.0117266 0.0060063
0.5332160 0.0122108 0.0065285
0.5451555 0.0127148 0.0068114
0.5690153 0.0132402 0.0071121
0.5809179 0.0132411 0.0074178
0.5926136 0.0137870 0.0080818
0.6042033 0.0143552 0.0084418
0.6272736 0.0149473 0.0088175
0.6386622 0.0155626 0.0092102
0.6499048 0.0162030 0.0096202
0.6610012 0.0168066 0.0100469
0.6720399 0.0168073 0.0104779
0.6827904 0.0174330 0.0109348
0.6933549 0.0180816 0.0113957
0.7037262 0.0187541 0.0118759
0.7139990 0.0187546 0.0123591
0.7239604 0.0194517 0.0128795
0.7337320 0.0201742 0.0134216
0.7433285 0.0209232 0.0139862
0.7527928 0.0209236 0.0145543
0.7619339 0.0216998 0.0151661
0.7618502 0.0225041 0.0158042
0.7708439 0.0225043 0.0158033
0.7795207 0.0233382 0.0164669
0.7879628 0.0242055 0.0171517
0.7962511 0.0242057 0.0178399
0.8042198 0.0251061 0.0185810
0.8041406 0.0260393 0.0186068
0.8119535 0.0260394 0.0193525
0.8194531 0.0270067 0.0201555
0.0003072 0.0040082 0.0006356
0.0008492 0.0041776 0.0006894
0.0026818 0.0045732 0.0007395
0.0059165 0.0047844 0.0007781
0.0111787 0.0050060 0.0008127
0.0174379 0.0054827 0.0008549
0.0248031 0.0057377 0.0009002
0.0336637 0.0062845 0.0009761
0.0455848 0.0065771 0.0010478
0.0564753 0.0068818 0.0011320
0.0698012 0.0071999 0.0012253
0.0859751 0.0078804 0.0013395
0.1013146 0.0082445 0.0014488
0.1143827 0.0086253 0.0015669
0.1340985 0.0090238 0.0016948
0.1506741 0.0094405 0.0018446
0.1689385 0.0098763 0.0020077
0.1889694 0.0103321 0.0021852
0.2108248 0.0107928 0.0023184
0.2264072 0.0112401 0.0025480
0.2513602 0.0117063 0.0027149
0.2689839 0.0121910 0.0028926
0.2874865 0.0126957 0.0030820
0.3067802 0.0132210 0.0033023
0.3268088 0.0137678 0.0035483
0.3475257 0.0143369 0.0038125
0.3688644 0.0149292 0.0039549
0.3910642 0.0149307 0.0042428
0.4137151 0.0155471 0.0045585
0.4251351 0.0161878 0.0047564
0.4483798 0.0167926 0.0051695
0.4600470 0.0174188 0.0053930
0.4836521 0.0180687 0.0058611
0.4955640 0.0180694 0.0061059
0.5196708 0.0187431 0.0063695
0.5316644 0.0194407 0.0069222
0.5436213 0.0201639 0.0072269
0.5676293 0.0201652 0.0075374
0.5794204 0.0209148 0.0078723
0.5911396 0.0216916 0.0085755
0.6028728 0.0216922 0.0089438
0.6259826 0.0224980 0.0093404
0.6373990 0.0233324 0.0097548
0.6487832 0.0233329 0.0101733
0.6598955 0.0242009 0.0106245
0.6708409 0.0251020 0.0110878
0.6817192 0.0251024 0.0115392
0.6923021 0.0260364 0.0120255
0.7026926 0.0270043 0.0125321
0.7129859 0.0270046 0.0130417
0.7229682 0.0280076 0.0135906
0.7328588 0.0280078 0.0141428
0.7424746 0.0290472 0.0147376
0.7518662 0.0301242 0.0153572
0.7611135 0.0301243 0.0153563
0.7610294 0.0312402 0.0160024
0.7700514 0.0312402 0.0166514
0.7787489 0.0323964 0.0173438
0.7872961 0.0323963 0.0180396
0.7955217 0.0335939 0.0187890
0.8035846 0.0335939 0.0187878
0.8035085 0.0348788 0.0195699
0.8113407 0.0348786 0.0203536
0.8188514 0.0363029 0.0212006
0.0003368 0.0094632 0.0007232
0.0008947 0.0098933 0.0007667
0.0027685 0.0103419 0.0008060
0.0061315 0.0107971 0.0008418
0.0110667 0.0112406 0.0008863
0.0172749 0.0117033 0.0009329
0.0256779 0.0121855 0.0010011
0.0348630 0.0126881 0.0010744
0.0452020 0.0132117 0.0011605
0.0560362 0.0132109 0.0012539
0.0692689 0.0137564 0.0013681
0.0853802 0.0143244 0.0015178
0.1006289 0.0149159 0.0016413
0.1182925 0.0155315 0.0017786
0.1332313 0.0161723 0.0018827
0.1497299 0.0167764 0.0020485
0.1679819 0.0167770 0.0022257
0.1879355 0.0174035 0.0023608
0.2097148 0.0180532 0.0025151
0.2252402 0.0187265 0.0026795
0.2502086 0.0187276 0.0029401
0.2677880 0.0194257 0.0031322
0.2862500 0.0201495 0.0033556
0.3054978 0.0208997 0.0034805
0.3255976 0.0209007 0.0037340
0.3462863 0.0216784 0.0040114
0.3676090 0.0224844 0.0043094
0.3897698 0.0224855 0.0044635
0.4124076 0.0233209 0.0048230
0.4238284 0.0241893 0.0050316
0.4471762 0.0241905 0.0054609
0.4588365 0.0250922 0.0056970
0.4824324 0.0260273 0.0061915
0.4943419 0.0260278 0.0064500
0.5184479 0.0269968 0.0067285
0.5305668 0.0269974 0.0073080
0.5545574 0.0280016 0.0076326
0.5664222 0.0290417 0.0079717
0.5783413 0.0290421 0.0083143
0.5900680 0.0301199 0.0090568
0.6018105 0.0301203 0.0094457
0.6249418 0.0312372 0.0098644
0.6363701 0.0323940 0.0103020
0.6477678 0.0323944 0.0107439
0.6588944 0.0335928 0.0112124
0.6699659 0.0335930 0.0116688
0.6807461 0.0348786 0.0121611
0.6914532 0.0348787 0.0126558
0.7018483 0.0363038 0.0131907
0.7121583 0.0363039 0.0137268
0.7221474 0.0377853 0.0143064
0.7320559 0.0377853 0.0148873
0.7416725 0.0393249 0.0149094
0.7511768 0.0393249 0.0155145
0.7603475 0.0409252 0.0161687
0.7603548 0.0409253 0.0168252
0.7692955 0.0425884 0.0175274
0.7781000 0.0425882 0.0182305
0.7865651 0.0443162 0.0182573
0.7948934 0.0443158 0.0189892
0.8028930 0.0461112 0.0197803
0.8028994 0.0461113 0.0205736
0.8107437 0.0461107 0.0205723
0.8182725 0.0479759 0.0214282
0.0003649 0.0162218 0.0007942
0.0009766 0.0168170 0.0008267
0.0028685 0.0174329 0.0008629
0.0063780 0.0180744 0.0009107
0.0115066 0.0180679 0.0009622
0.0179515 0.0187372 0.0010323
0.0255313 0.0194320 0.0011117
0.0346672 0.0201530 0.0012026
0.0449727 0.0201506 0.0012993
0.0581612 0.0208988 0.0014263
0.0718662 0.0216748 0.0015420
0.0849685 0.0216737 0.0016649
0.1001552 0.0224787 0.0018039
0.1177507 0.0233131 0.0019627
0.1326908 0.0233127 0.0020743
0.1550003 0.0241810 0.0022570
0.1737034 0.0250828 0.0023940
0.1872171 0.0250829 0.0026269
0.2089324 0.0260177 0.0027986
0.2325030 0.0269867 0.0029815
0.2493132 0.0269870 0.0031718
0.2668512 0.0279912 0.0033980
0.2853645 0.0279916 0.0035196
0.3145185 0.0290326 0.0037812
0.3348328 0.0301110 0.0040622
0.3453065 0.0301114 0.0043579
0.3665928 0.0312288 0.0045200
0.3887375 0.0312294 0.0048773
0.4113451 0.0323872 0.0050882
0.4228863 0.0323876 0.0055225
0.4460892 0.0335869 0.0057611
0.4697006 0.0335876 0.0062525
0.4814506 0.0348739 0.0065229
0.4933584 0.0348743 0.0067953
0.5174611 0.0363004 0.0073917
0.5295715 0.0363007 0.0077095
0.5535562 0.0377831 0.0080530
0.5654129 0.0393239 0.0084119
0.5773386 0.0393240 0.0087733
0.5891827 0.0393242 0.0091500
0.6124453 0.0409256 0.0099678
0.6240795 0.0409258 0.0103954
0.6355062 0.0425897 0.0108580
0.6469155 0.0425897 0.0113157
0.6580423 0.0443187 0.0117945
0.6691267 0.0443187 0.0122744
0.6799133 0.0461150 0.0127932
0.6906348 0.0461149 0.0133134
0.7010453 0.0479810 0.0138758
0.7113713 0.0479807 0.0144394
0.7213685 0.0499189 0.0144608
0.7312942 0.0499185 0.0150480
0.7410423 0.0499182 0.0156587
0.7504575 0.0519311 0.0163189
0.7597474 0.0519306 0.0169805
0.7686950 0.0542085 0.0176914
0.7686950 0.0542085 0.0176914
0.7774107 0.0565812 0.0184317
0.7859947 0.0565806 0.0191705
0.7943394 0.0565799 0.0199385
0.8023471 0.0590510 0.0207713
0.8023471 0.0590510 0.0207713
0.8101210 0.0616242 0.0216382
0.8177518 0.0616234 0.0225034
0.0003881 0.0242606 0.0008486
0.0010032 0.0242456 0.0008799
0.0029779 0.0251327 0.0009233
0.0066467 0.0260566 0.0009766
0.0114542 0.0260479 0.0010460
0.0178703 0.0270113 0.0011263
0.0254164 0.0280114 0.0012183
0.0345281 0.0280067 0.0013161
0.0467478 0.0290440 0.0014446
0.0579323 0.0290411 0.0015596
0.0715866 0.0301175 0.0016862
0.0846421 0.0301155 0.0018244
0.0997761 0.0312317 0.0019850
0.1173124 0.0323883 0.0021597
0.1322041 0.0323871 0.0022825
0.1544455 0.0335856 0.0024972
0.1731638 0.0335848 0.0026566
0.1865639 0.0348714 0.0028303
0.2083009 0.0348708 0.0030110
0.2318105 0.0362970 0.0032082
0.2485867 0.0362968 0.0034322
0.2660810 0.0377797 0.0036879
0.2941017 0.0377794 0.0038198
0.3136549 0.0393209 0.0041043
0.3340480 0.0393209 0.0044030
0.3549852 0.0409229 0.0045674
0.3657616 0.0409231 0.0049285
0.3877485 0.0425879 0.0051424
0.4104643 0.0425880 0.0055812
0.4218554 0.0443180 0.0058234
0.4451655 0.0443180 0.0060665
0.4686319 0.0461154 0.0065940
0.4805063 0.0461154 0.0068692
0.5045196 0.0461153 0.0071557
0.5165145 0.0479826 0.0077933
0.5286264 0.0479825 0.0081283
0.5526170 0.0499216 0.0084904
0.5646134 0.0499216 0.0088551
0.5764096 0.0519356 0.0092496
0.5882608 0.0519354 0.0096467
0.6115186 0.0542142 0.0100771
0.6231727 0.0542141 0.0109607
0.6347379 0.0542138 0.0114227
0.6460198 0.0565877 0.0119075
0.6572834 0.0565874 0.0123920
0.6682466 0.0590597 0.0129176
0.6791678 0.0590592 0.0134427
0.6898942 0.0590586 0.0134421
0.7003081 0.0616329 0.0140117
0.7106487 0.0616323 0.0145808
0.7206588 0.0643122 0.0151981
0.7306001 0.0643115 0.0158149
0.7403638 0.0643108 0.0164564
0.7497861 0.0671001 0.0171521
0.7590926 0.0670993 0.0178404
0.7681575 0.0670982 0.0178393
0.7680570 0.0700017 0.0185868
0.7768941 0.0700008 0.0193317
0.7853904 0.0730204 0.0201396
0.7937456 0.0730190 0.0201383
0.8018670 0.0730179 0.0209445
0.8017771 0.0761599 0.0218199
0.8096611 0.0761587 0.0226922
0.8173002 0.0761573 0.0226908
0.0004162 0.0336998 0.0009057
0.0010723 0.0336792 0.0009431
0.0030944 0.0336562 0.0010011
0.0066223 0.0349297 0.0010735
0.0119302 0.0363463 0.0011622
0.0186097 0.0363366 0.0012552
0.0264589 0.0378144 0.0013579
0.0359319 0.0378079 0.0014598
0.0465763 0.0393460 0.0016193
0.0577218 0.0393417 0.0017482
0.0713266 0.0409415 0.0018982
0.0843367 0.0409382 0.0020061
0.1036101 0.0409346 0.0021795
0.1169466 0.0425989 0.0023718
0.1370828 0.0425963 0.0025204
0.1539729 0.0443258 0.0026854
0.1726444 0.0443242 0.0028569
0.1930273 0.0461213 0.0030439
0.2076947 0.0461204 0.0032382
0.2311553 0.0479874 0.0034697
0.2478988 0.0479866 0.0037224
0.2653608 0.0499266 0.0039997
0.2933339 0.0499253 0.0041426
0.3129733 0.0499247 0.0044442
0.3332223 0.0519394 0.0047750
0.3542591 0.0519388 0.0049745
0.3648808 0.0542190 0.0051912
0.3869837 0.0542185 0.0056342
0.4095307 0.0565933 0.0058794
0.4326583 0.0565927 0.0063808
0.4443543 0.0565925 0.0066472
0.4677909 0.0590656 0.0069361
0.4796625 0.0590653 0.0072256
0.5035347 0.0616407 0.0078703
0.5156567 0.0616403 0.0082086
0.5277695 0.0616399 0.0085613
0.5517536 0.0643205 0.0089437
0.5637543 0.0643201 0.0093278
0.5756900 0.0643197 0.0097282
0.5874012 0.0671103 0.0101627
0.6108167 0.0671090 0.0105983
0.6223278 0.0700129 0.0110713
0.6339031 0.0700122 0.0115380
0.6453332 0.0700116 0.0120075
0.6564711 0.0730324 0.0125170
0.6675801 0.0730317 0.0130260
0.6785124 0.0730309 0.0135555
0.6891299 0.0761727 0.0141299
0.6996845 0.0761718 0.0147038
0.7100371 0.0761709 0.0153008
0.7200598 0.0794380 0.0159482
0.7300138 0.0794369 0.0165950
0.7396742 0.0828663 0.0172968
0.7492186 0.0828649 0.0172958
0.7585389 0.0828637 0.0179898
0.7675157 0.0864464 0.0187428
0.7675228 0.0864466 0.0194951
0.7763742 0.0864452 0.0202759
0.7848765 0.0901693 0.0203089
0.7932527 0.0901679 0.0211218
0.8013880 0.0901663 0.0219667
0.8013880 0.0901663 0.0219667
0.8091893 0.0940366 0.0228832
0.8168485 0.0940349 0.0237972
0.0004497 0.0444779 0.0009708
0.0011469 0.0444512 0.0010277
0.0032143 0.0462252 0.0011016
0.0069086 0.0462029 0.0011740
0.0118883 0.0480593 0.0012697
0.0185446 0.0480463 0.0013713
0.0263809 0.0480363 0.0015122
0.0358089 0.0499710 0.0016349
0.0464404 0.0499638 0.0017649
0.0600317 0.0519744 0.0019163
0.0711234 0.0519699 0.0020820
0.0876133 0.0542471 0.0022039
0.1032707 0.0542428 0.0023945
0.1166207 0.0542398 0.0025445
0.1366406 0.0566133 0.0027115
0.1535538 0.0566105 0.0028845
0.1721056 0.0590837 0.0031704
0.1925168 0.0590809 0.0032699
0.2071555 0.0590794 0.0034983
0.2305635 0.0616547 0.0037593
0.2472770 0.0616533 0.0040331
0.2737972 0.0643343 0.0043339
0.2926297 0.0643328 0.0044888
0.3122417 0.0643315 0.0048155
0.3324480 0.0671228 0.0050252
0.3534696 0.0671216 0.0054541
0.3751408 0.0671202 0.0056819
0.3861534 0.0700255 0.0059293
0.4088354 0.0700243 0.0064349
0.4317962 0.0730458 0.0067147
0.4434863 0.0730452 0.0069950
0.4670720 0.0730439 0.0075972
0.4787933 0.0761875 0.0079372
0.5028016 0.0761858 0.0082780
0.5149234 0.0761851 0.0086337
0.5268885 0.0794538 0.0090197
0.5510256 0.0794520 0.0094067
0.5630298 0.0794512 0.0098105
0.5748224 0.0828823 0.0102488
0.5984462 0.0828802 0.0106880
0.6101131 0.0828792 0.0111464
0.6216294 0.0864635 0.0116359
0.6332127 0.0864625 0.0121095
0.6446519 0.0864613 0.0126021
0.6557974 0.0901872 0.0131368
0.6669165 0.0901860 0.0136708
0.6778598 0.0901848 0.0142263
0.6884867 0.0940566 0.0148292
0.6990532 0.0940552 0.0154312
0.7094183 0.0940538 0.0160573
0.7194520 0.0980760 0.0167368
0.7294115 0.0980743 0.0167358
0.7392023 0.0980727 0.0174142
0.7486504 0.1022498 0.0181435
0.7579848 0.1022482 0.0188709
0.7670850 0.1022465 0.0196272
0.7759414 0.1022444 0.0196260
0.7758414 0.1065827 0.0204476
0.7844684 0.1065808 0.0212660
0.7928562 0.1065789 0.0221165
0.8008991 0.1110787 0.0221525
0.8088097 0.1110767 0.0230378
0.8088157 0.1110769 0.0239594
0.8164806 0.1110746 0.0239579
0.0005009 0.0568029 0.0010683
0.0012272 0.0567706 0.0011122
0.0033417 0.0592164 0.0012101
0.0072100 0.0591880 0.0013062
0.0123944 0.0617506 0.0014158
0.0193215 0.0617340 0.0015279
0.0274771 0.0617211 0.0016491
0.0356955 0.0643984 0.0017832
0.0462948 0.0643889 0.0019331
0.0598433 0.0671755 0.0021036
0.0739511 0.0671678 0.0022854
0.0873909 0.0671619 0.0024151
0.1029575 0.0700648 0.0025707
0.1210386 0.0700592 0.0028207
0.1363114 0.0700552 0.0030007
0.1531154 0.0730767 0.0031975
0.1717022 0.0730728 0.0034063
0.1920815 0.0730691 0.0036544
0.2142040 0.0762117 0.0037913
0.2300594 0.0762094 0.0040674
0.2466386 0.0794788 0.0043709
0.2732230 0.0794751 0.0045270
0.2920378 0.0794730 0.0048564
0.3114935 0.0829046 0.0050680
0.3318127 0.0829025 0.0055005
0.3528050 0.0829003 0.0057303
0.3743272 0.0864854 0.0062297
0.3854697 0.0864844 0.0064899
0.4081275 0.0864822 0.0067607
0.4310839 0.0902088 0.0073494
0.4427693 0.0902077 0.0076623
0.4663378 0.0902055 0.0079915
0.4782050 0.0902044 0.0083349
0.5020602 0.0940767 0.0087076
0.5141820 0.0940755 0.0090816
0.5383800 0.0940730 0.0094712
0.5502977 0.0980972 0.0103196
0.5623055 0.0980958 0.0107623
0.5742496 0.0980947 0.0112239
0.5977362 0.1022719 0.0117163
0.6094094 0.1022706 0.0121931
0.6210757 0.1022692 0.0126892
0.6325149 0.1066069 0.0127101
0.6439632 0.1066053 0.0132269
0.6552560 0.1066038 0.0137646
0.6663834 0.1066021 0.0143238
0.6772022 0.1111039 0.0149308
0.6879714 0.1111021 0.0155369
0.6985474 0.1111005 0.0161672
0.7087964 0.1157705 0.0168513
0.7189580 0.1157682 0.0168504
0.7289361 0.1157663 0.0175333
0.7387377 0.1157644 0.0182367
0.7481965 0.1206066 0.0190000
0.7575348 0.1206042 0.0189988
0.7666469 0.1206021 0.0197601
0.7754165 0.1255338 0.0205854
0.7754235 0.1255340 0.0214105
0.7840618 0.1255317 0.0222668
0.7924546 0.1255291 0.0222654
0.8005204 0.1304550 0.0231922
0.8084419 0.1304525 0.0241183
0.8084419 0.1304525 0.0241183
0.8161243 0.1304500 0.0250807
0.0005449 0.0733217 0.0011568
0.0013129 0.0732815 0.0012221
0.0034854 0.0732369 0.0013188
0.0071863 0.0763568 0.0014290
0.0123610 0.0763317 0.0015818
0.0192698 0.0763113 0.0017071
0.0273889 0.0795712 0.0018456
0.0371837 0.0795570 0.0020048
0.0482057 0.0795452 0.0021184
0.0596872 0.0829730 0.0023053
0.0737588 0.0829632 0.0024361
0.0871693 0.0829558 0.0026700
0.1026995 0.0865388 0.0028451
0.1207377 0.0865313 0.0030266
0.1359777 0.0865262 0.0032196
0.1527462 0.0902525 0.0034357
0.1712973 0.0902474 0.0036859
0.1916388 0.0902425 0.0039542
0.2137212 0.0941147 0.0041024
0.2295504 0.0941116 0.0044011
0.2548465 0.0941070 0.0047213
0.2726486 0.0981313 0.0048983
0.2914409 0.0981284 0.0053165
0.3110001 0.0981253 0.0055385
0.3311610 0.1023047 0.0057797
0.3521417 0.1023019 0.0062727
0.3737763 0.1022988 0.0065345
0.3849120 0.1022973 0.0068074
0.4074225 0.1066360 0.0074002
0.4305046 0.1066329 0.0077150
0.4421862 0.1066315 0.0080467
0.4655991 0.1111335 0.0084065
0.4774635 0.1111320 0.0087677
0.5014772 0.1111290 0.0095370
0.5135990 0.1111275 0.0099464
0.5376487 0.1157976 0.0103905
0.5497085 0.1157959 0.0108362
0.5617192 0.1157942 0.0113009
0.5735183 0.1206386 0.0117973
0.5971617 0.1206346 0.0122768
0.6088399 0.1206329 0.0127762
0.6205126 0.1206311 0.0132957
0.6319608 0.1255644 0.0133173
0.6434163 0.1255623 0.0138586
0.6547167 0.1255604 0.0144216
0.6657238 0.1304882 0.0150314
0.6766865 0.1304860 0.0156415
0.6874645 0.1304839 0.0162761
0.6980500 0.1304816 0.0169361
0.7083068 0.1355755 0.0169623
0.7184864 0.1355731 0.0176498
0.7284745 0.1355708 0.0183578
0.7382867 0.1355684 0.0190937
0.7477619 0.1408321 0.0198906
0.7571110 0.1408292 0.0198894
0.7662337 0.1408265 0.0206858
0.7751192 0.1408239 0.0215135
0.7750179 0.1462636 0.0215479
0.7836675 0.1462608 0.0224096
0.7920778 0.1462580 0.0233050
0.8002474 0.1462552 0.0242356
0.8080809 0.1518679 0.0242727
0.8080869 0.1518683 0.0252427
0.8157799 0.1518653 0.0262490
0.0006162 0.0905470 0.0012830
0.0013565 0.0905030 0.0013581
0.0036352 0.0904483 0.0014403
0.0075027 0.0942932 0.0015967
0.0128925 0.0942624 0.0017228
0.0192172 0.0942400 0.0018593
0.0273298 0.0942205 0.0020195
0.0370836 0.0982361 0.0021974
0.0480771 0.0982214 0.0023218
0.0595620 0.0982096 0.0025279
0.0735670 0.1023843 0.0026935
0.0869431 0.1023749 0.0028652
0.1024906 0.1023657 0.0030478
0.1204344 0.1067018 0.0032477
0.1356416 0.1066951 0.0034597
0.1524517 0.1066887 0.0037116
0.1709737 0.1066824 0.0039817
0.1911886 0.1111842 0.0041310
0.2133363 0.1111780 0.0044316
0.2291448 0.1111742 0.0047541
0.2542911 0.1158443 0.0049322
0.2721940 0.1158404 0.0053533
0.2909586 0.1158365 0.0055769
0.3103799 0.1206814 0.0060630
0.3306505 0.1206773 0.0063161
0.3516060 0.1206734 0.0065797
0.3732351 0.1206698 0.0071406
0.3954749 0.1256035 0.0074509
0.4068558 0.1256017 0.0077681
0.4299283 0.1255977 0.0081018
0.4416062 0.1255959 0.0084500
0.4650306 0.1305239 0.0092065
0.4768931 0.1305220 0.0096018
0.5008943 0.1305178 0.0100136
0.5130161 0.1305158 0.0104433
0.5370755 0.1356095 0.0109085
0.5491373 0.1356074 0.0113763
0.5611501 0.1356053 0.0118557
0.5729601 0.1408713 0.0123581
0.5966116 0.1408665 0.0128602
0.6082952 0.1408643 0.0133831
0.6199733 0.1408620 0.0139271
0.6314328 0.1463005 0.0139488
0.6428950 0.1462981 0.0145155
0.6542029 0.1462956 0.0151049
0.6653463 0.1462932 0.0157179
0.6761887 0.1519082 0.0163819
0.6869752 0.1519057 0.0170461
0.6975696 0.1519030 0.0177369
0.7079557 0.1519000 0.0177359
0.7180250 0.1576944 0.0184770
0.7280232 0.1576915 0.0192176
0.7378454 0.1576887 0.0199876
0.7474332 0.1576855 0.0199864
0.7567975 0.1576824 0.0207866
0.7658239 0.1636589 0.0216529
0.7747203 0.1636558 0.0225186
0.7747203 0.1636558 0.0225186
0.7833781 0.1636527 0.0234184
0.7917004 0.1698139 0.0243923
0.7998747 0.1698102 0.0243907
0.8078157 0.1698068 0.0253637
0.8078218 0.1698072 0.0263764
0.8154294 0.1761553 0.0264168
0.0006991 0.1070256 0.0014231
0.0014574 0.1069781 0.0014900
0.0037915 0.1114342 0.0016094
0.0078374 0.1113861 0.0017810
0.0134543 0.1113504 0.0019257
0.0200300 0.1160070 0.0020378
0.0284767 0.1159834 0.0022133
0.0370041 0.1159660 0.0024043
0.0479752 0.1159488 0.0025460
0.0619856 0.1207851 0.0027126
0.0734130 0.1207738 0.0028855
0.0904264 0.1207597 0.0030693
0.1022819 0.1207518 0.0032650
0.1201948 0.1256825 0.0034838
0.1353766 0.1256747 0.0037374
0.1581264 0.1256642 0.0040093
0.1771259 0.1305918 0.0043081
0.1908414 0.1305866 0.0044620
0.2129588 0.1305791 0.0047865
0.2287408 0.1305742 0.0049575
0.2538706 0.1356679 0.0053893
0.2717461 0.1356630 0.0056143
0.2904995 0.1356584 0.0060933
0.3100216 0.1356536 0.0063477
0.3301542 0.1409194 0.0066233
0.3511030 0.1409149 0.0071879
0.3727086 0.1409100 0.0074877
0.3950769 0.1409052 0.0078062
0.4063167 0.1463465 0.0081550
0.4293901 0.1463419 0.0088709
0.4528027 0.1463370 0.0092516
0.4646146 0.1463347 0.0096489
0.4882192 0.1519493 0.0100790
0.5003321 0.1519469 0.0105114
0.5124537 0.1519445 0.0109624
0.5366576 0.1519394 0.0114320
0.5485784 0.1577359 0.0119330
0.5605937 0.1577333 0.0124186
0.5844160 0.1577277 0.0129231
0.5962052 0.1577252 0.0134486
0.6077551 0.1637038 0.0140177
0.6194391 0.1637010 0.0145872
0.6310390 0.1636978 0.0145865
0.6425062 0.1636951 0.0151787
0.6536888 0.1698584 0.0158202
0.6648399 0.1698554 0.0164619
0.6758169 0.1698525 0.0171294
0.6866101 0.1698495 0.0178235
0.6972027 0.1698461 0.0178225
0.7074841 0.1761966 0.0185671
0.7176805 0.1761934 0.0193114
0.7276860 0.1761902 0.0200850
0.7375084 0.1761866 0.0200838
0.7470018 0.1827264 0.0209213
0.7563767 0.1827229 0.0217583
0.7655181 0.1827195 0.0226282
0.7744158 0.1827156 0.0226269
0.7830817 0.1827122 0.0235308
0.7829949 0.1890619 0.0245086
0.7914176 0.1890578 0.0245071
0.7996066 0.1890542 0.0254847
0.8075553 0.1890503 0.0265004
0.8074699 0.1955720 0.0265403
0.8151822 0.1955681 0.0275939
0.0007880 0.1260499 0.0015807
0.0015137 0.1260012 0.0016620
0.0039569 0.1308743 0.0017950
0.0078205 0.1308220 0.0019404
0.0134254 0.1307809 0.0021069
0.0199879 0.1358584 0.0022293
0.0284172 0.1358312 0.0024213
0.0385657 0.1358075 0.0025638
0.0499802 0.1357876 0.0027268
0.0618620 0.1410470 0.0029966
0.0732681 0.1410339 0.0031874
0.0902506 0.1410176 0.0033904
0.1063300 0.1410051 0.0036267
0.1199678 0.1464432 0.0037623
0.1405233 0.1464308 0.0040359
0.1578393 0.1464218 0.0043296
0.1768872 0.1464127 0.0044841
0.1905072 0.1520301 0.0048183
0.2125961 0.1520213 0.0051989
0.2365497 0.1520124 0.0054159
0.2535663 0.1520071 0.0058781
0.2713164 0.1578033 0.0061334
0.2900432 0.1577975 0.0063894
0.3095556 0.1577921 0.0069342
0.3297967 0.1577865 0.0072234
0.3505960 0.1637648 0.0075369
0.3721876 0.1637591 0.0078575
0.3945535 0.1637538 0.0085475
0.4059249 0.1637511 0.0089148
0.4289814 0.1637454 0.0092973
