Plugins/FilmEmulator/Content/LUTs/FE_Kodak_TriX_400_64.cube
TITLE "FE_Kodak_TriX_400_33"
LUT_3D_SIZE 4
0.0063196 0.0063196 0.0063196
0.0456746 0.0456746 0.0456746
0.0938550 0.0938550 0.0938550
0.1423668 0.1423668 0.1423668
0.0938550 0.0938550 0.0938550
0.1423668 0.1423668 0.1423668
0.1909734 0.1909734 0.1909734
0.2369438 0.2369438 0.2369438
0.1909734 0.1909734 0.1909734
0.2369438 0.2369438 0.2369438
0.2794932 0.2794932 0.2794932
0.3207204 0.3207204 0.3207204
0.2794932 0.2794932 0.2794932
0.3207204 0.3207204 0.3207204
0.3584400 0.3584400 0.3584400
0.3912334 0.3912334 0.3912334
0.1456803 0.1456803 0.1456803
0.1952300 0.1952300 0.1952300
0.2369438 0.2369438 0.2369438
0.2794932 0.2794932 0.2794932
0.2369438 0.2369438 0.2369438
0.2794932 0.2794932 0.2794932
0.3207204 0.3207204 0.3207204
0.3584400 0.3584400 0.3584400
0.3207204 0.3207204 0.3207204
0.3584400 0.3584400 0.3584400
0.3912334 0.3912334 0.3912334
0.4249356 0.4249356 0.4249356
0.3912334 0.3912334 0.3912334
0.4249356 0.4249356 0.4249356
0.4522991 0.4522991 0.4522991
0.4799544 0.4799544 0.4799544
0.2851655 0.2851655 0.2851655
0.3268697 0.3268697 0.3268697
0.3584400 0.3584400 0.3584400
0.3979226 0.3979226 0.3979226
0.3584400 0.3584400 0.3584400
0.3979226 0.3979226 0.3979226
0.4249356 0.4249356 0.4249356
0.4522991 0.4522991 0.4522991
0.4249356 0.4249356 0.4249356
0.4522991 0.4522991 0.4522991
0.4799544 0.4799544 0.4799544
0.5076979 0.5076979 0.5076979
0.4799544 0.4799544 0.4799544
0.5076979 0.5076979 0.5076979
0.5284815 0.5284815 0.5284815
0.5491667 0.5491667 0.5491667
0.3979226 0.3979226 0.3979226
0.4317404 0.4317404 0.4317404
0.4591922 0.4591922 0.4591922
0.4868877 0.4868877 0.4868877
0.4591922 0.4591922 0.4591922
0.4868877 0.4868877 0.4868877
0.5076979 0.5076979 0.5076979
0.5284815 0.5284815 0.5284815
0.5076979 0.5076979 0.5076979
0.5284815 0.5284815 0.5284815
0.5491667 0.5491667 0.5491667
0.5694875 0.5694875 0.5694875
0.5491667 0.5491667 0.5491667
0.5694875 0.5694875 0.5694875
0.5895216 0.5895216 0.5895216
0.6027188 0.6027188 0.6027188
