Plugins/FilmEmulator/Content/LUTs/FE_Kodachrome_64_64.cube
TITLE "FE_Kodachrome_64_33"
LUT_3D_SIZE 4
0.0023751 0.0011192 0.0009992
0.1325223 0.0041044 0.0041870
0.3230176 0.0189117 0.0193077
0.4684297 0.0445319 0.0435218
0.0055846 0.2324643 0.0011546
0.3649085 0.3478016 0.0128620
0.6166294 0.3976823 0.0403444
0.7561905 0.4318165 0.0733194
0.0197356 0.4451148 0.0228865
0.4045803 0.5596423 0.0419372
0.6717481 0.6056526 0.0753867
0.8151817 0.6339435 0.1125739
0.0527343 0.5791621 0.0571786
0.4167250 0.6776017 0.0811890
0.6932762 0.7226802 0.1167351
0.8391061 0.7459708 0.1503419
0.0181268 0.0035228 0.1460886
0.2091984 0.0169924 0.2141841
0.3876227 0.0368935 0.2600772
0.5130230 0.0614552 0.2971787
0.0000000 0.3274876 0.3488379
0.3793311 0.4125690 0.4023660
0.6133904 0.4490727 0.4266038
0.7469392 0.4732846 0.4462172
0.0100639 0.5433505 0.3957626
0.4124667 0.6296351 0.4387567
0.6627665 0.6618091 0.4610624
0.8005437 0.6804299 0.4796490
0.0447242 0.6651784 0.4194495
0.4284766 0.7434980 0.4566184
0.6843392 0.7723594 0.4782730
0.8227277 0.7877598 0.4948750
0.0609410 0.0242842 0.2979157
0.2866694 0.0473197 0.3640080
0.4565888 0.0721537 0.4063001
0.5743150 0.1028070 0.4424196
0.0716279 0.3646185 0.5218397
0.4284190 0.4293212 0.5689308
0.6388603 0.4609381 0.5892446
0.7591864 0.4866153 0.6028713
0.0618001 0.5774432 0.5760689
0.4627987 0.6481216 0.6189093
0.6837748 0.6741619 0.6357446
0.8087882 0.6911681 0.6475552
0.0863355 0.6935920 0.6018918
0.4793660 0.7609265 0.6394421
0.7047069 0.7863512 0.6554567
0.8298208 0.7998332 0.6664499
0.1142718 0.0572556 0.4072222
0.3548415 0.0868482 0.4651212
0.5160669 0.1158751 0.5028840
0.6210630 0.1452986 0.5313675
0.1404689 0.3907184 0.6093673
0.4768430 0.4430064 0.6501158
0.6633995 0.4724316 0.6677023
0.7744218 0.4957982 0.6797654
0.1411908 0.6045124 0.6688777
0.5106504 0.6598983 0.7054725
0.7096490 0.6831878 0.7191486
0.8226145 0.6993431 0.7279657
0.1437717 0.7145383 0.6933240
0.5256895 0.7715752 0.7270593
0.7278404 0.7923019 0.7406791
0.8426861 0.8047161 0.7484711
