Plugins/FilmEmulator/Content/LUTs/FE_Kodak_Vision3_500T_5230_64.cube
# FilmEmulator LUT (resampled to 64)
LUT_3D_SIZE 64
0.001587 0.000000 0.000000
0.016328 0.000403 0.000000
0.031034 0.000830 0.000000
0.044644 0.002024 0.000000
0.058214 0.003219 0.000000
0.071172 0.004428 0.000000
0.084198 0.005617 0.000000
0.097870 0.006609 0.000000
0.111652 0.007628 0.000000
0.126208 0.008837 0.000000
0.140618 0.010106 0.000000
0.154243 0.011703 0.000000
0.167962 0.013299 0.000000
0.182083 0.014896 0.000000
0.196184 0.016364 0.000000
0.210212 0.017372 0.000000
0.224334 0.018425 0.000000
0.238734 0.019619 0.000000
0.253047 0.020848 0.000000
0.267138 0.022165 0.000000
0.281282 0.023352 0.000000
0.295542 0.024251 0.000000
0.309633 0.025299 0.000000
0.323398 0.026633 0.000000
0.337523 0.027879 0.000000
0.352249 0.028979 0.000000
0.366307 0.030685 0.000000
0.379390 0.033273 0.000000
0.392446 0.035251 0.000000
0.405467 0.036445 0.000000
0.418466 0.037493 0.000000
0.431440 0.038376 0.000000
0.444329 0.039485 0.000000
0.457133 0.040818 0.000000
0.469937 0.041995 0.000000
0.482740 0.043034 0.000000
0.495501 0.044046 0.000000
0.508227 0.045038 0.000000
0.520834 0.046076 0.000000
0.533358 0.047145 0.000000
0.545612 0.048127 0.000000
0.557703 0.049057 0.000000
0.569509 0.049835 0.000000
0.581165 0.050533 0.000000
0.593227 0.051220 0.000000
0.605473 0.051902 0.000000
0.617585 0.052573 0.000000
0.629645 0.053239 0.000000
0.641356 0.053964 0.000000
0.652951 0.054708 0.000000
0.664182 0.055222 0.000000
0.675312 0.055672 0.000000
0.686039 0.056046 0.000000
0.696672 0.056402 0.000000
0.706887 0.056981 0.000000
0.717025 0.057601 0.000000
0.727149 0.058058 0.000000
0.737271 0.058492 0.000000
0.747436 0.059081 0.000000
0.757604 0.059685 0.000000
0.767831 0.060348 0.000000
0.778061 0.061014 0.000000
0.788217 0.061666 0.000000
0.798370 0.062317 0.000000
0.000781 0.015609 0.000000
0.014884 0.015823 0.000000
0.029038 0.016054 0.000000
0.044742 0.016799 0.000000
0.060274 0.017579 0.000000
0.073209 0.018882 0.000000
0.086263 0.020138 0.000000
0.100471 0.020933 0.000000
0.114660 0.021789 0.000000
0.128728 0.023069 0.000000
0.142775 0.024356 0.000000
0.156716 0.025685 0.000000
0.170739 0.027026 0.000000
0.185120 0.028418 0.000000
0.199480 0.029704 0.000000
0.213769 0.030609 0.000000
0.228034 0.031551 0.000000
0.242229 0.032602 0.000000
0.256360 0.033789 0.000000
0.270324 0.035319 0.000000
0.284347 0.036726 0.000000
0.298498 0.037861 0.000000
0.312678 0.039054 0.000000
0.326916 0.040355 0.000000
0.341133 0.041487 0.000000
0.355315 0.042336 0.000000
0.369025 0.043626 0.000000
0.382045 0.045561 0.000000
0.395014 0.047106 0.000000
0.407917 0.048150 0.000000
0.420787 0.049119 0.000000
0.433619 0.050002 0.000000
0.446457 0.051040 0.000000
0.459300 0.052231 0.000000
0.472114 0.053362 0.000000
0.484902 0.054440 0.000000
0.497633 0.055492 0.000000
0.510320 0.056524 0.000000
0.522874 0.057480 0.000000
0.535335 0.058384 0.000000
0.547521 0.059245 0.000000
0.559541 0.060080 0.000000
0.571338 0.060830 0.000000
0.583018 0.061536 0.000000
0.595271 0.062263 0.000000
0.607785 0.063001 0.000000
0.619797 0.063665 0.000000
0.631613 0.064299 0.000000
0.643221 0.064987 0.000000
0.654761 0.065691 0.000000
0.665925 0.066154 0.000000
0.676984 0.066548 0.000000
0.687646 0.066828 0.000000
0.698217 0.067083 0.000000
0.708429 0.067626 0.000000
0.718574 0.068222 0.000000
0.728727 0.068800 0.000000
0.738880 0.069376 0.000000
0.749076 0.069950 0.000000
0.759277 0.070522 0.000000
0.769520 0.071198 0.000000
0.779766 0.071880 0.000000
0.789937 0.072540 0.000000
0.800106 0.073199 0.000000
0.000000 0.030976 0.000000
0.013431 0.031024 0.000000
0.026993 0.031080 0.000000
0.044656 0.031402 0.000000
0.062029 0.031794 0.000000
0.075047 0.033226 0.000000
0.088228 0.034581 0.000000
0.102973 0.035199 0.000000
0.117576 0.035910 0.000000
0.131180 0.037272 0.000000
0.144884 0.038588 0.000000
0.159130 0.039658 0.000000
0.173450 0.040751 0.000000
0.188087 0.041945 0.000000
0.202704 0.043053 0.000000
0.217252 0.043860 0.000000
0.231663 0.044694 0.000000
0.245665 0.045607 0.000000
0.259625 0.046747 0.000000
0.273475 0.048469 0.000000
0.287384 0.050076 0.000000
0.301423 0.051433 0.000000
0.315687 0.052760 0.000000
0.330383 0.054029 0.000000
0.344688 0.055052 0.000000
0.358339 0.055662 0.000000
0.371713 0.056549 0.000000
0.384683 0.057842 0.000000
0.397576 0.058962 0.000000
0.410368 0.059860 0.000000
0.423114 0.060752 0.000000
0.435807 0.061635 0.000000
0.448592 0.062603 0.000000
0.461469 0.063657 0.000000
0.474289 0.064742 0.000000
0.487057 0.065854 0.000000
0.499758 0.066941 0.000000
0.512405 0.068009 0.000000
0.524908 0.068884 0.000000
0.537310 0.069629 0.000000
0.549431 0.070372 0.000000
0.561383 0.071114 0.000000
0.573177 0.071838 0.000000
0.584887 0.072551 0.000000
0.597322 0.073316 0.000000
0.610085 0.074106 0.000000
0.621998 0.074763 0.000000
0.633578 0.075367 0.000000
0.645087 0.076014 0.000000
0.656571 0.076675 0.000000
0.667672 0.077089 0.000000
0.678664 0.077434 0.000000
0.689264 0.077625 0.000000
0.699773 0.077780 0.000000
0.709980 0.078286 0.000000
0.720131 0.078858 0.000000
0.730311 0.079554 0.000000
0.740496 0.080267 0.000000
0.750722 0.080827 0.000000
0.760953 0.081371 0.000000
0.771211 0.082056 0.000000
0.781470 0.082752 0.000000
0.791655 0.083418 0.000000
0.801839 0.084084 0.000000
0.000000 0.038820 0.000000
0.011667 0.039395 0.000000
0.023451 0.039974 0.000000
0.038870 0.040682 0.000000
0.054350 0.041510 0.000000
0.070746 0.044131 0.000000
0.087046 0.046603 0.000000
0.102422 0.047646 0.000000
0.117615 0.048782 0.000000
0.131534 0.050569 0.000000
0.145507 0.052247 0.000000
0.159769 0.053333 0.000000
0.174128 0.054436 0.000000
0.188906 0.055613 0.000000
0.203684 0.056717 0.000000
0.218460 0.057555 0.000000
0.233084 0.058403 0.000000
0.247251 0.059276 0.000000
0.261403 0.060256 0.000000
0.275513 0.061505 0.000000
0.289544 0.062714 0.000000
0.303402 0.063834 0.000000
0.317561 0.064990 0.000000
0.332297 0.066212 0.000000
0.346560 0.067266 0.000000
0.360038 0.068042 0.000000
0.373457 0.068906 0.000000
0.386789 0.069899 0.000000
0.399944 0.070844 0.000000
0.412870 0.071727 0.000000
0.425654 0.072602 0.000000
0.438276 0.073470 0.000000
0.450955 0.074422 0.000000
0.463690 0.075460 0.000000
0.476372 0.076475 0.000000
0.489007 0.077469 0.000000
0.501626 0.078469 0.000000
0.514235 0.079474 0.000000
0.526754 0.080329 0.000000
0.539211 0.081081 0.000000
0.551368 0.081802 0.000000
0.563343 0.082506 0.000000
0.575311 0.083215 0.000000
0.587274 0.083928 0.000000
0.599576 0.084667 0.000000
0.612032 0.085417 0.000000
0.623870 0.086069 0.000000
0.635465 0.086681 0.000000
0.646948 0.087194 0.000000
0.658394 0.087674 0.000000
0.669547 0.088153 0.000000
0.680618 0.088632 0.000000
0.691220 0.088841 0.000000
0.701714 0.088988 0.000000
0.711852 0.089440 0.000000
0.721924 0.089949 0.000000
0.732108 0.090644 0.000000
0.742308 0.091365 0.000000
0.752536 0.091968 0.000000
0.762767 0.092559 0.000000
0.772958 0.093182 0.000000
0.783146 0.093806 0.000000
0.793307 0.094448 0.000000
0.803467 0.095090 0.000000
0.000000 0.046664 0.000000
0.009924 0.047746 0.000000
0.019954 0.048828 0.000000
0.033241 0.049918 0.000000
0.046907 0.051169 0.000000
0.066265 0.054853 0.000000
0.085323 0.058339 0.000000
0.101495 0.059915 0.000000
0.117432 0.061567 0.000000
0.131728 0.063751 0.000000
0.146025 0.065769 0.000000
0.160322 0.066886 0.000000
0.174737 0.068013 0.000000
0.189665 0.069180 0.000000
0.204611 0.070284 0.000000
0.219618 0.071161 0.000000
0.234457 0.072030 0.000000
0.248793 0.072872 0.000000
0.263138 0.073705 0.000000
0.277506 0.074514 0.000000
0.291668 0.075351 0.000000
0.305378 0.076251 0.000000
0.319451 0.077245 0.000000
0.334219 0.078417 0.000000
0.348446 0.079498 0.000000
0.361770 0.080427 0.000000
0.375236 0.081270 0.000000
0.388909 0.081988 0.000000
0.402311 0.082771 0.000000
0.415364 0.083638 0.000000
0.428186 0.084498 0.000000
0.440747 0.085349 0.000000
0.453327 0.086282 0.000000
0.465928 0.087295 0.000000
0.478479 0.088238 0.000000
0.490984 0.089118 0.000000
0.503524 0.090031 0.000000
0.516092 0.090971 0.000000
0.528624 0.091804 0.000000
0.541130 0.092562 0.000000
0.553319 0.093265 0.000000
0.565317 0.093934 0.000000
0.577456 0.094630 0.000000
0.589670 0.095341 0.000000
0.601841 0.096049 0.000000
0.613993 0.096755 0.000000
0.625757 0.097398 0.000000
0.637370 0.098016 0.000000
0.648825 0.098404 0.000000
0.660228 0.098715 0.000000
0.671428 0.099248 0.000000
0.682571 0.099844 0.000000
0.693177 0.100073 0.000000
0.703659 0.100216 0.000000
0.713733 0.100615 0.000000
0.723731 0.101061 0.000000
0.733920 0.101752 0.000000
0.744135 0.102478 0.000000
0.754362 0.103121 0.000000
0.764591 0.103755 0.000000
0.774722 0.104318 0.000000
0.784847 0.104877 0.000000
0.794982 0.105490 0.000000
0.805116 0.106105 0.000000
0.000000 0.054524 0.000000
0.008499 0.055802 0.000000
0.017134 0.057085 0.000000
0.029964 0.058489 0.000000
0.042998 0.059984 0.000000
0.059080 0.062841 0.000000
0.075478 0.065780 0.000000
0.094933 0.069505 0.000000
0.113907 0.073035 0.000000
0.129518 0.075195 0.000000
0.144975 0.077235 0.000000
0.159594 0.078620 0.000000
0.174322 0.079979 0.000000
0.189518 0.081225 0.000000
0.204733 0.082422 0.000000
0.220016 0.083440 0.000000
0.235114 0.084436 0.000000
0.249663 0.085366 0.000000
0.264225 0.086272 0.000000
0.278822 0.087120 0.000000
0.293249 0.087989 0.000000
0.307305 0.088905 0.000000
0.321581 0.089879 0.000000
0.336278 0.090965 0.000000
0.350517 0.091983 0.000000
0.363991 0.092888 0.000000
0.377552 0.093749 0.000000
0.391241 0.094546 0.000000
0.404658 0.095367 0.000000
0.417727 0.096218 0.000000
0.430594 0.097062 0.000000
0.443234 0.097897 0.000000
0.455842 0.098743 0.000000
0.468419 0.099599 0.000000
0.480929 0.100439 0.000000
0.493380 0.101264 0.000000
0.505861 0.102100 0.000000
0.518365 0.102945 0.000000
0.530848 0.103734 0.000000
0.543315 0.104486 0.000000
0.555489 0.105210 0.000000
0.567487 0.105918 0.000000
0.579776 0.106602 0.000000
0.592218 0.107274 0.000000
0.604282 0.107893 0.000000
0.616174 0.108489 0.000000
0.627888 0.109078 0.000000
0.639532 0.109665 0.000000
0.650930 0.110057 0.000000
0.662247 0.110383 0.000000
0.673397 0.110816 0.000000
0.684500 0.111278 0.000000
0.695144 0.111533 0.000000
0.705681 0.111739 0.000000
0.715763 0.112101 0.000000
0.725761 0.112492 0.000000
0.735957 0.113142 0.000000
0.746180 0.113829 0.000000
0.756380 0.114446 0.000000
0.766577 0.115057 0.000000
0.776751 0.115626 0.000000
0.786923 0.116192 0.000000
0.797005 0.116722 0.000000
0.807084 0.117250 0.000000
0.000000 0.062522 0.000000
0.007303 0.063944 0.000000
0.014765 0.065374 0.000000
0.027143 0.067028 0.000000
0.039560 0.068707 0.000000
0.052578 0.070759 0.000000
0.066431 0.073137 0.000000
0.088364 0.078670 0.000000
0.109684 0.083805 0.000000
0.126708 0.086166 0.000000
0.143441 0.088433 0.000000
0.158599 0.090190 0.000000
0.173812 0.091871 0.000000
0.189265 0.093222 0.000000
0.204743 0.094534 0.000000
0.220308 0.095708 0.000000
0.235684 0.096846 0.000000
0.250496 0.097871 0.000000
0.265305 0.098859 0.000000
0.280108 0.099753 0.000000
0.294792 0.100657 0.000000
0.309215 0.101585 0.000000
0.323707 0.102540 0.000000
0.338331 0.103547 0.000000
0.352581 0.104506 0.000000
0.366205 0.105384 0.000000
0.379860 0.106258 0.000000
0.393559 0.107128 0.000000
0.406990 0.107984 0.000000
0.420078 0.108822 0.000000
0.432997 0.109653 0.000000
0.445723 0.110475 0.000000
0.458370 0.111244 0.000000
0.470938 0.111960 0.000000
0.483422 0.112707 0.000000
0.495830 0.113481 0.000000
0.508260 0.114245 0.000000
0.520705 0.115003 0.000000
0.533134 0.115750 0.000000
0.545551 0.116490 0.000000
0.557731 0.117227 0.000000
0.569768 0.117963 0.000000
0.582180 0.118628 0.000000
0.594789 0.119254 0.000000
0.606744 0.119791 0.000000
0.618404 0.120287 0.000000
0.630067 0.120822 0.000000
0.641731 0.121370 0.000000
0.653074 0.121767 0.000000
0.664309 0.122113 0.000000
0.675414 0.122455 0.000000
0.686483 0.122797 0.000000
0.697159 0.123070 0.000000
0.707745 0.123327 0.000000
0.717840 0.123652 0.000000
0.727843 0.123991 0.000000
0.738045 0.124601 0.000000
0.748275 0.125250 0.000000
0.758448 0.125842 0.000000
0.768615 0.126429 0.000000
0.778821 0.126997 0.000000
0.789029 0.127565 0.000000
0.799066 0.128019 0.000000
0.809098 0.128469 0.000000
0.000000 0.071869 0.000000
0.008319 0.072921 0.000000
0.016752 0.073981 0.000000
0.028720 0.075257 0.000000
0.040690 0.076545 0.000000
0.052675 0.077998 0.000000
0.065097 0.079693 0.000000
0.081731 0.083721 0.000000
0.098710 0.087836 0.000000
0.118096 0.092559 0.000000
0.137232 0.097035 0.000000
0.155011 0.100178 0.000000
0.172383 0.103052 0.000000
0.187986 0.104757 0.000000
0.203658 0.106410 0.000000
0.219577 0.107876 0.000000
0.235407 0.109278 0.000000
0.250966 0.110493 0.000000
0.266310 0.111645 0.000000
0.281105 0.112641 0.000000
0.295964 0.113608 0.000000
0.310962 0.114512 0.000000
0.325798 0.115452 0.000000
0.340328 0.116459 0.000000
0.354578 0.117394 0.000000
0.368360 0.118209 0.000000
0.382089 0.119053 0.000000
0.395740 0.119938 0.000000
0.409169 0.120810 0.000000
0.422312 0.121664 0.000000
0.435337 0.122507 0.000000
0.448229 0.123337 0.000000
0.461026 0.124126 0.000000
0.473728 0.124874 0.000000
0.486316 0.125626 0.000000
0.498803 0.126384 0.000000
0.511258 0.127133 0.000000
0.523688 0.127876 0.000000
0.536017 0.128588 0.000000
0.548276 0.129281 0.000000
0.560662 0.129946 0.000000
0.573126 0.130596 0.000000
0.585400 0.131168 0.000000
0.597575 0.131700 0.000000
0.609417 0.132208 0.000000
0.621108 0.132704 0.000000
0.632718 0.133170 0.000000
0.644295 0.133625 0.000000
0.655592 0.134033 0.000000
0.666796 0.134425 0.000000
0.677900 0.134784 0.000000
0.688977 0.135134 0.000000
0.699648 0.135351 0.000000
0.710227 0.135537 0.000000
0.720367 0.135832 0.000000
0.730425 0.136147 0.000000
0.740627 0.136733 0.000000
0.750849 0.137358 0.000000
0.761007 0.137920 0.000000
0.771158 0.138475 0.000000
0.781289 0.138982 0.000000
0.791418 0.139487 0.000000
0.801483 0.139946 0.000000
0.811547 0.140404 0.000000
0.000399 0.081003 0.000000
0.009608 0.081711 0.000000
0.018887 0.082426 0.000000
0.030366 0.083365 0.000000
0.041817 0.084305 0.000000
0.052827 0.085266 0.000000
0.063913 0.086380 0.000000
0.075736 0.088982 0.000000
0.088705 0.092082 0.000000
0.109697 0.098667 0.000000
0.130557 0.104937 0.000000
0.150707 0.109504 0.000000
0.170105 0.113646 0.000000
0.186241 0.115945 0.000000
0.202402 0.118125 0.000000
0.218651 0.119883 0.000000
0.234906 0.121559 0.000000
0.251182 0.122988 0.000000
0.267068 0.124333 0.000000
0.281959 0.125460 0.000000
0.297057 0.126519 0.000000
0.312608 0.127426 0.000000
0.327788 0.128370 0.000000
0.342260 0.129382 0.000000
0.356528 0.130303 0.000000
0.370457 0.131073 0.000000
0.384262 0.131890 0.000000
0.397886 0.132778 0.000000
0.411329 0.133657 0.000000
0.424536 0.134526 0.000000
0.437669 0.135377 0.000000
0.450717 0.136208 0.000000
0.463658 0.137017 0.000000
0.476494 0.137804 0.000000
0.489183 0.138569 0.000000
0.501742 0.139315 0.000000
0.514218 0.140048 0.000000
0.526631 0.140771 0.000000
0.538894 0.141453 0.000000
0.551056 0.142107 0.000000
0.563618 0.142706 0.000000
0.576421 0.143271 0.000000
0.588566 0.143765 0.000000
0.600368 0.144222 0.000000
0.612111 0.144708 0.000000
0.623829 0.145208 0.000000
0.635381 0.145609 0.000000
0.646868 0.145971 0.000000
0.658125 0.146374 0.000000
0.669305 0.146790 0.000000
0.680412 0.147172 0.000000
0.691499 0.147544 0.000000
0.702176 0.147730 0.000000
0.712759 0.147872 0.000000
0.722959 0.148173 0.000000
0.733089 0.148503 0.000000
0.743269 0.149051 0.000000
0.753457 0.149630 0.000000
0.763593 0.150158 0.000000
0.773725 0.150682 0.000000
0.783790 0.151137 0.000000
0.793852 0.151587 0.000000
0.803949 0.152066 0.000000
0.814048 0.152545 0.000000
0.003593 0.088645 0.000000
0.012809 0.089187 0.000000
0.022063 0.089740 0.000000
0.032495 0.090624 0.000000
0.042927 0.091528 0.000000
0.053355 0.092732 0.000000
0.063782 0.093985 0.000000
0.074203 0.095706 0.000000
0.085484 0.097830 0.000000
0.102783 0.102777 0.000000
0.120624 0.107929 0.000000
0.141388 0.114189 0.000000
0.161889 0.120132 0.000000
0.181245 0.124698 0.000000
0.199955 0.128716 0.000000
0.216353 0.130773 0.000000
0.232844 0.132773 0.000000
0.249616 0.134605 0.000000
0.266092 0.136333 0.000000
0.281810 0.137799 0.000000
0.297601 0.139149 0.000000
0.313554 0.140246 0.000000
0.329065 0.141327 0.000000
0.343733 0.142378 0.000000
0.358151 0.143354 0.000000
0.372150 0.144202 0.000000
0.386046 0.145028 0.000000
0.399788 0.145821 0.000000
0.413356 0.146650 0.000000
0.426698 0.147527 0.000000
0.439942 0.148360 0.000000
0.453076 0.149144 0.000000
0.466128 0.149977 0.000000
0.479098 0.150858 0.000000
0.491862 0.151676 0.000000
0.504444 0.152438 0.000000
0.516913 0.153151 0.000000
0.529294 0.153826 0.000000
0.541737 0.154503 0.000000
0.554221 0.155181 0.000000
0.566742 0.155749 0.000000
0.579285 0.156252 0.000000
0.591367 0.156760 0.000000
0.603207 0.157272 0.000000
0.614958 0.157797 0.000000
0.626668 0.158328 0.000000
0.638133 0.158682 0.000000
0.649502 0.158965 0.000000
0.660752 0.159242 0.000000
0.671964 0.159516 0.000000
0.683103 0.159966 0.000000
0.694221 0.160464 0.000000
0.704975 0.160795 0.000000
0.715644 0.161087 0.000000
0.726011 0.161650 0.000000
0.736321 0.162264 0.000000
0.746331 0.162668 0.000000
0.756298 0.163042 0.000000
0.766372 0.163523 0.000000
0.776456 0.164014 0.000000
0.786526 0.164475 0.000000
0.796595 0.164933 0.000000
0.806754 0.165527 0.000000
0.816916 0.166125 0.000000
0.006977 0.096166 0.000000
0.016040 0.096609 0.000000
0.025115 0.097066 0.000000
0.034533 0.097938 0.000000
0.043976 0.098844 0.000000
0.053805 0.100268 0.000000
0.063582 0.101653 0.000000
0.072849 0.102662 0.000000
0.082711 0.103968 0.000000
0.096735 0.107357 0.000000
0.111796 0.111379 0.000000
0.132454 0.118818 0.000000
0.153373 0.126100 0.000000
0.175425 0.132702 0.000000
0.196387 0.138457 0.000000
0.213463 0.141185 0.000000
0.230593 0.143801 0.000000
0.247890 0.146079 0.000000
0.264954 0.148222 0.000000
0.281425 0.150019 0.000000
0.297885 0.151668 0.000000
0.314322 0.152992 0.000000
0.330226 0.154243 0.000000
0.345113 0.155356 0.000000
0.359707 0.156403 0.000000
0.373812 0.157342 0.000000
0.387810 0.158185 0.000000
0.401654 0.158891 0.000000
0.415336 0.159671 0.000000
0.428809 0.160547 0.000000
0.442177 0.161376 0.000000
0.455424 0.162151 0.000000
0.468593 0.163041 0.000000
0.481683 0.164048 0.000000
0.494523 0.164932 0.000000
0.507141 0.165707 0.000000
0.519612 0.166406 0.000000
0.531969 0.167046 0.000000
0.544586 0.167724 0.000000
0.557382 0.168426 0.000000
0.569870 0.168979 0.000000
0.582174 0.169444 0.000000
0.594197 0.169970 0.000000
0.606075 0.170530 0.000000
0.617832 0.171087 0.000000
0.629536 0.171642 0.000000
0.640928 0.171953 0.000000
0.652198 0.172167 0.000000
0.663452 0.172334 0.000000
0.674700 0.172486 0.000000
0.685878 0.172971 0.000000
0.697037 0.173549 0.000000
0.707854 0.173977 0.000000
0.718593 0.174370 0.000000
0.729089 0.175106 0.000000
0.739541 0.175906 0.000000
0.749418 0.176190 0.000000
0.759213 0.176401 0.000000
0.769226 0.176829 0.000000
0.779262 0.177280 0.000000
0.789329 0.177733 0.000000
0.799397 0.178187 0.000000
0.809589 0.178858 0.000000
0.819784 0.179537 0.000000
0.011395 0.103033 0.000000
0.019434 0.103736 0.000000
0.027491 0.104452 0.000000
0.036075 0.105544 0.000000
0.044693 0.106662 0.000000
0.053837 0.108172 0.000000
0.063010 0.109655 0.000000
0.072458 0.110869 0.000000
0.082351 0.112213 0.000000
0.095360 0.114477 0.000000
0.108939 0.117299 0.000000
0.125597 0.123140 0.000000
0.143240 0.129271 0.000000
0.165150 0.136660 0.000000
0.186773 0.143616 0.000000
0.207376 0.149021 0.000000
0.227321 0.153817 0.000000
0.245295 0.156789 0.000000
0.262945 0.159512 0.000000
0.279771 0.161600 0.000000
0.296765 0.163584 0.000000
0.314131 0.165341 0.000000
0.330761 0.166938 0.000000
0.345986 0.168233 0.000000
0.360901 0.169449 0.000000
0.375297 0.170537 0.000000
0.389472 0.171450 0.000000
0.403324 0.172109 0.000000
0.417062 0.172842 0.000000
0.430653 0.173670 0.000000
0.444205 0.174566 0.000000
0.457713 0.175538 0.000000
0.471035 0.176673 0.000000
0.484172 0.177971 0.000000
0.497088 0.178991 0.000000
0.509809 0.179766 0.000000
0.522334 0.180483 0.000000
0.534706 0.181155 0.000000
0.547475 0.181864 0.000000
0.560514 0.182598 0.000000
0.573015 0.183222 0.000000
0.585193 0.183781 0.000000
0.597189 0.184345 0.000000
0.609090 0.184912 0.000000
0.620855 0.185461 0.000000
0.632558 0.186001 0.000000
0.643956 0.186295 0.000000
0.655234 0.186494 0.000000
0.666537 0.186640 0.000000
0.677848 0.186767 0.000000
0.689108 0.187118 0.000000
0.700353 0.187531 0.000000
0.711168 0.187794 0.000000
0.721883 0.188021 0.000000
0.732316 0.188445 0.000000
0.742697 0.188907 0.000000
0.752641 0.189204 0.000000
0.762522 0.189478 0.000000
0.772494 0.189827 0.000000
0.782475 0.190183 0.000000
0.792493 0.190564 0.000000
0.802514 0.190947 0.000000
0.812582 0.191493 0.000000
0.822652 0.192045 0.000000
0.015583 0.110048 0.000000
0.022716 0.111014 0.000000
0.029866 0.111990 0.000000
0.037577 0.113260 0.000000
0.045335 0.114548 0.000000
0.053803 0.116128 0.000000
0.062378 0.117689 0.000000
0.071990 0.119067 0.000000
0.081940 0.120445 0.000000
0.094267 0.121820 0.000000
0.106714 0.123642 0.000000
0.119806 0.127877 0.000000
0.134415 0.132781 0.000000
0.155597 0.140586 0.000000
0.177261 0.148362 0.000000
0.200650 0.156033 0.000000
0.222931 0.162771 0.000000
0.241887 0.166705 0.000000
0.260407 0.170268 0.000000
0.277811 0.172884 0.000000
0.295430 0.175350 0.000000
0.313523 0.177488 0.000000
0.330798 0.179451 0.000000
0.346513 0.181078 0.000000
0.361879 0.182573 0.000000
0.376664 0.183845 0.000000
0.391085 0.184865 0.000000
0.404972 0.185514 0.000000
0.418777 0.186225 0.000000
0.432477 0.187014 0.000000
0.446190 0.187955 0.000000
0.459918 0.189069 0.000000
0.473388 0.190364 0.000000
0.486600 0.191841 0.000000
0.499612 0.192945 0.000000
0.512448 0.193720 0.000000
0.525101 0.194455 0.000000
0.537612 0.195159 0.000000
0.550505 0.195896 0.000000
0.563660 0.196655 0.000000
0.576152 0.197348 0.000000
0.588245 0.198001 0.000000
0.600232 0.198613 0.000000
0.612164 0.199203 0.000000
0.623942 0.199747 0.000000
0.635650 0.200272 0.000000
0.647062 0.200560 0.000000
0.658358 0.200757 0.000000
0.669697 0.200886 0.000000
0.681051 0.200993 0.000000
0.692360 0.201214 0.000000
0.703656 0.201466 0.000000
0.714485 0.201585 0.000000
0.725206 0.201674 0.000000
0.735598 0.201818 0.000000
0.745929 0.201973 0.000000
0.755927 0.202268 0.000000
0.765877 0.202584 0.000000
0.775821 0.202874 0.000000
0.785765 0.203163 0.000000
0.795743 0.203490 0.000000
0.805724 0.203819 0.000000
0.815668 0.204231 0.000000
0.825610 0.204645 0.000000
0.018776 0.117705 0.000000
0.025507 0.118947 0.000000
0.032236 0.120189 0.000000
0.038908 0.121451 0.000000
0.045652 0.122732 0.000000
0.053482 0.124304 0.000000
0.061487 0.125857 0.000000
0.071185 0.127227 0.000000
0.081307 0.128616 0.000000
0.094398 0.130133 0.000000
0.107226 0.131818 0.000000
0.118633 0.134415 0.000000
0.131261 0.137764 0.000000
0.149175 0.144373 0.000000
0.168193 0.151321 0.000000
0.191157 0.159480 0.000000
0.213696 0.167117 0.000000
0.234959 0.173185 0.000000
0.255573 0.178718 0.000000
0.274528 0.182885 0.000000
0.293167 0.186467 0.000000
0.311110 0.188763 0.000000
0.328679 0.191170 0.000000
0.345536 0.193789 0.000000
0.361919 0.196031 0.000000
0.377516 0.197642 0.000000
0.392481 0.198926 0.000000
0.406526 0.199733 0.000000
0.420448 0.200529 0.000000
0.434210 0.201310 0.000000
0.447983 0.202203 0.000000
0.461766 0.203222 0.000000
0.475358 0.204317 0.000000
0.488759 0.205487 0.000000
0.501951 0.206447 0.000000
0.514961 0.207222 0.000000
0.528066 0.207974 0.000000
0.541246 0.208709 0.000000
0.554149 0.209459 0.000000
0.566864 0.210219 0.000000
0.579249 0.210971 0.000000
0.591436 0.211718 0.000000
0.603498 0.212419 0.000000
0.615493 0.213096 0.000000
0.627306 0.213657 0.000000
0.639038 0.214165 0.000000
0.650502 0.214489 0.000000
0.661861 0.214740 0.000000
0.673180 0.214878 0.000000
0.684487 0.214977 0.000000
0.695705 0.215085 0.000000
0.706899 0.215196 0.000000
0.717818 0.215269 0.000000
0.728672 0.215334 0.000000
