Plugins/FilmEmulator/Content/LUTs/FE_Kodak_5222_Dev4_64.cube
TITLE "FE_Kodak_5222_Dev4_33"
LUT_3D_SIZE 4
0.0113163 0.0113163 0.0113163
0.0457277 0.0457277 0.0457277
0.0851415 0.0851415 0.0851415
0.1249310 0.1249310 0.1249310
0.0851415 0.0851415 0.0851415
0.1249310 0.1249310 0.1249310
0.1618230 0.1618230 0.1618230
0.1953284 0.1953284 0.1953284
0.1618230 0.1618230 0.1618230
0.1953284 0.1953284 0.1953284
0.2252519 0.2252519 0.2252519
0.2539225 0.2539225 0.2539225
0.2252519 0.2252519 0.2252519
0.2539225 0.2539225 0.2539225
0.2804016 0.2804016 0.2804016
0.3077760 0.3077760 0.3077760
0.1714494 0.1714494 0.1714494
0.2025971 0.2025971 0.2025971
0.2331913 0.2331913 0.2331913
0.2625628 0.2625628 0.2625628
0.2331913 0.2331913 0.2331913
0.2625628 0.2625628 0.2625628
0.2895395 0.2895395 0.2895395
0.3124337 0.3124337 0.3124337
0.2895395 0.2895395 0.2895395
0.3124337 0.3124337 0.3124337
0.3362811 0.3362811 0.3362811
0.3554944 0.3554944 0.3554944
0.3362811 0.3362811 0.3362811
0.3554944 0.3554944 0.3554944
0.3751850 0.3751850 0.3751850
0.3901623 0.3901623 0.3901623
0.2940385 0.2940385 0.2940385
0.3171294 0.3171294 0.3171294
0.3410369 0.3410369 0.3410369
0.3603744 0.3603744 0.3603744
0.3410369 0.3410369 0.3410369
0.3603744 0.3603744 0.3603744
0.3801758 0.3801758 0.3801758
0.3951198 0.3951198 0.3951198
0.3801758 0.3801758 0.3801758
0.3951198 0.3951198 0.3951198
0.4151575 0.4151575 0.4151575
0.4303759 0.4303759 0.4303759
0.4151575 0.4151575 0.4151575
0.4303759 0.4303759 0.4303759
0.4404977 0.4404977 0.4404977
0.4550207 0.4550207 0.4550207
0.3851920 0.3851920 0.3851920
0.4000992 0.4000992 0.4000992
0.4151575 0.4151575 0.4151575
0.4303759 0.4303759 0.4303759
0.4151575 0.4151575 0.4151575
0.4303759 0.4303759 0.4303759
0.4453286 0.4453286 0.4453286
0.4598800 0.4598800 0.4598800
0.4453286 0.4453286 0.4453286
0.4598800 0.4598800 0.4598800
0.4696206 0.4696206 0.4696206
0.4842726 0.4842726 0.4842726
0.4696206 0.4696206 0.4696206
0.4842726 0.4842726 0.4842726
0.4940963 0.4940963 0.4940963
0.5039634 0.5039634 0.5039634
