Plugins/FilmEmulator/Content/LUTs/FE_Kodak_5219_64.cube
TITLE "FE_Kodak_5219_33"
LUT_3D_SIZE 64
0.0020791 0.0013526 0.0018791
0.0050859 0.0013500 0.0018695
0.0107408 0.0013726 0.0019646
0.0184802 0.0014918 0.0021306
0.0270061 0.0016816 0.0023191
0.0367125 0.0019108 0.0025004
0.0466268 0.0021267 0.0027245
0.0571348 0.0023395 0.0029265
0.0675729 0.0025517 0.0031411
0.0797393 0.0027930 0.0033298
0.0908500 0.0030118 0.0036190
0.1000516 0.0032560 0.0038244
0.1136828 0.0034539 0.0041103
0.1248915 0.0037016 0.0044134
0.1370324 0.0040006 0.0047496
0.1456086 0.0043222 0.0049920
0.1594030 0.0046831 0.0053911
0.1691497 0.0050087 0.0057820
0.1847802 0.0053589 0.0064151
0.1957494 0.0057313 0.0068800
0.2072085 0.0061294 0.0073784
0.2191703 0.0065549 0.0079147
0.2251919 0.0070534 0.0082089
0.2378783 0.0075927 0.0088092
0.2512118 0.0078805 0.0094421
0.2578440 0.0084793 0.0097926
0.2717698 0.0091268 0.0105079
0.2789136 0.0094687 0.0108848
0.2937175 0.0098304 0.0116826
0.3010449 0.0105867 0.0121266
0.3165334 0.0109902 0.0125682
0.3243627 0.0114094 0.0134965
0.3321154 0.0122862 0.0140087
0.3401468 0.0127517 0.0145227
0.3482814 0.0132347 0.0150553
0.3650122 0.0137378 0.0156023
0.3734257 0.0142623 0.0167425
0.3819162 0.0148066 0.0173484
0.3904848 0.0153715 0.0179759
0.3991273 0.0159577 0.0186258
0.4078386 0.0165660 0.0192988
0.4166139 0.0171971 0.0199958
0.4254481 0.0178519 0.0207175
0.4343541 0.0185313 0.0214648
0.4433034 0.0192321 0.0214836
0.4431079 0.0199606 0.0222653
0.4521036 0.0207189 0.0230674
0.4611352 0.0215121 0.0238913
0.4704021 0.0215194 0.0247142
0.4794909 0.0223426 0.0255957
0.4885934 0.0231918 0.0256183
0.4883930 0.0240746 0.0265399
0.4975134 0.0249936 0.0274851
0.5068467 0.0250020 0.0284289
0.5159704 0.0259502 0.0284539
0.5157696 0.0269359 0.0294751
0.5251252 0.0269448 0.0304856
0.5342768 0.0279709 0.0315676
0.5340719 0.0290257 0.0316055
0.5432063 0.0301290 0.0327262
0.5525208 0.0301389 0.0338423
0.5523168 0.0312742 0.0338829
0.5616008 0.0312844 0.0350359
0.5706396 0.0324660 0.0350665
0.0020700 0.0040233 0.0019569
0.0053118 0.0043569 0.0020531
0.0111783 0.0046094 0.0022203
0.0186640 0.0051039 0.0024123
0.0272995 0.0054644 0.0026192
0.0359011 0.0058482 0.0028221
0.0456397 0.0062582 0.0030276
0.0559625 0.0067183 0.0032469
0.0662150 0.0072351 0.0034895
0.0782343 0.0075120 0.0037331
0.0891533 0.0080878 0.0039431
0.1014515 0.0087084 0.0042400
0.1116590 0.0090392 0.0045479
0.1227649 0.0093827 0.0048879
0.1347327 0.0101075 0.0051352
0.1477817 0.0104967 0.0055381
0.1569163 0.0113087 0.0059412
0.1717168 0.0117457 0.0065853
0.1821616 0.0121953 0.0070557
0.1931067 0.0126619 0.0075596
0.2045492 0.0131462 0.0081012
0.2163651 0.0141595 0.0083999
0.2288245 0.0147053 0.0090038
0.2351780 0.0152699 0.0096538
0.2483991 0.0158547 0.0099974
0.2621303 0.0164650 0.0107151
0.2691050 0.0170927 0.0110997
0.2835777 0.0177501 0.0119133
0.2909123 0.0184261 0.0123513
0.2985349 0.0184364 0.0132480
0.3139472 0.0191406 0.0137301
0.3217352 0.0198687 0.0142342
0.3296287 0.0206241 0.0147565
0.3376258 0.0214141 0.0152980
0.3541102 0.0222414 0.0164182
0.3624012 0.0230921 0.0170127
0.3709707 0.0230998 0.0176070
0.3794360 0.0239828 0.0182439
0.3879808 0.0248987 0.0189036
0.3966005 0.0258489 0.0195867
0.4054877 0.0258575 0.0202695
0.4142445 0.0268435 0.0210011
0.4230619 0.0278663 0.0217587
0.4321483 0.0278696 0.0217517
0.4410895 0.0289306 0.0225359
0.4408925 0.0300273 0.0233553
0.4500795 0.0300370 0.0241601
0.4591032 0.0311791 0.0250223
0.4681588 0.0323640 0.0259146
0.4774418 0.0323677 0.0259062
0.4865453 0.0335965 0.0268294
0.4863444 0.0348665 0.0277937
0.4956679 0.0348777 0.0287478
0.5047897 0.0361913 0.0287732
0.5141242 0.0362029 0.0297602
0.5139233 0.0375684 0.0308271
0.5232804 0.0375804 0.0318827
0.5324299 0.0389925 0.0319107
0.5324345 0.0390005 0.0330130
0.5415724 0.0404725 0.0341796
0.5506827 0.0419894 0.0342095
0.5506876 0.0419980 0.0353847
0.5597692 0.0435699 0.0354157
0.5690233 0.0435836 0.0366192
0.0021925 0.0099329 0.0021555
0.0056244 0.0107260 0.0023110
0.0113388 0.0111559 0.0025066
0.0190060 0.0115970 0.0026932
0.0278111 0.0120514 0.0028962
0.0365719 0.0129903 0.0031068
0.0465179 0.0134936 0.0033272
0.0570688 0.0140166 0.0035703
0.0675588 0.0145612 0.0038196
0.0771828 0.0151255 0.0041024
0.0880274 0.0157098 0.0043281
0.1002528 0.0163180 0.0046410
0.1103511 0.0169479 0.0049881
0.1213407 0.0176018 0.0053611
0.1332778 0.0182784 0.0056449
0.1462060 0.0189825 0.0060465
0.1553635 0.0197152 0.0067043
0.1700408 0.0204739 0.0071809
0.1805203 0.0204870 0.0076844
0.1913856 0.0212789 0.0082351
0.2027445 0.0220962 0.0085286
0.2146164 0.0229491 0.0091417
0.2270008 0.0238344 0.0097986
0.2334574 0.0238421 0.0101383
0.2466129 0.0247611 0.0108662
0.2602724 0.0257094 0.0112527
0.2672168 0.0266959 0.0120814
0.2817831 0.0267077 0.0125064
0.2890914 0.0277317 0.0134305
0.2965121 0.0287880 0.0139238
0.3120365 0.0288007 0.0144129
0.3197962 0.0298966 0.0149419
0.3276625 0.0310340 0.0154901
0.3358200 0.0310506 0.0166094
0.3522557 0.0322348 0.0172052
0.3605261 0.0334590 0.0178278
0.3690757 0.0334698 0.0184502
0.3775222 0.0347396 0.0191172
0.3862428 0.0347508 0.0197839
0.3948475 0.0360676 0.0204984
0.4037206 0.0360792 0.0212124
0.4124646 0.0374447 0.0219776
0.4212650 0.0388523 0.0219971
0.4303452 0.0388647 0.0227624
0.4392766 0.0403321 0.0235824
0.4484559 0.0403448 0.0243949
0.4482578 0.0418616 0.0252734
0.4574777 0.0418747 0.0261430
0.4665233 0.0434426 0.0261661
0.4758068 0.0434562 0.0270656
0.4849065 0.0450916 0.0280292
0.4849114 0.0451009 0.0290006
0.4940219 0.0467891 0.0290263
0.5033532 0.0468037 0.0300217
0.5124815 0.0485629 0.0310879
0.5124863 0.0485728 0.0321626
0.5216334 0.0503854 0.0321909
0.5309952 0.0504010 0.0332919
0.5307941 0.0522838 0.0344793
0.5401354 0.0522893 0.0344681
0.5494591 0.0523053 0.0356404
0.5492541 0.0542449 0.0356833
0.5585490 0.0542614 0.0368957
0.5676049 0.0562872 0.0381936
0.0023558 0.0179809 0.0024006
0.0059972 0.0187123 0.0025649
0.0119579 0.0194618 0.0027513
0.0194571 0.0202308 0.0029557
0.0274993 0.0210281 0.0031648
0.0374936 0.0210545 0.0033829
0.0460717 0.0218762 0.0036301
0.0565258 0.0227291 0.0038823
0.0669217 0.0236131 0.0041684
0.0790403 0.0245282 0.0043963
0.0901889 0.0245482 0.0047083
0.0994049 0.0254966 0.0050604
0.1129858 0.0264836 0.0054371
0.1242034 0.0275018 0.0057250
0.1364798 0.0275273 0.0063381
0.1451229 0.0285848 0.0067911
0.1589961 0.0296850 0.0072740
0.1689205 0.0297033 0.0077839
0.1792267 0.0308432 0.0083418
0.1901541 0.0308624 0.0089307
0.2014562 0.0320396 0.0092487
0.2132711 0.0332672 0.0099133
0.2257390 0.0332880 0.0106123
0.2385814 0.0345549 0.0109898
0.2451248 0.0358724 0.0117890
0.2588830 0.0358875 0.0122038
0.2657990 0.0372466 0.0126525
0.2803195 0.0372702 0.0135664
0.2875999 0.0386799 0.0140647
0.3028465 0.0386963 0.0145587
0.3104749 0.0401580 0.0150930
0.3183890 0.0401707 0.0156277
0.3262404 0.0416949 0.0167772
0.3426145 0.0417124 0.0173578
0.3507752 0.0432837 0.0179859
0.3592166 0.0432972 0.0186137
0.3675623 0.0449274 0.0192866
0.3761853 0.0449414 0.0199591
0.3846996 0.0466339 0.0206798
0.3934858 0.0466484 0.0214001
0.4021507 0.0484025 0.0221720
0.4110809 0.0484175 0.0229433
0.4198718 0.0502249 0.0229638
0.4289431 0.0502404 0.0237621
0.4378663 0.0521233 0.0246105
0.4470386 0.0521393 0.0254576
0.4468403 0.0540844 0.0263737
0.4560542 0.0541010 0.0272803
0.4652991 0.0541065 0.0272715
0.4743736 0.0561271 0.0282423
0.4836760 0.0561442 0.0292115
0.4834750 0.0582311 0.0302594
0.4927897 0.0582370 0.0302496
0.5019138 0.0604034 0.0313237
0.5112482 0.0604218 0.0323958
0.5112482 0.0604218 0.0323958
0.5204008 0.0626650 0.0335440
0.5297644 0.0626839 0.0346871
0.5295583 0.0649866 0.0347289
0.5389071 0.0650061 0.0359098
0.5482339 0.0650256 0.0371297
0.5480281 0.0674181 0.0371744
0.5573273 0.0674382 0.0384358
0.5665869 0.0674449 0.0384233
0.0026093 0.0270921 0.0026643
0.0064220 0.0281923 0.0028561
0.0122685 0.0293165 0.0030408
0.0199927 0.0293631 0.0032095
0.0282499 0.0305145 0.0034831
0.0371847 0.0316998 0.0036823
0.0473255 0.0317330 0.0039319
0.0580522 0.0329618 0.0042203
0.0687109 0.0342300 0.0044509
0.0785265 0.0342572 0.0047668
0.0895443 0.0355744 0.0051216
0.1020233 0.0356032 0.0054961
0.1122738 0.0369627 0.0057870
0.1235185 0.0369961 0.0064068
0.1356408 0.0384110 0.0068625
0.1442386 0.0398743 0.0073527
0.1581477 0.0399023 0.0078656
0.1679168 0.0414205 0.0084293
0.1782909 0.0414457 0.0090243
0.1890474 0.0430118 0.0093457
0.2004305 0.0430379 0.0100050
0.2121997 0.0446724 0.0107234
0.2246182 0.0446904 0.0110913
0.2374180 0.0463883 0.0118941
0.2440843 0.0464027 0.0123165
0.2576478 0.0481532 0.0127653
0.2718771 0.0481830 0.0136872
0.2791807 0.0481979 0.0141726
0.2864423 0.0500081 0.0146930
0.3016520 0.0500286 0.0152088
0.3092663 0.0519153 0.0163302
0.3171630 0.0519313 0.0169057
0.3331064 0.0538804 0.0175121
0.3413345 0.0538968 0.0181236
0.3494795 0.0559104 0.0187791
0.3579062 0.0559275 0.0194342
0.3664274 0.0559446 0.0201118
0.3748471 0.0580307 0.0208379
0.3835423 0.0580484 0.0215637
0.3921231 0.0602087 0.0223413
0.4009735 0.0602270 0.0231184
0.4098902 0.0602329 0.0231110
0.4186776 0.0624700 0.0239434
0.4277415 0.0624888 0.0247681
0.4366579 0.0648046 0.0256516
0.4458242 0.0648242 0.0265338
0.4550339 0.0648436 0.0274457
0.4548292 0.0672301 0.0274791
0.4640743 0.0672502 0.0284227
0.4731447 0.0697404 0.0294336
0.4824443 0.0697613 0.0304427
0.4917574 0.0697680 0.0304329
0.4915553 0.0723384 0.0315236
0.5008847 0.0723598 0.0326025
0.5102141 0.0723668 0.0325919
0.5100117 0.0750262 0.0337579
0.5193713 0.0750484 0.0349082
0.5287312 0.0750557 0.0348968
0.5378752 0.0778142 0.0361268
0.5378799 0.0778297 0.0373659
0.5472049 0.0778371 0.0373538
0.5563017 0.0806902 0.0386676
0.5563017 0.0806902 0.0386676
0.5655702 0.0807138 0.0399779
0.0029066 0.0378292 0.0029343
0.0067599 0.0393456 0.0031247
0.0130765 0.0394238 0.0032955
0.0205585 0.0409639 0.0035281
0.0290641 0.0410137 0.0037228
0.0382620 0.0425948 0.0039788
0.0486844 0.0426397 0.0042638
0.0577097 0.0442675 0.0044968
0.0683603 0.0443060 0.0048143
0.0780724 0.0459987 0.0051726
0.0890960 0.0460352 0.0055507
0.1014450 0.0477856 0.0058427
0.1117254 0.0478279 0.0064684
0.1228339 0.0496440 0.0069284
0.1349913 0.0496780 0.0074119
0.1480512 0.0515613 0.0079386
0.1574078 0.0515919 0.0084971
0.1672508 0.0516226 0.0090968
0.1828265 0.0535656 0.0094178
0.1939213 0.0535975 0.0100821
0.2053982 0.0556172 0.0108061
0.2113952 0.0556338 0.0111803
0.2236422 0.0577264 0.0119895
0.2365445 0.0577495 0.0124113
0.2499693 0.0577726 0.0128477
0.2567270 0.0599360 0.0137969
0.2709187 0.0599599 0.0142816
0.2780432 0.0621879 0.0148059
0.2854514 0.0622068 0.0153305
0.3006335 0.0622444 0.0164354
0.3082287 0.0645522 0.0170354
0.3161102 0.0645716 0.0176305
0.3320244 0.0669756 0.0182626
0.3402387 0.0669957 0.0189000
0.3485560 0.0670158 0.0195592
0.3567838 0.0694983 0.0202659
0.3652928 0.0695191 0.0209720
0.3738924 0.0695399 0.0217023
0.3823843 0.0721097 0.0224850
0.3911497 0.0721312 0.0232670
0.3999875 0.0721382 0.0232595
0.4087023 0.0747974 0.0240972
0.4176811 0.0748195 0.0249271
0.4265368 0.0775704 0.0258163
0.4356487 0.0775932 0.0267041
0.4448099 0.0776161 0.0276217
0.4538056 0.0804461 0.0276463
0.4538103 0.0804620 0.0286048
0.4630518 0.0804857 0.0295862
0.4723251 0.0805093 0.0306004
0.4814115 0.0834366 0.0306276
0.4907278 0.0834609 0.0316765
0.4907328 0.0834775 0.0327710
0.4998492 0.0865038 0.0328001
0.5091831 0.0865290 0.0339213
0.5185432 0.0865542 0.0350770
0.5183362 0.0896743 0.0351193
0.5277022 0.0897003 0.0363131
0.5370544 0.0897262 0.0375463
0.5368481 0.0929504 0.0375915
0.5461803 0.0929773 0.0388666
0.5554810 0.0929859 0.0388540
0.5554858 0.0930041 0.0401834
0.5645528 0.0963634 0.0415933
0.0032033 0.0489525 0.0032079
0.0073366 0.0508960 0.0033904
0.0134691 0.0509930 0.0036199
0.0211721 0.0529649 0.0038205
0.0299238 0.0530274 0.0040177
0.0394286 0.0530868 0.0043041
0.0484306 0.0551024 0.0045378
0.0594415 0.0551544 0.0048564
0.0680105 0.0572408 0.0052179
0.0803532 0.0572905 0.0055974
0.0916042 0.0594463 0.0058918
0.1010156 0.0594981 0.0065227
0.1112554 0.0595381 0.0069779
0.1223228 0.0617745 0.0074740
0.1344366 0.0618161 0.0079953
0.1474511 0.0641334 0.0085655
0.1567760 0.0641709 0.0091700
0.1716724 0.0642015 0.0094819
0.1821121 0.0666057 0.0101632
0.1931732 0.0666447 0.0108796
0.2047439 0.0666704 0.0112527
0.2167027 0.0691615 0.0120672
0.2229445 0.0691821 0.0124957
0.2356718 0.0717468 0.0129510
0.2490656 0.0717895 0.0138862
0.2559569 0.0718108 0.0143786
0.2699604 0.0744663 0.0149017
0.2772309 0.0744884 0.0154297
0.2921431 0.0745327 0.0165416
0.2996097 0.0772744 0.0171455
0.3073630 0.0772971 0.0177445
0.3232094 0.0773271 0.0183581
0.3311220 0.0801637 0.0190220
0.3393247 0.0801872 0.0196854
0.3476308 0.0802108 0.0203716
0.3558481 0.0831450 0.0211071
0.3643467 0.0831694 0.0218421
0.3729367 0.0831938 0.0226022
0.3814194 0.0862281 0.0234167
0.3901761 0.0862534 0.0242304
0.3990056 0.0862614 0.0242226
0.4079115 0.0862865 0.0250568
0.4166845 0.0894240 0.0259505
0.4257355 0.0894499 0.0268428
0.4348427 0.0894758 0.0277652
0.4437914 0.0927007 0.0277899
0.4529919 0.0927275 0.0287439
0.4622304 0.0927542 0.0297300
0.4620298 0.0960969 0.0307962
0.4712951 0.0961058 0.0307862
0.4805904 0.0961334 0.0318405
0.4899051 0.0961610 0.0329298
0.4896983 0.0995953 0.0329697
0.4990257 0.0996239 0.0340966
0.5083595 0.0996524 0.0352581
0.5175079 0.1032084 0.0352892
0.5175129 0.1032283 0.0365004
0.5268796 0.1032577 0.0377397
0.5362287 0.1032671 0.0377275
0.5360270 0.1069496 0.0390666
0.5453565 0.1069592 0.0390540
0.5546644 0.1069896 0.0403770
0.5546691 0.1070102 0.0417567
0.5637348 0.1108004 0.0417933
0.0034918 0.0609420 0.0034850
0.0077402 0.0633281 0.0036661
0.0143772 0.0634439 0.0038583
0.0218372 0.0635351 0.0041278
0.0308316 0.0659545 0.0043462
0.0392513 0.0660232 0.0046765
0.0498950 0.0685220 0.0050195
0.0591786 0.0685709 0.0052572
0.0700832 0.0686297 0.0056395
0.0800049 0.0712081 0.0061428
0.0912779 0.0712613 0.0065695
0.1039609 0.0713148 0.0070257
0.1143848 0.0739736 0.0075252
0.1258123 0.0740225 0.0080500
0.1382206 0.0740716 0.0086134
0.1469515 0.0768195 0.0092327
0.1610779 0.0768706 0.0098808
0.1711056 0.0768997 0.0102200
0.1815178 0.0797447 0.0109538
0.1925474 0.0797748 0.0113295
0.2040926 0.0798211 0.0121345
0.2160195 0.0827500 0.0125768
0.2286053 0.0827984 0.0134853
0.2350949 0.0828227 0.0139636
0.2483103 0.0858529 0.0144718
0.2551876 0.0858780 0.0149847
0.2693269 0.0859283 0.0160650
0.2764235 0.0890545 0.0166540
0.2913048 0.0890885 0.0172353
0.2989295 0.0891143 0.0178373
0.3064988 0.0923460 0.0184826
0.3223201 0.0923810 0.0191214
0.3304020 0.0924077 0.0197883
0.3385954 0.0924345 0.0204780
0.3467069 0.0957759 0.0212173
0.3551013 0.0958035 0.0219560
0.3635917 0.0958311 0.0227200
0.3719818 0.0992837 0.0235387
0.3806491 0.0993123 0.0243566
0.3893940 0.0993212 0.0243487
0.3982216 0.0993496 0.0251871
0.4069228 0.1029162 0.0260855
0.4158888 0.1029455 0.0269823
0.4249347 0.1029748 0.0279093
0.4340323 0.1029841 0.0279003
0.4429813 0.1066676 0.0288931
0.4521783 0.1066977 0.0298841
0.4614137 0.1067280 0.0309082
0.4612084 0.1104997 0.0309457
0.4704760 0.1105309 0.0320053
0.4797693 0.1105621 0.0331001
0.4890778 0.1105720 0.0330894
0.4981975 0.1144962 0.0342617
0.4982024 0.1145182 0.0354401
0.5075310 0.1145284 0.0354286
0.5168915 0.1145605 0.0366326
0.5166891 0.1185991 0.0379342
0.5260521 0.1186096 0.0379219
0.5354074 0.1186427 0.0392078
0.5354074 0.1186427 0.0392078
0.5445372 0.1228184 0.0405846
0.5538478 0.1228524 0.0419576
0.5538478 0.1228524 0.0419576
0.5631258 0.1228866 0.0433754
0.0037606 0.0757159 0.0037677
0.0081720 0.0758817 0.0039737
0.0148311 0.0760209 0.0042440
0.0225052 0.0788944 0.0044655
0.0307151 0.0789802 0.0047165
0.0404770 0.0790664 0.0050546
0.0497468 0.0791396 0.0054204
0.0609966 0.0820794 0.0056820
0.0698276 0.0821480 0.0061814
0.0824569 0.0822156 0.0066086
0.0909507 0.0852486 0.0070785
0.1035928 0.0853114 0.0075699
0.1140647 0.0853669 0.0080978
0.1253764 0.0885068 0.0086752
0.1377478 0.0885647 0.0092844
0.1465537 0.0886149 0.0099393
0.1605374 0.0918460 0.0102898
0.1705403 0.0918981 0.0110150
0.1810417 0.0919322 0.0113928
0.1920516 0.0919847 0.0122022
0.2034397 0.0953202 0.0126469
0.2154781 0.0953751 0.0135605
0.2280373 0.0954110 0.0140369
0.2343697 0.0988504 0.0145524
0.2477081 0.0988875 0.0150633
0.2615685 0.0989445 0.0161492
0.2686906 0.0989730 0.0167208
0.2757765 0.1025280 0.0173311
0.2906359 0.1025662 0.0179306
0.2982500 0.1025955 0.0185566
0.3058090 0.1062669 0.0192276
0.3216103 0.1063065 0.0198917
0.3296826 0.1063366 0.0205850
0.3378666 0.1063669 0.0213020
0.3459694 0.1101587 0.0220705
0.3543552 0.1101899 0.0228384
0.3628373 0.1102212 0.0236325
0.3800683 0.1102621 0.0244457
0.3886126 0.1141549 0.0244676
0.3974335 0.1141869 0.0253100
0.3974381 0.1142090 0.0261892
0.4063317 0.1142410 0.0270896
0.4150934 0.1182804 0.0280543
0.4241292 0.1182908 0.0280452
0.4332267 0.1183238 0.0290078
0.4423754 0.1183569 0.0300026
0.4513651 0.1225241 0.0310683
0.4605925 0.1225347 0.0310583
0.4698581 0.1225689 0.0321217
0.4698630 0.1225923 0.0332311
0.4789433 0.1268653 0.0332606
0.4882551 0.1269004 0.0343971
0.4975810 0.1269355 0.0355686
0.4975810 0.1269355 0.0355686
0.5067072 0.1313646 0.0368216
0.5160679 0.1314006 0.0380714
0.5160679 0.1314006 0.0380714
0.5254363 0.1314369 0.0393623
0.5347878 0.1314482 0.0393495
0.5345864 0.1359958 0.0407442
0.5439240 0.1360331 0.0421224
0.5532316 0.1360448 0.0421088
0.5532365 0.1360703 0.0435456
0.5623081 0.1407301 0.0435835
0.0040831 0.0873800 0.0040925
0.0086629 0.0875608 0.0042871
0.0152988 0.0908651 0.0045042
0.0232287 0.0909850 0.0047526
0.0316944 0.0910900 0.0050916
0.0403252 0.0944545 0.0054650
0.0512875 0.0945357 0.0057198
0.0608176 0.0946216 0.0062204
0.0719886 0.0946984 0.0066501
0.0821588 0.0981579 0.0071206
0.0937086 0.0982291 0.0076148
0.1032998 0.0982920 0.0081458
0.1136648 0.1018616 0.0087267
0.1250294 0.1019271 0.0093394
0.1373713 0.1019927 0.0099950
0.1507206 0.1020386 0.0103346
0.1601091 0.1057215 0.0110766
0.1700875 0.1057600 0.0114565
0.1805693 0.1058194 0.0122704
0.1915537 0.1058585 0.0127019
0.2029224 0.1096657 0.0136361
0.2149345 0.1097062 0.0141151
0.2274704 0.1097468 0.0146108
0.2403822 0.1136559 0.0151423
0.2471105 0.1137104 0.0162391
0.2609444 0.1137524 0.0168084
0.2680553 0.1137844 0.0174005
0.2824855 0.1178202 0.0180245
0.2899679 0.1178531 0.0186537
0.2975712 0.1178861 0.0193045
0.3131276 0.1179293 0.0199712
0.3209015 0.1220837 0.0206925
0.3289640 0.1221178 0.0214132
0.3371387 0.1221519 0.0221586
0.3454179 0.1221859 0.0229295
0.3537971 0.1222200 0.0237267
0.3706450 0.1265170 0.0245730
0.3792944 0.1265279 0.0245651
0.3880315 0.1265629 0.0254108
0.3968474 0.1265979 0.0262849
0.4055378 0.1310171 0.0272216
0.4144937 0.1310531 0.0281566
0.4144937 0.1310531 0.0281566
0.4235302 0.1310891 0.0291230
0.4324221 0.1356382 0.0301582
0.4415665 0.1356754 0.0311915
0.4507522 0.1356869 0.0311814
0.4599819 0.1357241 0.0322488
0.4692455 0.1357613 0.0333518
0.4690402 0.1404004 0.0333920
0.4783297 0.1404386 0.0345329
0.4876405 0.1404768 0.0357088
0.4969608 0.1404887 0.0356973
0.4967594 0.1452919 0.0369665
0.5060922 0.1453311 0.0382212
0.5154483 0.1453435 0.0382088
0.5248173 0.1453827 0.0395041
0.5248173 0.1453827 0.0395041
0.5339685 0.1503397 0.0408908
0.5433077 0.1503802 0.0422738
0.5433077 0.1503802 0.0422738
0.5526221 0.1504205 0.0437018
0.5526221 0.1504205 0.0437018
0.5617008 0.1555209 0.0452301
0.0043928 0.1006665 0.0044146
0.0092062 0.1044569 0.0046307
0.0157935 0.1046252 0.0049102
0.0239755 0.1047697 0.0052550
0.0327039 0.1048748 0.0054964
0.0416148 0.1086955 0.0058993
0.0511357 0.1087869 0.0062617
0.0606385 0.1088738 0.0066942
0.0717787 0.1089608 0.0071566
0.0819216 0.1128842 0.0076627
0.0934410 0.1129648 0.0081943
0.1030075 0.1130362 0.0087677
0.1171015 0.1131173 0.0093802
0.1286755 0.1171638 0.0100510
0.1369935 0.1172057 0.0103959
0.1503142 0.1172799 0.0111249
0.1597871 0.1173220 0.0115064
0.1696384 0.1214912 0.0123390
0.1855127 0.1215455 0.0127687
0.1967302 0.1216133 0.0136909
0.2025334 0.1216473 0.0141765
0.2143917 0.1259270 0.0146923
0.2269045 0.1259727 0.0152080
0.2399449 0.1260428 0.0163042
0.2466610 0.1260780 0.0168812
0.2603214 0.1304930 0.0174917
0.2674210 0.1305290 0.0181025
0.2819942 0.1305759 0.0187283
0.2894685 0.1306119 0.0193817
0.2970639 0.1306479 0.0200576
0.3124296 0.1351956 0.0207752
0.3203716 0.1352326 0.0214987
0.3284271 0.1352698 0.0222471
0.3365947 0.1353070 0.0230210
0.3446826 0.1399714 0.0238502
0.3615162 0.1400213 0.0246708
0.3700716 0.1400332 0.0246628
0.3787200 0.1400713 0.0255118
0.3874517 0.1401094 0.0263894
0.3960664 0.1449142 0.0273296
0.4049490 0.1449534 0.0282682
0.4138958 0.1449655 0.0282591
0.4229283 0.1450048 0.0292289
0.4229330 0.1450318 0.0302409
0.4318218 0.1499790 0.0313147
0.4409581 0.1499915 0.0313046
0.4501457 0.1500319 0.0323762
0.4593731 0.1500723 0.0334834
0.4684247 0.1551345 0.0335129
0.4684294 0.1551631 0.0346690
0.4777174 0.1552046 0.0358494
0.4870221 0.1552175 0.0358379
0.4963466 0.1552590 0.0370554
0.4961449 0.1604826 0.0383714
0.5054727 0.1604957 0.0383590
0.5148337 0.1605384 0.0396593
0.5241984 0.1605518 0.0396464
0.5242033 0.1605810 0.0410020
0.5335614 0.1606237 0.0423887
0.5426912 0.1659790 0.0424257
0.5426961 0.1660092 0.0438729
0.5520074 0.1660227 0.0438587
0.5520124 0.1660529 0.0453528
0.5612926 0.1660665 0.0453381
0.0047259 0.1157499 0.0047620
0.0097987 0.1159874 0.0050711
0.0168954 0.1161634 0.0052923
0.0247442 0.1203842 0.0056727
0.0337448 0.1205031 0.0059332
0.0429765 0.1206127 0.0062956
0.0527973 0.1207175 0.0067281
0.0625453 0.1250218 0.0072017
0.0739959 0.1251200 0.0076988
0.0844892 0.1252079 0.0082329
0.0932415 0.1252860 0.0088089
0.1060801 0.1297219 0.0094359
0.1167746 0.1298026 0.0100981
0.1284081 0.1298590 0.0104412
0.1367135 0.1299293 0.0111770
0.1500113 0.1300104 0.0119604
0.1593606 0.1345388 0.0123927
0.1744566 0.1345980 0.0128243
0.1851531 0.1346720 0.0137504
0.1963506 0.1347201 0.0142334
0.2079341 0.1393792 0.0147513
0.2139901 0.1394441 0.0158201
0.2264857 0.1394938 0.0163748
0.2395053 0.1395435 0.0169488
0.2462129 0.1395818 0.0175459
0.2598568 0.1443835 0.0181749
0.2669479 0.1444226 0.0188092
0.2815047 0.1444737 0.0194591
0.2889709 0.1445128 0.0201376
0.3040887 0.1494579 0.0208580
0.3119092 0.1494981 0.0215844
0.3198439 0.1495385 0.0223356
0.3278920 0.1495788 0.0231126
0.3360526 0.1496193 0.0239160
0.3524934 0.1547105 0.0247688
0.3609546 0.1547519 0.0256214
0.3695042 0.1547645 0.0256131
0.3781469 0.1548059 0.0264941
0.3868731 0.1548472 0.0274047
0.3954829 0.1600730 0.0283802
0.4043607 0.1601154 0.0293541
0.4133031 0.1601285 0.0293446
0.4223317 0.1601712 0.0303507
0.4314185 0.1602137 0.0313904
0.4312169 0.1655445 0.0314283
0.4403549 0.1655883 0.0325040
0.4495396 0.1656321 0.0336155
0.4587644 0.1656758 0.0347638
0.4680191 0.1656892 0.0347526
0.4771005 0.1712136 0.0359790
0.4771005 0.1712136 0.0359790
0.4864089 0.1712584 0.0372012
0.4957324 0.1713033 0.0384635
0.5050599 0.1713171 0.0384511
0.5050646 0.1713482 0.0397673
0.5142195 0.1770246 0.0411628
0.5235845 0.1770390 0.0411495
0.5235893 0.1770708 0.0425548
0.5329437 0.1770850 0.0425410
0.5422853 0.1771312 0.0439777
0.5420799 0.1829134 0.0440303
0.5513979 0.1829606 0.0455153
0.5606803 0.1829753 0.0455006
0.5606850 0.1830080 0.0470484
0.0050752 0.1283589 0.0051221
0.0104208 0.1330576 0.0054727
0.0174412 0.1332471 0.0057130
0.0255564 0.1333979 0.0059712
0.0336693 0.1335520 0.0065544
0.0428812 0.1336767 0.0070024
0.0526418 0.1383739 0.0074925
0.0624092 0.1384809 0.0080095
0.0738365 0.1385881 0.0085621
0.0843076 0.1386585 0.0088503
0.0960629 0.1434823 0.0094802
0.1058570 0.1435701 0.0101455
0.1165317 0.1436581 0.0108570
0.1281440 0.1437196 0.0112257
0.1407421 0.1438078 0.0120124
0.1496053 0.1487323 0.0124465
0.1639400 0.1487965 0.0128799
0.1741152 0.1488770 0.0138101
0.1847922 0.1489292 0.0142951
0.1959726 0.1489816 0.0147970
0.2075423 0.1540840 0.0158834
0.2197585 0.1541379 0.0164404
0.2260647 0.1541795 0.0170221
0.2390672 0.1542333 0.0176160
0.2525911 0.1542871 0.0182252
0.2593931 0.1594975 0.0188843
0.2736816 0.1595529 0.0195368
0.2810161 0.1595954 0.0202179
0.2884742 0.1596379 0.0209224
0.3037485 0.1596933 0.0216440
