Plugins/FilmEmulator/Content/LUTs/FE_Kodak_Polymax_Grade_3_64.cube
TITLE "FE_Kodak_Polymax_Grade_3_33"
LUT_3D_SIZE 8
0.0022144 0.0022144 0.0022144
0.0022144 0.0022144 0.0022144
0.0022144 0.0022144 0.0022144
0.0022144 0.0022144 0.0022144
0.0022170 0.0022170 0.0022170
0.0022260 0.0022260 0.0022260
0.0022405 0.0022405 0.0022405
0.0022695 0.0022695 0.0022695
0.0022830 0.0022830 0.0022830
0.0023499 0.0023499 0.0023499
0.0024398 0.0024398 0.0024398
0.0026153 0.0026153 0.0026153
0.0028921 0.0028921 0.0028921
0.0032669 0.0032669 0.0032669
0.0037865 0.0037865 0.0037865
0.0045018 0.0045018 0.0045018
0.0046299 0.0046299 0.0046299
0.0055108 0.0055108 0.0055108
0.0066412 0.0066412 0.0066412
0.0078306 0.0078306 0.0078306
0.0092924 0.0092924 0.0092924
0.0110830 0.0110830 0.0110830
0.0130425 0.0130425 0.0130425
0.0151226 0.0151226 0.0151226
0.0157079 0.0157079 0.0157079
0.0182800 0.0182800 0.0182800
0.0213440 0.0213440 0.0213440
0.0244790 0.0244790 0.0244790
0.0280993 0.0280993 0.0280993
0.0322936 0.0322936 0.0322936
0.0371225 0.0371225 0.0371225
0.0418310 0.0418310 0.0418310
0.0435534 0.0435534 0.0435534
0.0491359 0.0491359 0.0491359
0.0555441 0.0555441 0.0555441
0.0615308 0.0615308 0.0615308
0.0698130 0.0698130 0.0698130
0.0775462 0.0775462 0.0775462
0.0864999 0.0864999 0.0864999
0.0964141 0.0964141 0.0964141
0.1008468 0.1008468 0.1008468
0.1104630 0.1104630 0.1104630
0.1236042 0.1236042 0.1236042
0.1390486 0.1390486 0.1390486
0.1525424 0.1525424 0.1525424
0.1716473 0.1716473 0.1716473
0.1884948 0.1884948 0.1884948
0.2068550 0.2068550 0.2068550
0.2117844 0.2117844 0.2117844
0.2323550 0.2323550 0.2323550
0.2542788 0.2542788 0.2542788
0.2789570 0.2789570 0.2789570
0.3050503 0.3050503 0.3050503
0.3330973 0.3330973 0.3330973
0.3556423 0.3556423 0.3556423
0.3867120 0.3867120 0.3867120
0.3946376 0.3946376 0.3946376
0.4193004 0.4193004 0.4193004
0.4530209 0.4530209 0.4530209
0.4786153 0.4786153 0.4786153
0.5045274 0.5045274 0.5045274
0.5391507 0.5391507 0.5391507
0.5648909 0.5648909 0.5648909
0.5908692 0.5908692 0.5908692
0.0298278 0.0298278 0.0298278
0.0342771 0.0342771 0.0342771
0.0386292 0.0386292 0.0386292
0.0444399 0.0444399 0.0444399
0.0501299 0.0501299 0.0501299
0.0566958 0.0566958 0.0566958
0.0627985 0.0627985 0.0627985
0.0713003 0.0713003 0.0713003
0.0728168 0.0728168 0.0728168
0.0810031 0.0810031 0.0810031
0.0903497 0.0903497 0.0903497
0.1008468 0.1008468 0.1008468
0.1129893 0.1129893 0.1129893
0.1265703 0.1265703 0.1265703
0.1423253 0.1423253 0.1423253
0.1560793 0.1560793 0.1560793
0.1598117 0.1598117 0.1598117
0.1799173 0.1799173 0.1799173
0.1973831 0.1973831 0.1973831
0.2167993 0.2167993 0.2167993
0.2377099 0.2377099 0.2377099
0.2603116 0.2603116 0.2603116
0.2853509 0.2853509 0.2853509
0.3117841 0.3117841 0.3117841
0.3185979 0.3185979 0.3185979
0.3405339 0.3405339 0.3405339
0.3710440 0.3710440 0.3710440
0.3946376 0.3946376 0.3946376
0.4276727 0.4276727 0.4276727
0.4530209 0.4530209 0.4530209
0.4871783 0.4871783 0.4871783
0.5132003 0.5132003 0.5132003
0.5218651 0.5218651 0.5218651
0.5477613 0.5477613 0.5477613
0.5734010 0.5734010 0.5734010
0.5995793 0.5995793 0.5995793
0.6253144 0.6253144 0.6253144
0.6503600 0.6503600 0.6503600
0.6747683 0.6747683 0.6747683
0.6984619 0.6984619 0.6984619
0.7061385 0.7061385 0.7061385
0.7284664 0.7284664 0.7284664
0.7494993 0.7494993 0.7494993
0.7626476 0.7626476 0.7626476
0.7814624 0.7814624 0.7814624
0.7991784 0.7991784 0.7991784
0.8102137 0.8102137 0.8102137
0.8254220 0.8254220 0.8254220
0.8302730 0.8302730 0.8302730
0.8396527 0.8396527 0.8396527
0.8529301 0.8529301 0.8529301
0.8611894 0.8611894 0.8611894
0.8727911 0.8727911 0.8727911
0.8800575 0.8800575 0.8800575
0.8869624 0.8869624 0.8869624
0.8965390 0.8965390 0.8965390
0.8965390 0.8965390 0.8965390
0.9051516 0.9051516 0.9051516
0.9105313 0.9105313 0.9105313
0.9156342 0.9156342 0.9156342
0.9204716 0.9204716 0.9204716
0.9268228 0.9268228 0.9268228
0.9307597 0.9307597 0.9307597
0.9344999 0.9344999 0.9344999
0.4360869 0.4360869 0.4360869
0.4700645 0.4700645 0.4700645
0.4958514 0.4958514 0.4958514
0.5218651 0.5218651 0.5218651
0.5563428 0.5563428 0.5563428
0.5821022 0.5821022 0.5821022
0.6082265 0.6082265 0.6082265
0.6337453 0.6337453 0.6337453
0.6420956 0.6420956 0.6420956
0.6666595 0.6666595 0.6666595
0.6906729 0.6906729 0.6906729
0.7061385 0.7061385 0.7061385
0.7284664 0.7284664 0.7284664
0.7494993 0.7494993 0.7494993
0.7690406 0.7690406 0.7690406
0.7874900 0.7874900 0.7874900
0.7874900 0.7874900 0.7874900
0.8048394 0.8048394 0.8048394
0.8153928 0.8153928 0.8153928
0.8302730 0.8302730 0.8302730
0.8441830 0.8441830 0.8441830
0.8529301 0.8529301 0.8529301
0.8651520 0.8651520 0.8651520
0.8727911 0.8727911 0.8727911
0.8764701 0.8764701 0.8764701
0.8835543 0.8835543 0.8835543
0.8902830 0.8902830 0.8902830
0.8994842 0.8994842 0.8994842
0.9051516 0.9051516 0.9051516
0.9105313 0.9105313 0.9105313
0.9180855 0.9180855 0.9180855
0.9226806 0.9226806 0.9226806
0.9226806 0.9226806 0.9226806
0.9288164 0.9288164 0.9288164
0.9326538 0.9326538 0.9326538
0.9362987 0.9362987 0.9362987
0.9397589 0.9397589 0.9397589
0.9428502 0.9428502 0.9428502
0.9457002 0.9457002 0.9457002
0.9484158 0.9484158 0.9484158
0.9497250 0.9497250 0.9497250
0.9522495 0.9522495 0.9522495
0.9546533 0.9546533 0.9546533
0.9567113 0.9567113 0.9567113
0.9586799 0.9586799 0.9586799
0.9605628 0.9605628 0.9605628
0.9614730 0.9614730 0.9614730
0.9632334 0.9632334 0.9632334
0.9640844 0.9640844 0.9640844
0.9654990 0.9654990 0.9654990
0.9661633 0.9661633 0.9661633
0.9674551 0.9674551 0.9674551
0.9686992 0.9686992 0.9686992
0.9698972 0.9698972 0.9698972
0.9710162 0.9710162 0.9710162
0.9714756 0.9714756 0.9714756
0.9719279 0.9719279 0.9719279
0.9728118 0.9728118 0.9728118
0.9732435 0.9732435 0.9732435
0.9740872 0.9740872 0.9740872
0.9749048 0.9749048 0.9749048
0.9753042 0.9753042 0.9753042
0.9759330 0.9759330 0.9759330
0.9765462 0.9765462 0.9765462
0.9078767 0.9078767 0.9078767
0.9131166 0.9131166 0.9131166
0.9204716 0.9204716 0.9204716
0.9247779 0.9247779 0.9247779
0.9288164 0.9288164 0.9288164
0.9326538 0.9326538 0.9326538
0.9362987 0.9362987 0.9362987
0.9397589 0.9397589 0.9397589
0.9413730 0.9413730 0.9413730
0.9442923 0.9442923 0.9442923
0.9470745 0.9470745 0.9470745
0.9497250 0.9497250 0.9497250
0.9522495 0.9522495 0.9522495
0.9546533 0.9546533 0.9546533
0.9567113 0.9567113 0.9567113
0.9586799 0.9586799 0.9586799
0.9586799 0.9586799 0.9586799
0.9605628 0.9605628 0.9605628
0.9623631 0.9623631 0.9623631
0.9640844 0.9640844 0.9640844
0.9654990 0.9654990 0.9654990
0.9668152 0.9668152 0.9668152
0.9680830 0.9680830 0.9680830
0.9686992 0.9686992 0.9686992
0.9693038 0.9693038 0.9693038
0.9704794 0.9704794 0.9704794
0.9710162 0.9710162 0.9710162
0.9719279 0.9719279 0.9719279
0.9728118 0.9728118 0.9728118
0.9736686 0.9736686 0.9736686
0.9740872 0.9740872 0.9740872
0.9749048 0.9749048 0.9749048
0.9749048 0.9749048 0.9749048
0.9756206 0.9756206 0.9756206
0.9762416 0.9762416 0.9762416
0.9765462 0.9765462 0.9765462
0.9771442 0.9771442 0.9771442
0.9774376 0.9774376 0.9774376
0.9780133 0.9780133 0.9780133
0.9785393 0.9785393 0.9785393
0.9785393 0.9785393 0.9785393
0.9789838 0.9789838 0.9789838
0.9792025 0.9792025 0.9792025
0.9796335 0.9796335 0.9796335
0.9798456 0.9798456 0.9798456
0.9802635 0.9802635 0.9802635
0.9804693 0.9804693 0.9804693
0.9808374 0.9808374 0.9808374
0.9808374 0.9808374 0.9808374
0.9810097 0.9810097 0.9810097
0.9813498 0.9813498 0.9813498
0.9815176 0.9815176 0.9815176
0.9818487 0.9818487 0.9818487
0.9820120 0.9820120 0.9820120
0.9823345 0.9823345 0.9823345
0.9824649 0.9824649 0.9824649
0.9824649 0.9824649 0.9824649
0.9827230 0.9827230 0.9827230
0.9828506 0.9828506 0.9828506
0.9829773 0.9829773 0.9829773
0.9832279 0.9832279 0.9832279
0.9833519 0.9833519 0.9833519
0.9834750 0.9834750 0.9834750
0.9837105 0.9837105 0.9837105
0.9732435 0.9732435 0.9732435
0.9736686 0.9736686 0.9736686
0.9744992 0.9744992 0.9744992
0.9753042 0.9753042 0.9753042
0.9756206 0.9756206 0.9756206
0.9762416 0.9762416 0.9762416
0.9768471 0.9768471 0.9768471
0.9771442 0.9771442 0.9771442
0.9774376 0.9774376 0.9774376
0.9777273 0.9777273 0.9777273
0.9782958 0.9782958 0.9782958
0.9785393 0.9785393 0.9785393
0.9789838 0.9789838 0.9789838
0.9792025 0.9792025 0.9792025
0.9796335 0.9796335 0.9796335
0.9798456 0.9798456 0.9798456
0.9800557 0.9800557 0.9800557
0.9802635 0.9802635 0.9802635
0.9806636 0.9806636 0.9806636
0.9808374 0.9808374 0.9808374
0.9811805 0.9811805 0.9811805
0.9813498 0.9813498 0.9813498
0.9816839 0.9816839 0.9816839
0.9818487 0.9818487 0.9818487
0.9818487 0.9818487 0.9818487
0.9821740 0.9821740 0.9821740
0.9823345 0.9823345 0.9823345
0.9825944 0.9825944 0.9825944
0.9827230 0.9827230 0.9827230
0.9828506 0.9828506 0.9828506
0.9831031 0.9831031 0.9831031
0.9832279 0.9832279 0.9832279
0.9832279 0.9832279 0.9832279
0.9834750 0.9834750 0.9834750
0.9835971 0.9835971 0.9835971
0.9837105 0.9837105 0.9837105
0.9839273 0.9839273 0.9839273
0.9840347 0.9840347 0.9840347
0.9841412 0.9841412 0.9841412
0.9843524 0.9843524 0.9843524
0.9843524 0.9843524 0.9843524
0.9844570 0.9844570 0.9844570
0.9845608 0.9845608 0.9845608
0.9847624 0.9847624 0.9847624
0.9848524 0.9848524 0.9848524
0.9849418 0.9849418 0.9849418
0.9850308 0.9850308 0.9850308
0.9852071 0.9852071 0.9852071
0.9852071 0.9852071 0.9852071
0.9852945 0.9852945 0.9852945
0.9853813 0.9853813 0.9853813
0.9854677 0.9854677 0.9854677
0.9856389 0.9856389 0.9856389
0.9857057 0.9857057 0.9857057
0.9857723 0.9857723 0.9857723
0.9858385 0.9858385 0.9858385
0.9858385 0.9858385 0.9858385
0.9859044 0.9859044 0.9859044
0.9860353 0.9860353 0.9860353
0.9861003 0.9861003 0.9861003
0.9861650 0.9861650 0.9861650
0.9862294 0.9862294 0.9862294
0.9862935 0.9862935 0.9862935
0.9863436 0.9863436 0.9863436
0.9828506 0.9828506 0.9828506
0.9829773 0.9829773 0.9829773
0.9831031 0.9831031 0.9831031
0.9833519 0.9833519 0.9833519
0.9834750 0.9834750 0.9834750
0.9835971 0.9835971 0.9835971
0.9838192 0.9838192 0.9838192
0.9839273 0.9839273 0.9839273
0.9839273 0.9839273 0.9839273
0.9840347 0.9840347 0.9840347
0.9842471 0.9842471 0.9842471
0.9843524 0.9843524 0.9843524
0.9844570 0.9844570 0.9844570
0.9846640 0.9846640 0.9846640
0.9847624 0.9847624 0.9847624
0.9848524 0.9848524 0.9848524
0.9848524 0.9848524 0.9848524
0.9850308 0.9850308 0.9850308
0.9851192 0.9851192 0.9851192
0.9852071 0.9852071 0.9852071
0.9852945 0.9852945 0.9852945
0.9853813 0.9853813 0.9853813
0.9855536 0.9855536 0.9855536
0.9856389 0.9856389 0.9856389
0.9856389 0.9856389 0.9856389
0.9857057 0.9857057 0.9857057
0.9857723 0.9857723 0.9857723
0.9859044 0.9859044 0.9859044
0.9859700 0.9859700 0.9859700
0.9860353 0.9860353 0.9860353
0.9861003 0.9861003 0.9861003
0.9861650 0.9861650 0.9861650
0.9861650 0.9861650 0.9861650
0.9862294 0.9862294 0.9862294
0.9863436 0.9863436 0.9863436
0.9863868 0.9863868 0.9863868
0.9864298 0.9864298 0.9864298
0.9864727 0.9864727 0.9864727
0.9865154 0.9865154 0.9865154
0.9865580 0.9865580 0.9865580
0.9865580 0.9865580 0.9865580
0.9866005 0.9866005 0.9866005
0.9866428 0.9866428 0.9866428
0.9867271 0.9867271 0.9867271
0.9867671 0.9867671 0.9867671
0.9868031 0.9868031 0.9868031
0.9868389 0.9868389 0.9868389
0.9868748 0.9868748 0.9868748
0.9868748 0.9868748 0.9868748
0.9869104 0.9869104 0.9869104
0.9869460 0.9869460 0.9869460
0.9869815 0.9869815 0.9869815
0.9870169 0.9870169 0.9870169
0.9870522 0.9870522 0.9870522
0.9870874 0.9870874 0.9870874
0.9871225 0.9871225 0.9871225
0.9871225 0.9871225 0.9871225
0.9871510 0.9871510 0.9871510
0.9871795 0.9871795 0.9871795
0.9872078 0.9872078 0.9872078
0.9872361 0.9872361 0.9872361
0.9872643 0.9872643 0.9872643
0.9872925 0.9872925 0.9872925
0.9873207 0.9873207 0.9873207
0.9859700 0.9859700 0.9859700
0.9860353 0.9860353 0.9860353
0.9861003 0.9861003 0.9861003
0.9862294 0.9862294 0.9862294
0.9862935 0.9862935 0.9862935
0.9863436 0.9863436 0.9863436
0.9863868 0.9863868 0.9863868
0.9864298 0.9864298 0.9864298
0.9864298 0.9864298 0.9864298
0.9864727 0.9864727 0.9864727
0.9865154 0.9865154 0.9865154
0.9866005 0.9866005 0.9866005
0.9866428 0.9866428 0.9866428
0.9866850 0.9866850 0.9866850
0.9867271 0.9867271 0.9867271
0.9867671 0.9867671 0.9867671
0.9867671 0.9867671 0.9867671
0.9868031 0.9868031 0.9868031
0.9868389 0.9868389 0.9868389
0.9868748 0.9868748 0.9868748
0.9869104 0.9869104 0.9869104
0.9869460 0.9869460 0.9869460
0.9869815 0.9869815 0.9869815
0.9870169 0.9870169 0.9870169
0.9870169 0.9870169 0.9870169
0.9870522 0.9870522 0.9870522
0.9870874 0.9870874 0.9870874
0.9871225 0.9871225 0.9871225
0.9871510 0.9871510 0.9871510
0.9871795 0.9871795 0.9871795
0.9872078 0.9872078 0.9872078
0.9872361 0.9872361 0.9872361
0.9872643 0.9872643 0.9872643
0.9872925 0.9872925 0.9872925
0.9872925 0.9872925 0.9872925
0.9873207 0.9873207 0.9873207
0.9873487 0.9873487 0.9873487
0.9873767 0.9873767 0.9873767
0.9874046 0.9874046 0.9874046
0.9874257 0.9874257 0.9874257
0.9874257 0.9874257 0.9874257
0.9874433 0.9874433 0.9874433
0.9874608 0.9874608 0.9874608
0.9874783 0.9874783 0.9874783
0.9874958 0.9874958 0.9874958
0.9875133 0.9875133 0.9875133
0.9875308 0.9875308 0.9875308
0.9875482 0.9875482 0.9875482
0.9875482 0.9875482 0.9875482
0.9875656 0.9875656 0.9875656
0.9875830 0.9875830 0.9875830
0.9875962 0.9875962 0.9875962
0.9876009 0.9876009 0.9876009
0.9876009 0.9876009 0.9876009
0.9876055 0.9876055 0.9876055
0.9876102 0.9876102 0.9876102
0.9876102 0.9876102 0.9876102
0.9876149 0.9876149 0.9876149
0.9876196 0.9876196 0.9876196
0.9876243 0.9876243 0.9876243
0.9876290 0.9876290 0.9876290
0.9876337 0.9876337 0.9876337
0.9876337 0.9876337 0.9876337
0.9876384 0.9876384 0.9876384
0.9871795 0.9871795 0.9871795
0.9872078 0.9872078 0.9872078
0.9872361 0.9872361 0.9872361
0.9872643 0.9872643 0.9872643
0.9872925 0.9872925 0.9872925
0.9873207 0.9873207 0.9873207
0.9873487 0.9873487 0.9873487
0.9873767 0.9873767 0.9873767
0.9873767 0.9873767 0.9873767
0.9874046 0.9874046 0.9874046
0.9874257 0.9874257 0.9874257
0.9874433 0.9874433 0.9874433
0.9874433 0.9874433 0.9874433
0.9874608 0.9874608 0.9874608
0.9874783 0.9874783 0.9874783
0.9874958 0.9874958 0.9874958
0.9874958 0.9874958 0.9874958
0.9875133 0.9875133 0.9875133
0.9875308 0.9875308 0.9875308
0.9875482 0.9875482 0.9875482
0.9875656 0.9875656 0.9875656
0.9875830 0.9875830 0.9875830
0.9875962 0.9875962 0.9875962
0.9876009 0.9876009 0.9876009
0.9876009 0.9876009 0.9876009
0.9876055 0.9876055 0.9876055
0.9876102 0.9876102 0.9876102
0.9876149 0.9876149 0.9876149
0.9876149 0.9876149 0.9876149
0.9876196 0.9876196 0.9876196
0.9876243 0.9876243 0.9876243
0.9876290 0.9876290 0.9876290
0.9876290 0.9876290 0.9876290
0.9876337 0.9876337 0.9876337
0.9876384 0.9876384 0.9876384
0.9876431 0.9876431 0.9876431
0.9876431 0.9876431 0.9876431
0.9876446 0.9876446 0.9876446
0.9876460 0.9876460 0.9876460
0.9876475 0.9876475 0.9876475
0.9876475 0.9876475 0.9876475
0.9876490 0.9876490 0.9876490
0.9876505 0.9876505 0.9876505
0.9876519 0.9876519 0.9876519
0.9876519 0.9876519 0.9876519
0.9876534 0.9876534 0.9876534
0.9876549 0.9876549 0.9876549
0.9876564 0.9876564 0.9876564
0.9876564 0.9876564 0.9876564
0.9876578 0.9876578 0.9876578
0.9876590 0.9876590 0.9876590
0.9876590 0.9876590 0.9876590
0.9876601 0.9876601 0.9876601
0.9876611 0.9876611 0.9876611
0.9876621 0.9876621 0.9876621
0.9876621 0.9876621 0.9876621
0.9876632 0.9876632 0.9876632
0.9876632 0.9876632 0.9876632
0.9876643 0.9876643 0.9876643
0.9876653 0.9876653 0.9876653
0.9876664 0.9876664 0.9876664
0.9876664 0.9876664 0.9876664
0.9876674 0.9876674 0.9876674
0.9876685 0.9876685 0.9876685
