Plugins/FilmEmulator/Content/LUTs/FE_Kodak_Duraflex_Plus_64.cube
TITLE "FE_Kodak_Duraflex_Plus_33"
LUT_3D_SIZE 4
0.0039107 0.0000000 0.0198706
0.9763882 0.3545158 0.1118366
1.0000000 0.5723167 0.2107750
1.0000000 0.6373057 0.2560319
0.3066016 0.9562302 0.2793133
0.9075108 0.9619349 0.3862790
1.0000000 0.9668921 0.4630545
1.0000000 0.9639956 0.5054622
0.5076440 1.0000000 0.6213473
0.9426936 1.0000000 0.6703759
0.9873426 1.0000000 0.6858588
0.9931349 1.0000000 0.6722691
0.6543284 0.9991581 0.8353659
0.9655358 0.9949741 0.8519279
0.9924749 0.9962366 0.8498245
0.9962955 0.9971536 0.8364407
0.3256738 0.3819797 1.0000000
1.0000000 0.6585673 0.9661494
1.0000000 0.7570991 0.9571072
1.0000000 0.7946697 0.9533496
0.7277559 0.9644340 0.9823141
0.9752843 0.9760331 0.9794708
0.9973348 0.9794583 0.9788966
1.0000000 0.9795364 0.9781676
0.8424076 0.9876255 0.9863855
0.9827201 0.9905913 0.9858600
0.9950861 0.9919602 0.9860104
0.9975511 0.9922745 0.9858018
0.9010041 0.9904937 0.9882920
0.9867357 0.9927514 0.9883482
0.9952899 0.9936510 0.9885094
0.9971894 0.9939130 0.9884288
0.8310249 0.7676933 0.9984051
1.0000000 0.8439643 0.9874067
1.0000000 0.8547115 0.9851968
1.0000000 0.8653634 0.9844003
0.9234287 0.9806989 0.9901639
0.9895619 0.9861921 0.9895995
0.9967836 0.9871099 0.9895520
0.9988860 0.9871529 0.9894635
0.9540808 0.9901924 0.9908232
0.9913782 0.9925537 0.9909594
0.9960263 0.9931679 0.9910732
0.9974151 0.9933750 0.9911014
0.9682869 0.9920878 0.9911616
0.9926939 0.9937425 0.9914102
0.9962293 0.9942248 0.9915335
0.9973183 0.9943931 0.9915690
0.9612591 0.9111368 0.9898214
1.0000000 0.9266996 0.9874390
1.0000000 0.9250752 0.9867733
1.0000000 0.9205127 0.9864333
0.9753141 0.9874229 0.9908409
0.9939646 0.9896345 0.9908807
0.9972470 0.9901506 0.9909073
0.9984523 0.9901527 0.9908769
0.9825406 0.9921507 0.9915168
0.9944202 0.9933739 0.9917147
0.9967398 0.9937059 0.9917924
0.9976234 0.9938422 0.9918194
0.9865285 0.9933029 0.9917673
0.9949380 0.9941903 0.9919652
0.9968114 0.9944661 0.9920465
0.9975425 0.9945804 0.9920811
