Plugins/FilmEmulator/Content/LUTs/FE_Kodak_Vision_500T_5279_64.cube
# FilmEmulator LUT (resampled to 64)
LUT_3D_SIZE 4
0.002136 0.000000 0.000000
0.208292 0.037161 0.025258
0.509704 0.060069 0.067912
0.839020 0.103699 0.117096
0.001200 0.186391 0.039530
0.207109 0.215770 0.057411
0.571320 0.276099 0.107096
0.908529 0.369852 0.174113
0.002818 0.465078 0.106618
0.070462 0.498891 0.126624
0.611860 0.584330 0.180695
0.942098 0.675567 0.267762
0.011108 0.761719 0.257233
0.072438 0.784322 0.278167
0.645335 0.847127 0.339803
0.948578 0.885498 0.378693
0.003245 0.018748 0.155405
0.209113 0.040334 0.234344
0.548218 0.069081 0.251984
0.870076 0.128184 0.321839
0.001780 0.206299 0.223711
0.215512 0.234592 0.275368
0.595070 0.297426 0.317897
0.926517 0.402029 0.404928
0.004154 0.495483 0.309550
0.053610 0.519626 0.333257
0.628065 0.610302 0.415643
0.946703 0.687456 0.503370
0.013509 0.789052 0.420868
0.054918 0.803793 0.442766
0.631663 0.857381 0.525902
0.947093 0.893676 0.579935
0.000031 0.031484 0.392100
0.128971 0.049035 0.504917
0.608188 0.082197 0.525543
0.913005 0.157593 0.558055
0.004601 0.231228 0.516215
0.126605 0.273470 0.565956
0.652281 0.340115 0.582204
0.942946 0.425991 0.623929
0.006236 0.543688 0.545875
0.053214 0.583478 0.581059
0.653135 0.633334 0.637686
0.948958 0.698975 0.697950
0.016235 0.822764 0.635976
0.051490 0.838138 0.657983
0.626570 0.867757 0.714979
0.949391 0.900339 0.754272
0.002045 0.036713 0.684265
0.154266 0.046336 0.732645
0.630443 0.092417 0.778402
0.931824 0.193451 0.787170
0.009776 0.285482 0.779816
0.228797 0.328593 0.806817
0.673587 0.371385 0.809550
0.951640 0.458272 0.825094
0.011017 0.596599 0.798116
0.137672 0.640082 0.828152
0.669586 0.659041 0.847260
0.952423 0.706726 0.849365
0.019379 0.861725 0.832886
0.075409 0.873423 0.844136
0.668722 0.884867 0.858266
0.950195 0.902008 0.879242
