Plugins/FilmEmulator/Content/LUTs/FE_Kodak_Vision2_500T_5218_64.cube
# FilmEmulator LUT (resampled to 64)
LUT_3D_SIZE 64
0.002380 0.001587 0.001587
0.011588 0.002377 0.001184
0.020808 0.003181 0.000793
0.030419 0.004390 0.000793
0.040020 0.005573 0.000768
0.049475 0.006364 0.000365
0.058930 0.007156 0.000038
0.068386 0.007962 0.000441
0.077856 0.008768 0.000793
0.087420 0.009574 0.000793
0.096955 0.010377 0.000793
0.106333 0.011168 0.000793
0.115708 0.011886 0.000866
0.125071 0.012289 0.001253
0.134392 0.012692 0.001644
0.143569 0.013095 0.002048
0.152703 0.013401 0.002451
0.161709 0.013417 0.002853
0.170676 0.013537 0.003256
0.179542 0.013925 0.003660
0.188399 0.014317 0.004189
0.197235 0.014720 0.004995
0.206022 0.015123 0.005657
0.214719 0.015526 0.006045
0.223427 0.016074 0.006438
0.232153 0.016865 0.006841
0.240862 0.017504 0.007244
0.249542 0.017923 0.007647
0.258291 0.018328 0.008050
0.267126 0.018715 0.008453
0.275955 0.019110 0.008856
0.284775 0.019513 0.009259
0.293541 0.019714 0.009460
0.302252 0.019714 0.009460
0.310980 0.019928 0.009460
0.319722 0.020332 0.009460
0.328482 0.020508 0.009460
0.337256 0.020508 0.009460
0.345993 0.020747 0.009460
0.354704 0.021150 0.009460
0.363387 0.021301 0.009460
0.372052 0.021301 0.009460
0.380768 0.021566 0.009460
0.389510 0.021969 0.009460
0.398253 0.022095 0.009460
0.406995 0.022095 0.009460
0.415715 0.022385 0.009460
0.424427 0.022787 0.009460
0.433127 0.023179 0.009460
0.441824 0.023566 0.009460
0.450459 0.023966 0.009460
0.459077 0.024369 0.009460
0.467595 0.024772 0.009460
0.476090 0.025175 0.009460
0.484336 0.025578 0.009460
0.492536 0.025981 0.009460
0.500546 0.026031 0.009460
0.508529 0.026031 0.009460
0.516259 0.026396 0.009460
0.523963 0.026800 0.009460
0.531420 0.027203 0.009460
0.538860 0.027605 0.009460
0.546166 0.027618 0.009460
0.553467 0.027618 0.009460
0.001574 0.010794 0.007989
0.010577 0.011585 0.007176
0.019586 0.012382 0.006370
0.028796 0.013387 0.005764
0.038013 0.014391 0.005145
0.047350 0.015394 0.004332
0.056707 0.016378 0.003577
0.066249 0.017176 0.003374
0.075831 0.017975 0.003170
0.085695 0.018781 0.002966
0.095543 0.019586 0.002761
0.105307 0.020384 0.002556
0.115078 0.021146 0.002387
0.124881 0.021746 0.002373
0.134649 0.022303 0.002450
0.144290 0.022706 0.002854
0.153879 0.023061 0.003206
0.163310 0.023273 0.003404
0.172689 0.023537 0.003660
0.181933 0.023933 0.004063
0.191148 0.024330 0.004589
0.200299 0.024733 0.005388
0.209396 0.025136 0.006047
0.218392 0.025539 0.006443
0.227381 0.026011 0.006841
0.236360 0.026597 0.007244
0.245301 0.027111 0.007647
0.254186 0.027522 0.008050
0.263125 0.027836 0.008364
0.272134 0.028027 0.008562
0.281102 0.028221 0.008760
0.290025 0.028419 0.008958
0.298936 0.028519 0.009160
0.307837 0.028519 0.009364
0.316724 0.028624 0.009460
0.325601 0.028822 0.009460
0.334464 0.028794 0.009460
0.343316 0.028590 0.009460
0.352159 0.028624 0.009460
0.360997 0.028822 0.009460
0.369810 0.028774 0.009460
0.378610 0.028577 0.009460
0.387449 0.028639 0.009460
0.396309 0.028838 0.009460
0.405170 0.028759 0.009460
0.414030 0.028554 0.009460
0.422858 0.028639 0.009460
0.431672 0.028837 0.009460
0.440468 0.029030 0.009307
0.449259 0.029220 0.009102
0.457983 0.029577 0.009057
0.466688 0.029981 0.009057
0.475260 0.030217 0.009057
0.483802 0.030415 0.009057
0.492109 0.030614 0.009057
0.500372 0.030812 0.009057
0.508438 0.031009 0.009057
0.516476 0.031206 0.009057
0.524254 0.031404 0.009057
0.532005 0.031602 0.009057
0.539546 0.031992 0.009057
0.547073 0.032395 0.009057
0.554465 0.032408 0.009057
0.561853 0.032408 0.009057
0.000793 0.019989 0.014391
0.009579 0.020787 0.013169
0.018365 0.021584 0.011948
0.027172 0.022390 0.010741
0.036005 0.023221 0.009534
0.045223 0.024429 0.008312
0.054479 0.025598 0.007130
0.064108 0.026394 0.006327
0.073804 0.027191 0.005571
0.083959 0.027995 0.005149
0.094114 0.028801 0.004729
0.104264 0.029611 0.004319
0.114430 0.030418 0.003910
0.124673 0.031207 0.003501
0.134887 0.031913 0.003268
0.144993 0.032320 0.003665
0.155038 0.032727 0.003962
0.164897 0.033134 0.003962
0.174690 0.033542 0.004075
0.184315 0.033949 0.004478
0.193890 0.034354 0.004998
0.203356 0.034756 0.005776
0.212764 0.035157 0.006425
0.222060 0.035559 0.006828
0.231331 0.035956 0.007231
0.240563 0.036342 0.007635
0.249737 0.036734 0.008038
0.258829 0.037136 0.008440
0.267960 0.037362 0.008667
0.277141 0.037362 0.008667
0.286250 0.037359 0.008667
0.295279 0.037354 0.008667
0.304336 0.037349 0.008865
0.313423 0.037344 0.009262
0.322469 0.037339 0.009447
0.331480 0.037334 0.009447
0.340447 0.037103 0.009447
0.349379 0.036696 0.009447
0.358330 0.036525 0.009447
0.367293 0.036514 0.009447
0.376237 0.036265 0.009447
0.385170 0.035873 0.009447
0.394132 0.035735 0.009447
0.403111 0.035730 0.009447
0.412089 0.035447 0.009447
0.421067 0.035039 0.009447
0.430001 0.034921 0.009447
0.438918 0.034915 0.009447
0.447811 0.034909 0.009150
0.456696 0.034904 0.008754
0.465508 0.035208 0.008667
0.474299 0.035599 0.008667
0.482926 0.035673 0.008667
0.491515 0.035673 0.008667
0.499882 0.035673 0.008667
0.508209 0.035673 0.008667
0.516331 0.036006 0.008667
0.524424 0.036388 0.008667
0.532251 0.036424 0.008667
0.540050 0.036424 0.008667
0.547674 0.036795 0.008667
0.555286 0.037192 0.008667
0.562765 0.037204 0.008667
0.570239 0.037204 0.008667
0.000793 0.028794 0.020793
0.008973 0.029804 0.019169
0.017159 0.030807 0.017547
0.025549 0.031605 0.015931
0.033979 0.032427 0.014314
0.043015 0.033603 0.012691
0.052118 0.034759 0.011106
0.061866 0.035720 0.009885
0.071676 0.036657 0.008688
0.081918 0.037423 0.007660
0.092203 0.038216 0.006696
0.102714 0.039160 0.006082
0.113252 0.040066 0.005470
0.123904 0.040808 0.004864
0.134546 0.041506 0.004432
0.145149 0.042047 0.004624
0.155689 0.042588 0.004768
0.166044 0.043129 0.004768
0.176320 0.043671 0.004879
0.186393 0.044212 0.005274
0.196385 0.044697 0.005663
0.206198 0.045059 0.006040
0.215947 0.045421 0.006425
0.225573 0.045784 0.006828
0.235152 0.046141 0.007231
0.244651 0.046488 0.007635
0.254093 0.046841 0.008038
0.263453 0.047203 0.008440
0.272800 0.047407 0.008667
0.282131 0.047407 0.008667
0.291415 0.047327 0.008667
0.300648 0.047156 0.008667
0.309859 0.046990 0.008763
0.319048 0.046828 0.008955
0.328218 0.046661 0.009045
0.337370 0.046490 0.009045
0.346474 0.046116 0.009045
0.355541 0.045583 0.009045
0.364606 0.045159 0.009045
0.373671 0.044810 0.009045
0.382743 0.044346 0.009045
0.391817 0.043812 0.009045
0.400896 0.043511 0.009045
0.409977 0.043333 0.009045
0.419057 0.042894 0.009045
0.428137 0.042336 0.009045
0.437191 0.042045 0.009045
0.446234 0.041859 0.009045
0.455217 0.041672 0.008901
0.464181 0.041485 0.008709
0.473072 0.041448 0.008667
0.481942 0.041454 0.008667
0.490615 0.041455 0.008667
0.499243 0.041455 0.008667
0.507683 0.041455 0.008667
0.516089 0.041455 0.008667
0.524262 0.041616 0.008667
0.532402 0.041801 0.008667
0.540305 0.041818 0.008667
0.548183 0.041818 0.008667
0.555856 0.041998 0.008667
0.563516 0.042189 0.008667
0.571064 0.042195 0.008667
0.578609 0.042195 0.008667
0.000768 0.037595 0.027195
0.008354 0.038807 0.025170
0.015952 0.040006 0.023145
0.023925 0.040801 0.021120
0.031953 0.041618 0.019096
0.040803 0.042767 0.017083
0.049746 0.043913 0.015106
0.059585 0.045032 0.013468
0.069485 0.046103 0.011835
0.079815 0.046845 0.010225
0.090229 0.047638 0.008736
0.101102 0.048709 0.007892
0.112011 0.049713 0.007055
0.123074 0.050423 0.006252
0.134145 0.051126 0.005621
0.145245 0.051805 0.005608
0.156284 0.052482 0.005595
0.167138 0.053153 0.005583
0.177900 0.053823 0.005679
0.188431 0.054493 0.006054
0.198848 0.055057 0.006312
0.209016 0.055389 0.006312
0.219114 0.055720 0.006451
0.229075 0.056051 0.006853
0.238965 0.056373 0.007252
0.248736 0.056681 0.007642
0.258449 0.056995 0.008038
0.268077 0.057318 0.008440
0.277643 0.057497 0.008667
0.287127 0.057489 0.008667
0.296588 0.057333 0.008667
0.306023 0.057010 0.008667
0.315388 0.056691 0.008667
0.324684 0.056375 0.008667
0.333979 0.056046 0.008667
0.343272 0.055707 0.008667
0.352512 0.055189 0.008667
0.361710 0.054534 0.008667
0.370892 0.053865 0.008667
0.380063 0.053186 0.008667
0.389259 0.052512 0.008667
0.398472 0.051841 0.008667
0.407666 0.051371 0.008667
0.416851 0.051006 0.008667
0.426034 0.050409 0.008667
0.435216 0.049707 0.008667
0.444387 0.049242 0.008667
0.453554 0.048869 0.008667
0.462628 0.048496 0.008667
0.471670 0.048124 0.008667
0.480638 0.047757 0.008667
0.489586 0.047393 0.008667
0.498308 0.047317 0.008667
0.506978 0.047308 0.008667
0.515488 0.047298 0.008667
0.523970 0.047288 0.008667
0.532194 0.047279 0.008656
0.540381 0.047269 0.008644
0.548358 0.047259 0.008643
0.556314 0.047250 0.008643
0.564039 0.047240 0.008643
0.571748 0.047230 0.008643
0.579367 0.047230 0.008643
0.586983 0.047230 0.008643
0.000365 0.046354 0.033613
0.007541 0.047605 0.031178
0.014730 0.048844 0.028744
0.022302 0.049710 0.026309
0.029937 0.050595 0.023888
0.038519 0.051775 0.021671
0.047190 0.052954 0.019470
0.056722 0.054112 0.017432
0.066365 0.055244 0.015421
0.076781 0.056199 0.013607
0.087325 0.057175 0.011850
0.098560 0.058270 0.010399
0.109843 0.059331 0.009030
0.121331 0.060246 0.008014
0.132848 0.061152 0.007173
0.144468 0.062028 0.006955
0.156032 0.062868 0.006738
0.167429 0.063602 0.006520
0.178744 0.064333 0.006414
0.189849 0.065058 0.006592
0.200816 0.065689 0.006715
0.211481 0.066115 0.006715
0.222042 0.066538 0.006854
0.232404 0.066956 0.007257
0.242672 0.067320 0.007578
0.252782 0.067597 0.007764
0.262812 0.067877 0.008038
0.272723 0.068160 0.008440
0.282538 0.068261 0.008667
0.292227 0.068127 0.008667
0.301874 0.067923 0.008667
0.311474 0.067639 0.008667
0.321013 0.067292 0.008667
0.330490 0.066882 0.008667
0.339936 0.066388 0.008667
0.349355 0.065820 0.008667
0.358708 0.065167 0.008667
0.368009 0.064449 0.008667
0.377321 0.063638 0.008667
0.386641 0.062762 0.008667
0.395938 0.061970 0.008667
0.405221 0.061228 0.008667
0.414528 0.060480 0.008667
0.423846 0.059729 0.008667
0.433136 0.058963 0.008667
0.442413 0.058191 0.008667
0.451679 0.057518 0.008667
0.460941 0.056886 0.008667
0.470096 0.056253 0.008667
0.479217 0.055621 0.008667
0.488246 0.055099 0.008667
0.497248 0.054609 0.008667
0.506045 0.054388 0.008667
0.514793 0.054229 0.008667
0.523350 0.054063 0.008667
0.531871 0.053896 0.008667
0.540141 0.053736 0.008484
0.548375 0.053577 0.008275
0.556400 0.053410 0.008255
0.564402 0.053243 0.008255
0.572219 0.053075 0.008255
0.580023 0.052908 0.008255
0.587721 0.052903 0.008255
0.595416 0.052903 0.008255
0.000000 0.055064 0.040012
0.006748 0.056352 0.037189
0.013509 0.057630 0.034366
0.020659 0.058590 0.031549
0.027881 0.059565 0.028755
0.036166 0.060775 0.026314
0.044541 0.061985 0.023874
0.053787 0.063191 0.021453
0.063190 0.064392 0.019079
0.073686 0.065551 0.017041
0.084350 0.066706 0.015003
0.095921 0.067834 0.012965
0.107556 0.068959 0.011078
0.119468 0.070071 0.009851
0.131430 0.071176 0.008792
0.143573 0.072252 0.008332
0.155668 0.073263 0.007882
0.167618 0.074076 0.007459
0.179493 0.074882 0.007150
0.191178 0.075669 0.007131
0.202703 0.076374 0.007118
0.213875 0.076901 0.007118
0.224912 0.077421 0.007250
0.235688 0.077932 0.007634
0.246345 0.078347 0.007881
0.256803 0.078602 0.007900
0.267155 0.078853 0.008068
0.277354 0.079099 0.008451
0.287423 0.079129 0.008667
0.297324 0.078884 0.008667
0.307163 0.078634 0.008667
0.316933 0.078379 0.008667
0.326646 0.078001 0.008667
0.336303 0.077500 0.008667
0.345900 0.076852 0.008667
0.355447 0.076076 0.008667
0.364916 0.075293 0.008667
0.374325 0.074505 0.008667
0.383766 0.073553 0.008667
0.393230 0.072489 0.008667
0.402629 0.071572 0.008667
0.411990 0.070743 0.008667
0.421408 0.069728 0.008667
0.430856 0.068616 0.008667
0.440253 0.067677 0.008667
0.449626 0.066815 0.008667
0.458985 0.065939 0.008667
0.468339 0.065057 0.008667
0.477577 0.064174 0.008667
0.486776 0.063290 0.008667
0.495865 0.062611 0.008667
0.504923 0.061989 0.008667
0.513791 0.061606 0.008652
0.522615 0.061278 0.008634
0.531217 0.060947 0.008631
0.539777 0.060616 0.008631
0.548093 0.060308 0.008308
0.556374 0.060003 0.007939
0.564449 0.059684 0.007904
0.572502 0.059364 0.007904
0.580407 0.059043 0.007904
0.588303 0.058723 0.007904
0.596079 0.058688 0.007904
0.603851 0.058663 0.007904
0.000000 0.063310 0.046227
0.006142 0.064614 0.043224
0.012296 0.065917 0.040222
0.018832 0.067192 0.037278
0.025442 0.068463 0.034341
0.033153 0.069689 0.031490
0.040999 0.070926 0.028661
0.050159 0.072266 0.026034
0.059487 0.073601 0.023430
0.069999 0.074894 0.020982
0.080688 0.076181 0.018535
0.092338 0.077435 0.016088
0.104113 0.078686 0.013832
0.116435 0.079925 0.012408
0.128840 0.081179 0.011062
0.141542 0.082491 0.009996
0.154218 0.083740 0.009039
0.166813 0.084798 0.008412
0.179330 0.085815 0.007899
0.191644 0.086727 0.007675
0.203796 0.087569 0.007521
0.215591 0.088252 0.007521
0.227219 0.088931 0.007583
0.238532 0.089599 0.007762
0.249686 0.090138 0.007958
0.260576 0.090464 0.008182
0.271317 0.090748 0.008387
0.281839 0.090970 0.008566
0.292213 0.090998 0.008667
0.302397 0.090776 0.008667
0.312487 0.090505 0.008667
0.322469 0.090179 0.008667
0.332367 0.089738 0.008667
0.342181 0.089182 0.008667
0.351928 0.088501 0.008667
0.361616 0.087708 0.008667
0.371240 0.086843 0.008667
0.380815 0.085922 0.008667
0.390370 0.084850 0.008667
0.399912 0.083676 0.008667
0.409434 0.082564 0.008667
0.418945 0.081491 0.008667
0.428472 0.080315 0.008667
0.438006 0.079086 0.008667
0.447506 0.077931 0.008667
0.456989 0.076809 0.008667
0.466430 0.075753 0.008667
0.475854 0.074721 0.008667
0.485169 0.073676 0.008667
0.494447 0.072627 0.008667
0.503596 0.071764 0.008667
0.512709 0.070953 0.008667
0.521626 0.070246 0.008492
0.530498 0.069564 0.008277
0.539140 0.068986 0.008243
0.547739 0.068426 0.008243
0.556095 0.067993 0.008092
0.564415 0.067578 0.007920
0.572572 0.067149 0.007904
0.580712 0.066718 0.007904
0.588674 0.066287 0.007904
0.596624 0.065857 0.007904
0.604471 0.065560 0.007904
0.612315 0.065267 0.007904
0.000000 0.071541 0.052410
0.005534 0.072860 0.049257
0.011081 0.074186 0.046107
0.017004 0.075735 0.043040
0.023005 0.077267 0.039963
0.030161 0.078535 0.036732
0.037491 0.079822 0.033536
0.046496 0.081291 0.030684
0.055689 0.082755 0.027832
0.066191 0.084177 0.024976
0.076883 0.085596 0.022124
0.088597 0.086995 0.019293
0.100501 0.088390 0.016679
0.113221 0.089760 0.015005
0.126057 0.091167 0.013343
0.139306 0.092704 0.011720
0.152555 0.094183 0.010290
0.165801 0.095486 0.009434
0.178967 0.096722 0.008698
0.191926 0.097790 0.008269
0.204721 0.098787 0.007967
0.217158 0.099631 0.007941
0.229398 0.100470 0.007924
0.241265 0.101297 0.007924
0.252933 0.101966 0.008066
0.264272 0.102371 0.008443
0.275416 0.102696 0.008667
0.286273 0.102905 0.008667
0.296966 0.102945 0.008667
0.307447 0.102766 0.008667
0.317797 0.102491 0.008667
0.327997 0.102107 0.008667
0.338085 0.101612 0.008667
0.348061 0.101006 0.008667
0.357961 0.100293 0.008667
0.367794 0.099486 0.008667
0.377572 0.098544 0.008667
0.387308 0.097498 0.008667
0.396981 0.096315 0.008667
0.406610 0.095037 0.008667
0.416255 0.093743 0.008667
0.425908 0.092439 0.008667
0.435544 0.091104 0.008667
0.445170 0.089754 0.008667
0.454771 0.088392 0.008667
0.464360 0.087024 0.008667
0.473885 0.085789 0.008667
0.483384 0.084604 0.008667
0.492775 0.083396 0.008667
0.502129 0.082180 0.008667
0.511336 0.081121 0.008648
0.520502 0.080105 0.008623
0.529466 0.079097 0.008324
0.538385 0.078090 0.007961
0.547067 0.077266 0.007904
0.555706 0.076475 0.007904
0.564103 0.075898 0.007904
0.572466 0.075352 0.007904
0.580702 0.074791 0.007904
0.588924 0.074229 0.007904
0.596944 0.073678 0.007904
0.604950 0.073129 0.007904
0.612867 0.072578 0.007904
0.620780 0.072027 0.007904
0.000000 0.079664 0.058363
0.004920 0.080990 0.055280
0.009853 0.082324 0.052195
0.015170 0.083865 0.049026
0.020576 0.085403 0.045842
0.027324 0.086900 0.042430
0.034223 0.088404 0.039035
0.042599 0.089967 0.035813
0.051217 0.091524 0.032587
0.061539 0.093041 0.029329
0.072073 0.094584 0.026106
0.083756 0.096267 0.023070
0.095694 0.097924 0.020175
0.108737 0.099467 0.017887
0.121927 0.101042 0.015700
0.135641 0.102730 0.013874
0.149409 0.104384 0.012189
0.163340 0.105938 0.010931
0.177208 0.107456 0.009849
0.190916 0.108877 0.009216
0.204469 0.110175 0.008708
0.217685 0.111200 0.008478
0.230672 0.112217 0.008327
0.243224 0.113218 0.008327
0.255530 0.114045 0.008392
0.267428 0.114584 0.008565
0.279076 0.115014 0.008667
0.290359 0.115286 0.008667
0.301463 0.115440 0.008667
0.312338 0.115443 0.008667
0.323014 0.115279 0.008667
0.333466 0.114927 0.008667
0.343779 0.114439 0.008667
0.353953 0.113817 0.008667
0.364033 0.113093 0.008667
0.374031 0.112277 0.008667
0.383956 0.111297 0.008667
0.393826 0.110188 0.008667
0.403642 0.108951 0.008667
0.413421 0.107626 0.008667
0.423181 0.106226 0.008667
0.432928 0.104780 0.008667
0.442679 0.103304 0.008667
0.452432 0.101811 0.008667
0.462126 0.100302 0.008667
0.471794 0.098785 0.008667
0.481414 0.097383 0.008667
0.491016 0.096025 0.008667
0.500474 0.094638 0.008667
0.509883 0.093241 0.008667
0.519133 0.091902 0.008494
0.528338 0.090580 0.008273
0.537342 0.089418 0.008096
0.546299 0.088293 0.007930
0.555021 0.087237 0.007904
0.563699 0.086194 0.007904
0.572157 0.085345 0.007904
0.580583 0.084524 0.007904
0.588874 0.083680 0.007904
0.597152 0.082834 0.007904
0.605234 0.082096 0.007904
0.613303 0.081365 0.007904
0.621283 0.080626 0.007904
0.629259 0.079886 0.007904
0.000000 0.087672 0.064240
0.004306 0.089024 0.061225
0.008625 0.090382 0.058202
0.013336 0.091930 0.054957
0.018146 0.093488 0.051692
0.024453 0.095190 0.048142
0.030900 0.096889 0.044589
0.038693 0.098556 0.041013
0.046774 0.100218 0.037429
0.056876 0.101839 0.033789
0.067214 0.103511 0.030213
0.078830 0.105452 0.026972
0.090766 0.107355 0.023801
0.104088 0.109090 0.020932
0.117596 0.110854 0.018233
0.131767 0.112722 0.016138
0.146044 0.114575 0.014151
0.160640 0.116381 0.012490
0.175196 0.118171 0.011061
0.189651 0.119917 0.010223
0.203964 0.121502 0.009501
0.217964 0.122734 0.009035
0.231708 0.123947 0.008719
0.244964 0.125124 0.008687
0.257931 0.126122 0.008667
0.270415 0.126818 0.008667
0.282595 0.127375 0.008667
0.294331 0.127728 0.008667
0.305865 0.128003 0.008667
0.317137 0.128177 0.008667
0.328151 0.128124 0.008667
0.338872 0.127814 0.008667
0.349423 0.127350 0.008667
0.359803 0.126734 0.008667
0.370070 0.126009 0.008667
0.380237 0.125187 0.008667
0.390316 0.124177 0.008667
0.400327 0.123021 0.008667
0.410286 0.121740 0.008667
0.420209 0.120373 0.008667
0.430090 0.118883 0.008667
0.439945 0.117319 0.008667
0.449812 0.115724 0.008667
0.459687 0.114113 0.008667
0.469479 0.112464 0.008667
0.479235 0.110798 0.008667
0.488950 0.109230 0.008667
0.498650 0.107700 0.008667
0.508175 0.106135 0.008667
0.517641 0.104558 0.008667
0.526936 0.102955 0.008364
0.536183 0.101346 0.007977
0.545228 0.100010 0.007904
0.554226 0.098737 0.007904
0.562989 0.097448 0.007904
0.571710 0.096156 0.007904
0.580227 0.095035 0.007904
0.588716 0.093939 0.007904
0.597059 0.092815 0.007904
0.605387 0.091689 0.007904
0.613531 0.090745 0.007904
0.621664 0.089813 0.007904
0.629705 0.088880 0.007904
0.637744 0.087946 0.007904
0.000000 0.095066 0.069712
0.003692 0.096536 0.066744
0.007397 0.098011 0.063769
0.011502 0.099646 0.060586
0.015705 0.101289 0.057387
0.021406 0.103070 0.053931
0.027273 0.104855 0.050439
0.034744 0.106680 0.046595
0.042489 0.108499 0.042742
0.052157 0.110278 0.038828
0.062089 0.112102 0.034986
0.073445 0.114170 0.031541
0.085179 0.116230 0.028128
0.098548 0.118256 0.024858
0.112185 0.120324 0.021711
0.126773 0.122538 0.019001
0.141501 0.124713 0.016451
0.156647 0.126772 0.014381
0.171810 0.128789 0.012600
0.187013 0.130701 0.011557
0.202094 0.132506 0.010569
0.216905 0.134075 0.009702
0.231460 0.135578 0.009051
0.245527 0.136953 0.008815
0.259275 0.138182 0.008667
0.272491 0.139170 0.008667
0.285353 0.139970 0.008667
0.297695 0.140496 0.008667
0.309752 0.140923 0.008667
0.321441 0.141224 0.008667
0.332847 0.141283 0.008667
0.343930 0.141066 0.008667
0.354792 0.140713 0.008667
0.365432 0.140223 0.008667
0.375921 0.139557 0.008667
0.386277 0.138736 0.008667
0.396540 0.137748 0.008667
0.406733 0.136630 0.008667
0.416835 0.135356 0.008667
0.426877 0.133974 0.008667
0.436910 0.132483 0.008667
0.446938 0.130926 0.008667
0.456933 0.129339 0.008667
0.466910 0.127736 0.008667
0.476826 0.125987 0.008667
0.486715 0.124171 0.008667
0.496519 0.122442 0.008667
0.506290 0.120747 0.008667
0.515885 0.119010 0.008667
0.525423 0.117260 0.008667
0.534776 0.115478 0.008364
0.544079 0.113688 0.007977
0.553172 0.112068 0.007904
0.562217 0.110489 0.007904
0.571035 0.108952 0.007904
0.579810 0.107424 0.007904
0.588390 0.106039 0.007904
0.596941 0.104676 0.007904
0.605312 0.103284 0.007904
0.613663 0.101890 0.007904
0.621868 0.100641 0.007904
0.630063 0.099402 0.007904
0.638160 0.098246 0.007904
0.646254 0.097092 0.007904
0.000000 0.102399 0.075076
0.003080 0.103981 0.072175
0.006175 0.105567 0.069267
0.009748 0.107285 0.066168
0.013416 0.109013 0.063051
0.018509 0.110869 0.059659
0.023790 0.112736 0.056206
0.030884 0.114699 0.052166
0.038239 0.116660 0.048110
0.047417 0.118604 0.043931
0.056897 0.120588 0.039829
0.068011 0.122790 0.036142
0.079546 0.125012 0.032458
0.092907 0.127318 0.028785
0.106613 0.129671 0.025205
0.121549 0.132192 0.021958
0.136667 0.134663 0.018903
0.152331 0.136987 0.016423
0.168073 0.139250 0.014269
0.184017 0.141356 0.012946
0.199864 0.143403 0.011652
0.215496 0.145319 0.010420
0.230871 0.147124 0.009459
0.245757 0.148717 0.009018
0.260300 0.150191 0.008728
0.274272 0.151466 0.008690
0.287839 0.152513 0.008667
0.300812 0.153225 0.008667
0.313420 0.153819 0.008667
0.325558 0.154260 0.008667
0.337382 0.154445 0.008667
0.348850 0.154340 0.008667
0.360041 0.154101 0.008667
0.370955 0.153730 0.008667
0.381682 0.153132 0.008667
0.392243 0.152334 0.008667
0.402698 0.151384 0.008667
0.413072 0.150315 0.008667
0.423328 0.149065 0.008667
0.433504 0.147693 0.008667
0.443693 0.146217 0.008667
0.453890 0.144680 0.008667
0.464014 0.143099 0.008667
0.474101 0.141496 0.008667
0.484144 0.139668 0.008667
0.494167 0.137739 0.008667
0.504064 0.135862 0.008667
0.513913 0.134005 0.008667
0.523584 0.132109 0.008667
0.533195 0.130200 0.008667
0.542608 0.128246 0.008393
0.551965 0.126279 0.008042
0.561111 0.124395 0.007977
0.570207 0.122530 0.007977
0.579083 0.120756 0.007977
0.587918 0.118999 0.007977
0.596558 0.117345 0.007977
0.605170 0.115707 0.007977
0.613577 0.114050 0.007977
0.621962 0.112392 0.007977
0.630226 0.110833 0.007977
0.638481 0.109279 0.007977
0.646634 0.107872 0.007977
0.654784 0.106470 0.007977
0.000000 0.109468 0.079974
0.002473 0.111136 0.077222
0.004975 0.112808 0.074465
0.008343 0.114598 0.071539
0.011781 0.116395 0.068580
0.016260 0.118315 0.065117
0.020927 0.120244 0.061611
0.027415 0.122262 0.057690
0.034147 0.124296 0.053710
0.042585 0.126436 0.049319
0.051414 0.128613 0.044975
0.062363 0.130989 0.040886
0.073717 0.133395 0.036799
0.086826 0.135929 0.032717
0.100345 0.138489 0.028772
0.115329 0.141144 0.025320
0.130575 0.143797 0.022009
0.146609 0.146443 0.019120
0.162816 0.149029 0.016501
0.179469 0.151458 0.014572
0.196073 0.153845 0.012797
0.212571 0.156139 0.011360
0.228808 0.158300 0.010195
0.244543 0.160208 0.009549
0.259939 0.161980 0.009054
0.274770 0.163522 0.008811
0.289147 0.164827 0.008667
0.302861 0.165783 0.008667
0.316140 0.166603 0.008667
0.328860 0.167250 0.008667
0.341219 0.167628 0.008667
0.353167 0.167704 0.008667
0.364767 0.167599 0.008667
0.376020 0.167315 0.008667
0.387052 0.166824 0.008667
0.397889 0.166152 0.008667
0.408567 0.165306 0.008667
0.419121 0.164323 0.008667
0.429572 0.163179 0.008667
0.439953 0.161924 0.008667
0.450312 0.160538 0.008667
0.460658 0.159072 0.008667
0.470927 0.157489 0.008667
0.481156 0.155846 0.008667
0.491335 0.154039 0.008667
0.501492 0.152158 0.008667
0.511507 0.150186 0.008667
0.521465 0.148179 0.008667
0.531229 0.146175 0.008667
0.540926 0.144172 0.008667
0.550401 0.142074 0.008547
0.559814 0.139949 0.008393
0.569027 0.137882 0.008364
0.578195 0.135829 0.008364
