Plugins/FilmEmulator/Content/LUTs/FE_Kodak_Vision_250D_5246_64.cube
# FilmEmulator LUT (resampled to 64)
LUT_3D_SIZE 8
0.000000 0.001617 0.001038
0.144679 0.000000 0.000000
0.297721 0.000000 0.000000
0.450762 0.000000 0.000000
0.603864 0.000000 0.000000
0.756901 0.000000 0.000000
0.909947 0.000000 0.000000
1.000000 0.000000 0.000000
0.000000 0.085331 0.016222
0.134199 0.118903 0.002018
0.297747 0.129159 0.000000
0.450762 0.129159 0.000000
0.603864 0.129159 0.000000
0.756932 0.129159 0.000000
0.909947 0.129159 0.000000
1.000000 0.129159 0.000000
0.002228 0.172001 0.035972
0.149693 0.209071 0.075528
0.295017 0.280763 0.021394
0.450748 0.288909 0.000000
0.603864 0.288901 0.000000
0.756932 0.288901 0.000000
0.909978 0.288901 0.000000
1.000000 0.288901 0.000000
0.020455 0.258928 0.058206
0.173849 0.305123 0.106972
0.324323 0.372987 0.159931
0.456589 0.439187 0.050164
0.603164 0.448254 0.000000
0.756932 0.448665 0.000000
0.909978 0.448665 0.000000
1.000000 0.448665 0.000000
0.045345 0.340742 0.079865
0.168552 0.378535 0.118382
0.324422 0.432331 0.180145
0.445764 0.513283 0.158932
0.598447 0.581947 0.065072
0.753234 0.603016 0.001721
0.909978 0.608403 0.000000
1.000000 0.608403 0.000000
0.057277 0.415632 0.095503
0.160709 0.444307 0.123639
0.298624 0.487370 0.171657
0.423151 0.530664 0.217377
0.572841 0.649706 0.160104
0.745703 0.724688 0.076976
0.902263 0.752431 0.009031
1.000000 0.767591 0.000000
0.063524 0.485779 0.107043
0.148425 0.503483 0.123634
0.271637 0.538706 0.162562
0.412592 0.582282 0.215461
0.548516 0.657443 0.249825
0.729576 0.797849 0.167649
0.891492 0.864197 0.085575
1.000000 0.894823 0.015869
0.067749 0.555267 0.118011
0.144505 0.568154 0.129547
0.262756 0.602801 0.166770
0.413330 0.644828 0.221057
0.543073 0.705178 0.273630
0.713466 0.824907 0.263951
0.884796 0.944214 0.174774
1.000000 0.996155 0.086487
0.004085 0.009639 0.090027
0.084585 0.005100 0.092476
0.290845 0.000000 0.123237
0.450762 0.000000 0.125658
0.603864 0.000000 0.125658
0.756901 0.000000 0.125658
0.909947 0.000000 0.125658
1.000000 0.000000 0.125658
0.000232 0.097195 0.119485
0.072412 0.119128 0.134284
0.293585 0.129951 0.126478
0.450762 0.129159 0.125658
0.603864 0.129159 0.125658
0.756932 0.129159 0.125658
0.909947 0.129159 0.125658
1.000000 0.129159 0.125658
0.000000 0.188856 0.138195
0.050877 0.210094 0.146481
0.265867 0.276561 0.143126
0.450610 0.288895 0.125931
0.603864 0.288901 0.125658
0.756932 0.288901 0.125658
0.909978 0.288901 0.125658
1.000000 0.288901 0.125658
0.000000 0.276972 0.154584
0.056414 0.294798 0.156519
0.223030 0.342805 0.186423
0.438506 0.431961 0.172295
0.601636 0.448483 0.133449
0.756932 0.448665 0.125658
0.909978 0.448665 0.125658
1.000000 0.448665 0.125658
0.000000 0.358385 0.167611
0.064085 0.371912 0.168112
0.217164 0.405456 0.196353
0.426248 0.504431 0.235804
0.591056 0.582959 0.195283
0.750876 0.604261 0.147600
0.909978 0.608403 0.125658
1.000000 0.608403 0.125658
0.005013 0.434094 0.178919
0.069504 0.445444 0.181010
0.189125 0.473221 0.201272
0.411665 0.528069 0.273308
0.571395 0.655401 0.259503
0.740246 0.728872 0.211321
0.899574 0.754436 0.159470
1.000000 0.767658 0.126518
0.007429 0.506779 0.190991
0.072766 0.519770 0.196511
0.166151 0.541400 0.209612
0.391725 0.584707 0.268987
0.549379 0.666636 0.322146
0.722577 0.804327 0.280436
0.887645 0.869002 0.219837
1.000000 0.898999 0.167635
0.009343 0.583047 0.207899
0.075266 0.598455 0.217598
0.163193 0.621662 0.231232
0.372307 0.648903 0.269564
0.539746 0.709524 0.335116
0.704565 0.833174 0.352329
0.879487 0.952175 0.293466
1.000000 1.000000 0.228014
0.014439 0.015341 0.155805
0.070025 0.012461 0.150191
0.164444 0.014027 0.167998
0.384593 0.000035 0.249279
0.600467 0.000000 0.285352
0.756901 0.000000 0.286834
0.909947 0.000000 0.286834
1.000000 0.000000 0.286834
0.012258 0.105190 0.203412
0.068131 0.116650 0.217441
0.173386 0.133541 0.241439
0.404326 0.139939 0.270421
0.601428 0.129860 0.286205
0.756932 0.129159 0.286861
0.909947 0.129159 0.286834
1.000000 0.129159 0.286834
0.007660 0.202191 0.244492
0.058492 0.222917 0.262522
0.146376 0.269291 0.295652
0.417653 0.298496 0.299077
0.602794 0.289463 0.287046
0.756932 0.288901 0.286865
0.909978 0.288901 0.286837
1.000000 0.288901 0.286834
0.003581 0.300069 0.275987
0.054630 0.315214 0.280218
0.129317 0.357016 0.295458
0.406971 0.434599 0.301499
0.600002 0.449048 0.291823
0.756932 0.448665 0.286865
0.909978 0.448665 0.286865
1.000000 0.448665 0.286861
0.000748 0.387484 0.293829
0.057476 0.396975 0.287317
0.109774 0.427951 0.297272
0.345344 0.511908 0.319448
0.579275 0.580951 0.323495
0.748751 0.605597 0.301867
0.909978 0.608403 0.286865
1.000000 0.608403 0.286865
0.004145 0.468888 0.305763
0.052869 0.477893 0.301517
0.116148 0.504191 0.309265
0.260722 0.546782 0.329811
0.552565 0.652918 0.357724
0.730219 0.730286 0.345001
0.898268 0.756829 0.310398
1.000000 0.767756 0.287456
0.001920 0.546377 0.317327
0.055194 0.556725 0.317562
0.117908 0.578248 0.325220
0.224304 0.616501 0.343942
0.505923 0.664602 0.385175
0.706903 0.804885 0.387703
0.885260 0.874708 0.355865
1.000000 0.902931 0.317697
0.001134 0.624137 0.333064
0.057341 0.633847 0.333383
0.123973 0.654763 0.342074
0.204149 0.685167 0.356842
0.460232 0.714960 0.388751
0.684118 0.831323 0.430591
0.873283 0.959532 0.413320
1.000000 1.000000 0.364607
0.022840 0.022605 0.222848
0.075509 0.018416 0.216132
0.142568 0.024657 0.215704
0.251130 0.031484 0.249685
0.476714 0.012942 0.359901
0.696271 0.000000 0.416652
0.904678 0.000000 0.445802
1.000000 0.000000 0.448020
0.025164 0.115487 0.278780
0.079234 0.123786 0.289627
0.146639 0.133060 0.297789
0.278679 0.143139 0.311641
0.501499 0.154005 0.387363
0.708313 0.143089 0.427117
0.905560 0.130177 0.446363
1.000000 0.129159 0.448020
0.017159 0.210458 0.325637
0.064080 0.226321 0.342061
0.132069 0.258134 0.368081
0.275989 0.304382 0.416400
0.537877 0.310875 0.430302
0.730087 0.300129 0.441199
0.907478 0.289412 0.446934
1.000000 0.288901 0.448020
0.019745 0.311408 0.367992
0.065536 0.327644 0.380297
0.122951 0.360583 0.403020
0.246461 0.420283 0.445745
0.549566 0.458730 0.457474
0.738544 0.456117 0.451448
0.908330 0.448989 0.447497
1.000000 0.448665 0.448020
0.016771 0.414155 0.406557
0.065569 0.424256 0.408556
0.115742 0.450835 0.418799
0.260910 0.514166 0.446506
0.547503 0.582273 0.459000
0.740775 0.606429 0.460770
0.908693 0.608401 0.448632
1.000000 0.608403 0.448035
0.012596 0.510047 0.432458
0.061850 0.516962 0.428323
0.130089 0.540755 0.434430
0.224267 0.580121 0.455715
0.505662 0.673652 0.469849
0.722691 0.730828 0.476326
0.898165 0.759956 0.462865
1.000000 0.767879 0.448327
0.008390 0.595761 0.448518
0.064287 0.599467 0.442108
0.127811 0.618725 0.447422
0.207432 0.653679 0.465412
0.395545 0.704992 0.482898
0.693274 0.808936 0.499135
0.880761 0.881693 0.496007
1.000000 0.907423 0.468148
0.014051 0.674247 0.460371
0.077360 0.676291 0.454297
0.118119 0.692889 0.458334
0.181939 0.720884 0.472377
0.323090 0.754781 0.484958
0.649979 0.836126 0.515942
0.865664 0.966290 0.532362
1.000000 1.000000 0.502502
0.029345 0.030008 0.289787
0.081029 0.024122 0.280848
0.143219 0.028436 0.280135
0.218056 0.041083 0.282177
0.344307 0.055782 0.344060
0.574725 0.038453 0.465512
0.791288 0.013958 0.535725
0.995832 0.000000 0.579254
0.036194 0.124290 0.347309
0.088525 0.129754 0.355649
0.147280 0.134452 0.359830
0.229055 0.135930 0.351093
0.377664 0.163733 0.388627
0.603913 0.174116 0.496343
0.807747 0.157131 0.549707
0.998231 0.140760 0.583465
0.029161 0.221142 0.401065
0.078824 0.231496 0.412052
0.128607 0.254683 0.434372
0.217810 0.295545 0.472177
0.422219 0.311662 0.492978
0.650293 0.330224 0.545982
0.840233 0.309958 0.572361
1.000000 0.293460 0.588390
0.016437 0.317783 0.444454
0.078425 0.330199 0.452061
0.125889 0.357877 0.472316
0.202364 0.406223 0.513045
0.412929 0.461044 0.564882
0.681791 0.472949 0.580872
0.870400 0.460286 0.586253
1.000000 0.447709 0.590094
0.020202 0.425352 0.489691
0.076595 0.437596 0.496075
0.129668 0.462955 0.510665
0.198720 0.511774 0.546936
0.451657 0.564191 0.574895
0.694386 0.606684 0.602582
0.878905 0.609843 0.600527
1.000000 0.604926 0.595669
0.024071 0.533815 0.529384
0.074206 0.544378 0.531831
0.126160 0.567333 0.541909
0.236885 0.604428 0.561204
0.451328 0.660287 0.585564
0.694277 0.721427 0.608221
0.883998 0.756342 0.618360
1.000000 0.763484 0.608288
0.020374 0.630303 0.553930
0.069724 0.639004 0.552567
0.143822 0.659755 0.559964
0.241427 0.692139 0.578044
0.412758 0.733996 0.595622
0.675356 0.826911 0.614851
0.878772 0.887021 0.631822
1.000000 0.911397 0.618300
0.014915 0.709490 0.564915
0.075262 0.716824 0.563223
0.155055 0.732778 0.568126
0.229022 0.760063 0.583869
0.332615 0.792309 0.601480
0.593694 0.870552 0.617587
0.861214 0.974788 0.652227
1.000000 1.000000 0.641493
0.034027 0.035584 0.354209
0.085111 0.029122 0.343884
0.144688 0.031866 0.342835
0.217947 0.042848 0.344584
0.302371 0.068316 0.360771
0.452293 0.086670 0.444708
0.673979 0.063471 0.568485
0.883392 0.033382 0.644501
0.043090 0.131297 0.413742
0.095986 0.135059 0.419241
0.150893 0.136527 0.420620
0.221940 0.134644 0.410779
0.322985 0.155253 0.408636
0.486651 0.196827 0.488982
0.703646 0.190939 0.597140
0.899629 0.166809 0.657409
0.036450 0.230058 0.472253
0.087878 0.237243 0.479831
0.136644 0.254138 0.497142
0.207425 0.286796 0.529268
0.338850 0.294821 0.533010
0.550336 0.340182 0.563965
0.757236 0.340657 0.647337
0.930710 0.308330 0.678295
0.018231 0.327254 0.519028
0.075955 0.336589 0.524636
0.141557 0.356957 0.537969
0.198254 0.397352 0.573640
0.332368 0.447290 0.620457
0.591403 0.472118 0.636677
0.810175 0.486302 0.690525
0.973387 0.453669 0.699246
0.035263 0.429078 0.558168
0.077314 0.439033 0.563231
0.138068 0.460754 0.576942
0.204457 0.505293 0.612684
0.324595 0.554868 0.655650
0.606551 0.596118 0.683596
0.840128 0.617701 0.716334
1.000000 0.600616 0.714468
0.033455 0.540258 0.603540
0.083165 0.553348 0.609095
0.135542 0.579194 0.624285
0.218814 0.616814 0.651131
0.421916 0.654317 0.671477
0.625555 0.701174 0.702658
0.851213 0.749879 0.745247
1.000000 0.752150 0.736398
0.029010 0.643858 0.636707
0.081192 0.657399 0.641911
0.141308 0.683509 0.656166
0.267596 0.715024 0.673982
0.434946 0.745984 0.690813
0.630134 0.801775 0.722491
0.855454 0.868234 0.762395
1.000000 0.899360 0.764462
0.025909 0.731463 0.654655
0.074573 0.745401 0.658453
0.165245 0.769441 0.669757
0.259373 0.796778 0.686758
0.398617 0.826420 0.704504
0.594721 0.891125 0.731811
0.855117 0.978914 0.769697
1.000000 1.000000 0.783269
0.037480 0.039617 0.416343
0.088338 0.032555 0.404664
0.146174 0.034232 0.403340
0.217187 0.044040 0.405059
0.300567 0.067386 0.417062
0.401697 0.103909 0.454147
0.553117 0.112010 0.539761
0.762791 0.079023 0.659999
0.047668 0.134014 0.474053
0.100951 0.137073 0.478570
0.155494 0.137096 0.477636
0.219131 0.132802 0.466928
0.311223 0.148298 0.465115
0.425661 0.193904 0.491754
0.589517 0.218598 0.577699
0.786268 0.194570 0.680882
0.041407 0.234626 0.537037
0.093960 0.240011 0.542844
0.145895 0.254279 0.557858
0.205122 0.277601 0.583011
0.311127 0.279220 0.582637
0.485531 0.320007 0.569826
0.657504 0.358558 0.648442
0.831483 0.324798 0.716860
0.027491 0.333277 0.586163
0.075158 0.340563 0.592262
0.141036 0.358858 0.605087
0.208823 0.390682 0.632998
0.327311 0.435987 0.676095
0.520736 0.452755 0.675390
0.723417 0.499038 0.717562
0.890029 0.465283 0.760947
0.036982 0.432442 0.624790
0.090383 0.441502 0.628905
0.136136 0.462574 0.644188
0.206510 0.500864 0.676257
0.302037 0.548962 0.723872
0.534232 0.587217 0.750570
0.765896 0.621498 0.768140
0.948221 0.605731 0.800714
0.033718 0.539826 0.667017
0.089711 0.550401 0.671157
0.143072 0.574088 0.686608
0.203322 0.611341 0.716944
0.339658 0.654749 0.755573
0.566034 0.689378 0.774959
0.794052 0.735059 0.811831
0.988457 0.743840 0.832670
0.033839 0.642550 0.701980
0.086574 0.661347 0.712431
0.143147 0.690071 0.731916
0.266072 0.723480 0.755665
0.433992 0.755342 0.776445
0.609979 0.792688 0.801524
0.817786 0.849264 0.846815
0.999940 0.887631 0.876439
0.033434 0.733660 0.725848
0.085809 0.755047 0.737022
0.171563 0.783176 0.753921
0.283782 0.814754 0.775004
0.435277 0.846066 0.795214
0.604809 0.883519 0.821305
0.821887 0.946090 0.863949
1.000000 1.000000 0.909144
0.040344 0.042297 0.476624
0.090319 0.034629 0.463440
0.147243 0.035422 0.462215
0.216867 0.045183 0.465271
0.299621 0.067282 0.475054
0.397095 0.104880 0.513201
0.494860 0.133114 0.536913
0.640930 0.125000 0.624390
0.051357 0.134905 0.531534
0.105114 0.137668 0.535492
0.159151 0.135790 0.532154
0.218857 0.131293 0.522634
0.301361 0.142560 0.521422
0.414540 0.184599 0.539040
0.529755 0.225687 0.574860
0.673152 0.223558 0.654353
0.046260 0.237113 0.599091
0.099444 0.241927 0.604512
0.153030 0.252447 0.616128
0.213571 0.272518 0.638537
0.297454 0.268471 0.632893
0.461503 0.302137 0.620942
0.596297 0.353293 0.648087
0.735679 0.348057 0.710611
0.038291 0.335563 0.648564
0.084533 0.342541 0.655476
0.135999 0.359043 0.670382
0.216055 0.390244 0.698197
0.307244 0.427708 0.739063
0.487639 0.436761 0.733708
0.668537 0.489485 0.729051
0.810281 0.486145 0.778765
0.034053 0.435325 0.691363
0.094903 0.444081 0.695058
0.144275 0.464687 0.710579
0.208034 0.501682 0.743897
0.305365 0.548100 0.791894
0.527207 0.586268 0.823455
0.721569 0.611682 0.795254
0.879020 0.623086 0.843859
0.029986 0.537737 0.728813
0.089955 0.547429 0.732841
0.149276 0.571752 0.750268
0.219003 0.610575 0.783993
0.315795 0.654954 0.830514
0.532275 0.697529 0.866542
0.764142 0.728923 0.863826
0.933218 0.750842 0.897644
0.041508 0.635040 0.760520
0.091266 0.654084 0.771362
0.146445 0.683208 0.792436
0.214721 0.717891 0.823745
0.358196 0.755435 0.858845
0.572714 0.793385 0.885814
0.789364 0.835821 0.908701
0.975425 0.877581 0.945954
0.036560 0.732880 0.791962
0.091945 0.755881 0.805638
0.150857 0.788897 0.831020
0.286590 0.821707 0.855250
0.439605 0.855853 0.880938
0.613055 0.892770 0.907601
0.809431 0.940914 0.943355
0.998718 0.998444 0.997040
