Plugins/FilmEmulator/Content/LUTs/FE_Kodak_2393_64.cube
TITLE "FE_Kodak_2393_33"
LUT_3D_SIZE 64
0.0000000 0.0314735 0.0482661
0.0018077 0.0327629 0.0489177
0.0358512 0.0372898 0.0512112
0.0807199 0.0434443 0.0543474
0.1333576 0.0509559 0.0582026
0.1910234 0.0595741 0.0626649
0.2587689 0.0702674 0.0682587
0.3338734 0.0829234 0.0749655
0.4150871 0.0976874 0.0829110
0.4887023 0.1140584 0.0891685
0.5644680 0.1342095 0.0947086
0.6330617 0.1511818 0.1029821
0.7043191 0.1691131 0.1132625
0.7658626 0.1860561 0.1232619
0.8214277 0.2031105 0.1364402
0.8704772 0.2197757 0.1520852
0.9185673 0.2377700 0.1673115
0.9590819 0.2554765 0.1785666
0.9937711 0.2739549 0.1892004
1.0000000 0.2907104 0.1988283
1.0000000 0.3069581 0.2089192
1.0000000 0.3250057 0.2215855
1.0000000 0.3413463 0.2354892
1.0000000 0.3559455 0.2490431
1.0000000 0.3719695 0.2640494
1.0000000 0.3851870 0.2775187
1.0000000 0.3978584 0.2907931
1.0000000 0.4079083 0.3025565
1.0000000 0.4196078 0.3151714
1.0000000 0.4290861 0.3264616
1.0000000 0.4391736 0.3392313
1.0000000 0.4492255 0.3508083
1.0000000 0.4593897 0.3633693
1.0000000 0.4703272 0.3770037
1.0000000 0.4791216 0.3879033
1.0000000 0.4904811 0.4018875
1.0000000 0.4994767 0.4129624
1.0000000 0.5084811 0.4238789
1.0000000 0.5173656 0.4345350
1.0000000 0.5258005 0.4447729
1.0000000 0.5345683 0.4548928
1.0000000 0.5416750 0.4635165
1.0000000 0.5493181 0.4719746
1.0000000 0.5565189 0.4805488
1.0000000 0.5641108 0.4888912
1.0000000 0.5707945 0.4970040
1.0000000 0.5780606 0.5051502
1.0000000 0.5840528 0.5121525
1.0000000 0.5901450 0.5192296
1.0000000 0.5966607 0.5266203
1.0000000 0.6031188 0.5339416
1.0000000 0.6094245 0.5411140
1.0000000 0.6158089 0.5483408
1.0000000 0.6223320 0.5556752
1.0000000 0.6287182 0.5628748
1.0000000 0.6349488 0.5699218
1.0000000 0.6392751 0.5748046
1.0000000 0.6456558 0.5820196
1.0000000 0.6509650 0.5882282
1.0000000 0.6559660 0.5937198
1.0000000 0.6624348 0.6009732
1.0000000 0.6667098 0.6057673
1.0000000 0.6729878 0.6128248
1.0000000 0.6770709 0.6174284
0.0000000 0.0390432 0.0489976
0.0000000 0.0396646 0.0493301
0.0325853 0.0441972 0.0516789
0.0775994 0.0502737 0.0548187
0.1298362 0.0575810 0.0586328
0.1846876 0.0655971 0.0628554
0.2532396 0.0761662 0.0684799
0.3264536 0.0882289 0.0749716
0.4022181 0.1017202 0.0823036
0.4798567 0.1163324 0.0871018
0.5548597 0.1317551 0.0930303
0.6283196 0.1485124 0.1020806
0.6938370 0.1649623 0.1113781
0.7555023 0.1818960 0.1212564
0.8113871 0.1990498 0.1343139
0.8655937 0.2176722 0.1504617
0.9087287 0.2339289 0.1644763
0.9549181 0.2535729 0.1773445
0.9863700 0.2697987 0.1868304
1.0000000 0.2868848 0.1964243
1.0000000 0.3043491 0.2071476
1.0000000 0.3226719 0.2199341
1.0000000 0.3390450 0.2335019
1.0000000 0.3536520 0.2468371
1.0000000 0.3695586 0.2617364
1.0000000 0.3830475 0.2753016
1.0000000 0.3957958 0.2885611
1.0000000 0.4079179 0.3019289
1.0000000 0.4176807 0.3128869
1.0000000 0.4272122 0.3249511
1.0000000 0.4390629 0.3382893
1.0000000 0.4492255 0.3508083
1.0000000 0.4575193 0.3618267
1.0000000 0.4681656 0.3743033
1.0000000 0.4791216 0.3879033
1.0000000 0.4882205 0.3991020
1.0000000 0.4972168 0.4101886
1.0000000 0.5062244 0.4211797
1.0000000 0.5156661 0.4330829
1.0000000 0.5237224 0.4422429
1.0000000 0.5323835 0.4523792
1.0000000 0.5410423 0.4623567
1.0000000 0.5479039 0.4707404
1.0000000 0.5557700 0.4793295
1.0000000 0.5628436 0.4877743
1.0000000 0.5699431 0.4956762
1.0000000 0.5760489 0.5027998
1.0000000 0.5828782 0.5111051
1.0000000 0.5901450 0.5192296
1.0000000 0.5966607 0.5266203
1.0000000 0.6031188 0.5339416
1.0000000 0.6094245 0.5411140
1.0000000 0.6158089 0.5483408
1.0000000 0.6223320 0.5556752
1.0000000 0.6276907 0.5619330
1.0000000 0.6328856 0.5675862
1.0000000 0.6392751 0.5748046
1.0000000 0.6446940 0.5811290
1.0000000 0.6498342 0.5867537
1.0000000 0.6559660 0.5937198
1.0000000 0.6602745 0.5985534
1.0000000 0.6667098 0.6057673
1.0000000 0.6709249 0.6105013
1.0000000 0.6770709 0.6174284
0.0000000 0.0587368 0.0509385
0.0000000 0.0589184 0.0509833
0.0304644 0.0634390 0.0534031
0.0751838 0.0692670 0.0565244
0.1270587 0.0763260 0.0603191
0.1811475 0.0840350 0.0644895
0.2480607 0.0941284 0.0699863
0.3228914 0.1061999 0.0766299
0.3981923 0.1190110 0.0807092
0.4748887 0.1332797 0.0857807
0.5489557 0.1483569 0.0937983
0.6220168 0.1646577 0.1030635
0.6872544 0.1805983 0.1123120
0.7479995 0.1971079 0.1245944
0.8036010 0.2139978 0.1401435
0.8577561 0.2319536 0.1549070
0.9058857 0.2493474 0.1670350
0.9478223 0.2659712 0.1778865
0.9837785 0.2817363 0.1881379
1.0000000 0.2955976 0.1974292
1.0000000 0.3105308 0.2087705
1.0000000 0.3243796 0.2205703
1.0000000 0.3386135 0.2337904
1.0000000 0.3533111 0.2480450
1.0000000 0.3659973 0.2610925
1.0000000 0.3793292 0.2745931
1.0000000 0.3923005 0.2879801
1.0000000 0.4049001 0.3008125
1.0000000 0.4151322 0.3119847
1.0000000 0.4270039 0.3249165
1.0000000 0.4371976 0.3367136
1.0000000 0.4472615 0.3483339
1.0000000 0.4572451 0.3607078
1.0000000 0.4663431 0.3727922
1.0000000 0.4769201 0.3851795
1.0000000 0.4859453 0.3963020
1.0000000 0.4972168 0.4101886
1.0000000 0.5062244 0.4211797
1.0000000 0.5151655 0.4318919
1.0000000 0.5237224 0.4422429
1.0000000 0.5308315 0.4510401
1.0000000 0.5388975 0.4598815
1.0000000 0.5472332 0.4695635
1.0000000 0.5543849 0.4781157
1.0000000 0.5621045 0.4865723
1.0000000 0.5687393 0.4946114
1.0000000 0.5760489 0.5027998
1.0000000 0.5820497 0.5098149
1.0000000 0.5881267 0.5168830
1.0000000 0.5944804 0.5241526
1.0000000 0.6009798 0.5315148
1.0000000 0.6073409 0.5387410
1.0000000 0.6136057 0.5458676
1.0000000 0.6201719 0.5532446
1.0000000 0.6266096 0.5604944
1.0000000 0.6328856 0.5675862
1.0000000 0.6382906 0.5738963
1.0000000 0.6435432 0.5796291
1.0000000 0.6498342 0.5867537
1.0000000 0.6550533 0.5928693
1.0000000 0.6602745 0.5985534
1.0000000 0.6658337 0.6049452
1.0000000 0.6709249 0.6105013
1.0000000 0.6750364 0.6151339
0.0000000 0.0787587 0.0529706
0.0000000 0.0776207 0.0528101
0.0297377 0.0820552 0.0551922
0.0733610 0.0887531 0.0583629
0.1244538 0.0966731 0.0622278
0.1781746 0.1042638 0.0663948
0.2430307 0.1149093 0.0718511
0.3166230 0.1263525 0.0754884
0.3941658 0.1402861 0.0797848
0.4697123 0.1551142 0.0871638
0.5428371 0.1697369 0.0954479
0.6153311 0.1865026 0.1048133
0.6799365 0.2030617 0.1165072
0.7397953 0.2191969 0.1313872
0.8000968 0.2379118 0.1463965
0.8489366 0.2535524 0.1577756
0.8966221 0.2712932 0.1689218
0.9386665 0.2885287 0.1797186
0.9748880 0.3038489 0.1900358
1.0000000 0.3183832 0.2006389
1.0000000 0.3327118 0.2124620
1.0000000 0.3470381 0.2258890
1.0000000 0.3617467 0.2398279
1.0000000 0.3757859 0.2541164
1.0000000 0.3908015 0.2686254
1.0000000 0.4035505 0.2814791
1.0000000 0.4168323 0.2952029
1.0000000 0.4289145 0.3081096
1.0000000 0.4395363 0.3197869
1.0000000 0.4497746 0.3304968
1.0000000 0.4613922 0.3445515
1.0000000 0.4718364 0.3571061
1.0000000 0.4795665 0.3679181
1.0000000 0.4897681 0.3803074
1.0000000 0.4972577 0.3910302
1.0000000 0.5074190 0.4037193
1.0000000 0.5155938 0.4146341
1.0000000 0.5229745 0.4252664
1.0000000 0.5309639 0.4358075
1.0000000 0.5379190 0.4459155
1.0000000 0.5451575 0.4547362
1.0000000 0.5516304 0.4643251
1.0000000 0.5570108 0.4714546
1.0000000 0.5629252 0.4797090
1.0000000 0.5682237 0.4878435
1.0000000 0.5742996 0.4956584
1.0000000 0.5783004 0.5024002
1.0000000 0.5829247 0.5091696
1.0000000 0.5881267 0.5168830
1.0000000 0.5944804 0.5241526
1.0000000 0.6009798 0.5315148
1.0000000 0.6073409 0.5387410
1.0000000 0.6136057 0.5458676
1.0000000 0.6201719 0.5532446
1.0000000 0.6255651 0.5595384
1.0000000 0.6308087 0.5652373
1.0000000 0.6371193 0.5723705
1.0000000 0.6435432 0.5796291
1.0000000 0.6488915 0.5858786
1.0000000 0.6539356 0.5914117
1.0000000 0.6593765 0.5977143
1.0000000 0.6645799 0.6033779
1.0000000 0.6700628 0.6096903
1.0000000 0.6750364 0.6151339
0.0013104 0.1457204 0.0602231
0.0006756 0.1434897 0.0599459
0.0323066 0.1472130 0.0621352
0.0754723 0.1545898 0.0654664
0.1258485 0.1609410 0.0692483
0.1756960 0.1696056 0.0734237
0.2396898 0.1782883 0.0762078
0.3143915 0.1911323 0.0796590
0.3861529 0.2024537 0.0858113
0.4636159 0.2177321 0.0941485
0.5349883 0.2310393 0.1024056
0.6061022 0.2457063 0.1139355
0.6693510 0.2621446 0.1286863
0.7329972 0.2780659 0.1430376
0.7871362 0.2946457 0.1547114
0.8351763 0.3088468 0.1646146
0.8820378 0.3260611 0.1755216
0.9281636 0.3426523 0.1874614
0.9594896 0.3571247 0.1979257
0.9915707 0.3712158 0.2103640
1.0000000 0.3845161 0.2226418
1.0000000 0.3986222 0.2378309
1.0000000 0.4129904 0.2520191
1.0000000 0.4258170 0.2654524
1.0000000 0.4369297 0.2781439
1.0000000 0.4502193 0.2914339
1.0000000 0.4616299 0.3042995
1.0000000 0.4742895 0.3178537
1.0000000 0.4850544 0.3308303
1.0000000 0.4953023 0.3433438
1.0000000 0.5041152 0.3547159
1.0000000 0.5144922 0.3682809
1.0000000 0.5232164 0.3805413
1.0000000 0.5317737 0.3927405
1.0000000 0.5399264 0.4038329
1.0000000 0.5484475 0.4161654
1.0000000 0.5564052 0.4269136
1.0000000 0.5631278 0.4373371
1.0000000 0.5709128 0.4467279
1.0000000 0.5772424 0.4566994
1.0000000 0.5831528 0.4652526
1.0000000 0.5903752 0.4749852
1.0000000 0.5946283 0.4820622
1.0000000 0.6012917 0.4904484
1.0000000 0.6054587 0.4983093
1.0000000 0.6116401 0.5064981
1.0000000 0.6152668 0.5131164
1.0000000 0.6188459 0.5196352
1.0000000 0.6237025 0.5266024
1.0000000 0.6283520 0.5333098
1.0000000 0.6331816 0.5403266
1.0000000 0.6367617 0.5469739
1.0000000 0.6414437 0.5539817
1.0000000 0.6437739 0.5584791
1.0000000 0.6472311 0.5651311
1.0000000 0.6517315 0.5718814
1.0000000 0.6549164 0.5772725
1.0000000 0.6583962 0.5832174
1.0000000 0.6615009 0.5884501
1.0000000 0.6647111 0.5948419
1.0000000 0.6679070 0.5994608
1.0000000 0.6708947 0.6046745
1.0000000 0.6742643 0.6105537
1.0000000 0.6771351 0.6155663
0.0102676 0.2308097 0.0705734
0.0099245 0.2278549 0.0701906
0.0388803 0.2338505 0.0726117
0.0810164 0.2384701 0.0757169
0.1286466 0.2439066 0.0793852
0.1774924 0.2524429 0.0814681
0.2383970 0.2598543 0.0829438
0.3103510 0.2694176 0.0885834
0.3831293 0.2826258 0.0959979
0.4582999 0.2943403 0.1040165
0.5278294 0.3089253 0.1147110
0.5966524 0.3220001 0.1288014
0.6585938 0.3348636 0.1420701
0.7206568 0.3516960 0.1546751
0.7735926 0.3647029 0.1646721
0.8247481 0.3812619 0.1756538
0.8706450 0.3949305 0.1863121
0.9112590 0.4083798 0.1980111
0.9457536 0.4237011 0.2108319
0.9735408 0.4350138 0.2234587
0.9998716 0.4467653 0.2370105
1.0000000 0.4601308 0.2508276
1.0000000 0.4730163 0.2658682
1.0000000 0.4828970 0.2782852
1.0000000 0.4965936 0.2924627
1.0000000 0.5070601 0.3053620
1.0000000 0.5193286 0.3190678
1.0000000 0.5292734 0.3321639
1.0000000 0.5373526 0.3435747
1.0000000 0.5486542 0.3575371
1.0000000 0.5565553 0.3694682
1.0000000 0.5646085 0.3828961
1.0000000 0.5741911 0.3954698
1.0000000 0.5803925 0.4062704
1.0000000 0.5879127 0.4183603
1.0000000 0.5957699 0.4292751
1.0000000 0.6030290 0.4399042
1.0000000 0.6106289 0.4505003
1.0000000 0.6164520 0.4605574
1.0000000 0.6219640 0.4692764
1.0000000 0.6290258 0.4791212
1.0000000 0.6329638 0.4862874
1.0000000 0.6379187 0.4945033
1.0000000 0.6443989 0.5028630
1.0000000 0.6479992 0.5097698
1.0000000 0.6514024 0.5165201
1.0000000 0.6572279 0.5244311
1.0000000 0.6603960 0.5309070
1.0000000 0.6636363 0.5376562
1.0000000 0.6685247 0.5447701
1.0000000 0.6717610 0.5514067
1.0000000 0.6749827 0.5581896
1.0000000 0.6795191 0.5639917
1.0000000 0.6826117 0.5705951
1.0000000 0.6856639 0.5770879
1.0000000 0.6900167 0.5828022
1.0000000 0.6929796 0.5893589
1.0000000 0.6949344 0.5936669
1.0000000 0.6991122 0.5991203
1.0000000 0.7011823 0.6047325
1.0000000 0.7038542 0.6099082
1.0000000 0.7071202 0.6145124
1.0000000 0.7098911 0.6208408
1.0000000 0.7117054 0.6250126
0.0227651 0.3264174 0.0840054
0.0222074 0.3225815 0.0834246
0.0481346 0.3250141 0.0853296
0.0883806 0.3289084 0.0883840
0.1346438 0.3372070 0.0907080
0.1819174 0.3419890 0.0907276
0.2422234 0.3486199 0.0949539
0.3085605 0.3564622 0.1009569
0.3820242 0.3693864 0.1087672
0.4503336 0.3789093 0.1180441
0.5220566 0.3899671 0.1313967
0.5884515 0.4045807 0.1456253
0.6487006 0.4155895 0.1565474
0.7093590 0.4276959 0.1669675
0.7604800 0.4421190 0.1770661
0.8105632 0.4542015 0.1876121
0.8551091 0.4661414 0.1989945
0.8939733 0.4807606 0.2117392
0.9283029 0.4921609 0.2260474
0.9587158 0.5033053 0.2401817
0.9801974 0.5149418 0.2531420
1.0000000 0.5259457 0.2676131
1.0000000 0.5358109 0.2804425
1.0000000 0.5458339 0.2944289
1.0000000 0.5570162 0.3071209
1.0000000 0.5675743 0.3218871
1.0000000 0.5765058 0.3349705
1.0000000 0.5863528 0.3470343
1.0000000 0.5948287 0.3606826
1.0000000 0.6017045 0.3723733
1.0000000 0.6109343 0.3849154
1.0000000 0.6179736 0.3982455
1.0000000 0.6247784 0.4104856
1.0000000 0.6336712 0.4230574
1.0000000 0.6400862 0.4336815
1.0000000 0.6454189 0.4439856
1.0000000 0.6506268 0.4540763
1.0000000 0.6577805 0.4635397
1.0000000 0.6628611 0.4734226
1.0000000 0.6677181 0.4820524
1.0000000 0.6743525 0.4920478
1.0000000 0.6788152 0.5003381
1.0000000 0.6831053 0.5083793
1.0000000 0.6881626 0.5157307
1.0000000 0.6922321 0.5237606
1.0000000 0.6951742 0.5303494
1.0000000 0.6987938 0.5377905
1.0000000 0.7033370 0.5448409
1.0000000 0.7061349 0.5514184
1.0000000 0.7089834 0.5579976
1.0000000 0.7133890 0.5639058
1.0000000 0.7161751 0.5705991
1.0000000 0.7188923 0.5771396
1.0000000 0.7214481 0.5823757
1.0000000 0.7257356 0.5893350
1.0000000 0.7282121 0.5945822
1.0000000 0.7300628 0.6001025
1.0000000 0.7340384 0.6055835
1.0000000 0.7365587 0.6119893
1.0000000 0.7382213 0.6162859
1.0000000 0.7405336 0.6213346
1.0000000 0.7439417 0.6272018
1.0000000 0.7461947 0.6321294
1.0000000 0.7477843 0.6363704
0.0376788 0.4180025 0.0990816
0.0369293 0.4138420 0.0983423
0.0597951 0.4156918 0.1000764
0.0991605 0.4189256 0.1016062
0.1431011 0.4266509 0.1019182
0.1892710 0.4307935 0.1046085
0.2465694 0.4362790 0.1094954
0.3122719 0.4430246 0.1155773
0.3795408 0.4543951 0.1249014
0.4487424 0.4628884 0.1372639
0.5182656 0.4722307 0.1501531
0.5823210 0.4816256 0.1612145
0.6406873 0.4945253 0.1712025
0.6994866 0.5048119 0.1811412
0.7536202 0.5153167 0.1915039
0.7974731 0.5281342 0.2025460
0.8405337 0.5383316 0.2145935
0.8825155 0.5494805 0.2295617
0.9156810 0.5593076 0.2435222
0.9412740 0.5709786 0.2574040
0.9657003 0.5796664 0.2707097
0.9871079 0.5880035 0.2836308
1.0000000 0.5976681 0.2979140
1.0000000 0.6080056 0.3103339
1.0000000 0.6167251 0.3242733
1.0000000 0.6245335 0.3372391
1.0000000 0.6322845 0.3509556
1.0000000 0.6425295 0.3644796
1.0000000 0.6498394 0.3785833
1.0000000 0.6557534 0.3903783
1.0000000 0.6641772 0.4028156
1.0000000 0.6701455 0.4150475
1.0000000 0.6759636 0.4270241
1.0000000 0.6816721 0.4387497
1.0000000 0.6885144 0.4494066
1.0000000 0.6941437 0.4609157
1.0000000 0.6985128 0.4697299
1.0000000 0.7029370 0.4795250
1.0000000 0.7093917 0.4887673
1.0000000 0.7135402 0.4973705
1.0000000 0.7175313 0.5066961
1.0000000 0.7213553 0.5147991
1.0000000 0.7262485 0.5223116
1.0000000 0.7298018 0.5303000
1.0000000 0.7332824 0.5381348
1.0000000 0.7358047 0.5446355
1.0000000 0.7401446 0.5517334
1.0000000 0.7431967 0.5591338
1.0000000 0.7455854 0.5655338
1.0000000 0.7479308 0.5709540
1.0000000 0.7521815 0.5781063
1.0000000 0.7545568 0.5846103
1.0000000 0.7567660 0.5897931
1.0000000 0.7590714 0.5962579
1.0000000 0.7629769 0.6019775
1.0000000 0.7645826 0.6074362
1.0000000 0.7666619 0.6124575
1.0000000 0.7688493 0.6187855
1.0000000 0.7719682 0.6235261
1.0000000 0.7739730 0.6285324
1.0000000 0.7759399 0.6334455
1.0000000 0.7774510 0.6387700
1.0000000 0.7810706 0.6442263
1.0000000 0.7824217 0.6483430
0.0545889 0.5023228 0.1153877
0.0536785 0.4981947 0.1145257
0.0732738 0.4995065 0.1148407
0.1119305 0.5021445 0.1139857
0.1528599 0.5051329 0.1159543
0.1975257 0.5125613 0.1203898
0.2530767 0.5170865 0.1252282
0.3150893 0.5225578 0.1326321
0.3823978 0.5290786 0.1439035
0.4494849 0.5399364 0.1571546
0.5166637 0.5476523 0.1678789
0.5782467 0.5554026 0.1768751
0.6392504 0.5638771 0.1863176
0.6917093 0.5754023 0.1963326
0.7440373 0.5842623 0.2072026
0.7908953 0.5931073 0.2189304
0.8324139 0.6019011 0.2330588
0.8685809 0.6136166 0.2477864
0.9010699 0.6220300 0.2620970
0.9265802 0.6293142 0.2749339
0.9500389 0.6366057 0.2872267
0.9731960 0.6476053 0.3023816
0.9923795 0.6548082 0.3150786
1.0000000 0.6620841 0.3284502
1.0000000 0.6685232 0.3407864
1.0000000 0.6762693 0.3557711
1.0000000 0.6854798 0.3692877
1.0000000 0.6919471 0.3834287
1.0000000 0.6971817 0.3952585
1.0000000 0.7032154 0.4082620
1.0000000 0.7107002 0.4208834
1.0000000 0.7157881 0.4328194
1.0000000 0.7207445 0.4444532
1.0000000 0.7246944 0.4544494
1.0000000 0.7316296 0.4652541
1.0000000 0.7355242 0.4751218
1.0000000 0.7401406 0.4851400
1.0000000 0.7439036 0.4947063
1.0000000 0.7475609 0.5033056
1.0000000 0.7531738 0.5124196
1.0000000 0.7565635 0.5215162
1.0000000 0.7598286 0.5296624
1.0000000 0.7622654 0.5365328
1.0000000 0.7672329 0.5449510
1.0000000 0.7695156 0.5515651
1.0000000 0.7723508 0.5592604
1.0000000 0.7744027 0.5656224
1.0000000 0.7763443 0.5707595
1.0000000 0.7807844 0.5786803
1.0000000 0.7828692 0.5852244
1.0000000 0.7848349 0.5904859
1.0000000 0.7868648 0.5968260
1.0000000 0.7905735 0.6037750
1.0000000 0.7924355 0.6089299
1.0000000 0.7938275 0.6143239
1.0000000 0.7956440 0.6193182
1.0000000 0.7974272 0.6242894
1.0000000 0.8009283 0.6311266
1.0000000 0.8021594 0.6352638
1.0000000 0.8038712 0.6401378
1.0000000 0.8051757 0.6453855
1.0000000 0.8084126 0.6508026
1.0000000 0.8095918 0.6548828
1.0000000 0.8112159 0.6596328
0.0720186 0.5753428 0.1289292
0.0709711 0.5712674 0.1282331
0.0875188 0.5721776 0.1271552
0.1254545 0.5743939 0.1288656
0.1643443 0.5767960 0.1319323
0.2075824 0.5796098 0.1354476
0.2601923 0.5832773 0.1414264
0.3200368 0.5916543 0.1525874
0.3839519 0.5968870 0.1636883
0.4518562 0.6029727 0.1741776
0.5165795 0.6093560 0.1829326
0.5762217 0.6194103 0.1922857
0.6351239 0.6264665 0.2016205
0.6860161 0.6332409 0.2112506
0.7367308 0.6407505 0.2227185
0.7821750 0.6482964 0.2361771
0.8220909 0.6589290 0.2514053
0.8574208 0.6661451 0.2654789
0.8893546 0.6733739 0.2795303
0.9172616 0.6803512 0.2926663
0.9398854 0.6865949 0.3050057
0.9595158 0.6955529 0.3188137
0.9806941 0.7025638 0.3331138
0.9951656 0.7078699 0.3448709
1.0000000 0.7142835 0.3583311
1.0000000 0.7225224 0.3725577
1.0000000 0.7281499 0.3855098
1.0000000 0.7337123 0.3999758
1.0000000 0.7390503 0.4130238
1.0000000 0.7433956 0.4247354
1.0000000 0.7499424 0.4370379
1.0000000 0.7542981 0.4486650
1.0000000 0.7584791 0.4589088
1.0000000 0.7626417 0.4700766
1.0000000 0.7666836 0.4809961
1.0000000 0.7720391 0.4903520
1.0000000 0.7752701 0.4997926
1.0000000 0.7791700 0.5096477
1.0000000 0.7822802 0.5180901
1.0000000 0.7853061 0.5263454
1.0000000 0.7894499 0.5349273
1.0000000 0.7922434 0.5430113
1.0000000 0.7949522 0.5508902
1.0000000 0.7975391 0.5585625
1.0000000 0.7995090 0.5652729
1.0000000 0.8032784 0.5713894
1.0000000 0.8055291 0.5785542
1.0000000 0.8072519 0.5847914
1.0000000 0.8089754 0.5911151
1.0000000 0.8106878 0.5963411
1.0000000 0.8147666 0.6042312
1.0000000 0.8164124 0.6093658
1.0000000 0.8176270 0.6147839
1.0000000 0.8192235 0.6198230
1.0000000 0.8208824 0.6259494
1.0000000 0.8241440 0.6315174
1.0000000 0.8257518 0.6377389
1.0000000 0.8268133 0.6418230
1.0000000 0.8282988 0.6466546
1.0000000 0.8297583 0.6513985
1.0000000 0.8325014 0.6572865
1.0000000 0.8339225 0.6620576
1.0000000 0.8349264 0.6660202
1.0000000 0.8363096 0.6706376
0.0901896 0.6392232 0.1428286
0.0889834 0.6353402 0.1418229
0.1019120 0.6320827 0.1412941
0.1393771 0.6377417 0.1452086
0.1758488 0.6395926 0.1480318
0.2180956 0.6418696 0.1528299
0.2691441 0.6448334 0.1613466
0.3281084 0.6485541 0.1716129
0.3904817 0.6564464 0.1822443
0.4525861 0.6611044 0.1900180
0.5143236 0.6662341 0.1979623
0.5758233 0.6719308 0.2068729
0.6324981 0.6778009 0.2165884
0.6819313 0.6867641 0.2277477
0.7309968 0.6930395 0.2410508
0.7750502 0.6993409 0.2545388
0.8139834 0.7055632 0.2685222
0.8519260 0.7123365 0.2833697
0.8823688 0.7215586 0.2982267
0.9063620 0.7267945 0.3102457
0.9281776 0.7320099 0.3223401
0.9505165 0.7378952 0.3360474
0.9684741 0.7431337 0.3488411
0.9848726 0.7484119 0.3623240
0.9995909 0.7566468 0.3776266
1.0000000 0.7614247 0.3902730
1.0000000 0.7662285 0.4035488
1.0000000 0.7709550 0.4177071
1.0000000 0.7747836 0.4294446
1.0000000 0.7816294 0.4431986
1.0000000 0.7851694 0.4532834
1.0000000 0.7888576 0.4645920
1.0000000 0.7924404 0.4756407
1.0000000 0.7959672 0.4865423
1.0000000 0.8009067 0.4957593
1.0000000 0.8042983 0.5054836
1.0000000 0.8070322 0.5148534
1.0000000 0.8096957 0.5231919
1.0000000 0.8123390 0.5314565
1.0000000 0.8149236 0.5396700
1.0000000 0.8194010 0.5496440
1.0000000 0.8217535 0.5575168
1.0000000 0.8239840 0.5641605
1.0000000 0.8256717 0.5707943
1.0000000 0.8278294 0.5784101
1.0000000 0.8312644 0.5855303
1.0000000 0.8331634 0.5926275
1.0000000 0.8345569 0.5976962
1.0000000 0.8360043 0.6038492
1.0000000 0.8375078 0.6100570
1.0000000 0.8389336 0.6151531
1.0000000 0.8421133 0.6221437
1.0000000 0.8434781 0.6271331
1.0000000 0.8448883 0.6331758
1.0000000 0.8462169 0.6380643
1.0000000 0.8475341 0.6430179
1.0000000 0.8504969 0.6497244
1.0000000 0.8513876 0.6536888
1.0000000 0.8526350 0.6583834
1.0000000 0.8538697 0.6631252
1.0000000 0.8548207 0.6683266
1.0000000 0.8560280 0.6729643
1.0000000 0.8583831 0.6774255
1.0000000 0.8592196 0.6812184
0.1104662 0.6945298 0.1592807
0.1088969 0.6906919 0.1580243
0.1197230 0.6910943 0.1588424
0.1533855 0.6923928 0.1613609
0.1891171 0.6938504 0.1652189
0.2308539 0.6956636 0.1723287
0.2789205 0.6979185 0.1816587
0.3361270 0.7044508 0.1914086
0.3951014 0.7077490 0.1983176
0.4578112 0.7116570 0.2057764
0.5171832 0.7157966 0.2135807
0.5768660 0.7204640 0.2227695
0.6313177 0.7252502 0.2330467
0.6833357 0.7335930 0.2471324
0.7268448 0.7383540 0.2594999
0.7695718 0.7435788 0.2733351
0.8109656 0.7492700 0.2879608
0.8439863 0.7543554 0.3007588
0.8739556 0.7623885 0.3157157
0.9001549 0.7673350 0.3286960
0.9211668 0.7717235 0.3409630
0.9401213 0.7760695 0.3533414
0.9599493 0.7810941 0.3677313
0.9734303 0.7848628 0.3790381
0.9879580 0.7919726 0.3945211
0.9998173 0.7959612 0.4073748
1.0000000 0.8006737 0.4217911
1.0000000 0.8039936 0.4334654
1.0000000 0.8078419 0.4463272
1.0000000 0.8109573 0.4574789
1.0000000 0.8167193 0.4706089
1.0000000 0.8198146 0.4816228
1.0000000 0.8227926 0.4913908
1.0000000 0.8251899 0.5007186
1.0000000 0.8280488 0.5101719
1.0000000 0.8304106 0.5194616
1.0000000 0.8351524 0.5298804
1.0000000 0.8373841 0.5380087
1.0000000 0.8396028 0.5461782
1.0000000 0.8417761 0.5544043
1.0000000 0.8438292 0.5622895
1.0000000 0.8458228 0.5699812
1.0000000 0.8490488 0.5774857
1.0000000 0.8508906 0.5850406
1.0000000 0.8526952 0.5924419
1.0000000 0.8540410 0.5987550
1.0000000 0.8552423 0.6037821
1.0000000 0.8568363 0.6107458
1.0000000 0.8596409 0.6174520
1.0000000 0.8608497 0.6224866
1.0000000 0.8621023 0.6286926
1.0000000 0.8632831 0.6336511
1.0000000 0.8644955 0.6396314
1.0000000 0.8656354 0.6444646
1.0000000 0.8682383 0.6500468
1.0000000 0.8694021 0.6560334
1.0000000 0.8701642 0.6599461
1.0000000 0.8712336 0.6645843
1.0000000 0.8722975 0.6692818
1.0000000 0.8731163 0.6744244
1.0000000 0.8755754 0.6796551
1.0000000 0.8762956 0.6834434
1.0000000 0.8772978 0.6878850
1.0000000 0.8780161 0.6917371
0.1333644 0.7414427 0.1757792
0.1319094 0.7380072 0.1744822
0.1369483 0.7381530 0.1748912
0.1681874 0.7390842 0.1780418
0.2028587 0.7401637 0.1845446
0.2430567 0.7415140 0.1925172
0.2895824 0.7432377 0.2000637
0.3438244 0.7487093 0.2072210
0.4031315 0.7514067 0.2137333
0.4636520 0.7545103 0.2211021
0.5208132 0.7578164 0.2291217
0.5788109 0.7616044 0.2391050
0.6311899 0.7654702 0.2506357
0.6817999 0.7725557 0.2645048
0.7278365 0.7768402 0.2787139
0.7692026 0.7811853 0.2916608
0.8056729 0.7854888 0.3049501
0.8411680 0.7901981 0.3187225
0.8704419 0.7945645 0.3324420
0.8927646 0.8007894 0.3456255
0.9133508 0.8044925 0.3578635
0.9340527 0.8086008 0.3707775
0.9508443 0.8123022 0.3839812
0.9661613 0.8160103 0.3965040
0.9807547 0.8199438 0.4114784
0.9922180 0.8233472 0.4240389
1.0000000 0.8289186 0.4380946
1.0000000 0.8322610 0.4509332
1.0000000 0.8355001 0.4634437
1.0000000 0.8381185 0.4742342
