Plugins/FilmEmulator/Content/LUTs/FE_Kodak_5383_64.cube
TITLE "FE_Kodak_5383_33"
LUT_3D_SIZE 64
0.0007250 0.0228393 0.0492378
0.0040112 0.0234140 0.0493301
0.0048144 0.0235547 0.0493531
0.0000000 0.0219149 0.0489216
0.0004931 0.0226982 0.0476968
0.0538739 0.0321585 0.0487574
0.0988380 0.0404317 0.0501291
0.1365417 0.0489057 0.0519531
0.1795368 0.0593035 0.0543736
0.2367619 0.0724037 0.0574383
0.2927911 0.0854120 0.0606229
0.3427363 0.0973603 0.0639012
0.3954808 0.1103168 0.0687096
0.4425495 0.1225774 0.0763090
0.4934362 0.1362955 0.0853848
0.5424426 0.1502301 0.0957274
0.5877609 0.1637660 0.1058856
0.6335937 0.1781599 0.1171312
0.6740493 0.1916386 0.1285565
0.7142379 0.2058851 0.1421046
0.7492375 0.2190539 0.1554582
0.7834744 0.2326362 0.1693662
0.8173980 0.2468818 0.1838669
0.8480648 0.2603073 0.1967459
0.8775290 0.2741683 0.2115454
0.9096373 0.2898732 0.2240663
0.9384724 0.3051980 0.2386865
0.9603187 0.3175588 0.2511616
0.9800701 0.3298048 0.2659974
0.9981804 0.3415595 0.2790154
1.0000000 0.3529809 0.2922384
1.0000000 0.3638962 0.3033805
1.0000000 0.3726037 0.3163455
1.0000000 0.3823380 0.3280859
1.0000000 0.3900025 0.3390775
1.0000000 0.3975777 0.3528294
1.0000000 0.4047500 0.3640041
1.0000000 0.4118952 0.3749763
1.0000000 0.4192796 0.3836641
1.0000000 0.4266636 0.3943992
1.0000000 0.4326364 0.4044000
1.0000000 0.4409496 0.4128608
1.0000000 0.4472524 0.4226391
1.0000000 0.4556731 0.4311715
1.0000000 0.4622535 0.4391157
1.0000000 0.4687948 0.4489259
1.0000000 0.4751406 0.4570611
1.0000000 0.4814318 0.4652126
1.0000000 0.4876218 0.4732358
1.0000000 0.4938332 0.4814306
1.0000000 0.5002230 0.4900880
1.0000000 0.5064841 0.4985864
1.0000000 0.5124336 0.5047051
1.0000000 0.5189848 0.5134817
1.0000000 0.5242422 0.5220543
1.0000000 0.5306326 0.5285333
1.0000000 0.5374629 0.5373316
1.0000000 0.5426126 0.5435744
1.0000000 0.5493678 0.5527523
1.0000000 0.5541027 0.5588457
1.0000000 0.5595108 0.5673660
1.0000000 0.5657657 0.5739955
1.0000000 0.5712711 0.5830743
1.0000000 0.5759090 0.5893040
0.0002558 0.0313483 0.0513170
0.0035263 0.0321277 0.0514612
0.0043192 0.0324365 0.0515254
0.0000000 0.0309653 0.0512987
0.0000000 0.0316142 0.0502945
0.0532796 0.0412553 0.0511324
0.0966217 0.0491599 0.0522998
0.1359374 0.0565169 0.0537556
0.1790599 0.0647995 0.0556008
0.2363989 0.0761513 0.0581925
0.2925432 0.0877541 0.0609744
0.3426164 0.0984856 0.0638304
0.3955448 0.1103423 0.0672998
0.4428002 0.1216558 0.0735778
0.4938214 0.1346272 0.0823176
0.5429839 0.1478675 0.0920585
0.5884033 0.1608275 0.1026604
0.6344025 0.1746643 0.1132548
0.6750088 0.1877123 0.1240612
0.7153634 0.2014822 0.1371080
0.7504258 0.2143897 0.1512333
0.7847916 0.2276908 0.1648194
0.8189281 0.2416118 0.1777335
0.8495713 0.2550462 0.1921187
0.8792506 0.2686853 0.2050023
0.9113218 0.2844585 0.2191838
0.9402248 0.2998424 0.2334578
0.9621197 0.3122055 0.2459946
0.9819244 0.3245012 0.2605121
1.0000000 0.3362164 0.2735921
1.0000000 0.3473940 0.2865441
1.0000000 0.3581949 0.2977176
1.0000000 0.3666885 0.3100886
1.0000000 0.3761576 0.3218353
1.0000000 0.3838118 0.3350976
1.0000000 0.3910191 0.3463120
1.0000000 0.3984231 0.3576449
1.0000000 0.4058171 0.3688000
1.0000000 0.4135873 0.3798548
1.0000000 0.4217891 0.3908684
1.0000000 0.4289988 0.3992669
1.0000000 0.4388416 0.4102467
1.0000000 0.4460053 0.4183230
1.0000000 0.4564095 0.4293525
1.0000000 0.4644483 0.4377447
1.0000000 0.4728631 0.4461602
1.0000000 0.4808576 0.4565656
1.0000000 0.4886690 0.4651850
1.0000000 0.4969916 0.4738511
1.0000000 0.5045998 0.4822133
1.0000000 0.5120604 0.4912117
1.0000000 0.5197376 0.4979454
1.0000000 0.5273589 0.5067854
1.0000000 0.5348673 0.5156308
1.0000000 0.5406040 0.5243585
1.0000000 0.5476921 0.5310816
1.0000000 0.5549092 0.5400252
1.0000000 0.5605351 0.5462165
1.0000000 0.5679666 0.5556217
1.0000000 0.5734355 0.5619501
1.0000000 0.5791057 0.5705582
1.0000000 0.5859177 0.5771227
1.0000000 0.5916340 0.5862733
1.0000000 0.5969977 0.5927310
0.0003717 0.0292317 0.0507984
0.0036937 0.0294107 0.0507945
0.0045022 0.0291197 0.0507122
0.0000000 0.0270703 0.0503454
0.0000000 0.0271145 0.0497748
0.0535890 0.0362766 0.0501077
0.0970110 0.0437595 0.0509740
0.1345083 0.0503775 0.0521407
0.1796157 0.0586042 0.0538573
0.2332982 0.0691259 0.0562280
0.2932680 0.0813555 0.0590590
0.3434210 0.0920271 0.0618067
0.3964451 0.1038036 0.0650243
0.4438277 0.1150907 0.0701770
0.4949611 0.1280951 0.0780818
0.5442749 0.1410290 0.0872988
0.5898026 0.1538882 0.0976144
0.6359129 0.1676501 0.1079425
0.6766264 0.1804383 0.1191530
0.7172337 0.1936366 0.1311244
0.7524922 0.2061794 0.1445310
0.7869252 0.2195854 0.1580701
0.8209798 0.2339295 0.1724446
0.8517302 0.2475955 0.1852735
0.8812765 0.2617120 0.1999203
0.9130387 0.2789525 0.2142564
0.9416461 0.2956079 0.2287436
0.9630672 0.3097116 0.2416354
0.9825716 0.3234236 0.2545127
1.0000000 0.3370511 0.2699460
1.0000000 0.3507714 0.2835370
1.0000000 0.3632451 0.2951871
1.0000000 0.3734943 0.3081478
1.0000000 0.3855855 0.3223729
1.0000000 0.3949163 0.3339702
1.0000000 0.4038053 0.3453993
1.0000000 0.4131539 0.3573760
1.0000000 0.4218824 0.3689953
1.0000000 0.4313920 0.3806493
1.0000000 0.4407207 0.3920655
1.0000000 0.4486778 0.4029093
1.0000000 0.4587697 0.4120030
1.0000000 0.4669427 0.4224171
1.0000000 0.4775875 0.4314961
1.0000000 0.4866217 0.4422201
1.0000000 0.4952918 0.4507620
1.0000000 0.5038142 0.4591777
1.0000000 0.5122892 0.4679465
1.0000000 0.5207821 0.4767513
1.0000000 0.5291390 0.4854180
1.0000000 0.5372659 0.4941747
1.0000000 0.5452603 0.5032917
1.0000000 0.5520713 0.5119301
1.0000000 0.5598038 0.5207276
1.0000000 0.5659495 0.5295110
1.0000000 0.5733664 0.5363951
1.0000000 0.5798528 0.5451550
1.0000000 0.5854576 0.5513054
1.0000000 0.5927486 0.5605654
1.0000000 0.5972127 0.5666246
1.0000000 0.6031312 0.5753180
1.0000000 0.6101156 0.5819939
1.0000000 0.6147984 0.5905790
1.0000000 0.6202351 0.5970909
0.0007874 0.0217258 0.0489669
0.0041385 0.0218211 0.0489419
0.0049474 0.0212259 0.0487862
0.0000000 0.0188605 0.0483469
0.0000000 0.0184914 0.0480794
0.0541701 0.0271968 0.0482249
0.0977151 0.0342046 0.0486839
0.1352901 0.0407910 0.0496825
0.1779749 0.0489626 0.0513189
0.2341959 0.0603037 0.0537820
0.2942287 0.0729439 0.0566670
0.3442536 0.0854006 0.0597762
0.3970556 0.0994215 0.0634661
0.4443191 0.1121820 0.0679833
0.4952322 0.1271294 0.0753471
0.5441444 0.1425444 0.0851128
0.5891298 0.1584424 0.0958667
0.6347366 0.1743947 0.1074203
0.6748563 0.1901125 0.1180165
0.7147855 0.2059619 0.1308069
0.7494138 0.2208184 0.1446449
0.7830907 0.2368783 0.1586615
0.8166134 0.2527061 0.1731347
0.8466613 0.2680496 0.1880591
0.8755581 0.2841149 0.2017500
0.9068605 0.3021091 0.2159903
0.9349502 0.3196079 0.2308882
0.9556026 0.3353263 0.2455884
0.9746515 0.3497697 0.2587987
0.9916626 0.3642226 0.2741769
1.0000000 0.3781269 0.2879418
1.0000000 0.3915386 0.3017209
1.0000000 0.4012487 0.3125956
1.0000000 0.4133290 0.3263119
1.0000000 0.4235486 0.3382636
1.0000000 0.4335073 0.3521123
1.0000000 0.4430694 0.3641337
1.0000000 0.4525502 0.3760141
1.0000000 0.4623042 0.3877965
1.0000000 0.4706777 0.3989595
1.0000000 0.4789012 0.4078276
1.0000000 0.4894876 0.4192941
1.0000000 0.4980396 0.4298545
1.0000000 0.5072380 0.4385835
1.0000000 0.5159324 0.4472020
1.0000000 0.5248016 0.4578324
1.0000000 0.5321982 0.4659611
1.0000000 0.5408345 0.4746515
1.0000000 0.5480590 0.4831195
1.0000000 0.5563887 0.4918392
1.0000000 0.5644600 0.5003810
1.0000000 0.5712186 0.5091593
1.0000000 0.5792767 0.5182301
1.0000000 0.5859232 0.5267347
1.0000000 0.5920253 0.5330239
1.0000000 0.5985262 0.5419586
1.0000000 0.6046785 0.5506064
1.0000000 0.6107270 0.5569765
1.0000000 0.6168854 0.5657105
1.0000000 0.6229156 0.5722895
1.0000000 0.6278206 0.5806773
1.0000000 0.6351752 0.5875404
1.0000000 0.6399193 0.5958793
1.0000000 0.6443965 0.6021260
0.0006953 0.0233772 0.0493687
0.0039116 0.0258414 0.0499216
0.0045769 0.0278558 0.0504031
0.0000000 0.0280964 0.0503461
0.0000000 0.0305600 0.0502605
0.0531927 0.0422331 0.0518842
0.0963907 0.0521919 0.0533500
0.1335724 0.0622753 0.0550856
0.1759081 0.0725049 0.0571909
0.2316765 0.0858573 0.0601790
0.2874132 0.1004009 0.0636735
0.3405258 0.1162879 0.0677164
0.3928820 0.1310655 0.0716993
0.4396815 0.1450422 0.0758164
0.4901037 0.1609718 0.0827332
0.5384705 0.1775287 0.0923018
0.5830454 0.1937111 0.1028326
0.6280599 0.2106913 0.1145872
0.6677176 0.2266688 0.1258466
0.7071346 0.2433134 0.1376844
0.7415886 0.2574648 0.1504074
0.7748214 0.2736987 0.1651908
0.8077455 0.2904109 0.1798001
0.8372303 0.3064900 0.1949585
0.8656022 0.3227521 0.2102822
0.8964074 0.3408384 0.2246907
0.9198103 0.3546191 0.2383794
0.9450342 0.3717946 0.2532399
0.9637653 0.3862011 0.2665886
0.9810590 0.3988152 0.2811101
0.9963757 0.4124069 0.2949160
1.0000000 0.4256941 0.3085214
1.0000000 0.4352734 0.3194471
1.0000000 0.4474447 0.3330077
1.0000000 0.4577906 0.3469533
1.0000000 0.4660511 0.3581748
1.0000000 0.4755633 0.3699307
1.0000000 0.4835722 0.3814232
1.0000000 0.4935755 0.3933976
1.0000000 0.5018636 0.4046149
1.0000000 0.5104569 0.4157508
1.0000000 0.5195864 0.4268746
1.0000000 0.5281418 0.4355554
1.0000000 0.5372831 0.4462748
1.0000000 0.5461990 0.4549598
1.0000000 0.5537605 0.4633105
1.0000000 0.5613533 0.4734596
1.0000000 0.5703856 0.4821699
1.0000000 0.5776156 0.4906914
1.0000000 0.5863150 0.4996074
1.0000000 0.5931590 0.5078082
1.0000000 0.5998935 0.5163690
1.0000000 0.6083084 0.5256252
1.0000000 0.6150435 0.5342009
1.0000000 0.6200469 0.5400275
1.0000000 0.6283203 0.5495206
1.0000000 0.6333775 0.5578218
1.0000000 0.6395019 0.5642821
1.0000000 0.6443805 0.5723664
1.0000000 0.6519001 0.5795486
1.0000000 0.6567570 0.5879156
1.0000000 0.6626122 0.5943649
1.0000000 0.6673441 0.6024408
1.0000000 0.6718487 0.6087209
0.0000000 0.0631754 0.0592288
0.0018796 0.0656315 0.0598017
0.0024695 0.0695171 0.0604041
0.0000000 0.0716529 0.0604783
0.0000000 0.0760281 0.0611109
0.0505857 0.0871957 0.0629331
0.0933313 0.0987745 0.0651591
0.1301627 0.1094474 0.0673534
0.1721653 0.1192148 0.0693703
0.2273279 0.1337637 0.0727862
0.2824950 0.1487193 0.0765445
0.3351821 0.1637573 0.0805529
0.3871714 0.1771491 0.0842556
0.4334122 0.1917363 0.0886715
0.4833331 0.2077056 0.0947384
0.5312496 0.2238889 0.1037340
0.5756983 0.2378771 0.1132421
0.6202375 0.2547252 0.1247704
0.6594007 0.2708539 0.1360494
0.6938573 0.2840135 0.1473089
0.7324479 0.3011382 0.1601224
0.7657297 0.3152027 0.1738797
0.7982711 0.3316363 0.1884491
0.8278557 0.3456233 0.2026971
0.8557972 0.3619801 0.2181168
0.8866490 0.3780460 0.2320945
0.9091774 0.3934538 0.2476293
0.9346310 0.4085191 0.2604250
0.9529553 0.4229807 0.2751184
0.9701517 0.4351384 0.2877715
0.9850324 0.4489226 0.3032356
0.9989212 0.4606816 0.3164281
1.0000000 0.4724231 0.3298859
1.0000000 0.4828156 0.3410590
1.0000000 0.4916075 0.3539765
1.0000000 0.5018371 0.3659506
1.0000000 0.5098716 0.3770206
1.0000000 0.5180351 0.3907424
1.0000000 0.5284481 0.4029269
1.0000000 0.5368255 0.4142246
1.0000000 0.5438850 0.4228536
1.0000000 0.5550580 0.4348440
1.0000000 0.5623798 0.4451632
1.0000000 0.5713358 0.4540362
1.0000000 0.5789090 0.4641541
1.0000000 0.5880851 0.4731152
1.0000000 0.5953510 0.4813558
1.0000000 0.6027335 0.4913641
1.0000000 0.6098576 0.4997897
1.0000000 0.6187611 0.5088760
1.0000000 0.6254978 0.5170982
1.0000000 0.6320978 0.5254200
1.0000000 0.6386043 0.5340813
1.0000000 0.6449877 0.5425837
1.0000000 0.6497680 0.5483779
1.0000000 0.6579142 0.5576891
1.0000000 0.6628824 0.5659645
1.0000000 0.6688321 0.5724401
1.0000000 0.6736110 0.5804257
1.0000000 0.6793486 0.5869404
1.0000000 0.6840172 0.5952414
1.0000000 0.6895599 0.6016490
1.0000000 0.6940548 0.6096416
1.0000000 0.6983180 0.6156201
0.0000000 0.1158449 0.0726909
0.0000000 0.1184338 0.0729758
0.0003942 0.1230125 0.0736096
0.0000000 0.1238705 0.0735701
0.0000000 0.1270568 0.0740953
0.0481335 0.1402473 0.0767703
0.0905850 0.1496808 0.0786915
0.1270752 0.1605837 0.0811868
0.1686704 0.1702105 0.0833539
0.2232805 0.1849138 0.0869356
0.2780470 0.1978744 0.0903020
0.3301637 0.2132240 0.0945706
0.3774958 0.2255167 0.0981964
0.4273034 0.2411683 0.1029619
0.4769710 0.2548833 0.1076323
0.5198226 0.2676495 0.1148017
0.5683016 0.2849160 0.1253119
0.6074898 0.2984247 0.1356231
0.6511751 0.3164940 0.1482196
0.6852021 0.3295559 0.1590965
0.7237049 0.3445081 0.1709118
0.7560475 0.3608543 0.1851880
0.7838908 0.3736032 0.1994968
0.8171442 0.3913090 0.2148383
0.8451818 0.4055337 0.2282778
0.8754547 0.4214225 0.2437701
0.8982018 0.4347212 0.2569697
0.9224305 0.4521288 0.2722943
0.9409449 0.4646125 0.2860706
0.9577917 0.4766550 0.2988414
0.9722546 0.4907292 0.3141926
0.9859635 0.5019492 0.3273404
0.9957049 0.5113757 0.3398411
1.0000000 0.5215586 0.3510826
1.0000000 0.5301909 0.3634436
1.0000000 0.5406843 0.3756477
1.0000000 0.5487294 0.3888111
1.0000000 0.5566020 0.4001471
1.0000000 0.5647075 0.4116256
1.0000000 0.5726467 0.4228778
1.0000000 0.5816569 0.4343092
1.0000000 0.5904473 0.4455492
1.0000000 0.5974489 0.4539823
1.0000000 0.6061990 0.4647600
1.0000000 0.6134045 0.4730039
1.0000000 0.6205891 0.4830558
1.0000000 0.6275275 0.4912537
1.0000000 0.6343784 0.4993441
1.0000000 0.6410888 0.5073647
1.0000000 0.6497570 0.5183939
1.0000000 0.6562485 0.5265919
1.0000000 0.6625853 0.5346401
1.0000000 0.6688416 0.5432636
1.0000000 0.6748267 0.5497025
1.0000000 0.6796292 0.5575250
1.0000000 0.6855628 0.5658696
1.0000000 0.6902443 0.5740482
1.0000000 0.6958345 0.5804689
1.0000000 0.7003345 0.5883592
1.0000000 0.7057055 0.5946168
1.0000000 0.7102090 0.6028595
1.0000000 0.7155723 0.6092721
1.0000000 0.7199566 0.6172256
1.0000000 0.7241055 0.6229569
0.0000000 0.1696060 0.0864422
0.0000000 0.1726397 0.0870770
0.0000000 0.1758649 0.0875994
0.0000000 0.1775583 0.0879511
0.0000000 0.1845339 0.0896812
0.0481658 0.1958219 0.0921347
0.0883695 0.2052352 0.0943195
0.1245809 0.2141397 0.0964823
0.1655806 0.2269459 0.0998220
0.2197187 0.2392340 0.1029304
0.2738361 0.2523808 0.1063944
0.3255310 0.2654737 0.1102424
0.3719739 0.2811859 0.1151219
0.4213737 0.2945545 0.1194514
0.4703718 0.3082931 0.1241586
0.5126645 0.3210746 0.1305149
0.5604333 0.3387604 0.1406701
0.5991365 0.3516876 0.1505673
0.6426882 0.3665996 0.1621146
0.6762452 0.3794110 0.1728465
0.7136097 0.3969701 0.1862363
0.7460098 0.4104004 0.1988427
0.7734650 0.4227989 0.2125556
0.8067535 0.4376176 0.2270197
0.8343923 0.4511006 0.2415786
0.8637201 0.4686363 0.2563937
0.8860863 0.4812714 0.2709783
0.9106408 0.4954755 0.2851073
0.9288865 0.5074517 0.2986676
0.9454809 0.5190018 0.3112410
0.9605325 0.5301828 0.3237594
0.9739414 0.5410618 0.3384807
0.9835845 0.5500351 0.3507460
0.9941540 0.5596398 0.3618397
1.0000000 0.5701574 0.3750284
1.0000000 0.5779420 0.3877835
1.0000000 0.5855843 0.3988429
1.0000000 0.5931506 0.4098359
1.0000000 0.6009364 0.4212907
1.0000000 0.6085572 0.4325205
1.0000000 0.6151599 0.4431441
1.0000000 0.6234019 0.4542973
1.0000000 0.6301054 0.4646516
1.0000000 0.6381908 0.4734734
1.0000000 0.6450655 0.4834661
1.0000000 0.6516875 0.4914994
1.0000000 0.6584398 0.5014827
1.0000000 0.6650569 0.5095658
1.0000000 0.6715290 0.5175164
1.0000000 0.6778846 0.5257441
1.0000000 0.6840464 0.5339153
1.0000000 0.6900584 0.5419360
1.0000000 0.6959569 0.5500506
1.0000000 0.7017655 0.5584815
1.0000000 0.7063408 0.5662341
1.0000000 0.7119431 0.5743613
1.0000000 0.7164773 0.5824253
1.0000000 0.7199553 0.5880619
1.0000000 0.7245110 0.5959900
1.0000000 0.7298577 0.6022543
1.0000000 0.7342750 0.6103472
1.0000000 0.7394382 0.6167570
1.0000000 0.7436862 0.6246649
1.0000000 0.7477166 0.6303920
0.0000000 0.2345224 0.1045631
0.0000000 0.2346869 0.1045136
0.0000000 0.2381703 0.1052964
0.0000000 0.2404241 0.1059532
0.0000000 0.2448788 0.1071598
0.0472555 0.2561653 0.1099283
0.0884858 0.2659194 0.1124632
0.1227748 0.2747353 0.1148618
0.1633077 0.2881436 0.1187130
0.2167364 0.3002568 0.1220990
0.2701564 0.3126931 0.1256668
0.3211855 0.3250625 0.1293615
0.3673085 0.3369837 0.1331936
0.4160529 0.3499506 0.1376252
0.4598251 0.3623003 0.1421267
0.5061294 0.3755858 0.1479527
0.5536813 0.3896972 0.1562042
0.5918705 0.4022063 0.1660295
0.6343942 0.4194919 0.1783254
0.6674875 0.4315513 0.1895174
0.7049576 0.4451535 0.2004090
0.7369474 0.4577990 0.2129411
0.7640393 0.4696634 0.2263561
0.7968696 0.4837452 0.2404634
0.8241333 0.4965675 0.2546001
0.8536117 0.5107412 0.2697895
0.8757561 0.5226774 0.2828342
0.9000408 0.5359490 0.2964402
0.9180894 0.5471647 0.3099045
0.9344519 0.5580261 0.3234712
0.9493473 0.5684930 0.3358808
0.9626561 0.5786490 0.3500818
0.9721771 0.5872182 0.3622952
0.9824941 0.5965111 0.3749607
0.9899782 0.6042967 0.3853813
0.9965333 0.6118155 0.3975599
1.0000000 0.6190745 0.4085606
1.0000000 0.6263418 0.4213242
1.0000000 0.6337131 0.4326198
1.0000000 0.6409266 0.4437423
1.0000000 0.6471930 0.4542706
1.0000000 0.6549647 0.4653163
1.0000000 0.6613170 0.4737285
1.0000000 0.6693356 0.4845468
1.0000000 0.6737130 0.4935365
1.0000000 0.6802941 0.5016429
1.0000000 0.6867476 0.5097499
1.0000000 0.6932046 0.5195899
1.0000000 0.6994206 0.5275215
1.0000000 0.7055080 0.5355488
1.0000000 0.7114156 0.5436896
1.0000000 0.7171755 0.5516781
1.0000000 0.7228073 0.5595251
1.0000000 0.7263375 0.5670191
1.0000000 0.7307830 0.5747424
1.0000000 0.7363339 0.5829101
1.0000000 0.7406695 0.5887119
1.0000000 0.7460300 0.5972110
1.0000000 0.7503169 0.6050444
1.0000000 0.7553258 0.6112581
1.0000000 0.7575185 0.6182008
1.0000000 0.7623864 0.6245669
1.0000000 0.7664038 0.6323889
1.0000000 0.7702237 0.6380738
0.0000000 0.2933278 0.1222415
0.0000000 0.2971965 0.1234201
0.0000000 0.3010448 0.1245180
0.0000000 0.3035493 0.1253705
0.0000000 0.3079642 0.1267264
0.0476007 0.3186386 0.1296372
0.0883224 0.3279008 0.1323003
0.1239797 0.3367993 0.1349757
0.1646566 0.3427466 0.1366671
0.2151203 0.3541558 0.1401406
0.2678800 0.3661947 0.1439240
0.3182651 0.3781538 0.1477864
0.3638068 0.3895831 0.1515884
0.4119428 0.4017747 0.1557718
0.4551593 0.4133973 0.1602821
0.5008904 0.4258541 0.1653615
0.5478513 0.4390606 0.1728248
0.5855806 0.4507779 0.1820065
0.6280124 0.4642013 0.1927520
0.6606768 0.4758520 0.2037807
0.6976182 0.4889341 0.2151313
0.7292124 0.5010536 0.2264878
0.7560063 0.5122489 0.2389005
0.7883927 0.5255293 0.2534492
0.8153199 0.5376059 0.2672535
0.8444191 0.5509217 0.2822335
0.8662274 0.5622070 0.2964672
0.8901920 0.5746701 0.3099356
0.9079923 0.5853400 0.3231212
0.9240704 0.5959058 0.3363690
0.9386780 0.6060962 0.3488499
0.9525777 0.6131124 0.3614527
0.9619469 0.6214151 0.3736703
0.9721355 0.6302865 0.3860579
0.9795136 0.6377670 0.3964716
0.9860013 0.6449712 0.4083340
0.9919150 0.6520054 0.4209806
0.9976302 0.6588836 0.4317464
1.0000000 0.6659160 0.4427041
1.0000000 0.6728036 0.4537919
1.0000000 0.6764297 0.4632180
1.0000000 0.6840603 0.4743415
1.0000000 0.6903551 0.4846575
1.0000000 0.6978952 0.4954178
1.0000000 0.7042051 0.5036076
1.0000000 0.7104464 0.5133579
1.0000000 0.7141913 0.5202522
1.0000000 0.7201852 0.5282804
1.0000000 0.7261196 0.5378494
1.0000000 0.7318386 0.5456365
1.0000000 0.7373935 0.5537006
1.0000000 0.7428062 0.5616121
1.0000000 0.7460562 0.5684197
1.0000000 0.7503204 0.5759799
1.0000000 0.7554790 0.5841439
1.0000000 0.7605203 0.5921484
1.0000000 0.7644502 0.5976979
1.0000000 0.7674491 0.6050771
1.0000000 0.7713665 0.6127653
1.0000000 0.7759553 0.6188731
1.0000000 0.7797254 0.6263493
1.0000000 0.7824038 0.6317664
1.0000000 0.7860736 0.6394452
1.0000000 0.7895679 0.6450288
0.0002732 0.3540273 0.1419201
0.0005552 0.3540620 0.1419225
0.0013699 0.3580914 0.1432368
0.0000000 0.3569469 0.1429502
0.0000000 0.3617874 0.1445828
0.0490819 0.3720860 0.1476916
0.0893521 0.3812191 0.1505705
0.1246154 0.3897741 0.1533739
0.1647904 0.3990751 0.1564694
0.2145954 0.4098679 0.1600673
0.2666928 0.4175455 0.1625766
0.3164389 0.4288934 0.1665346
0.3613979 0.4397437 0.1704433
0.4089001 0.4512870 0.1747108
0.4515434 0.4624485 0.1789967
0.4966198 0.4746818 0.1841335
0.5429118 0.4875482 0.1908548
0.5800934 0.4990154 0.1996161
0.6174570 0.5071745 0.2079990
0.6545837 0.5194041 0.2191386
0.6910151 0.5318608 0.2303255
0.7221582 0.5434199 0.2419277
0.7486064 0.5540779 0.2534953
0.7805432 0.5666412 0.2675476
0.8070859 0.5780871 0.2811924
0.8357677 0.5906436 0.2957535
0.8572066 0.6015725 0.3099452
0.8814902 0.6104586 0.3220419
0.8989701 0.6207596 0.3362874
0.9149106 0.6306434 0.3480347
0.9293034 0.6402434 0.3614624
0.9422980 0.6494378 0.3735770
0.9515235 0.6572313 0.3869562
0.9624100 0.6627990 0.3978828
0.9697303 0.6698390 0.4080329
0.9761748 0.6766169 0.4197919
0.9820826 0.6832100 0.4318008
0.9877617 0.6896765 0.4424856
0.9943457 0.6938156 0.4519190
0.9980141 0.6994500 0.4643186
1.0000000 0.7060732 0.4752157
1.0000000 0.7130133 0.4861268
1.0000000 0.7186625 0.4944252
1.0000000 0.7221627 0.5033460
1.0000000 0.7291639 0.5137830
1.0000000 0.7348136 0.5216942
1.0000000 0.7404100 0.5311125
1.0000000 0.7438068 0.5379374
1.0000000 0.7491715 0.5456876
1.0000000 0.7544791 0.5549185
1.0000000 0.7595630 0.5627278
1.0000000 0.7626160 0.5695401
1.0000000 0.7675755 0.5772223
1.0000000 0.7716920 0.5845362
1.0000000 0.7766342 0.5926647
1.0000000 0.7794725 0.5996287
1.0000000 0.7833090 0.6051955
1.0000000 0.7879848 0.6132336
1.0000000 0.7917590 0.6208771
1.0000000 0.7942922 0.6260350
1.0000000 0.7979474 0.6334216
1.0000000 0.8021991 0.6395482
1.0000000 0.8039550 0.6462771
1.0000000 0.8073483 0.6518605
0.0035279 0.4062623 0.1601076
0.0035617 0.4062660 0.1601087
0.0044696 0.4106228 0.1616935
0.0000000 0.4138082 0.1629926
0.0022475 0.4187850 0.1648354
0.0517505 0.4245321 0.1666072
0.0915650 0.4334246 0.1696673
0.1264303 0.4417750 0.1726692
0.1661261 0.4507938 0.1759298
0.2187041 0.4616206 0.1798553
0.2699977 0.4686662 0.1823692
0.3156958 0.4790524 0.1863369
0.3600364 0.4897612 0.1905525
0.4068561 0.5010751 0.1951329
0.4490485 0.5079890 0.1979548
0.4935257 0.5195254 0.2029546
0.5345341 0.5307418 0.2080926
0.5759274 0.5423942 0.2162850
0.6123711 0.5534276 0.2260188
0.6493698 0.5613428 0.2351252
0.6852872 0.5730293 0.2467411
0.7160177 0.5838600 0.2578303
0.7421238 0.5938509 0.2688754
0.7736247 0.6055741 0.2824669
0.7998208 0.6162502 0.2954406
0.8286710 0.6249821 0.3093712
0.8499395 0.6349866 0.3220497
0.8731875 0.6460259 0.3365794
0.8905557 0.6553705 0.3489917
0.9069823 0.6617115 0.3604748
0.9212822 0.6705120 0.3733333
0.9341866 0.6789515 0.3852579
0.9434034 0.6860821 0.3980756
0.9512992 0.6926964 0.4095687
0.9614171 0.6976855 0.4202722
0.9679422 0.7038472 0.4301660
0.9738957 0.7098683 0.4414743
0.9795678 0.7158850 0.4520448
0.9860121 0.7197303 0.4631297
0.9897429 0.7250898 0.4733970
0.9951564 0.7314209 0.4842721
1.0000000 0.7380329 0.4951759
1.0000000 0.7411809 0.5040361
1.0000000 0.7466998 0.5140015
1.0000000 0.7532877 0.5227647
1.0000000 0.7565466 0.5311480
1.0000000 0.7618700 0.5389274
1.0000000 0.7671620 0.5482832
1.0000000 0.7722738 0.5560014
1.0000000 0.7752329 0.5625012
1.0000000 0.7801001 0.5699986
1.0000000 0.7849164 0.5794462
1.0000000 0.7876383 0.5860134
1.0000000 0.7917937 0.5931908
1.0000000 0.7966976 0.6013795
1.0000000 0.7992097 0.6064513
1.0000000 0.8031568 0.6138772
1.0000000 0.8077707 0.6217685
1.0000000 0.8094676 0.6283188
1.0000000 0.8138486 0.6345109
1.0000000 0.8175056 0.6419321
1.0000000 0.8197143 0.6468713
1.0000000 0.8232621 0.6545343
1.0000000 0.8266573 0.6601807
0.0083189 0.4614110 0.1807497
0.0083189 0.4614110 0.1807497
0.0087824 0.4614611 0.1808250
0.0000000 0.4647180 0.1822659
0.0068232 0.4696048 0.1842333
0.0576584 0.4791561 0.1877205
0.0949552 0.4832914 0.1892080
0.1294163 0.4912354 0.1923066
0.1686254 0.4997811 0.1956781
0.2203182 0.5060776 0.1980573
0.2710192 0.5163848 0.2022084
0.3161042 0.5261496 0.2062730
0.3636041 0.5364445 0.2106866
0.4060483 0.5426282 0.2133560
0.4518355 0.5532154 0.2181500
0.4914033 0.5630708 0.2227558
0.5366261 0.5707211 0.2271831
0.5729270 0.5806035 0.2328415
0.6089467 0.5907259 0.2414889
0.6451023 0.6011803 0.2516458
0.6809050 0.6087315 0.2612886
0.7112771 0.6186780 0.2719833
0.7370801 0.6278585 0.2832138
0.7682063 0.6387348 0.2958752
0.7945752 0.6457341 0.3078309
0.8224970 0.6568904 0.3218942
0.8434420 0.6664182 0.3355843
0.8663971 0.6768371 0.3487045
0.8841370 0.6828849 0.3608100
0.8996829 0.6915239 0.3733748
