Plugins/FilmEmulator/Content/LUTs/FE_Kodak_Vision_500T_5263_64.cube
# FilmEmulator LUT (resampled to 64)
LUT_3D_SIZE 4
0.000000 0.000000 0.000000
0.253713 0.038513 0.015544
0.497548 0.115987 0.041901
0.751221 0.223236 0.097992
0.061768 0.230510 0.056559
0.228814 0.230401 0.076186
0.509688 0.275068 0.096605
0.767843 0.331167 0.135396
0.220316 0.513489 0.158356
0.308909 0.491462 0.169620
0.489570 0.479384 0.204044
0.787527 0.548553 0.229309
0.398651 0.767914 0.283875
0.443777 0.767598 0.285125
0.571960 0.745778 0.297333
0.735199 0.715302 0.334717
0.000000 0.000000 0.257416
0.255225 0.016008 0.278517
0.504527 0.106089 0.252448
0.757406 0.214254 0.279643
0.063789 0.247694 0.275181
0.255942 0.262583 0.304739
0.513600 0.288337 0.278885
0.768392 0.331794 0.300581
0.196408 0.502841 0.301025
0.295695 0.489878 0.306113
0.482420 0.486269 0.329477
0.773522 0.541039 0.348090
0.367798 0.764689 0.369487
0.422628 0.759006 0.373512
0.552060 0.724857 0.391236
0.717285 0.703400 0.419230
0.110179 0.037353 0.473816
0.262800 0.061232 0.491923
0.503832 0.116550 0.518127
0.769633 0.200094 0.537395
0.000261 0.268063 0.542949
0.252683 0.267439 0.550044
0.522591 0.283124 0.557268
0.783145 0.320065 0.552134
0.229719 0.512919 0.539100
0.325433 0.507718 0.544649
0.537378 0.538924 0.596153
0.777530 0.556912 0.560886
0.339895 0.750315 0.559102
0.399367 0.742805 0.560486
0.536309 0.719408 0.566508
0.708354 0.714529 0.583893
0.233887 0.090851 0.677734
0.321360 0.109995 0.695038
0.520335 0.160787 0.739329
0.764526 0.235413 0.769226
0.207997 0.275391 0.740956
0.317129 0.281962 0.750454
0.530731 0.303792 0.774628
0.773214 0.341014 0.790161
0.208313 0.538208 0.799306
0.294464 0.544020 0.822754
0.532152 0.543610 0.851288
0.782827 0.549479 0.834880
0.373688 0.753448 0.778931
0.431051 0.747589 0.777537
0.567942 0.735870 0.785787
0.743958 0.747131 0.825867
