Plugins/FilmEmulator/Content/LUTs/FE_Kodak_2302_64.cube
TITLE "FE_Kodak_2302_33"
LUT_3D_SIZE 8
0.0019024 0.0019024 0.0019024
0.0023197 0.0023197 0.0023197
0.0036264 0.0036264 0.0036264
0.0061890 0.0061890 0.0061890
0.0108625 0.0108625 0.0108625
0.0181928 0.0181928 0.0181928
0.0302539 0.0302539 0.0302539
0.0494149 0.0494149 0.0494149
0.0020137 0.0020137 0.0020137
0.0031427 0.0031427 0.0031427
0.0053040 0.0053040 0.0053040
0.0093470 0.0093470 0.0093470
0.0154946 0.0154946 0.0154946
0.0267238 0.0267238 0.0267238
0.0432408 0.0432408 0.0432408
0.0668877 0.0668877 0.0668877
0.0027332 0.0027332 0.0027332
0.0045118 0.0045118 0.0045118
0.0079334 0.0079334 0.0079334
0.0133484 0.0133484 0.0133484
0.0228712 0.0228712 0.0228712
0.0379779 0.0379779 0.0379779
0.0583104 0.0583104 0.0583104
0.0880642 0.0880642 0.0880642
0.0038804 0.0038804 0.0038804
0.0066517 0.0066517 0.0066517
0.0116196 0.0116196 0.0116196
0.0192512 0.0192512 0.0192512
0.0322772 0.0322772 0.0322772
0.0528073 0.0528073 0.0528073
0.0794500 0.0794500 0.0794500
0.1161760 0.1161760 0.1161760
0.0056554 0.0056554 0.0056554
0.0099461 0.0099461 0.0099461
0.0167114 0.0167114 0.0167114
0.0284357 0.0284357 0.0284357
0.0462299 0.0462299 0.0462299
0.0716748 0.0716748 0.0716748
0.1048197 0.1048197 0.1048197
0.1475070 0.1475070 0.1475070
0.0084269 0.0084269 0.0084269
0.0143821 0.0143821 0.0143821
0.0243425 0.0243425 0.0243425
0.0405193 0.0405193 0.0405193
0.0623989 0.0623989 0.0623989
0.0944549 0.0944549 0.0944549
0.1332221 0.1332221 0.1332221
0.1862301 0.1862301 0.1862301
0.0124289 0.0124289 0.0124289
0.0209530 0.0209530 0.0209530
0.0344508 0.0344508 0.0344508
0.0545848 0.0545848 0.0545848
0.0850542 0.0850542 0.0850542
0.1201926 0.1201926 0.1201926
0.1684962 0.1684962 0.1684962
0.2264808 0.2264808 0.2264808
0.0176852 0.0176852 0.0176852
0.0302539 0.0302539 0.0302539
0.0494149 0.0494149 0.0494149
0.0741852 0.0741852 0.0741852
0.1084919 0.1084919 0.1084919
0.1525424 0.1525424 0.1525424
0.2124157 0.2124157 0.2124157
0.2728356 0.2728356 0.2728356
0.0405193 0.0405193 0.0405193
0.0646070 0.0646070 0.0646070
0.0944549 0.0944549 0.0944549
0.1378489 0.1378489 0.1378489
0.1862301 0.1862301 0.1862301
0.2488421 0.2488421 0.2488421
0.3158826 0.3158826 0.3158826
0.3814598 0.3814598 0.3814598
0.0564187 0.0564187 0.0564187
0.0850542 0.0850542 0.0850542
0.1243629 0.1243629 0.1243629
0.1741021 0.1741021 0.1741021
0.2264808 0.2264808 0.2264808
0.2982243 0.2982243 0.2982243
0.3621736 0.3621736 0.3621736
0.4312161 0.4312161 0.4312161
0.0767762 0.0767762 0.0767762
0.1122765 0.1122765 0.1122765
0.1577181 0.1577181 0.1577181
0.2124157 0.2124157 0.2124157
0.2728356 0.2728356 0.2728356
0.3433213 0.3433213 0.3433213
0.4110862 0.4110862 0.4110862
0.4723217 0.4723217 0.4723217
0.1012577 0.1012577 0.1012577
0.1426097 0.1426097 0.1426097
0.1925340 0.1925340 0.1925340
0.2566809 0.2566809 0.2566809
0.3249193 0.3249193 0.3249193
0.3912496 0.3912496 0.3912496
0.4619876 0.4619876 0.4619876
0.5241698 0.5241698 0.5241698
0.1287276 0.1287276 0.1287276
0.1800863 0.1800863 0.1800863
0.2411920 0.2411920 0.2411920
0.3069826 0.3069826 0.3069826
0.3717658 0.3717658 0.3717658
0.4414262 0.4414262 0.4414262
0.5034303 0.5034303 0.5034303
0.5656397 0.5656397 0.5656397
0.1630356 0.1630356 0.1630356
0.2193670 0.2193670 0.2193670
0.2811475 0.2811475 0.2811475
0.3526903 0.3526903 0.3526903
0.4211181 0.4211181 0.4211181
0.4826792 0.4826792 0.4826792
0.5449044 0.5449044 0.5449044
0.6063619 0.6063619 0.6063619
0.2056263 0.2056263 0.2056263
0.2646792 0.2646792 0.2646792
0.3340731 0.3340731 0.3340731
0.4011270 0.4011270 0.4011270
0.4619876 0.4619876 0.4619876
0.5345130 0.5345130 0.5345130
0.5861482 0.5861482 0.5861482
0.6457659 0.6457659 0.6457659
0.2488421 0.2488421 0.2488421
0.3069826 0.3069826 0.3069826
0.3814598 0.3814598 0.3814598
0.4516865 0.4516865 0.4516865
0.5138064 0.5138064 0.5138064
0.5759267 0.5759267 0.5759267
0.6262178 0.6262178 0.6262178
0.6844137 0.6844137 0.6844137
0.3526903 0.3526903 0.3526903
0.4211181 0.4211181 0.4211181
0.4930522 0.4930522 0.4930522
0.5552964 0.5552964 0.5552964
0.6063619 0.6063619 0.6063619
0.6653671 0.6653671 0.6653671
0.7118464 0.7118464 0.7118464
0.7540559 0.7540559 0.7540559
0.4011270 0.4011270 0.4011270
0.4723217 0.4723217 0.4723217
0.5345130 0.5345130 0.5345130
0.5962957 0.5962957 0.5962957
0.6457659 0.6457659 0.6457659
0.6937144 0.6937144 0.6937144
0.7378083 0.7378083 0.7378083
0.7771254 0.7771254 0.7771254
0.4516865 0.4516865 0.4516865
0.5138064 0.5138064 0.5138064
0.5759267 0.5759267 0.5759267
0.6359927 0.6359927 0.6359927
0.6844137 0.6844137 0.6844137
0.7293236 0.7293236 0.7293236
0.7619206 0.7619206 0.7619206
0.7986094 0.7986094 0.7986094
0.4930522 0.4930522 0.4930522
0.5552964 0.5552964 0.5552964
0.6163381 0.6163381 0.6163381
0.6653671 0.6653671 0.6653671
0.7118464 0.7118464 0.7118464
0.7540559 0.7540559 0.7540559
0.7916248 0.7916248 0.7916248
0.8182233 0.8182233 0.8182233
0.5449044 0.5449044 0.5449044
0.5962957 0.5962957 0.5962957
0.6556325 0.6556325 0.6556325
0.7028604 0.7028604 0.7028604
0.7460176 0.7460176 0.7460176
0.7771254 0.7771254 0.7771254
0.8120491 0.8120491 0.8120491
0.8354065 0.8354065 0.8354065
0.5861482 0.5861482 0.5861482
0.6359927 0.6359927 0.6359927
0.6844137 0.6844137 0.6844137
0.7293236 0.7293236 0.7293236
0.7696112 0.7696112 0.7696112
0.8054171 0.8054171 0.8054171
0.8298283 0.8298283 0.8298283
0.8512607 0.8512607 0.8512607
0.6262178 0.6262178 0.6262178
0.6749625 0.6749625 0.6749625
0.7206689 0.7206689 0.7206689
0.7619206 0.7619206 0.7619206
0.7916248 0.7916248 0.7916248
0.8241013 0.8241013 0.8241013
0.8461208 0.8461208 0.8461208
0.8658327 0.8658327 0.8658327
0.6556325 0.6556325 0.6556325
0.7118464 0.7118464 0.7118464
0.7460176 0.7460176 0.7460176
0.7844638 0.7844638 0.7844638
0.8120491 0.8120491 0.8120491
0.8408366 0.8408366 0.8408366
0.8611146 0.8611146 0.8611146
0.8746075 0.8746075 0.8746075
0.7378083 0.7378083 0.7378083
0.7696112 0.7696112 0.7696112
0.8054171 0.8054171 0.8054171
0.8298283 0.8298283 0.8298283
0.8512607 0.8512607 0.8512607
0.8703492 0.8703492 0.8703492
0.8866694 0.8866694 0.8866694
0.8977064 0.8977064 0.8977064
0.7619206 0.7619206 0.7619206
0.7916248 0.7916248 0.7916248
0.8241013 0.8241013 0.8241013
0.8461208 0.8461208 0.8461208
0.8658327 0.8658327 0.8658327
0.8827654 0.8827654 0.8827654
0.8941376 0.8941376 0.8941376
0.9077805 0.9077805 0.9077805
0.7844638 0.7844638 0.7844638
0.8182233 0.8182233 0.8182233
0.8408366 0.8408366 0.8408366
0.8611146 0.8611146 0.8611146
0.8787458 0.8787458 0.8787458
0.8904592 0.8904592 0.8904592
0.9045256 0.9045256 0.9045256
0.9136568 0.9136568 0.9136568
0.8054171 0.8054171 0.8054171
0.8354065 0.8354065 0.8354065
0.8562578 0.8562578 0.8562578
0.8746075 0.8746075 0.8746075
0.8866694 0.8866694 0.8866694
0.9011685 0.9011685 0.9011685
0.9107622 0.9107622 0.9107622
0.9218363 0.9218363 0.9218363
0.8241013 0.8241013 0.8241013
0.8461208 0.8461208 0.8461208
0.8658327 0.8658327 0.8658327
0.8827654 0.8827654 0.8827654
0.8977064 0.8977064 0.8977064
0.9077805 0.9077805 0.9077805
0.9191919 0.9191919 0.9191919
0.9268891 0.9268891 0.9268891
0.8408366 0.8408366 0.8408366
0.8611146 0.8611146 0.8611146
0.8787458 0.8787458 0.8787458
0.8941376 0.8941376 0.8941376
0.9045256 0.9045256 0.9045256
0.9164659 0.9164659 0.9164659
0.9244015 0.9244015 0.9244015
0.9316393 0.9316393 0.9316393
0.8562578 0.8562578 0.8562578
0.8746075 0.8746075 0.8746075
0.8904592 0.8904592 0.8904592
0.9011685 0.9011685 0.9011685
0.9136568 0.9136568 0.9136568
0.9218363 0.9218363 0.9218363
0.9293011 0.9293011 0.9293011
0.9359568 0.9359568 0.9359568
0.8703492 0.8703492 0.8703492
0.8866694 0.8866694 0.8866694
0.8977064 0.8977064 0.8977064
0.9107622 0.9107622 0.9107622
0.9191919 0.9191919 0.9191919
0.9268891 0.9268891 0.9268891
0.9339058 0.9339058 0.9339058
0.9415589 0.9415589 0.9415589
0.8941376 0.8941376 0.8941376
0.9045256 0.9045256 0.9045256
0.9164659 0.9164659 0.9164659
0.9244015 0.9244015 0.9244015
0.9316393 0.9316393 0.9316393
0.9378776 0.9378776 0.9378776
0.9433218 0.9433218 0.9433218
0.9483153 0.9483153 0.9483153
0.9011685 0.9011685 0.9011685
0.9136568 0.9136568 0.9136568
0.9218363 0.9218363 0.9218363
0.9293011 0.9293011 0.9293011
0.9378776 0.9378776 0.9378776
0.9433218 0.9433218 0.9433218
0.9466988 0.9466988 0.9466988
0.9514100 0.9514100 0.9514100
0.9107622 0.9107622 0.9107622
0.9191919 0.9191919 0.9191919
0.9293011 0.9293011 0.9293011
0.9359568 0.9359568 0.9359568
0.9415589 0.9415589 0.9415589
0.9466988 0.9466988 0.9466988
0.9498853 0.9498853 0.9498853
0.9542731 0.9542731 0.9542731
0.9164659 0.9164659 0.9164659
0.9268891 0.9268891 0.9268891
0.9339058 0.9339058 0.9339058
0.9397445 0.9397445 0.9397445
0.9450348 0.9450348 0.9450348
0.9498853 0.9498853 0.9498853
0.9528765 0.9528765 0.9528765
0.9569489 0.9569489 0.9569489
0.9244015 0.9244015 0.9244015
0.9316393 0.9316393 0.9316393
0.9378776 0.9378776 0.9378776
0.9433218 0.9433218 0.9433218
0.9483153 0.9483153 0.9483153
0.9528765 0.9528765 0.9528765
0.9556303 0.9556303 0.9556303
0.9594748 0.9594748 0.9594748
0.9293011 0.9293011 0.9293011
0.9359568 0.9359568 0.9359568
0.9415589 0.9415589 0.9415589
0.9466988 0.9466988 0.9466988
0.9514100 0.9514100 0.9514100
0.9556303 0.9556303 0.9556303
0.9582302 0.9582302 0.9582302
0.9618585 0.9618585 0.9618585
0.9339058 0.9339058 0.9339058
0.9397445 0.9397445 0.9397445
0.9450348 0.9450348 0.9450348
0.9498853 0.9498853 0.9498853
0.9542731 0.9542731 0.9542731
0.9569489 0.9569489 0.9569489
0.9606840 0.9606840 0.9606840
0.9641071 0.9641071 0.9641071
0.9378776 0.9378776 0.9378776
0.9433218 0.9433218 0.9433218
0.9483153 0.9483153 0.9483153
0.9528765 0.9528765 0.9528765
0.9569489 0.9569489 0.9569489
0.9594748 0.9594748 0.9594748
0.9629992 0.9629992 0.9629992
0.9651831 0.9651831 0.9651831
0.9466988 0.9466988 0.9466988
0.9514100 0.9514100 0.9514100
0.9556303 0.9556303 0.9556303
0.9582302 0.9582302 0.9582302
0.9618585 0.9618585 0.9618585
0.9651831 0.9651831 0.9651831
0.9676351 0.9676351 0.9676351
0.9699199 0.9699199 0.9699199
0.9498853 0.9498853 0.9498853
0.9542731 0.9542731 0.9542731
0.9582302 0.9582302 0.9582302
0.9606840 0.9606840 0.9606840
0.9641071 0.9641071 0.9641071
0.9664307 0.9664307 0.9664307
0.9699199 0.9699199 0.9699199
0.9720480 0.9720480 0.9720480
0.9528765 0.9528765 0.9528765
0.9569489 0.9569489 0.9569489
0.9594748 0.9594748 0.9594748
0.9629992 0.9629992 0.9629992
0.9664307 0.9664307 0.9664307
0.9687977 0.9687977 0.9687977
0.9710028 0.9710028 0.9710028
0.9740296 0.9740296 0.9740296
0.9556303 0.9556303 0.9556303
0.9594748 0.9594748 0.9594748
0.9618585 0.9618585 0.9618585
0.9651831 0.9651831 0.9651831
0.9676351 0.9676351 0.9676351
0.9710028 0.9710028 0.9710028
0.9730564 0.9730564 0.9730564
0.9749684 0.9749684 0.9749684
0.9582302 0.9582302 0.9582302
0.9618585 0.9618585 0.9618585
0.9641071 0.9641071 0.9641071
0.9676351 0.9676351 0.9676351
0.9699199 0.9699199 0.9699199
0.9720480 0.9720480 0.9720480
0.9749684 0.9749684 0.9749684
0.9767854 0.9767854 0.9767854
0.9606840 0.9606840 0.9606840
0.9629992 0.9629992 0.9629992
0.9664307 0.9664307 0.9664307
0.9687977 0.9687977 0.9687977
0.9720480 0.9720480 0.9720480
0.9740296 0.9740296 0.9740296
0.9758742 0.9758742 0.9758742
0.9776812 0.9776812 0.9776812
0.9629992 0.9629992 0.9629992
0.9651831 0.9651831 0.9651831
0.9687977 0.9687977 0.9687977
0.9710028 0.9710028 0.9710028
0.9730564 0.9730564 0.9730564
0.9758742 0.9758742 0.9758742
0.9776812 0.9776812 0.9776812
0.9793723 0.9793723 0.9793723
0.9641071 0.9641071 0.9641071
0.9676351 0.9676351 0.9676351
0.9699199 0.9699199 0.9699199
0.9730564 0.9730564 0.9730564
0.9749684 0.9749684 0.9749684
0.9767854 0.9767854 0.9767854
0.9785430 0.9785430 0.9785430
0.9809378 0.9809378 0.9809378
0.9687977 0.9687977 0.9687977
0.9720480 0.9720480 0.9720480
0.9740296 0.9740296 0.9740296
0.9758742 0.9758742 0.9758742
0.9785430 0.9785430 0.9785430
0.9801702 0.9801702 0.9801702
0.9816763 0.9816763 0.9816763
0.9830701 0.9830701 0.9830701
0.9710028 0.9710028 0.9710028
0.9730564 0.9730564 0.9730564
0.9758742 0.9758742 0.9758742
0.9776812 0.9776812 0.9776812
0.9793723 0.9793723 0.9793723
0.9809378 0.9809378 0.9809378
0.9823867 0.9823867 0.9823867
0.9837273 0.9837273 0.9837273
0.9730564 0.9730564 0.9730564
0.9749684 0.9749684 0.9749684
0.9767854 0.9767854 0.9767854
0.9785430 0.9785430 0.9785430
0.9809378 0.9809378 0.9809378
0.9823867 0.9823867 0.9823867
0.9837273 0.9837273 0.9837273
0.9848730 0.9848730 0.9848730
0.9740296 0.9740296 0.9740296
0.9767854 0.9767854 0.9767854
0.9785430 0.9785430 0.9785430
0.9801702 0.9801702 0.9801702
0.9816763 0.9816763 0.9816763
0.9830701 0.9830701 0.9830701
0.9843349 0.9843349 0.9843349
0.9853929 0.9853929 0.9853929
0.9758742 0.9758742 0.9758742
0.9776812 0.9776812 0.9776812
0.9793723 0.9793723 0.9793723
0.9816763 0.9816763 0.9816763
0.9830701 0.9830701 0.9830701
0.9843349 0.9843349 0.9843349
0.9853929 0.9853929 0.9853929
0.9863804 0.9863804 0.9863804
0.9776812 0.9776812 0.9776812
0.9793723 0.9793723 0.9793723
0.9809378 0.9809378 0.9809378
0.9823867 0.9823867 0.9823867
0.9837273 0.9837273 0.9837273
0.9848730 0.9848730 0.9848730
0.9858952 0.9858952 0.9858952
0.9868491 0.9868491 0.9868491
0.9785430 0.9785430 0.9785430
0.9801702 0.9801702 0.9801702
0.9816763 0.9816763 0.9816763
0.9830701 0.9830701 0.9830701
0.9843349 0.9843349 0.9843349
0.9853929 0.9853929 0.9853929
0.9863804 0.9863804 0.9863804
0.9873019 0.9873019 0.9873019
0.9801702 0.9801702 0.9801702
0.9816763 0.9816763 0.9816763
0.9830701 0.9830701 0.9830701
0.9843349 0.9843349 0.9843349
0.9853929 0.9853929 0.9853929
0.9863804 0.9863804 0.9863804
0.9873019 0.9873019 0.9873019
0.9881619 0.9881619 0.9881619
0.9823867 0.9823867 0.9823867
0.9837273 0.9837273 0.9837273
0.9848730 0.9848730 0.9848730
0.9858952 0.9858952 0.9858952
0.9868491 0.9868491 0.9868491
0.9877394 0.9877394 0.9877394
0.9885700 0.9885700 0.9885700
0.9889643 0.9889643 0.9889643
0.9837273 0.9837273 0.9837273
0.9848730 0.9848730 0.9848730
0.9853929 0.9853929 0.9853929
0.9863804 0.9863804 0.9863804
0.9873019 0.9873019 0.9873019
0.9881619 0.9881619 0.9881619
0.9889643 0.9889643 0.9889643
0.9896641 0.9896641 0.9896641
0.9843349 0.9843349 0.9843349
0.9853929 0.9853929 0.9853929
0.9863804 0.9863804 0.9863804
0.9873019 0.9873019 0.9873019
0.9881619 0.9881619 0.9881619
0.9885700 0.9885700 0.9885700
0.9893199 0.9893199 0.9893199
0.9899974 0.9899974 0.9899974
0.9848730 0.9848730 0.9848730
0.9858952 0.9858952 0.9858952
0.9868491 0.9868491 0.9868491
0.9877394 0.9877394 0.9877394
0.9885700 0.9885700 0.9885700
0.9893199 0.9893199 0.9893199
0.9896641 0.9896641 0.9896641
0.9903200 0.9903200 0.9903200
0.9858952 0.9858952 0.9858952
0.9868491 0.9868491 0.9868491
0.9877394 0.9877394 0.9877394
0.9881619 0.9881619 0.9881619
0.9889643 0.9889643 0.9889643
0.9896641 0.9896641 0.9896641
0.9903200 0.9903200 0.9903200
0.9906324 0.9906324 0.9906324
0.9863804 0.9863804 0.9863804
0.9873019 0.9873019 0.9873019
0.9881619 0.9881619 0.9881619
0.9889643 0.9889643 0.9889643
0.9893199 0.9893199 0.9893199
0.9899974 0.9899974 0.9899974
0.9906324 0.9906324 0.9906324
0.9912273 0.9912273 0.9912273
0.9868491 0.9868491 0.9868491
0.9877394 0.9877394 0.9877394
0.9885700 0.9885700 0.9885700
0.9893199 0.9893199 0.9893199
0.9899974 0.9899974 0.9899974
0.9903200 0.9903200 0.9903200
0.9909347 0.9909347 0.9909347
0.9915106 0.9915106 0.9915106
0.9877394 0.9877394 0.9877394
0.9885700 0.9885700 0.9885700
0.9889643 0.9889643 0.9889643
0.9896641 0.9896641 0.9896641
0.9903200 0.9903200 0.9903200
0.9909347 0.9909347 0.9909347
0.9912273 0.9912273 0.9912273
0.9917849 0.9917849 0.9917849
