Plugins/FilmEmulator/Content/LUTs/FE_Kodak_Endura_Premier_64.cube
TITLE "FE_Kodak_Endura_Premier_33"
LUT_3D_SIZE 4
0.0143539 0.0063850 0.0096231
0.7636011 0.1639938 0.0225886
1.0000000 0.4218343 0.1002681
1.0000000 0.5122701 0.1432385
0.2597665 0.9920818 0.3106777
0.7534404 0.9818935 0.3197051
0.9703704 0.9875107 0.3782033
0.9942031 0.9868205 0.4117732
0.3616840 1.0000000 0.5549134
0.8164309 1.0000000 0.5301211
0.9644936 1.0000000 0.5438557
0.9782446 1.0000000 0.5478220
0.4500265 1.0000000 0.7741776
0.8571910 1.0000000 0.7428733
0.9758580 1.0000000 0.7399395
0.9865903 1.0000000 0.7258128
0.8064840 0.5134163 1.0000000
1.0000000 0.6548754 0.9970213
1.0000000 0.7096489 0.9910868
1.0000000 0.7335019 0.9881365
0.8933576 0.9826345 0.9905351
0.9860352 0.9867486 0.9890556
0.9960810 0.9880088 0.9888184
0.9983092 0.9876663 0.9884418
0.9196133 0.9910215 0.9920989
0.9877911 0.9931325 0.9914052
0.9952279 0.9939421 0.9914095
0.9967551 0.9941432 0.9913174
0.9333656 0.9919626 0.9927377
0.9891216 0.9938515 0.9921993
0.9952878 0.9945415 0.9922301
0.9966329 0.9947490 0.9922217
1.0000000 0.8158460 0.9995426
1.0000000 0.8153097 0.9989008
1.0000000 0.8039378 0.9993764
1.0000000 0.8258755 0.9979771
0.9905275 0.9911823 0.9931328
0.9958257 0.9918258 0.9931566
0.9971373 0.9918483 0.9931544
0.9976162 0.9916179 0.9931170
0.9912837 0.9939350 0.9935160
0.9956105 0.9944733 0.9935853
0.9966687 0.9946355 0.9936168
0.9970205 0.9946807 0.9936210
0.9918764 0.9943281 0.9936043
0.9956988 0.9948200 0.9936817
0.9966648 0.9949734 0.9937117
0.9969716 0.9950220 0.9937215
1.0000000 0.9263048 0.9934750
1.0000000 0.9167371 0.9937870
1.0000000 0.9044496 0.9942892
1.0000000 0.8911459 0.9948946
0.9961409 0.9930764 0.9934883
0.9970372 0.9931641 0.9935014
0.9973490 0.9930957 0.9934914
0.9975151 0.9929814 0.9934742
0.9960220 0.9946972 0.9937600
0.9967729 0.9948148 0.9937841
0.9970318 0.9948468 0.9937902
0.9971538 0.9948524 0.9937902
0.9960850 0.9949362 0.9938212
0.9967698 0.9950497 0.9938456
0.9970010 0.9950841 0.9938524
0.9971163 0.9951016 0.9938524
