Plugins/FilmEmulator/Content/LUTs/FE_Kodak_Vision2_500T_5260_64.cube
# FilmEmulator LUT (resampled to 64)
LUT_3D_SIZE 64
0.000000 0.000000 0.000000
0.014168 0.000388 0.000481
0.028683 0.000836 0.000971
0.053965 0.003161 0.001777
0.078895 0.005910 0.002628
0.098551 0.015008 0.004147
0.118013 0.023959 0.005816
0.135607 0.031477 0.008932
0.153481 0.038514 0.011865
0.173322 0.042188 0.013524
0.193224 0.045528 0.015514
0.213453 0.047062 0.019296
0.233763 0.048562 0.023049
0.254426 0.049910 0.026676
0.274835 0.051385 0.029673
0.294335 0.053307 0.030417
0.313889 0.055559 0.030320
0.333606 0.058799 0.027701
0.352888 0.061633 0.026864
0.371055 0.063431 0.030584
0.389125 0.064822 0.035002
0.406982 0.065318 0.040955
0.425042 0.064860 0.047269
0.443488 0.062581 0.054276
0.461301 0.061198 0.060015
0.478058 0.061306 0.063642
0.494436 0.061906 0.066388
0.510263 0.063224 0.067845
0.525587 0.065193 0.069526
0.540267 0.067998 0.071494
0.555120 0.070637 0.073267
0.570172 0.073086 0.074817
0.585317 0.075132 0.076421
0.600554 0.076775 0.078080
0.615240 0.078056 0.079549
0.629439 0.079017 0.080851
0.643751 0.079812 0.082345
0.658151 0.080479 0.083988
0.672027 0.081164 0.085512
0.685544 0.081861 0.086953
0.699187 0.082656 0.088666
0.712905 0.083508 0.090542
0.726837 0.084381 0.092458
0.740881 0.085265 0.094396
0.754563 0.086521 0.096237
0.768079 0.087947 0.098035
0.781162 0.089874 0.099477
0.794074 0.091998 0.100779
0.806545 0.093901 0.102198
0.818868 0.095730 0.103654
0.831107 0.097680 0.104990
0.843322 0.099665 0.106293
0.855310 0.101762 0.107746
0.867245 0.103886 0.109234
0.879364 0.105905 0.110748
0.891517 0.107904 0.112267
0.903466 0.109348 0.113501
0.915386 0.110712 0.114695
0.926970 0.112427 0.115580
0.938518 0.114179 0.116433
0.950197 0.116381 0.117590
0.961885 0.118613 0.118768
0.968301 0.121416 0.120502
0.974548 0.124237 0.122253
0.000202 0.000542 0.000016
0.011740 0.004568 0.000583
0.023654 0.008554 0.001156
0.047235 0.011344 0.001931
0.070567 0.014369 0.002727
0.090152 0.020933 0.003844
0.109585 0.027564 0.005123
0.127556 0.034837 0.007955
0.145707 0.041710 0.010669
0.165115 0.045778 0.012556
0.184705 0.049510 0.014638
0.205272 0.051430 0.017775
0.225833 0.053295 0.021142
0.246362 0.054919 0.025509
0.266759 0.056597 0.029242
0.286684 0.058464 0.030711
0.306591 0.060707 0.031291
0.326442 0.064081 0.029207
0.346123 0.067071 0.028410
0.365369 0.069082 0.030902
0.384299 0.070737 0.034546
0.402534 0.071611 0.040727
0.420904 0.071583 0.047029
0.439531 0.069831 0.053563
0.457787 0.068730 0.059188
0.475426 0.068713 0.063295
0.492475 0.069344 0.066288
0.508664 0.070921 0.067650
0.524330 0.073012 0.069237
0.539324 0.075763 0.071111
0.554456 0.078453 0.072859
0.569744 0.081075 0.074464
0.585156 0.083184 0.076088
0.600693 0.084780 0.077731
0.615795 0.086076 0.079281
0.630514 0.087108 0.080748
0.645053 0.088010 0.082328
0.659453 0.088811 0.083994
0.673553 0.089583 0.085621
0.687448 0.090335 0.087220
0.701287 0.091170 0.088943
0.715092 0.092054 0.090739
0.729044 0.093139 0.092577
0.743072 0.094330 0.094436
0.756732 0.095693 0.096237
0.770225 0.097135 0.098011
0.783250 0.099055 0.099520
0.796091 0.101163 0.100924
0.808509 0.103033 0.102285
0.820785 0.104822 0.103632
0.832915 0.106832 0.104833
0.845004 0.108903 0.105994
0.857154 0.110889 0.107318
0.869317 0.112855 0.108680
0.881359 0.114842 0.109949
0.893378 0.116834 0.111200
0.905118 0.118359 0.112263
0.916818 0.119818 0.113299
0.928345 0.121228 0.114134
0.939854 0.122633 0.114947
0.951227 0.124754 0.115932
0.962592 0.126924 0.116929
0.968679 0.129846 0.118581
0.974595 0.132794 0.120254
0.000418 0.001301 0.000053
0.009297 0.008790 0.000697
0.018582 0.016150 0.001345
0.040484 0.019470 0.002086
0.062236 0.022839 0.002827
0.081750 0.026937 0.003556
0.101154 0.031306 0.004456
0.119500 0.038299 0.007009
0.137925 0.044975 0.009507
0.156905 0.049427 0.011620
0.176185 0.053541 0.013795
0.197088 0.055835 0.016302
0.217901 0.058054 0.019292
0.238320 0.059948 0.024372
0.258722 0.061826 0.028815
0.279063 0.063647 0.030979
0.299317 0.065886 0.032218
0.319312 0.069380 0.030679
0.339391 0.072519 0.029931
0.359685 0.074751 0.031201
0.379457 0.076671 0.034078
0.398081 0.077903 0.040486
0.416771 0.078290 0.046782
0.435588 0.077063 0.052865
0.454286 0.076248 0.058380
0.472788 0.076116 0.062950
0.490495 0.076785 0.066179
0.507042 0.078623 0.067451
0.523049 0.080835 0.068946
0.538361 0.083528 0.070728
0.553775 0.086267 0.072453
0.569302 0.089059 0.074113
0.584984 0.091232 0.075759
0.600820 0.092788 0.077389
0.616335 0.094104 0.079016
0.631567 0.095210 0.080641
0.646335 0.096219 0.082303
0.660743 0.097154 0.083994
0.675065 0.098015 0.085720
0.689327 0.098826 0.087469
0.703360 0.099705 0.089204
0.717257 0.100625 0.090929
0.731235 0.101921 0.092692
0.745254 0.103413 0.094474
0.758892 0.104883 0.096234
0.772356 0.106343 0.097983
0.785323 0.108256 0.099554
0.798095 0.110347 0.101055
0.810458 0.112186 0.102355
0.822685 0.113941 0.103589
0.834709 0.116006 0.104661
0.846677 0.118157 0.105689
0.858982 0.120034 0.106888
0.871364 0.121847 0.108127
0.883330 0.123808 0.109158
0.895218 0.125795 0.110150
0.906755 0.127405 0.111044
0.918241 0.128960 0.111924
0.929707 0.130080 0.112703
0.941170 0.131155 0.113473
0.952242 0.133193 0.114292
0.963287 0.135295 0.115115
0.969056 0.138318 0.116685
0.974656 0.141370 0.118280
0.001100 0.008741 0.000750
0.006396 0.014341 0.001198
0.012179 0.019951 0.001653
0.033049 0.025854 0.002307
0.053830 0.031622 0.002968
0.073273 0.035373 0.003721
0.092638 0.039299 0.004627
0.111252 0.044915 0.007014
0.129875 0.050395 0.009389
0.148563 0.054926 0.011676
0.167638 0.059103 0.013976
0.188801 0.061372 0.016349
0.209945 0.063589 0.019208
0.231002 0.065578 0.024170
0.251924 0.067585 0.028479
0.272367 0.069658 0.030454
0.292810 0.072010 0.031768
0.313254 0.075196 0.031095
0.333684 0.078259 0.030688
0.354081 0.081003 0.030959
0.374149 0.083189 0.033212
0.393498 0.084145 0.039825
0.412817 0.084505 0.046323
0.432083 0.083727 0.052602
0.451168 0.083287 0.058199
0.469953 0.083407 0.062659
0.487925 0.084344 0.065833
0.504708 0.086473 0.067128
0.521034 0.088787 0.068622
0.536772 0.091338 0.070372
0.552573 0.094024 0.072110
0.568447 0.096863 0.073834
0.584452 0.099147 0.075554
0.600587 0.100876 0.077271
0.616409 0.102361 0.078884
0.631956 0.103632 0.080407
0.647000 0.104785 0.082055
0.661652 0.105845 0.083801
0.676096 0.106865 0.085507
0.690397 0.107857 0.087186
0.704603 0.108908 0.088992
0.718752 0.109993 0.090875
0.732955 0.111428 0.092681
0.747188 0.113046 0.094448
0.760751 0.114620 0.096154
0.774010 0.116175 0.097832
0.786908 0.118069 0.099333
0.799664 0.120097 0.100763
0.811941 0.122003 0.101880
0.824057 0.123868 0.102893
0.836082 0.125871 0.104028
0.848082 0.127912 0.105197
0.860329 0.129775 0.106404
0.872632 0.131596 0.107620
0.884559 0.133651 0.108626
0.896416 0.135749 0.109594
0.907949 0.137523 0.110396
0.919435 0.139252 0.111174
0.930686 0.140538 0.111773
0.941913 0.141778 0.112353
0.952756 0.143642 0.113212
0.963573 0.145547 0.114091
0.969450 0.148045 0.115578
0.975167 0.150562 0.117086
0.001769 0.016067 0.001507
0.003631 0.019820 0.001756
0.006048 0.023719 0.002014
0.025685 0.032134 0.002551
0.045312 0.040243 0.003102
0.064788 0.043764 0.003866
0.084206 0.047357 0.004765
0.103071 0.051651 0.006964
0.121879 0.055979 0.009212
0.140296 0.060539 0.011797
0.159185 0.064737 0.014333
0.180629 0.066977 0.016601
0.202118 0.069185 0.019343
0.223805 0.071263 0.024133
0.245246 0.073393 0.028265
0.265811 0.075712 0.030052
0.286450 0.078179 0.031426
0.307309 0.081088 0.031562
0.328072 0.084091 0.031463
0.348587 0.087336 0.030762
0.368959 0.089781 0.032410
0.389018 0.090468 0.039227
0.408949 0.090809 0.045910
0.428638 0.090488 0.052337
0.448095 0.090422 0.057998
0.467165 0.090782 0.062380
0.485397 0.091974 0.065521
0.502405 0.094384 0.066845
0.519042 0.096795 0.068338
0.535202 0.099208 0.070048
0.551392 0.101840 0.071794
0.567616 0.104721 0.073582
0.583941 0.107107 0.075371
0.600369 0.109000 0.077161
0.616490 0.110649 0.078765
0.632342 0.112082 0.080205
0.647655 0.113376 0.081845
0.662549 0.114560 0.083639
0.677120 0.115733 0.085325
0.691470 0.116896 0.086937
0.705846 0.118112 0.088807
0.720236 0.119359 0.090833
0.734651 0.120937 0.092677
0.749077 0.122687 0.094425
0.762571 0.124361 0.096078
0.775640 0.126000 0.097688
0.788472 0.127873 0.099119
0.801213 0.129838 0.100482
0.813410 0.131807 0.101433
0.825427 0.133778 0.102247
0.837453 0.135722 0.103435
0.849483 0.137660 0.104728
0.861665 0.139521 0.105927
0.873882 0.141363 0.107105
0.885772 0.143506 0.108094
0.897601 0.145705 0.109047
0.909134 0.147640 0.109766
0.920624 0.149538 0.110452
0.931675 0.150990 0.110894
0.942682 0.152396 0.111310
0.953289 0.154083 0.112200
0.963869 0.155789 0.113121
0.969849 0.157792 0.114525
0.975681 0.159804 0.115944
0.002234 0.021662 0.003150
0.002883 0.024219 0.003171
0.003992 0.027005 0.003189
0.019370 0.036868 0.003135
0.035103 0.046430 0.003122
0.056169 0.051470 0.003713
0.077029 0.056395 0.004406
0.095894 0.060201 0.006086
0.114704 0.064015 0.008151
0.133136 0.067882 0.012909
0.152132 0.071475 0.017331
0.174175 0.073580 0.019938
0.196245 0.075682 0.022769
0.218435 0.077767 0.026566
0.240363 0.079937 0.029883
0.261354 0.082405 0.031480
0.282290 0.085025 0.032700
0.303062 0.088099 0.032790
0.323866 0.091312 0.032502
0.344752 0.094880 0.031250
0.365534 0.097495 0.032575
0.386088 0.098017 0.039573
0.406361 0.098444 0.046177
0.426098 0.098690 0.052030
0.445699 0.098999 0.057491
0.465076 0.099414 0.062299
0.483510 0.100684 0.065736
0.500565 0.103204 0.067171
0.517393 0.105643 0.068650
0.533931 0.107977 0.070186
0.550510 0.110545 0.071881
0.567136 0.113378 0.073756
0.583756 0.115757 0.075521
0.600373 0.117682 0.077177
0.616667 0.119404 0.078835
0.632676 0.120947 0.080496
0.648173 0.122351 0.082201
0.663271 0.123646 0.083941
0.678042 0.124872 0.085604
0.692590 0.126051 0.087216
0.707093 0.127342 0.089032
0.721571 0.128700 0.090971
0.735963 0.130465 0.092754
0.750311 0.132443 0.094455
0.763801 0.134145 0.096061
0.776902 0.135721 0.097623
0.789726 0.137537 0.099025
0.802443 0.139448 0.100364
0.814676 0.141420 0.101403
0.826748 0.143414 0.102343
0.838793 0.145364 0.103448
0.850830 0.147302 0.104600
0.862847 0.149335 0.105568
0.874860 0.151390 0.106494
0.886744 0.153540 0.107542
0.898605 0.155707 0.108613
0.910189 0.157728 0.109403
0.921734 0.159728 0.110152
0.932806 0.161347 0.110792
0.943828 0.162926 0.111420
0.954104 0.164410 0.112198
0.964330 0.165888 0.112987
0.970345 0.167830 0.114271
0.976223 0.169786 0.115571
0.002636 0.027380 0.004831
0.002215 0.028805 0.004626
0.002153 0.030531 0.004407
0.013184 0.041587 0.003764
0.024932 0.052362 0.003189
0.047423 0.058934 0.003631
0.069586 0.065214 0.004150
0.088582 0.068670 0.005402
0.107519 0.072097 0.007324
0.126047 0.075334 0.013931
0.145206 0.078378 0.019985
0.167773 0.080388 0.023049
0.190365 0.082411 0.026079
0.213059 0.084491 0.028955
0.235473 0.086683 0.031510
0.256881 0.089277 0.032919
0.278119 0.092028 0.033976
0.298846 0.095246 0.033977
0.319717 0.098642 0.033501
0.340955 0.102492 0.031806
0.362137 0.105255 0.032873
0.383196 0.105626 0.040016
0.403833 0.106129 0.046548
0.423664 0.106882 0.051915
0.443424 0.107545 0.057184
0.463067 0.108060 0.062291
0.481680 0.109439 0.065951
0.498788 0.112080 0.067494
0.515804 0.114561 0.068967
0.532701 0.116835 0.070349
0.549655 0.119345 0.071992
0.566673 0.122122 0.073932
0.583587 0.124496 0.075674
0.600397 0.126466 0.077220
0.616860 0.128271 0.078928
0.633016 0.129930 0.080780
0.648694 0.131446 0.082545
0.664001 0.132851 0.084242
0.678968 0.134138 0.085894
0.693703 0.135346 0.087515
0.708330 0.136716 0.089277
0.722892 0.138184 0.091122
0.737269 0.140123 0.092849
0.751549 0.142310 0.094513
0.765035 0.144046 0.096069
0.778160 0.145577 0.097576
0.790976 0.147349 0.098931
0.803670 0.149216 0.100228
0.815937 0.151190 0.101351
0.828061 0.153198 0.102416
0.840126 0.155152 0.103442
0.852174 0.157091 0.104457
0.864049 0.159267 0.105232
0.875884 0.161497 0.105951
0.887745 0.163659 0.107047
0.899611 0.165808 0.108212
0.911238 0.167903 0.109070
0.922831 0.169991 0.109883
0.933923 0.171762 0.110706
0.944963 0.173502 0.111529
0.954918 0.174793 0.112217
0.964801 0.176055 0.112896
0.970847 0.177928 0.114069
0.976769 0.179820 0.115257
0.002434 0.034278 0.006877
0.002321 0.035191 0.006475
0.002393 0.036381 0.006048
0.008244 0.046153 0.004822
0.015124 0.055829 0.003706
0.037442 0.064055 0.004243
0.059580 0.071925 0.004891
0.079969 0.076357 0.006599
0.100234 0.080634 0.008761
0.119636 0.083830 0.014093
0.139503 0.086885 0.019321
0.161881 0.089170 0.023983
0.184415 0.091390 0.028266
0.207622 0.093328 0.030906
0.230511 0.095387 0.033237
0.252266 0.097879 0.034466
0.273852 0.100537 0.035265
0.294934 0.103693 0.034778
0.316110 0.107015 0.034121
0.337529 0.110762 0.033033
0.359019 0.113453 0.034455
0.380669 0.113816 0.041401
0.401883 0.114289 0.047929
0.422265 0.114971 0.053657
0.442320 0.115791 0.058810
0.461829 0.116842 0.063004
0.480408 0.118631 0.066160
0.497626 0.121501 0.067798
0.514783 0.124161 0.069334
0.531861 0.126554 0.070739
0.549055 0.129060 0.072328
0.566380 0.131695 0.074127
0.583566 0.134088 0.075857
0.600612 0.136239 0.077521
0.617210 0.138221 0.079239
0.633414 0.140054 0.081004
0.649250 0.141703 0.082776
0.664801 0.143210 0.084551
0.679924 0.144628 0.086291
0.694753 0.145985 0.088007
0.709459 0.147480 0.089705
0.724092 0.149058 0.091393
0.738520 0.151046 0.093107
0.752839 0.153249 0.094834
0.766305 0.155076 0.096318
0.779383 0.156733 0.097691
0.792179 0.158592 0.098851
0.804866 0.160530 0.099927
0.817148 0.162468 0.101083
0.829296 0.164405 0.102267
0.841396 0.166356 0.103251
0.853484 0.168311 0.104179
0.865437 0.170336 0.105123
0.877359 0.172377 0.106070
0.889021 0.174602 0.107089
0.900634 0.176862 0.108120
0.912216 0.178923 0.109030
0.923794 0.180955 0.109922
0.934913 0.182750 0.110773
0.945984 0.184521 0.111621
0.955720 0.185726 0.112428
0.965366 0.186894 0.113233
0.971412 0.188610 0.114364
0.977342 0.190345 0.115506
0.002281 0.041141 0.008820
0.002433 0.041571 0.008243
0.002619 0.042250 0.007630
0.003859 0.050677 0.005938
0.006355 0.059188 0.004382
0.027695 0.068951 0.004885
0.049093 0.078316 0.005546
0.071045 0.083828 0.007736
0.092785 0.089059 0.010184
0.113033 0.092321 0.014440
0.133599 0.095477 0.018965
0.155877 0.098064 0.024950
0.178423 0.100510 0.030277
0.202134 0.102343 0.032753
0.225498 0.104296 0.034929
0.247624 0.106680 0.036032
0.269576 0.109244 0.036621
0.291006 0.112348 0.035670
0.312497 0.115603 0.034834
0.334147 0.119242 0.034296
0.355967 0.121873 0.036013
0.378159 0.122285 0.042693
0.399904 0.122770 0.049157
0.420796 0.123395 0.055208
0.441137 0.124359 0.060258
0.460559 0.125887 0.063643
0.479138 0.128036 0.066351
0.496484 0.131091 0.068069
0.513791 0.133902 0.069662
0.531046 0.136399 0.071096
0.548470 0.138903 0.072641
0.566085 0.141414 0.074313
0.583532 0.143827 0.076043
0.600814 0.146140 0.077830
0.617556 0.148282 0.079568
0.633824 0.150272 0.081262
0.649816 0.152050 0.083029
0.665595 0.153665 0.084852
0.680872 0.155212 0.086669
0.695806 0.156713 0.088483
0.710603 0.158331 0.090138
0.725318 0.160020 0.091698
0.739791 0.162059 0.093385
0.754137 0.164281 0.095137
0.767581 0.166196 0.096543
0.780616 0.167970 0.097792
0.793402 0.169901 0.098798
0.806092 0.171894 0.099709
0.818394 0.173797 0.100892
0.830567 0.175671 0.102167
0.842692 0.177613 0.103116
0.854804 0.179575 0.103973
0.866812 0.181484 0.105041
0.878795 0.183382 0.106158
0.890279 0.185658 0.107111
0.901671 0.188004 0.108033
0.913215 0.190039 0.109020
0.924781 0.192029 0.110017
0.935932 0.193845 0.110906
0.947039 0.195643 0.111783
0.956535 0.196787 0.112703
0.965923 0.197888 0.113626
0.971976 0.199485 0.114706
0.977922 0.201098 0.115791
0.002468 0.047760 0.010045
0.002596 0.047906 0.009436
0.002739 0.048256 0.008804
0.003357 0.054903 0.007457
0.004857 0.061791 0.006168
0.019583 0.072278 0.005734
0.035245 0.082469 0.005608
0.059954 0.089793 0.008451
0.084186 0.096708 0.011510
0.105088 0.100764 0.016080
0.126286 0.104667 0.020777
0.149084 0.107743 0.026156
0.172137 0.110614 0.031054
0.196296 0.112596 0.033868
0.220130 0.114633 0.036367
0.242799 0.116868 0.037738
0.265235 0.119327 0.038453
0.286972 0.122463 0.037202
0.308848 0.125698 0.036196
0.331081 0.129188 0.035815
0.353365 0.131854 0.037407
0.375761 0.132706 0.043339
0.397717 0.133494 0.049326
0.418829 0.134159 0.055416
0.439399 0.135177 0.060461
0.459065 0.136785 0.063767
0.477892 0.138932 0.066419
0.495490 0.141868 0.068113
0.513003 0.144619 0.069721
0.530409 0.147133 0.071218
0.547990 0.149645 0.072789
0.565769 0.152157 0.074445
0.583414 0.154585 0.076246
0.600923 0.156930 0.078190
0.617869 0.159111 0.080023
0.634318 0.161148 0.081757
0.650452 0.163027 0.083443
0.666340 0.164784 0.085093
0.681770 0.166449 0.086915
0.696886 0.168052 0.088854
0.711849 0.169782 0.090606
0.726721 0.171590 0.092245
0.741207 0.173700 0.093798
0.755490 0.175970 0.095306
0.768903 0.177937 0.096598
0.781922 0.179766 0.097792
0.794761 0.181673 0.098941
0.807529 0.183611 0.100072
0.819881 0.185489 0.101240
0.832093 0.187346 0.102421
0.844166 0.189242 0.103379
0.856199 0.191149 0.104276
0.868095 0.193188 0.105153
0.879960 0.195259 0.106026
0.891420 0.197496 0.106993
0.902804 0.199764 0.107979
0.914361 0.201830 0.109222
0.925942 0.203867 0.110501
0.937158 0.205687 0.111489
0.948337 0.207485 0.112445
0.957446 0.208748 0.113429
0.966416 0.209975 0.114414
0.972525 0.211706 0.115374
0.978542 0.213453 0.116333
0.002661 0.054549 0.011340
0.002767 0.054378 0.010619
0.002873 0.054366 0.009892
0.002969 0.059261 0.008934
0.003591 0.064541 0.007954
0.012086 0.075601 0.006634
0.022271 0.086470 0.005751
0.048797 0.095504 0.009089
0.074735 0.104036 0.012619
0.096561 0.109059 0.017494
0.118630 0.113863 0.022383
0.142011 0.117490 0.027344
0.165643 0.120853 0.031961
0.190366 0.123072 0.035084
0.214742 0.125267 0.037857
0.237880 0.127379 0.039380
0.260761 0.129741 0.040155
0.282873 0.132851 0.038683
0.305191 0.136018 0.037565
0.328032 0.139330 0.037350
0.350800 0.141997 0.038836
0.373404 0.143244 0.044066
0.395564 0.144318 0.049577
0.416879 0.145065 0.055624
0.437661 0.146173 0.060623
0.457556 0.147883 0.063875
0.476623 0.150042 0.066497
0.494480 0.152856 0.068200
0.512208 0.155545 0.069824
0.529772 0.158073 0.071349
0.547519 0.160591 0.072932
0.565474 0.163097 0.074582
0.583311 0.165544 0.076440
0.601032 0.167930 0.078507
0.618162 0.170164 0.080419
0.634770 0.172263 0.082196
0.651039 0.174243 0.083829
0.667043 0.176130 0.085350
0.682627 0.177905 0.087177
0.697924 0.179604 0.089213
0.713053 0.181436 0.091036
0.728081 0.183348 0.092731
0.742591 0.185518 0.094174
0.756830 0.187822 0.095485
0.770230 0.189832 0.096683
0.783250 0.191708 0.097830
0.796131 0.193600 0.099086
0.808957 0.195498 0.100384
0.821358 0.197345 0.101526
0.833616 0.199175 0.102617
0.845634 0.201029 0.103575
0.857584 0.202890 0.104495
0.869388 0.205018 0.105247
0.881158 0.207208 0.105960
0.892607 0.209401 0.106961
0.903996 0.211595 0.108016
0.915558 0.213689 0.109466
0.927146 0.215768 0.110972
0.938405 0.217601 0.112066
0.949631 0.219407 0.113116
0.958363 0.220811 0.114174
0.966929 0.222187 0.115232
0.973078 0.224027 0.116091
0.979150 0.225882 0.116944
0.002893 0.062253 0.013014
0.002984 0.061586 0.011750
0.003075 0.061043 0.010515
0.003195 0.064332 0.010180
0.003579 0.068091 0.009746
0.007908 0.078899 0.007811
0.014014 0.089649 0.006337
0.037288 0.099848 0.009313
0.060679 0.109635 0.012557
0.084891 0.116548 0.017685
0.109118 0.123086 0.022880
0.133428 0.127603 0.028439
0.158037 0.131821 0.033570
0.183941 0.134749 0.036843
0.209253 0.137503 0.039630
0.232453 0.139638 0.040680
0.255569 0.141935 0.041151
0.278429 0.144714 0.039885
0.301495 0.147551 0.038974
0.325085 0.150532 0.038971
0.348435 0.153016 0.040461
0.371259 0.154404 0.045234
0.393600 0.155680 0.050278
0.415017 0.156742 0.055836
0.435919 0.158133 0.060560
0.455964 0.160071 0.063890
0.475238 0.162307 0.066633
0.493386 0.164980 0.068516
0.511367 0.167593 0.070171
0.529136 0.170129 0.071530
0.547099 0.172636 0.073047
0.565282 0.175111 0.074745
0.583293 0.177589 0.076591
0.601131 0.180070 0.078586
0.618342 0.182423 0.080499
0.634998 0.184664 0.082339
0.651367 0.186745 0.084061
0.667513 0.188703 0.085692
0.683261 0.190545 0.087527
0.698739 0.192307 0.089500
0.714030 0.194182 0.091260
0.729208 0.196126 0.092892
0.743805 0.198285 0.094350
0.758099 0.200558 0.095716
0.771582 0.202558 0.096931
0.784696 0.204434 0.098078
0.797564 0.206360 0.099243
0.810335 0.208306 0.100415
0.822781 0.210094 0.101479
0.835117 0.211829 0.102507
0.847073 0.213669 0.103401
0.858921 0.215538 0.104259
0.870731 0.217527 0.105242
0.882533 0.219543 0.106254
0.894046 0.221669 0.107388
0.905506 0.223816 0.108546
0.917036 0.225918 0.109940
0.928576 0.228013 0.111367
0.939760 0.229897 0.112610
0.950907 0.231759 0.113834
0.959317 0.233423 0.115020
0.967544 0.235075 0.116204
0.973652 0.236894 0.117067
0.979692 0.238718 0.117920
0.003050 0.069843 0.015025
0.003113 0.068778 0.013187
0.003178 0.067805 0.011412
0.003306 0.069698 0.011599
0.003479 0.072120 0.011619
0.004334 0.082488 0.009133
0.006908 0.092932 0.007104
0.026096 0.104110 0.009486
0.046177 0.114981 0.012244
0.072506 0.123702 0.017626
0.098700 0.131935 0.023119
0.124166 0.137531 0.029212
0.149935 0.142767 0.034843
0.177014 0.146437 0.038472
0.203318 0.149804 0.041442
0.226852 0.152088 0.042055
0.250403 0.154419 0.042235
0.274002 0.156890 0.041114
0.297823 0.159394 0.040403
0.322212 0.161979 0.040738
0.346176 0.164246 0.042288
0.369204 0.165810 0.046509
0.391711 0.167298 0.051027
0.413223 0.168641 0.056114
0.434227 0.170292 0.060547
0.454385 0.172457 0.063892
0.473836 0.174777 0.066716
0.492256 0.177325 0.068781
0.510493 0.179862 0.070493
0.528494 0.182384 0.071753
0.546678 0.184878 0.073221
0.565070 0.187341 0.074923
0.583258 0.189848 0.076746
0.601242 0.192400 0.078691
0.618566 0.194855 0.080617
0.635310 0.197224 0.082528
0.651774 0.199418 0.084336
0.668022 0.201475 0.086064
0.683904 0.203397 0.087897
0.699538 0.205226 0.089803
0.714978 0.207142 0.091519
0.730303 0.209109 0.093121
0.744990 0.211257 0.094593
0.759344 0.213501 0.095998
0.772910 0.215501 0.097215
0.786119 0.217392 0.098348
0.798988 0.219340 0.099435
0.811725 0.221311 0.100504
0.824213 0.223046 0.101516
0.836618 0.224703 0.102507
0.848527 0.226507 0.103355
0.860297 0.228352 0.104162
0.872101 0.230216 0.105323
0.883914 0.232086 0.106565
0.895479 0.234122 0.107828
0.906998 0.236189 0.109095
0.918481 0.238292 0.110444
0.929959 0.240400 0.111805
0.941086 0.242334 0.113167
0.952176 0.244249 0.114530
0.960280 0.246117 0.115826
0.968185 0.247982 0.117117
0.974272 0.249793 0.118013
0.980302 0.251602 0.118896
0.002880 0.076943 0.018497
0.002864 0.075901 0.015951
0.002850 0.074936 0.013492
0.002915 0.076340 0.013766
0.003000 0.078227 0.013849
0.003375 0.087343 0.011088
0.004792 0.096669 0.008659
0.016279 0.108020 0.009443
0.029741 0.119224 0.010835
0.057022 0.129401 0.016485
0.084355 0.139161 0.022244
0.111963 0.146663 0.028589
0.139688 0.153613 0.034659
0.167916 0.158173 0.039540
0.195448 0.162387 0.043426
0.220495 0.165364 0.043756
0.245353 0.168162 0.043695
0.269644 0.170420 0.042464
0.294251 0.172581 0.041922
0.319663 0.174489 0.043139
0.344373 0.176391 0.044993
0.367535 0.178278 0.048245
0.390152 0.180024 0.051990
0.411726 0.181500 0.056675
0.432752 0.183318 0.060757
0.452863 0.185703 0.063834
0.472363 0.188132 0.066573
0.490972 0.190625 0.068818
0.509470 0.193086 0.070715
0.527825 0.195506 0.072165
0.546257 0.197979 0.073647
0.564775 0.200513 0.075168
0.583156 0.203039 0.076921
0.601399 0.205560 0.078905
0.618983 0.208037 0.080904
0.635987 0.210478 0.082917
0.652525 0.212826 0.084792
0.668701 0.215103 0.086559
0.684583 0.217166 0.088357
0.700264 0.219083 0.090177
0.715806 0.221026 0.091929
0.731265 0.222985 0.093641
0.746050 0.225115 0.095131
0.760482 0.227335 0.096504
0.774138 0.229382 0.097658
0.787441 0.231351 0.098711
0.800377 0.233271 0.099776
0.813169 0.235171 0.100845
0.825688 0.236883 0.101915
0.838117 0.238532 0.102986
0.850049 0.240205 0.103857
0.861843 0.241884 0.104672
0.873588 0.243692 0.105777
0.885322 0.245530 0.106948
