Plugins/FilmEmulator/Content/LUTs/FE_Kodak_Polymax_Grade_3_64.cube
TITLE "FE_Kodak_Polymax_Grade_3_33"
LUT_3D_SIZE 64
0.0022144 0.0022144 0.0022144
0.0022144 0.0022144 0.0022144
0.0022144 0.0022144 0.0022144
0.0022144 0.0022144 0.0022144
0.0022144 0.0022144 0.0022144
0.0022144 0.0022144 0.0022144
0.0022144 0.0022144 0.0022144
0.0022144 0.0022144 0.0022144
0.0022144 0.0022144 0.0022144
0.0022144 0.0022144 0.0022144
0.0022144 0.0022144 0.0022144
0.0022144 0.0022144 0.0022144
0.0022144 0.0022144 0.0022144
0.0022144 0.0022144 0.0022144
0.0022144 0.0022144 0.0022144
0.0022144 0.0022144 0.0022144
0.0022144 0.0022144 0.0022144
0.0022144 0.0022144 0.0022144
0.0022144 0.0022144 0.0022144
0.0022144 0.0022144 0.0022144
0.0022144 0.0022144 0.0022144
0.0022144 0.0022144 0.0022144
0.0022144 0.0022144 0.0022144
0.0022144 0.0022144 0.0022144
0.0022144 0.0022144 0.0022144
0.0022144 0.0022144 0.0022144
0.0022144 0.0022144 0.0022144
0.0022144 0.0022144 0.0022144
0.0022144 0.0022144 0.0022144
0.0022144 0.0022144 0.0022144
0.0022144 0.0022144 0.0022144
0.0022145 0.0022145 0.0022145
0.0022147 0.0022147 0.0022147
0.0022151 0.0022151 0.0022151
0.0022156 0.0022156 0.0022156
0.0022163 0.0022163 0.0022163
0.0022170 0.0022170 0.0022170
0.0022179 0.0022179 0.0022179
0.0022188 0.0022188 0.0022188
0.0022199 0.0022199 0.0022199
0.0022208 0.0022208 0.0022208
0.0022219 0.0022219 0.0022219
0.0022229 0.0022229 0.0022229
0.0022239 0.0022239 0.0022239
0.0022250 0.0022250 0.0022250
0.0022260 0.0022260 0.0022260
0.0022272 0.0022272 0.0022272
0.0022285 0.0022285 0.0022285
0.0022299 0.0022299 0.0022299
0.0022311 0.0022311 0.0022311
0.0022329 0.0022329 0.0022329
0.0022347 0.0022347 0.0022347
0.0022364 0.0022364 0.0022364
0.0022387 0.0022387 0.0022387
0.0022405 0.0022405 0.0022405
0.0022426 0.0022426 0.0022426
0.0022449 0.0022449 0.0022449
0.0022478 0.0022478 0.0022478
0.0022505 0.0022505 0.0022505
0.0022533 0.0022533 0.0022533
0.0022561 0.0022561 0.0022561
0.0022599 0.0022599 0.0022599
0.0022657 0.0022657 0.0022657
0.0022695 0.0022695 0.0022695
0.0022144 0.0022144 0.0022144
0.0022144 0.0022144 0.0022144
0.0022144 0.0022144 0.0022144
0.0022144 0.0022144 0.0022144
0.0022144 0.0022144 0.0022144
0.0022144 0.0022144 0.0022144
0.0022144 0.0022144 0.0022144
0.0022144 0.0022144 0.0022144
0.0022144 0.0022144 0.0022144
0.0022144 0.0022144 0.0022144
0.0022144 0.0022144 0.0022144
0.0022144 0.0022144 0.0022144
0.0022144 0.0022144 0.0022144
0.0022144 0.0022144 0.0022144
0.0022144 0.0022144 0.0022144
0.0022144 0.0022144 0.0022144
0.0022144 0.0022144 0.0022144
0.0022144 0.0022144 0.0022144
0.0022144 0.0022144 0.0022144
0.0022144 0.0022144 0.0022144
0.0022144 0.0022144 0.0022144
0.0022144 0.0022144 0.0022144
0.0022144 0.0022144 0.0022144
0.0022144 0.0022144 0.0022144
0.0022145 0.0022145 0.0022145
0.0022147 0.0022147 0.0022147
0.0022152 0.0022152 0.0022152
0.0022157 0.0022157 0.0022157
0.0022164 0.0022164 0.0022164
0.0022172 0.0022172 0.0022172
0.0022181 0.0022181 0.0022181
0.0022190 0.0022190 0.0022190
0.0022201 0.0022201 0.0022201
0.0022210 0.0022210 0.0022210
0.0022222 0.0022222 0.0022222
0.0022232 0.0022232 0.0022232
0.0022242 0.0022242 0.0022242
0.0022252 0.0022252 0.0022252
0.0022263 0.0022263 0.0022263
0.0022275 0.0022275 0.0022275
0.0022289 0.0022289 0.0022289
0.0022302 0.0022302 0.0022302
0.0022316 0.0022316 0.0022316
0.0022333 0.0022333 0.0022333
0.0022347 0.0022347 0.0022347
0.0022370 0.0022370 0.0022370
0.0022387 0.0022387 0.0022387
0.0022412 0.0022412 0.0022412
0.0022434 0.0022434 0.0022434
0.0022456 0.0022456 0.0022456
0.0022478 0.0022478 0.0022478
0.0022505 0.0022505 0.0022505
0.0022533 0.0022533 0.0022533
0.0022561 0.0022561 0.0022561
0.0022599 0.0022599 0.0022599
0.0022657 0.0022657 0.0022657
0.0022715 0.0022715 0.0022715
0.0022773 0.0022773 0.0022773
0.0022861 0.0022861 0.0022861
0.0022922 0.0022922 0.0022922
0.0023015 0.0023015 0.0023015
0.0023106 0.0023106 0.0023106
0.0023164 0.0023164 0.0023164
0.0023250 0.0023250 0.0023250
0.0022144 0.0022144 0.0022144
0.0022144 0.0022144 0.0022144
0.0022144 0.0022144 0.0022144
0.0022144 0.0022144 0.0022144
0.0022144 0.0022144 0.0022144
0.0022144 0.0022144 0.0022144
0.0022144 0.0022144 0.0022144
0.0022144 0.0022144 0.0022144
0.0022144 0.0022144 0.0022144
0.0022144 0.0022144 0.0022144
0.0022144 0.0022144 0.0022144
0.0022144 0.0022144 0.0022144
0.0022144 0.0022144 0.0022144
0.0022144 0.0022144 0.0022144
0.0022144 0.0022144 0.0022144
0.0022144 0.0022144 0.0022144
0.0022144 0.0022144 0.0022144
0.0022146 0.0022146 0.0022146
0.0022149 0.0022149 0.0022149
0.0022153 0.0022153 0.0022153
0.0022159 0.0022159 0.0022159
0.0022167 0.0022167 0.0022167
0.0022175 0.0022175 0.0022175
0.0022183 0.0022183 0.0022183
0.0022192 0.0022192 0.0022192
0.0022203 0.0022203 0.0022203
0.0022212 0.0022212 0.0022212
0.0022224 0.0022224 0.0022224
0.0022234 0.0022234 0.0022234
0.0022244 0.0022244 0.0022244
0.0022255 0.0022255 0.0022255
0.0022265 0.0022265 0.0022265
0.0022279 0.0022279 0.0022279
0.0022292 0.0022292 0.0022292
0.0022302 0.0022302 0.0022302
0.0022320 0.0022320 0.0022320
0.0022338 0.0022338 0.0022338
0.0022353 0.0022353 0.0022353
0.0022376 0.0022376 0.0022376
0.0022393 0.0022393 0.0022393
0.0022412 0.0022412 0.0022412
0.0022441 0.0022441 0.0022441
0.0022463 0.0022463 0.0022463
0.0022486 0.0022486 0.0022486
0.0022514 0.0022514 0.0022514
0.0022542 0.0022542 0.0022542
0.0022570 0.0022570 0.0022570
0.0022618 0.0022618 0.0022618
0.0022676 0.0022676 0.0022676
0.0022734 0.0022734 0.0022734
0.0022800 0.0022800 0.0022800
0.0022861 0.0022861 0.0022861
0.0022953 0.0022953 0.0022953
0.0023045 0.0023045 0.0023045
0.0023106 0.0023106 0.0023106
0.0023192 0.0023192 0.0023192
0.0023278 0.0023278 0.0023278
0.0023336 0.0023336 0.0023336
0.0023420 0.0023420 0.0023420
0.0023473 0.0023473 0.0023473
0.0023526 0.0023526 0.0023526
0.0023606 0.0023606 0.0023606
0.0023659 0.0023659 0.0023659
0.0023733 0.0023733 0.0023733
0.0022144 0.0022144 0.0022144
0.0022144 0.0022144 0.0022144
0.0022144 0.0022144 0.0022144
0.0022144 0.0022144 0.0022144
0.0022144 0.0022144 0.0022144
0.0022144 0.0022144 0.0022144
0.0022144 0.0022144 0.0022144
0.0022144 0.0022144 0.0022144
0.0022144 0.0022144 0.0022144
0.0022144 0.0022144 0.0022144
0.0022146 0.0022146 0.0022146
0.0022150 0.0022150 0.0022150
0.0022154 0.0022154 0.0022154
0.0022162 0.0022162 0.0022162
0.0022169 0.0022169 0.0022169
0.0022177 0.0022177 0.0022177
0.0022185 0.0022185 0.0022185
0.0022195 0.0022195 0.0022195
0.0022206 0.0022206 0.0022206
0.0022215 0.0022215 0.0022215
0.0022227 0.0022227 0.0022227
0.0022237 0.0022237 0.0022237
0.0022247 0.0022247 0.0022247
0.0022257 0.0022257 0.0022257
0.0022268 0.0022268 0.0022268
0.0022282 0.0022282 0.0022282
0.0022295 0.0022295 0.0022295
0.0022307 0.0022307 0.0022307
0.0022325 0.0022325 0.0022325
0.0022342 0.0022342 0.0022342
0.0022358 0.0022358 0.0022358
0.0022376 0.0022376 0.0022376
0.0022399 0.0022399 0.0022399
0.0022419 0.0022419 0.0022419
0.0022441 0.0022441 0.0022441
0.0022471 0.0022471 0.0022471
0.0022496 0.0022496 0.0022496
0.0022523 0.0022523 0.0022523
0.0022551 0.0022551 0.0022551
0.0022579 0.0022579 0.0022579
0.0022637 0.0022637 0.0022637
0.0022695 0.0022695 0.0022695
0.0022734 0.0022734 0.0022734
0.0022800 0.0022800 0.0022800
0.0022892 0.0022892 0.0022892
0.0022984 0.0022984 0.0022984
0.0023045 0.0023045 0.0023045
0.0023135 0.0023135 0.0023135
0.0023221 0.0023221 0.0023221
0.0023278 0.0023278 0.0023278
0.0023365 0.0023365 0.0023365
0.0023420 0.0023420 0.0023420
0.0023499 0.0023499 0.0023499
0.0023552 0.0023552 0.0023552
0.0023606 0.0023606 0.0023606
0.0023694 0.0023694 0.0023694
0.0023772 0.0023772 0.0023772
0.0023850 0.0023850 0.0023850
0.0023968 0.0023968 0.0023968
0.0024047 0.0024047 0.0024047
0.0024172 0.0024172 0.0024172
0.0024322 0.0024322 0.0024322
0.0024473 0.0024473 0.0024473
0.0024625 0.0024625 0.0024625
0.0022144 0.0022144 0.0022144
0.0022144 0.0022144 0.0022144
0.0022145 0.0022145 0.0022145
0.0022147 0.0022147 0.0022147
0.0022150 0.0022150 0.0022150
0.0022156 0.0022156 0.0022156
0.0022163 0.0022163 0.0022163
0.0022170 0.0022170 0.0022170
0.0022179 0.0022179 0.0022179
0.0022188 0.0022188 0.0022188
0.0022197 0.0022197 0.0022197
0.0022208 0.0022208 0.0022208
0.0022217 0.0022217 0.0022217
0.0022229 0.0022229 0.0022229
0.0022239 0.0022239 0.0022239
0.0022250 0.0022250 0.0022250
0.0022260 0.0022260 0.0022260
0.0022272 0.0022272 0.0022272
0.0022285 0.0022285 0.0022285
0.0022295 0.0022295 0.0022295
0.0022311 0.0022311 0.0022311
0.0022329 0.0022329 0.0022329
0.0022342 0.0022342 0.0022342
0.0022364 0.0022364 0.0022364
0.0022381 0.0022381 0.0022381
0.0022405 0.0022405 0.0022405
0.0022426 0.0022426 0.0022426
0.0022449 0.0022449 0.0022449
0.0022471 0.0022471 0.0022471
0.0022496 0.0022496 0.0022496
0.0022523 0.0022523 0.0022523
0.0022561 0.0022561 0.0022561
0.0022579 0.0022579 0.0022579
0.0022637 0.0022637 0.0022637
0.0022695 0.0022695 0.0022695
0.0022753 0.0022753 0.0022753
0.0022830 0.0022830 0.0022830
0.0022922 0.0022922 0.0022922
0.0022984 0.0022984 0.0022984
0.0023076 0.0023076 0.0023076
0.0023164 0.0023164 0.0023164
0.0023221 0.0023221 0.0023221
0.0023307 0.0023307 0.0023307
0.0023365 0.0023365 0.0023365
0.0023446 0.0023446 0.0023446
0.0023499 0.0023499 0.0023499
0.0023579 0.0023579 0.0023579
0.0023632 0.0023632 0.0023632
0.0023694 0.0023694 0.0023694
0.0023811 0.0023811 0.0023811
0.0023889 0.0023889 0.0023889
0.0023968 0.0023968 0.0023968
0.0024047 0.0024047 0.0024047
0.0024247 0.0024247 0.0024247
0.0024398 0.0024398 0.0024398
0.0024549 0.0024549 0.0024549
0.0024702 0.0024702 0.0024702
0.0024855 0.0024855 0.0024855
0.0025058 0.0025058 0.0025058
0.0025263 0.0025263 0.0025263
0.0025469 0.0025469 0.0025469
0.0025678 0.0025678 0.0025678
0.0025887 0.0025887 0.0025887
0.0026153 0.0026153 0.0026153
0.0022172 0.0022172 0.0022172
0.0022181 0.0022181 0.0022181
0.0022190 0.0022190 0.0022190
0.0022199 0.0022199 0.0022199
0.0022210 0.0022210 0.0022210
0.0022219 0.0022219 0.0022219
0.0022229 0.0022229 0.0022229
0.0022242 0.0022242 0.0022242
0.0022252 0.0022252 0.0022252
0.0022263 0.0022263 0.0022263
0.0022275 0.0022275 0.0022275
0.0022289 0.0022289 0.0022289
0.0022299 0.0022299 0.0022299
0.0022316 0.0022316 0.0022316
0.0022333 0.0022333 0.0022333
0.0022347 0.0022347 0.0022347
0.0022370 0.0022370 0.0022370
0.0022387 0.0022387 0.0022387
0.0022405 0.0022405 0.0022405
0.0022434 0.0022434 0.0022434
0.0022456 0.0022456 0.0022456
0.0022478 0.0022478 0.0022478
0.0022505 0.0022505 0.0022505
0.0022533 0.0022533 0.0022533
0.0022561 0.0022561 0.0022561
0.0022599 0.0022599 0.0022599
0.0022657 0.0022657 0.0022657
0.0022715 0.0022715 0.0022715
0.0022773 0.0022773 0.0022773
0.0022830 0.0022830 0.0022830
0.0022922 0.0022922 0.0022922
0.0023015 0.0023015 0.0023015
0.0023106 0.0023106 0.0023106
0.0023164 0.0023164 0.0023164
0.0023250 0.0023250 0.0023250
0.0023307 0.0023307 0.0023307
0.0023394 0.0023394 0.0023394
0.0023446 0.0023446 0.0023446
0.0023526 0.0023526 0.0023526
0.0023579 0.0023579 0.0023579
0.0023632 0.0023632 0.0023632
0.0023733 0.0023733 0.0023733
0.0023811 0.0023811 0.0023811
0.0023889 0.0023889 0.0023889
0.0024007 0.0024007 0.0024007
0.0024098 0.0024098 0.0024098
0.0024247 0.0024247 0.0024247
0.0024398 0.0024398 0.0024398
0.0024549 0.0024549 0.0024549
0.0024702 0.0024702 0.0024702
0.0024956 0.0024956 0.0024956
0.0025160 0.0025160 0.0025160
0.0025366 0.0025366 0.0025366
0.0025573 0.0025573 0.0025573
0.0025782 0.0025782 0.0025782
0.0026015 0.0026015 0.0026015
0.0026292 0.0026292 0.0026292
0.0026573 0.0026573 0.0026573
0.0026715 0.0026715 0.0026715
0.0027000 0.0027000 0.0027000
0.0027288 0.0027288 0.0027288
0.0027625 0.0027625 0.0027625
0.0027990 0.0027990 0.0027990
0.0028358 0.0028358 0.0028358
0.0022244 0.0022244 0.0022244
0.0022255 0.0022255 0.0022255
0.0022265 0.0022265 0.0022265
0.0022279 0.0022279 0.0022279
0.0022289 0.0022289 0.0022289
0.0022302 0.0022302 0.0022302
0.0022320 0.0022320 0.0022320
0.0022333 0.0022333 0.0022333
0.0022353 0.0022353 0.0022353
0.0022370 0.0022370 0.0022370
0.0022393 0.0022393 0.0022393
0.0022412 0.0022412 0.0022412
0.0022434 0.0022434 0.0022434
0.0022463 0.0022463 0.0022463
0.0022486 0.0022486 0.0022486
0.0022514 0.0022514 0.0022514
0.0022542 0.0022542 0.0022542
0.0022570 0.0022570 0.0022570
0.0022618 0.0022618 0.0022618
0.0022676 0.0022676 0.0022676
0.0022734 0.0022734 0.0022734
0.0022773 0.0022773 0.0022773
0.0022861 0.0022861 0.0022861
0.0022953 0.0022953 0.0022953
0.0023045 0.0023045 0.0023045
0.0023106 0.0023106 0.0023106
0.0023192 0.0023192 0.0023192
0.0023250 0.0023250 0.0023250
0.0023336 0.0023336 0.0023336
0.0023394 0.0023394 0.0023394
0.0023473 0.0023473 0.0023473
0.0023526 0.0023526 0.0023526
0.0023606 0.0023606 0.0023606
0.0023659 0.0023659 0.0023659
0.0023733 0.0023733 0.0023733
0.0023850 0.0023850 0.0023850
0.0023928 0.0023928 0.0023928
0.0024007 0.0024007 0.0024007
0.0024098 0.0024098 0.0024098
0.0024322 0.0024322 0.0024322
0.0024473 0.0024473 0.0024473
0.0024625 0.0024625 0.0024625
0.0024778 0.0024778 0.0024778
0.0024956 0.0024956 0.0024956
0.0025160 0.0025160 0.0025160
0.0025366 0.0025366 0.0025366
0.0025573 0.0025573 0.0025573
0.0025782 0.0025782 0.0025782
0.0026015 0.0026015 0.0026015
0.0026292 0.0026292 0.0026292
0.0026573 0.0026573 0.0026573
0.0026857 0.0026857 0.0026857
0.0027144 0.0027144 0.0027144
0.0027445 0.0027445 0.0027445
0.0027625 0.0027625 0.0027625
0.0027990 0.0027990 0.0027990
0.0028358 0.0028358 0.0028358
0.0028732 0.0028732 0.0028732
0.0029111 0.0029111 0.0029111
0.0029302 0.0029302 0.0029302
0.0029773 0.0029773 0.0029773
0.0030252 0.0030252 0.0030252
0.0030738 0.0030738 0.0030738
0.0030984 0.0030984 0.0030984
0.0022338 0.0022338 0.0022338
0.0022358 0.0022358 0.0022358
0.0022376 0.0022376 0.0022376
0.0022399 0.0022399 0.0022399
0.0022419 0.0022419 0.0022419
0.0022441 0.0022441 0.0022441
0.0022463 0.0022463 0.0022463
0.0022486 0.0022486 0.0022486
0.0022523 0.0022523 0.0022523
0.0022551 0.0022551 0.0022551
0.0022579 0.0022579 0.0022579
0.0022618 0.0022618 0.0022618
0.0022676 0.0022676 0.0022676
0.0022734 0.0022734 0.0022734
0.0022800 0.0022800 0.0022800
0.0022892 0.0022892 0.0022892
0.0022953 0.0022953 0.0022953
0.0023045 0.0023045 0.0023045
0.0023135 0.0023135 0.0023135
0.0023192 0.0023192 0.0023192
0.0023278 0.0023278 0.0023278
0.0023336 0.0023336 0.0023336
0.0023420 0.0023420 0.0023420
0.0023473 0.0023473 0.0023473
0.0023552 0.0023552 0.0023552
0.0023606 0.0023606 0.0023606
0.0023694 0.0023694 0.0023694
0.0023772 0.0023772 0.0023772
0.0023850 0.0023850 0.0023850
0.0023928 0.0023928 0.0023928
0.0024047 0.0024047 0.0024047
0.0024172 0.0024172 0.0024172
0.0024322 0.0024322 0.0024322
0.0024473 0.0024473 0.0024473
0.0024625 0.0024625 0.0024625
0.0024778 0.0024778 0.0024778
0.0024956 0.0024956 0.0024956
0.0025263 0.0025263 0.0025263
0.0025469 0.0025469 0.0025469
0.0025678 0.0025678 0.0025678
0.0025887 0.0025887 0.0025887
0.0026153 0.0026153 0.0026153
0.0026292 0.0026292 0.0026292
0.0026573 0.0026573 0.0026573
0.0026857 0.0026857 0.0026857
0.0027144 0.0027144 0.0027144
0.0027445 0.0027445 0.0027445
0.0027807 0.0027807 0.0027807
0.0028173 0.0028173 0.0028173
0.0028545 0.0028545 0.0028545
0.0028732 0.0028732 0.0028732
0.0029111 0.0029111 0.0029111
0.0029537 0.0029537 0.0029537
0.0030011 0.0030011 0.0030011
0.0030252 0.0030252 0.0030252
0.0030738 0.0030738 0.0030738
0.0031232 0.0031232 0.0031232
0.0031481 0.0031481 0.0031481
0.0032029 0.0032029 0.0032029
0.0032669 0.0032669 0.0032669
0.0032994 0.0032994 0.0032994
0.0033654 0.0033654 0.0033654
0.0034327 0.0034327 0.0034327
0.0034669 0.0034669 0.0034669
0.0022496 0.0022496 0.0022496
0.0022523 0.0022523 0.0022523
0.0022551 0.0022551 0.0022551
0.0022579 0.0022579 0.0022579
0.0022637 0.0022637 0.0022637
0.0022695 0.0022695 0.0022695
0.0022753 0.0022753 0.0022753
0.0022830 0.0022830 0.0022830
0.0022892 0.0022892 0.0022892
0.0022984 0.0022984 0.0022984
0.0023076 0.0023076 0.0023076
0.0023135 0.0023135 0.0023135
0.0023221 0.0023221 0.0023221
0.0023278 0.0023278 0.0023278
0.0023365 0.0023365 0.0023365
0.0023420 0.0023420 0.0023420
0.0023499 0.0023499 0.0023499
0.0023552 0.0023552 0.0023552
0.0023632 0.0023632 0.0023632
0.0023694 0.0023694 0.0023694
0.0023772 0.0023772 0.0023772
0.0023889 0.0023889 0.0023889
0.0023968 0.0023968 0.0023968
0.0024047 0.0024047 0.0024047
0.0024172 0.0024172 0.0024172
0.0024398 0.0024398 0.0024398
0.0024549 0.0024549 0.0024549
0.0024702 0.0024702 0.0024702
0.0024855 0.0024855 0.0024855
0.0025058 0.0025058 0.0025058
0.0025263 0.0025263 0.0025263
0.0025469 0.0025469 0.0025469
0.0025678 0.0025678 0.0025678
0.0025887 0.0025887 0.0025887
0.0026153 0.0026153 0.0026153
0.0026432 0.0026432 0.0026432
0.0026715 0.0026715 0.0026715
0.0027000 0.0027000 0.0027000
0.0027288 0.0027288 0.0027288
0.0027445 0.0027445 0.0027445
0.0027807 0.0027807 0.0027807
0.0028173 0.0028173 0.0028173
0.0028545 0.0028545 0.0028545
0.0028921 0.0028921 0.0028921
0.0029111 0.0029111 0.0029111
0.0029537 0.0029537 0.0029537
0.0030011 0.0030011 0.0030011
0.0030494 0.0030494 0.0030494
0.0030738 0.0030738 0.0030738
0.0031232 0.0031232 0.0031232
0.0031733 0.0031733 0.0031733
0.0032029 0.0032029 0.0032029
0.0032669 0.0032669 0.0032669
0.0033323 0.0033323 0.0033323
0.0033654 0.0033654 0.0033654
0.0034327 0.0034327 0.0034327
0.0034669 0.0034669 0.0034669
0.0035379 0.0035379 0.0035379
0.0036189 0.0036189 0.0036189
0.0036601 0.0036601 0.0036601
0.0037439 0.0037439 0.0037439
0.0037865 0.0037865 0.0037865
0.0038732 0.0038732 0.0038732
0.0039173 0.0039173 0.0039173
0.0022830 0.0022830 0.0022830
0.0022922 0.0022922 0.0022922
0.0023015 0.0023015 0.0023015
0.0023076 0.0023076 0.0023076
0.0023164 0.0023164 0.0023164
0.0023250 0.0023250 0.0023250
0.0023307 0.0023307 0.0023307
0.0023394 0.0023394 0.0023394
0.0023446 0.0023446 0.0023446
0.0023499 0.0023499 0.0023499
0.0023579 0.0023579 0.0023579
0.0023632 0.0023632 0.0023632
0.0023733 0.0023733 0.0023733
0.0023811 0.0023811 0.0023811
0.0023889 0.0023889 0.0023889
0.0023968 0.0023968 0.0023968
0.0024098 0.0024098 0.0024098
0.0024247 0.0024247 0.0024247
0.0024398 0.0024398 0.0024398
0.0024549 0.0024549 0.0024549
0.0024702 0.0024702 0.0024702
0.0024855 0.0024855 0.0024855
0.0025058 0.0025058 0.0025058
0.0025263 0.0025263 0.0025263
0.0025573 0.0025573 0.0025573
0.0025782 0.0025782 0.0025782
0.0025887 0.0025887 0.0025887
0.0026153 0.0026153 0.0026153
0.0026432 0.0026432 0.0026432
0.0026715 0.0026715 0.0026715
0.0027000 0.0027000 0.0027000
0.0027288 0.0027288 0.0027288
0.0027625 0.0027625 0.0027625
0.0027990 0.0027990 0.0027990
0.0028358 0.0028358 0.0028358
0.0028545 0.0028545 0.0028545
0.0028921 0.0028921 0.0028921
0.0029302 0.0029302 0.0029302
0.0029773 0.0029773 0.0029773
0.0030011 0.0030011 0.0030011
0.0030494 0.0030494 0.0030494
0.0030984 0.0030984 0.0030984
0.0031232 0.0031232 0.0031232
0.0031733 0.0031733 0.0031733
0.0032347 0.0032347 0.0032347
0.0032669 0.0032669 0.0032669
0.0033323 0.0033323 0.0033323
0.0033989 0.0033989 0.0033989
0.0034327 0.0034327 0.0034327
0.0035014 0.0035014 0.0035014
0.0035379 0.0035379 0.0035379
0.0036189 0.0036189 0.0036189
0.0036601 0.0036601 0.0036601
0.0037439 0.0037439 0.0037439
0.0037865 0.0037865 0.0037865
0.0038732 0.0038732 0.0038732
0.0039173 0.0039173 0.0039173
0.0040129 0.0040129 0.0040129
0.0040645 0.0040645 0.0040645
0.0041697 0.0041697 0.0041697
0.0042233 0.0042233 0.0042233
0.0043326 0.0043326 0.0043326
0.0043883 0.0043883 0.0043883
0.0045018 0.0045018 0.0045018
0.0023394 0.0023394 0.0023394
0.0023473 0.0023473 0.0023473
0.0023526 0.0023526 0.0023526
0.0023579 0.0023579 0.0023579
0.0023659 0.0023659 0.0023659
0.0023733 0.0023733 0.0023733
0.0023811 0.0023811 0.0023811
0.0023928 0.0023928 0.0023928
0.0024007 0.0024007 0.0024007
0.0024098 0.0024098 0.0024098
0.0024247 0.0024247 0.0024247
0.0024473 0.0024473 0.0024473
0.0024625 0.0024625 0.0024625
0.0024778 0.0024778 0.0024778
0.0024956 0.0024956 0.0024956
0.0025160 0.0025160 0.0025160
0.0025366 0.0025366 0.0025366
0.0025573 0.0025573 0.0025573
0.0025782 0.0025782 0.0025782
0.0026015 0.0026015 0.0026015
0.0026292 0.0026292 0.0026292
0.0026573 0.0026573 0.0026573
0.0026857 0.0026857 0.0026857
0.0027144 0.0027144 0.0027144
0.0027288 0.0027288 0.0027288
0.0027625 0.0027625 0.0027625
0.0027990 0.0027990 0.0027990
0.0028358 0.0028358 0.0028358
0.0028732 0.0028732 0.0028732
0.0029111 0.0029111 0.0029111
0.0029302 0.0029302 0.0029302
0.0029773 0.0029773 0.0029773
0.0030252 0.0030252 0.0030252
0.0030494 0.0030494 0.0030494
0.0030984 0.0030984 0.0030984
0.0031481 0.0031481 0.0031481
0.0032029 0.0032029 0.0032029
0.0032347 0.0032347 0.0032347
0.0032994 0.0032994 0.0032994
0.0033323 0.0033323 0.0033323
0.0033989 0.0033989 0.0033989
0.0034669 0.0034669 0.0034669
0.0035014 0.0035014 0.0035014
0.0035782 0.0035782 0.0035782
0.0036189 0.0036189 0.0036189
0.0037018 0.0037018 0.0037018
0.0037439 0.0037439 0.0037439
0.0038296 0.0038296 0.0038296
0.0038732 0.0038732 0.0038732
0.0039619 0.0039619 0.0039619
0.0040129 0.0040129 0.0040129
0.0041167 0.0041167 0.0041167
0.0041697 0.0041697 0.0041697
0.0042776 0.0042776 0.0042776
0.0043326 0.0043326 0.0043326
0.0043883 0.0043883 0.0043883
0.0045018 0.0045018 0.0045018
0.0045643 0.0045643 0.0045643
0.0046965 0.0046965 0.0046965
0.0047640 0.0047640 0.0047640
0.0048325 0.0048325 0.0048325
0.0049724 0.0049724 0.0049724
0.0050439 0.0050439 0.0050439
0.0051164 0.0051164 0.0051164
0.0023928 0.0023928 0.0023928
0.0024007 0.0024007 0.0024007
0.0024172 0.0024172 0.0024172
0.0024322 0.0024322 0.0024322
0.0024473 0.0024473 0.0024473
0.0024625 0.0024625 0.0024625
0.0024778 0.0024778 0.0024778
0.0024956 0.0024956 0.0024956
0.0025160 0.0025160 0.0025160
0.0025366 0.0025366 0.0025366
0.0025573 0.0025573 0.0025573
0.0025782 0.0025782 0.0025782
0.0026015 0.0026015 0.0026015
0.0026292 0.0026292 0.0026292
0.0026573 0.0026573 0.0026573
0.0026857 0.0026857 0.0026857
0.0027144 0.0027144 0.0027144
0.0027445 0.0027445 0.0027445
0.0027807 0.0027807 0.0027807
0.0028173 0.0028173 0.0028173
0.0028358 0.0028358 0.0028358
0.0028732 0.0028732 0.0028732
0.0029111 0.0029111 0.0029111
0.0029537 0.0029537 0.0029537
0.0029773 0.0029773 0.0029773
0.0030252 0.0030252 0.0030252
0.0030738 0.0030738 0.0030738
0.0031232 0.0031232 0.0031232
0.0031481 0.0031481 0.0031481
0.0032029 0.0032029 0.0032029
0.0032669 0.0032669 0.0032669
0.0032994 0.0032994 0.0032994
0.0033654 0.0033654 0.0033654
0.0033989 0.0033989 0.0033989
0.0034669 0.0034669 0.0034669
0.0035379 0.0035379 0.0035379
0.0035782 0.0035782 0.0035782
0.0036601 0.0036601 0.0036601
0.0037018 0.0037018 0.0037018
0.0037865 0.0037865 0.0037865
0.0038296 0.0038296 0.0038296
0.0039173 0.0039173 0.0039173
0.0039619 0.0039619 0.0039619
0.0040645 0.0040645 0.0040645
0.0041167 0.0041167 0.0041167
0.0042233 0.0042233 0.0042233
0.0042776 0.0042776 0.0042776
0.0043326 0.0043326 0.0043326
0.0044447 0.0044447 0.0044447
0.0045018 0.0045018 0.0045018
0.0046299 0.0046299 0.0046299
0.0046965 0.0046965 0.0046965
0.0047640 0.0047640 0.0047640
0.0049019 0.0049019 0.0049019
0.0049724 0.0049724 0.0049724
0.0050439 0.0050439 0.0050439
0.0051899 0.0051899 0.0051899
0.0052660 0.0052660 0.0052660
0.0053464 0.0053464 0.0053464
0.0055108 0.0055108 0.0055108
0.0055949 0.0055949 0.0055949
0.0056803 0.0056803 0.0056803
0.0057669 0.0057669 0.0057669
0.0059442 0.0059442 0.0059442
0.0025058 0.0025058 0.0025058
0.0025263 0.0025263 0.0025263
0.0025469 0.0025469 0.0025469
0.0025678 0.0025678 0.0025678
0.0025887 0.0025887 0.0025887
0.0026153 0.0026153 0.0026153
0.0026432 0.0026432 0.0026432
0.0026715 0.0026715 0.0026715
0.0027000 0.0027000 0.0027000
0.0027144 0.0027144 0.0027144
0.0027445 0.0027445 0.0027445
0.0027807 0.0027807 0.0027807
0.0028173 0.0028173 0.0028173
0.0028545 0.0028545 0.0028545
0.0028921 0.0028921 0.0028921
0.0029111 0.0029111 0.0029111
0.0029537 0.0029537 0.0029537
0.0030011 0.0030011 0.0030011
0.0030494 0.0030494 0.0030494
0.0030738 0.0030738 0.0030738
0.0031232 0.0031232 0.0031232
0.0031733 0.0031733 0.0031733
0.0032029 0.0032029 0.0032029
0.0032669 0.0032669 0.0032669
0.0033323 0.0033323 0.0033323
0.0033654 0.0033654 0.0033654
0.0034327 0.0034327 0.0034327
0.0034669 0.0034669 0.0034669
0.0035379 0.0035379 0.0035379
0.0035782 0.0035782 0.0035782
