Plugins/FilmEmulator/Content/LUTs/FE_Kodak_Vision_200T_5274_64.cube
# FilmEmulator LUT (resampled to 64)
LUT_3D_SIZE 8
0.000000 0.000000 0.000000
0.062173 0.010463 0.000000
0.168187 0.025574 0.000000
0.253448 0.036150 0.000000
0.308284 0.051958 0.000000
0.346810 0.064767 0.000000
0.380070 0.076534 0.000000
0.414825 0.080536 0.000000
0.000793 0.036699 0.004050
0.100262 0.074905 0.000000
0.253942 0.108692 0.000000
0.347970 0.133301 0.000000
0.412628 0.150270 0.000000
0.461589 0.160266 0.000000
0.504264 0.168473 0.000000
0.542851 0.171056 0.000000
0.000000 0.103502 0.009573
0.107122 0.163304 0.001133
0.316200 0.229267 0.000000
0.438890 0.251981 0.000000
0.515691 0.264365 0.000000
0.578234 0.273962 0.000000
0.631181 0.281272 0.000000
0.676858 0.282881 0.000000
0.000000 0.186170 0.011047
0.104223 0.253871 0.001473
0.345530 0.339920 0.000000
0.502431 0.372047 0.000000
0.592054 0.381321 0.000000
0.664441 0.389634 0.000000
0.727601 0.395367 0.000000
0.782414 0.395159 0.000000
0.000000 0.278970 0.005071
0.087690 0.346942 0.002267
0.323871 0.427320 0.000000
0.510113 0.472755 0.000000
0.630950 0.491252 0.000000
0.719023 0.499418 0.000000
0.792393 0.503603 0.000000
0.856802 0.502110 0.000000
0.000000 0.384290 0.000113
0.055360 0.447996 0.002315
0.267550 0.509913 0.000000
0.472250 0.558630 0.000000
0.631506 0.593327 0.000000
0.746643 0.609445 0.000000
0.832676 0.613165 0.000000
0.906904 0.611014 0.000000
0.000000 0.503065 0.000000
0.033281 0.562255 0.007136
0.215460 0.611463 0.002774
0.432022 0.653698 0.000000
0.611081 0.693530 0.000469
0.749826 0.719428 0.002188
0.851243 0.726580 0.003823
0.935473 0.724975 0.004277
0.000000 0.636078 0.000000
0.028377 0.692457 0.014186
0.179422 0.740260 0.015895
0.405822 0.771201 0.004730
0.594251 0.807242 0.005524
0.745279 0.836748 0.008554
0.859911 0.848380 0.011047
0.952759 0.848785 0.011841
0.000000 0.000453 0.024780
0.042638 0.012504 0.047933
0.144579 0.033061 0.051466
0.233630 0.045708 0.040604
0.293162 0.051282 0.031874
0.336157 0.059018 0.030077
0.370707 0.066701 0.031792
0.406852 0.069083 0.033560
0.000000 0.045882 0.057697
0.068409 0.078229 0.064234
0.229383 0.115892 0.061896
0.341277 0.133334 0.051869
0.406716 0.146344 0.045268
0.452956 0.157280 0.044522
0.490958 0.162681 0.045750
0.527392 0.158809 0.045971
0.000000 0.114119 0.081743
0.063521 0.154051 0.073851
0.272622 0.228625 0.060118
0.429175 0.262117 0.051927
0.511783 0.275136 0.047949
0.573421 0.283182 0.047990
0.622702 0.284971 0.050080
0.664548 0.279354 0.053169
0.000000 0.196166 0.096143
0.056739 0.237440 0.080962
0.277884 0.328237 0.053417
0.478411 0.381639 0.045361
0.585027 0.395850 0.048975
0.659962 0.403200 0.051414
0.722896 0.405492 0.053171
0.777404 0.400823 0.055430
0.000000 0.287005 0.099425
0.047212 0.331217 0.088965
0.262732 0.414670 0.051044
0.484672 0.479620 0.038621
0.621975 0.504976 0.049302
0.713406 0.512907 0.057106
0.788290 0.515528 0.059048
0.854411 0.513027 0.058277
0.000000 0.391298 0.099569
0.032535 0.437393 0.100287
0.228511 0.504741 0.057132
0.456102 0.568648 0.034241
0.625815 0.607968 0.045151
0.742735 0.623246 0.060537
0.831486 0.626273 0.062372
0.907740 0.625847 0.060256
0.000000 0.511154 0.101965
0.024745 0.558826 0.112618
0.191073 0.613257 0.073634
0.419311 0.665874 0.034795
0.606745 0.709343 0.040623
0.748548 0.735341 0.060897
0.853613 0.742732 0.066539
0.940832 0.743750 0.062780
0.000000 0.647422 0.103973
0.027405 0.697880 0.122934
0.159544 0.746839 0.094436
0.388889 0.782732 0.042672
0.586185 0.822600 0.037481
0.744711 0.853328 0.057490
0.864525 0.868383 0.071946
0.958635 0.872023 0.071377
0.000000 0.005633 0.082258
0.024978 0.010803 0.101795
0.126121 0.033804 0.128550
0.237676 0.061174 0.132078
0.306619 0.070674 0.120048
0.349734 0.070082 0.109689
0.385399 0.068663 0.107517
0.422241 0.069637 0.109872
0.000000 0.055255 0.121157
0.039081 0.082303 0.144340
0.177154 0.128248 0.173990
0.317389 0.156403 0.174673
0.397419 0.161406 0.157090
0.445670 0.159963 0.142707
0.482759 0.156570 0.134276
0.519946 0.149105 0.128702
0.000000 0.127255 0.160852
0.037157 0.157723 0.174974
0.207967 0.233761 0.202638
0.403539 0.278549 0.208929
0.506710 0.287397 0.195761
0.566000 0.289468 0.180934
0.606983 0.285064 0.168817
0.644983 0.271579 0.158978
0.000000 0.214726 0.193812
0.028396 0.237911 0.194349
0.195761 0.316099 0.203314
0.429729 0.389539 0.214969
0.570287 0.411959 0.218305
0.650488 0.419313 0.210881
0.711464 0.416624 0.199788
0.762980 0.405287 0.189664
0.000000 0.308447 0.211837
0.022937 0.334380 0.212228
0.185157 0.399027 0.203029
0.419721 0.477269 0.207856
0.589577 0.516697 0.224420
0.696197 0.529039 0.228320
0.776119 0.530879 0.221722
0.844436 0.525172 0.213005
0.000000 0.413882 0.221116
0.018136 0.445538 0.229099
0.168231 0.496464 0.213665
0.395504 0.564333 0.205085
0.586080 0.613378 0.219401
0.720171 0.634520 0.234144
0.818132 0.640425 0.233230
0.898424 0.641436 0.230240
0.000000 0.533685 0.229715
0.019164 0.571420 0.247408
0.148230 0.614455 0.237598
0.366894 0.663777 0.209089
0.565772 0.712626 0.210333
0.724441 0.743451 0.232098
0.841026 0.754541 0.237264
0.932846 0.758368 0.237506
0.000000 0.669704 0.241373
0.025399 0.712003 0.265591
0.125204 0.753229 0.266372
0.340548 0.780927 0.221179
0.544192 0.823840 0.201495
0.719273 0.858513 0.223203
0.852624 0.877854 0.242931
0.955000 0.884221 0.246944
0.000000 0.012944 0.131173
0.014073 0.012413 0.139515
0.097904 0.027357 0.173261
0.231695 0.060532 0.206623
0.330200 0.083661 0.215042
0.381916 0.089225 0.208310
0.413152 0.083906 0.200792
0.441394 0.076442 0.194864
0.000000 0.065597 0.179707
0.024599 0.084822 0.197449
0.128127 0.121054 0.234138
0.289692 0.163328 0.269459
0.402279 0.183667 0.272109
0.460237 0.180649 0.257468
0.497780 0.169319 0.242492
0.531033 0.155933 0.229614
0.000000 0.137311 0.228317
0.029860 0.167134 0.248651
0.154138 0.234031 0.290475
0.343747 0.295337 0.328022
0.479072 0.317774 0.331796
0.552874 0.311358 0.312800
0.600115 0.294531 0.289530
0.639228 0.272057 0.267459
0.000000 0.229471 0.277634
0.022312 0.248330 0.287621
0.145175 0.315236 0.315895
0.369651 0.398488 0.354227
0.545452 0.431699 0.367516
0.642602 0.432871 0.357340
0.703540 0.423044 0.335826
0.748241 0.406955 0.312361
0.000000 0.332163 0.316173
0.016483 0.350257 0.324342
0.136902 0.398548 0.330862
0.357621 0.476866 0.357190
0.557686 0.527826 0.378048
0.691369 0.541644 0.382334
0.774483 0.543067 0.371209
0.838055 0.536669 0.354485
0.000000 0.446376 0.342056
0.016261 0.470118 0.354134
0.140214 0.507700 0.352027
0.347708 0.565426 0.364386
0.540224 0.618637 0.380162
0.698216 0.649594 0.391300
0.809669 0.659964 0.389446
0.893905 0.662619 0.382894
0.000000 0.569245 0.359465
0.020984 0.599548 0.377396
0.135152 0.633317 0.378414
0.329352 0.669472 0.376539
0.518667 0.715840 0.380680
0.693839 0.754759 0.388656
0.828706 0.772664 0.391973
0.929072 0.779085 0.392274
0.001338 0.701529 0.372933
0.028264 0.737560 0.396258
0.116833 0.772004 0.406522
0.305657 0.788111 0.389592
0.497400 0.825619 0.377768
0.686582 0.866042 0.377976
0.839119 0.890500 0.390324
0.951773 0.900125 0.397317
0.000227 0.021733 0.169429
0.010010 0.017928 0.170448
0.073372 0.023501 0.197084
0.202756 0.052114 0.241112
0.329906 0.086627 0.272714
0.404214 0.105313 0.281305
0.441347 0.108708 0.278233
0.464909 0.098424 0.268228
0.001253 0.077266 0.230493
0.019467 0.089089 0.239268
0.090972 0.111656 0.264995
0.239212 0.148666 0.310337
0.389047 0.187514 0.341917
0.474150 0.198965 0.343561
0.516662 0.190597 0.331849
0.547150 0.173117 0.315647
0.000000 0.148949 0.287997
0.026401 0.172926 0.302637
0.115843 0.225205 0.336476
0.281296 0.280136 0.380727
0.448463 0.323682 0.413686
0.551418 0.333738 0.413783
0.605818 0.315736 0.393932
0.646346 0.286560 0.369058
0.000000 0.239142 0.343968
0.026742 0.261034 0.356453
0.129890 0.320609 0.387072
0.314883 0.394473 0.430829
0.489364 0.444184 0.463328
0.609736 0.459005 0.468031
0.684316 0.443701 0.447566
0.739184 0.414100 0.418006
0.000000 0.346265 0.396551
0.018369 0.362995 0.408581
0.118219 0.404625 0.421956
0.313272 0.477511 0.455724
0.512556 0.536820 0.487920
0.663562 0.558404 0.498821
0.761079 0.554884 0.488813
0.829207 0.541031 0.466840
0.000000 0.471934 0.442054
0.017366 0.492238 0.457826
0.124810 0.520445 0.459617
0.316514 0.572438 0.476315
0.505249 0.624376 0.500329
0.677622 0.660609 0.514386
0.812960 0.671130 0.516246
0.903225 0.673732 0.508152
0.001342 0.603466 0.473311
0.024920 0.628923 0.492774
0.138959 0.655098 0.494499
0.322773 0.685772 0.498715
0.494506 0.724215 0.512659
0.663750 0.765110 0.521602
0.816803 0.790416 0.526706
0.930910 0.799715 0.526601
0.004957 0.734964 0.493242
0.032796 0.766098 0.517134
0.131099 0.795627 0.526720
0.308776 0.808024 0.517718
0.476301 0.835418 0.520981
0.655790 0.875240 0.522977
0.820693 0.905510 0.529455
0.948787 0.920026 0.538988
0.002241 0.027505 0.195469
0.009347 0.021868 0.192771
0.060594 0.023198 0.213556
0.175055 0.043051 0.255386
0.307909 0.079761 0.296216
0.406219 0.110133 0.319656
0.454591 0.121239 0.323722
0.479662 0.115160 0.315927
0.003170 0.086162 0.269808
0.019030 0.093591 0.273570
0.070245 0.105832 0.288434
0.192722 0.131346 0.328099
0.352123 0.173643 0.372799
0.468927 0.201737 0.392910
0.524868 0.200832 0.388488
0.554961 0.183019 0.373140
0.000777 0.160243 0.339343
0.025916 0.176384 0.347598
0.091508 0.216115 0.371889
0.226976 0.258664 0.409886
0.400876 0.304536 0.453388
0.539921 0.335829 0.476461
0.609714 0.327006 0.467030
0.648121 0.294277 0.441968
0.000000 0.249607 0.403091
0.030193 0.269789 0.412550
0.117381 0.320000 0.438351
0.270387 0.380778 0.477530
0.438600 0.428608 0.515299
0.588481 0.462893 0.542511
0.681270 0.459249 0.537362
0.736578 0.425079 0.510262
0.000000 0.355393 0.462930
0.024983 0.374352 0.474746
0.127528 0.416424 0.490764
0.300141 0.479698 0.524892
0.471861 0.532856 0.560121
0.619319 0.568070 0.586361
0.731293 0.575332 0.589398
0.810194 0.556115 0.570041
0.000000 0.484661 0.521004
0.020219 0.504422 0.538128
0.126124 0.530921 0.543192
0.306567 0.581013 0.562949
0.485061 0.629925 0.591742
0.646931 0.669944 0.615865
0.788420 0.686592 0.625702
0.890877 0.685980 0.620326
0.003823 0.623115 0.567495
0.027573 0.646574 0.588670
0.139190 0.668485 0.592363
0.323325 0.700843 0.599399
0.489810 0.737439 0.618437
0.644989 0.775289 0.635983
0.805064 0.803723 0.646924
0.943012 0.812187 0.651888
0.009347 0.758710 0.599217
0.037500 0.787562 0.624686
0.151316 0.814883 0.633575
0.331699 0.829656 0.630836
0.487702 0.855181 0.641859
0.646098 0.889021 0.654619
0.802041 0.921671 0.665953
0.943150 0.944523 0.682739
0.003174 0.029968 0.212668
0.009874 0.021787 0.208532
0.055931 0.021184 0.226660
0.158939 0.034896 0.264604
0.283847 0.066678 0.304403
0.389785 0.099453 0.334620
0.451866 0.117216 0.345895
0.484039 0.116586 0.342756
0.005524 0.090365 0.298877
0.019884 0.094988 0.300715
0.060736 0.100171 0.309280
0.161959 0.116128 0.341475
0.312413 0.152084 0.386788
0.444867 0.186577 0.417159
0.519253 0.195734 0.421723
0.556214 0.182689 0.410182
0.003341 0.167902 0.381256
0.027402 0.179592 0.387202
0.078991 0.208883 0.404793
0.186136 0.237279 0.433604
0.348977 0.275115 0.475688
0.508095 0.314058 0.510123
0.601016 0.319837 0.513333
0.646638 0.292340 0.492993
0.000097 0.258005 0.455375
0.031475 0.272622 0.461654
0.103547 0.313503 0.482973
0.230721 0.363820 0.517501
0.388923 0.403523 0.553042
0.555910 0.442487 0.588688
0.671879 0.453913 0.598695
0.734184 0.425569 0.578607
0.000000 0.362948 0.523545
0.032116 0.382707 0.533732
0.132549 0.421608 0.550131
0.281255 0.475255 0.582607
0.435611 0.519794 0.616241
0.587112 0.555370 0.647402
0.717080 0.575073 0.665163
0.805771 0.563205 0.656446
0.000000 0.488954 0.588002
0.026521 0.510350 0.604882
0.144346 0.540477 0.613213
0.313773 0.588410 0.637982
0.476054 0.632210 0.668457
0.621309 0.669970 0.698096
0.753232 0.695623 0.718943
0.863183 0.702305 0.722128
0.005403 0.628447 0.646027
0.029813 0.652043 0.667905
0.147605 0.675598 0.674865
0.331411 0.711300 0.688093
0.492163 0.747692 0.711348
0.638736 0.783726 0.736351
0.786040 0.815219 0.757013
0.923365 0.830225 0.768758
0.011387 0.767874 0.691633
0.038823 0.795189 0.717604
0.161016 0.823514 0.729565
0.355265 0.846406 0.734285
0.511142 0.875458 0.751439
0.658496 0.905618 0.771077
0.800291 0.936870 0.789878
0.944454 0.961217 0.812090
0.003937 0.028381 0.227234
0.010917 0.018032 0.219932
0.056061 0.017452 0.239354
0.151799 0.027483 0.275081
0.266719 0.053663 0.311279
0.368582 0.081674 0.339783
0.435538 0.099121 0.354723
0.482147 0.108276 0.361237
0.007111 0.089551 0.322497
0.020944 0.091612 0.323129
0.055285 0.091719 0.328502
0.140462 0.102050 0.355099
0.278944 0.130193 0.397154
0.413398 0.161314 0.429604
0.500617 0.176749 0.441130
0.554687 0.178393 0.439663
0.006204 0.170196 0.417973
0.029837 0.180320 0.423566
0.072071 0.200831 0.437451
0.156913 0.217426 0.458242
0.305531 0.245294 0.495491
0.469276 0.280170 0.531513
0.579026 0.295358 0.543165
0.645089 0.289559 0.536299
0.001246 0.261649 0.503026
0.034451 0.273226 0.508641
0.095843 0.308660 0.529083
0.202508 0.348850 0.560155
0.347713 0.377351 0.590663
0.519396 0.410740 0.624772
0.650393 0.429947 0.641929
0.732814 0.424683 0.636959
0.000000 0.368199 0.581796
0.037458 0.385535 0.589950
0.128224 0.420878 0.607354
0.258513 0.468881 0.640417
0.405691 0.508206 0.674669
0.560608 0.537131 0.703283
0.699529 0.559450 0.724252
0.803789 0.564662 0.728682
0.000680 0.490195 0.652256
0.034890 0.514836 0.669182
0.159407 0.547611 0.681946
0.314665 0.592766 0.710954
0.464119 0.632979 0.743525
0.605420 0.665450 0.772349
0.736017 0.690013 0.794647
0.855582 0.707468 0.808960
0.005070 0.626273 0.717355
0.033512 0.651940 0.740019
0.168492 0.681522 0.750886
0.343603 0.718652 0.771467
0.497735 0.754817 0.799243
0.641971 0.789512 0.827963
0.774286 0.820223 0.853669
0.896301 0.844631 0.873727
0.011841 0.768250 0.775635
0.040017 0.796343 0.802560
0.175149 0.828025 0.817871
0.372850 0.857492 0.831260
0.528743 0.888463 0.852896
0.673819 0.918597 0.876844
0.810726 0.949567 0.901960
0.942383 0.972107 0.926544
