Plugins/FilmEmulator/Content/LUTs/FE_Kodak_5277_64.cube
TITLE "FE_Kodak_5277_33"
LUT_3D_SIZE 8
0.0018127 0.0013597 0.0016405
0.0855627 0.0035148 0.0040653
0.1911824 0.0071523 0.0081459
0.2907313 0.0115821 0.0130559
0.3724058 0.0169645 0.0180322
0.4405584 0.0218820 0.0234126
0.5019957 0.0267424 0.0299309
0.5580066 0.0318701 0.0363692
0.0064677 0.0935998 0.0054117
0.0864049 0.1010611 0.0093991
0.1866415 0.1082899 0.0140685
0.2877361 0.1158097 0.0197659
0.3620594 0.1236983 0.0255334
0.4317014 0.1320655 0.0315435
0.4955829 0.1408862 0.0381871
0.5513237 0.1501680 0.0450692
0.0136954 0.2229884 0.0112289
0.0974289 0.2311146 0.0158490
0.1922878 0.2384695 0.0209562
0.2884157 0.2457383 0.0262359
0.3622643 0.2529975 0.0323591
0.4324164 0.2603457 0.0391148
0.4980203 0.2678230 0.0476369
0.5528153 0.2753089 0.0536036
0.0212633 0.3406196 0.0178016
0.1046763 0.3508715 0.0233293
0.2058572 0.3603471 0.0284253
0.2969927 0.3610866 0.0349620
0.3652517 0.3701845 0.0411217
0.4360833 0.3793718 0.0484301
0.4934067 0.3797991 0.0560071
0.5482358 0.3888783 0.0627047
0.0292536 0.4464361 0.0252854
0.1164883 0.4482005 0.0306960
0.2152037 0.4583310 0.0366182
0.3003336 0.4590757 0.0444990
0.3694590 0.4687579 0.0506815
0.4327942 0.4692392 0.0583332
0.4994712 0.4787515 0.0634429
0.5529626 0.4881047 0.0710378
0.0381884 0.5283636 0.0332618
0.1262552 0.5299395 0.0396719
0.2253885 0.5398479 0.0465638
0.3108670 0.5405227 0.0542153
0.3746569 0.5409800 0.0606145
0.4394229 0.5503110 0.0659102
0.5065153 0.5507537 0.0737150
0.5586730 0.5599965 0.0802410
0.0484883 0.5895893 0.0416745
0.1370698 0.5909414 0.0486585
0.2300756 0.5999910 0.0563579
0.3155757 0.6005785 0.0629145
0.3800373 0.6091302 0.0683850
0.4467333 0.6095651 0.0764991
0.5139867 0.6099497 0.0831309
0.5565161 0.6183275 0.0904439
0.0579658 0.6385874 0.0526936
0.1487136 0.6475620 0.0585821
0.2415833 0.6482762 0.0652866
0.3206467 0.6487585 0.0708444
0.3940911 0.6492176 0.0792127
0.4544688 0.6570176 0.0837460
0.5121592 0.6573488 0.0909813
0.5632456 0.6576681 0.0995778
0.0090357 0.0050411 0.1065959
0.0982377 0.0091168 0.1128537
0.2022293 0.0141236 0.1240921
0.2996855 0.0192114 0.1322291
0.3745089 0.0239981 0.1366473
0.4439266 0.0293860 0.1453609
0.5071157 0.0354811 0.1545288
0.5619799 0.0419169 0.1641322
0.0159030 0.1018379 0.1227723
0.1023040 0.1093409 0.1323096
0.2011391 0.1168478 0.1397013
0.2989987 0.1247548 0.1477659
0.3668981 0.1330678 0.1520388
0.4371875 0.1418709 0.1609962
0.5027316 0.1511497 0.1704318
0.5575842 0.1560222 0.1752008
0.0234313 0.2324269 0.1372383
0.1087993 0.2401705 0.1437371
0.2075542 0.2474621 0.1515632
0.2990944 0.2546631 0.1555558
0.3677103 0.2619081 0.1645063
0.4388257 0.2692787 0.1739024
0.5056555 0.2767615 0.1837690
0.5509042 0.2842672 0.1888848
0.0312568 0.3523473 0.1473457
0.1205474 0.3622435 0.1544756
0.2162537 0.3629714 0.1627207
0.3080629 0.3720576 0.1669697
0.3785758 0.3811349 0.1764561
0.4435748 0.3901987 0.1864366
0.5011774 0.3904601 0.1913705
0.5547078 0.3995259 0.2020871
0.0407366 0.4496656 0.1573764
0.1304016 0.4601491 0.1651509
0.2261577 0.4608543 0.1690419
0.3116465 0.4705629 0.1784496
0.3832971 0.4709730 0.1882820
0.4499601 0.4804122 0.1933596
0.5073159 0.4897031 0.2041333
0.5598344 0.4899587 0.2094568
0.0500739 0.5312639 0.1677099
0.1412763 0.5414495 0.1760694
0.2368585 0.5421259 0.1802175
0.3161184 0.5426173 0.1900073
0.3884464 0.5519080 0.1950537
0.4474708 0.5522441 0.2057049
0.5144967 0.5614533 0.2111476
0.5573353 0.5617183 0.2225688
0.0598121 0.5921187 0.1782843
0.1488438 0.6013457 0.1820807
0.2484245 0.6020511 0.1915990
0.3274805 0.6106090 0.1965638
0.3942540 0.6109787 0.2072048
0.4549463 0.6112604 0.2125286
0.5220467 0.6196841 0.2240248
0.5635419 0.6198869 0.2298284
0.0693219 0.6485202 0.1841889
0.1616766 0.6494828 0.1933175
0.2538064 0.6500918 0.2033957
0.3327175 0.6579675 0.2085963
0.4004486 0.6582749 0.2138776
0.4627375 0.6585928 0.2252738
0.5205758 0.6588446 0.2309951
0.5700556 0.6663389 0.2371053
0.0194195 0.0112744 0.2411687
0.1117076 0.0165761 0.2465520
0.2167485 0.0214956 0.2532459
0.3106744 0.0262375 0.2602633
0.3864716 0.0321675 0.2677340
0.4488828 0.0380224 0.2752642
0.5137695 0.0449026 0.2831755
0.5675990 0.0512005 0.2910827
0.0263085 0.1127710 0.2612880
0.1146060 0.1207827 0.2655910
0.2175044 0.1290677 0.2714945
0.3041909 0.1334361 0.2778608
0.3808249 0.1422604 0.2847679
0.4442928 0.1515367 0.2921918
0.5109338 0.1613175 0.2997252
0.5643914 0.1664579 0.3072393
0.0347738 0.2401264 0.2730589
0.1221461 0.2478113 0.2776873
0.2247984 0.2552035 0.2835901
0.3110714 0.2625626 0.2977003
0.3819506 0.2699226 0.3049794
0.4472076 0.2773393 0.3046829
0.5142196 0.2849262 0.3121569
0.5580881 0.2925670 0.3199220
0.0436829 0.3622557 0.2832007
0.1355475 0.3634743 0.2952073
0.2277278 0.3727108 0.3018066
0.3136144 0.3818662 0.3088936
0.3852152 0.3909361 0.3163278
0.4522830 0.3912422 0.3237030
0.5097386 0.4002344 0.3234781
0.5619165 0.4093309 0.3313287
0.0535834 0.4602883 0.2997969
0.1421901 0.4614002 0.3053015
0.2380108 0.4712575 0.3120270
0.3239729 0.4808525 0.3192671
0.3900081 0.4811881 0.3266518
0.4584298 0.4904303 0.3263145
0.5162283 0.4907089 0.3339093
0.5670338 0.4999403 0.3418958
0.0619040 0.5416026 0.3092528
0.1539109 0.5426592 0.3149856
0.2491387 0.5522324 0.3218937
0.3285791 0.5526652 0.3290994
0.3954867 0.5530008 0.3366013
0.4559675 0.5621380 0.3363269
0.5234037 0.5624511 0.3439614
0.5645792 0.5715219 0.3521493
0.0717200 0.6015892 0.3183387
0.1670201 0.6025544 0.3242959
0.2611549 0.6112823 0.3313744
0.3335655 0.6116613 0.3387787
0.4013689 0.6119869 0.3463895
0.4634856 0.6202964 0.3460853
0.5213276 0.6205614 0.3539108
0.5710644 0.6207971 0.3618884
0.0830832 0.6497269 0.3273051
0.1760713 0.6505587 0.3335594
0.2667572 0.6585672 0.3408114
0.3388860 0.6589230 0.3483336
0.4076403 0.6591864 0.3477083
0.4716251 0.6594658 0.3554893
0.5279245 0.6669784 0.3636530
0.5693436 0.6671722 0.3718023
0.0306590 0.0186140 0.3635424
0.1242334 0.0233435 0.3698865
0.2268049 0.0286253 0.3779271
0.3213060 0.0344352 0.3864812
0.3916782 0.0406907 0.3870828
0.4547967 0.0480080 0.3960933
0.5210044 0.0547317 0.4049034
0.5734683 0.0623204 0.4054680
0.0379148 0.1206113 0.3857240
0.1286452 0.1291282 0.3914911
0.2291895 0.1336095 0.3984862
0.3162953 0.1424680 0.3980238
0.3874239 0.1517805 0.4062406
0.4525986 0.1615738 0.4146213
0.5197188 0.1667221 0.4142866
0.5632092 0.1772276 0.4229345
0.0471742 0.2476261 0.3999462
0.1373094 0.2553377 0.4058772
0.2368131 0.2627918 0.4046053
0.3236462 0.2702466 0.4123089
0.3889040 0.2777213 0.4204068
0.4558862 0.2852784 0.4200500
0.5133466 0.2929665 0.4283251
0.5654818 0.3007630 0.4366935
0.0558473 0.3632507 0.4119843
0.1477408 0.3728473 0.4097361
0.2464492 0.3821855 0.4169974
0.3262463 0.3913285 0.4248723
0.3925278 0.3915973 0.4242082
0.4610234 0.4006876 0.4323897
0.5185328 0.4098052 0.4407308
0.5696086 0.4100464 0.4488924
0.0663958 0.4612343 0.4145283
0.1595311 0.4714349 0.4209785
0.2505542 0.4811653 0.4284577
0.3302616 0.4815978 0.4361271
0.3970670 0.4908502 0.4357232
0.4674651 0.4911816 0.4436705
0.5250292 0.5004365 0.4520550
0.5665267 0.5005995 0.4516686
0.0766858 0.5425519 0.4250497
0.1676930 0.5524061 0.4317704
0.2623193 0.5530138 0.4390258
0.3349513 0.5533545 0.4382133
0.4025841 0.5625827 0.4464276
0.4649965 0.5628785 0.4544958
0.5309249 0.5719904 0.4541531
0.5723037 0.5721999 0.4624547
0.0860404 0.6024749 0.4351130
0.1765918 0.6114466 0.4420127
0.2747863 0.6119857 0.4406721
0.3472269 0.6123536 0.4485126
0.4085221 0.6207153 0.4568246
0.4725797 0.6209577 0.4562187
0.5291584 0.6212152 0.4643882
0.5784832 0.6294450 0.4725622
0.0966247 0.6505390 0.4449334
0.1915023 0.6587387 0.4432840
0.2795400 0.6592278 0.4507643
0.3530920 0.6595790 0.4586385
0.4148452 0.6670761 0.4582683
0.4804693 0.6673550 0.4663506
0.5357502 0.6675925 0.4742221
0.5770924 0.6677391 0.4738326
0.0437897 0.0261142 0.4641569
0.1385421 0.0311781 0.4702128
0.2439079 0.0380447 0.4701524
0.3326285 0.0435048 0.4779269
0.3971081 0.0512733 0.4786229
0.4621587 0.0584307 0.4868140
0.5287727 0.0644355 0.4870040
0.5797585 0.0734084 0.4953640
0.0498504 0.1288867 0.4772437
0.1444535 0.1378330 0.4826986
0.2412795 0.1425370 0.4892001
0.3288379 0.1518889 0.4887394
0.3942574 0.1616942 0.4963823
0.4614873 0.1668494 0.4960188
0.5283401 0.1774110 0.5037109
0.5707746 0.1828971 0.5035940
0.0602743 0.2550195 0.4909901
0.1541805 0.2627878 0.4964760
0.2494233 0.2703337 0.4953125
0.3297931 0.2778901 0.5024081
0.3960931 0.2854606 0.5020076
0.4647583 0.2931881 0.5093802
0.5223360 0.3009641 0.5091192
0.5730440 0.3089738 0.5166767
0.0691540 0.3725519 0.5026054
0.1609833 0.3821348 0.5005818
0.2594124 0.3914693 0.5071707
0.3327295 0.3917991 0.5063296
0.3997092 0.4008948 0.5136791
0.4699498 0.4100194 0.5132853
0.5278363 0.4102797 0.5204932
0.5689865 0.4193591 0.5203852
0.0796547 0.4711305 0.5053195
0.1738363 0.4811758 0.5111945
0.2639340 0.4817019 0.5099153
0.3434352 0.4910863 0.5170420
0.4046170 0.4913436 0.5164230
0.4764239 0.5006535 0.5237578
0.5330505 0.5008749 0.5232269
0.5741013 0.5100662 0.5308536
0.0891546 0.5521595 0.5152296
0.1827901 0.5529741 0.5132262
0.2761148 0.5535418 0.5196988
0.3485075 0.5627664 0.5191674
0.4101748 0.5630648 0.5262944
0.4739871 0.5721721 0.5259575
0.5305747 0.5724329 0.5331666
0.5799098 0.5809366 0.5329571
0.0999874 0.6112220 0.5167499
0.1923242 0.6119887 0.5226548
0.2806499 0.6124558 0.5214731
0.3541012 0.6208859 0.5286667
0.4161877 0.6211309 0.5280469
0.4818602 0.6214199 0.5351595
0.5368904 0.6296226 0.5349007
0.5781802 0.6298175 0.5422354
0.1087967 0.6585609 0.5258007
0.2024745 0.6592213 0.5240323
0.2917707 0.6596961 0.5306177
0.3600387 0.6672764 0.5378555
0.4229652 0.6675102 0.5372326
0.4897699 0.6677873 0.5443212
0.5437607 0.6679771 0.5438172
0.5846608 0.6753385 0.5513785
0.0572116 0.0342583 0.5354339
0.1545325 0.0406083 0.5341198
0.2554820 0.0479825 0.5418144
0.3373675 0.0547228 0.5419592
0.4111851 0.0603736 0.5498534
0.4699601 0.0687789 0.5503815
0.5365672 0.0758564 0.5583838
0.5782781 0.0835621 0.5588080
0.0636030 0.1375744 0.5469654
0.1572846 0.1469552 0.5529060
0.2539113 0.1518824 0.5517557
0.3348330 0.1617452 0.5591981
0.4094886 0.1669268 0.5587298
0.4701423 0.1774812 0.5664967
0.5373893 0.1830264 0.5661542
0.5780791 0.1943004 0.5663343
0.0723032 0.2694893 0.5608902
0.1678826 0.2774361 0.5588809
0.2623256 0.2852589 0.5655931
0.3427445 0.2930312 0.5649701
0.4113210 0.2933038 0.5720457
0.4737793 0.3011009 0.5717341
0.5313955 0.3090977 0.5714809
0.5806517 0.3172274 0.5790305
0.0829608 0.3817667 0.5644343
0.1754447 0.3913383 0.5704273
0.2731736 0.3918714 0.5690838
0.3459890 0.4010184 0.5763005
0.4150168 0.4101515 0.5758949
0.4792978 0.4103972 0.5752936
0.5355786 0.4195771 0.5827637
0.5766149 0.4287189 0.5826581
0.0926215 0.4808137 0.5749310
0.1894254 0.4816339 0.5729598
0.2775820 0.4911381 0.5797829
0.3504591 0.4914726 0.5789925
0.4199615 0.5007864 0.5862753
0.4857859 0.5010470 0.5856653
0.5407934 0.5102474 0.5854274
0.5820154 0.5104553 0.5927109
0.1036927 0.5526773 0.5767705
0.1989837 0.5534741 0.5826700
0.2880684 0.5628461 0.5817947
0.3556952 0.5631929 0.5887577
0.4260706 0.5723361 0.5883417
0.4833442 0.5725589 0.5878119
0.5383384 0.5811257 0.5952116
0.5796378 0.5812852 0.5948321
0.1126639 0.6117318 0.5860402
0.2091937 0.6124286 0.5843095
0.2927110 0.6209612 0.5911877
0.3613752 0.6212538 0.5904655
0.4243871 0.6215005 0.5898577
0.4909437 0.6297895 0.5971348
0.5449296 0.6299883 0.5966443
0.5857928 0.6381097 0.6041187
0.1227133 0.6590069 0.5873053
0.2200325 0.6596795 0.5933166
0.3041605 0.6673332 0.5925379
0.3674005 0.6675850 0.5918831
0.4321095 0.6678635 0.5988951
0.4989125 0.6752773 0.5985206
0.5515110 0.6754999 0.6056355
0.5925558 0.6756448 0.6052591
0.0703552 0.0432840 0.5911638
0.1674675 0.0495235 0.5975498
0.2679548 0.0565137 0.5972092
0.3496900 0.0643985 0.5973760
0.4174500 0.0710615 0.6051117
0.4877538 0.0783503 0.6052613
0.5447226 0.0863214 0.6128902
0.5849887 0.0951316 0.6133237
0.0762831 0.1467095 0.6087129
0.1714005 0.1517886 0.6068461
0.2740734 0.1617343 0.6060061
0.3481911 0.1669547 0.6130323
0.4166135 0.1775108 0.6129196
0.4792404 0.1830479 0.6126209
0.5365110 0.1943895 0.6199548
0.5856973 0.2003010 0.6197816
0.0867089 0.2770915 0.6143354
0.1828815 0.2851055 0.6126173
0.2759664 0.2930337 0.6191694
0.3492204 0.3009007 0.6186625
0.4187705 0.3011783 0.6252681
0.4828529 0.3092003 0.6249600
0.5391631 0.3173157 0.6247287
0.5801036 0.3255357 0.6317533
0.0964681 0.3909448 0.6178284
0.1911674 0.3917336 0.6234709
0.2861184 0.4010136 0.6225395
0.3527847 0.4102028 0.6293511
0.4227923 0.4104823 0.6286946
0.4883856 0.4196577 0.6283726
0.5433430 0.4288940 0.6352482
0.5845525 0.4290530 0.6348825
0.1076790 0.4812926 0.6276492
0.2001877 0.4909834 0.6262434
0.2898506 0.4915100 0.6323544
0.3650115 0.5008276 0.6318476
0.4282506 0.5010874 0.6312615
0.4948940 0.5103791 0.6380008
0.5405526 0.5105577 0.6376017
0.5896621 0.5197358 0.6374207
0.1167683 0.5620167 0.6297470
0.2101676 0.5627456 0.6353504
0.3006197 0.5632138 0.6342790
0.3703797 0.5723746 0.6338375
0.4352689 0.5726782 0.6402985
0.4924659 0.5812108 0.6400346
0.5464449 0.5814174 0.6395639
0.5875615 0.5816190 0.6462095
0.1271110 0.6121612 0.6381591
0.2208550 0.6208599 0.6369015
0.3054122 0.6212718 0.6359232
0.3764171 0.6216087 0.6422634
0.4427699 0.6298612 0.6419006
0.5003979 0.6300746 0.6413965
0.5527003 0.6382333 0.6481717
0.5937193 0.6383855 0.6478117
0.1382701 0.6594144 0.6393666
0.2321687 0.6672460 0.6381737
0.3104993 0.6676385 0.6443133
0.3825498 0.6679208 0.6436140
0.4411067 0.6753109 0.6433117
0.5083385 0.6755840 0.6497045
0.5513071 0.6757334 0.6493336
0.5923559 0.6758782 0.6489740
0.0839570 0.0527329 0.6362622
0.1815539 0.0602239 0.6423148
0.2806048 0.0686956 0.6420752
0.3622518 0.0757857 0.6420112
0.4237806 0.0835269 0.6491935
0.4959753 0.0891335 0.6490712
0.5516081 0.0982658 0.6493630
0.5920073 0.1048375 0.6564439
0.0914541 0.1515573 0.6515282
0.1864820 0.1616074 0.6502216
0.2878728 0.1720527 0.6494964
0.3618476 0.1775267 0.6559441
0.4238188 0.1885920 0.6559018
0.4880471 0.1944034 0.6556053
0.5443100 0.2003587 0.6622499
0.5930091 0.2124675 0.6623442
0.1008038 0.2847626 0.6569620
0.1989540 0.2928631 0.6554643
0.2890292 0.3008876 0.6615180
0.3639204 0.3011681 0.6607841
0.4263311 0.3091929 0.6604816
0.4919852 0.3173784 0.6669965
0.5469574 0.3256084 0.6667879
0.5877869 0.3339059 0.6666934
0.1086698 0.4000942 0.6603650
0.2077989 0.4008607 0.6655226
0.2983928 0.4101747 0.6647355
0.3674433 0.4193945 0.6643220
0.4307972 0.4196879 0.6705463
0.4975285 0.4289294 0.6702332
0.5514769 0.4291351 0.6697807
0.5921836 0.4383766 0.6764123
0.1212955 0.4906526 0.6694154
0.2176490 0.4913469 0.6679021
0.3022573 0.5007644 0.6671979
0.3724578 0.5011176 0.6732874
0.4372017 0.5103675 0.6729652
0.5043913 0.5106317 0.6724011
0.5483559 0.5198305 0.6789774
0.5894665 0.5199933 0.6786326
0.1316914 0.5624076 0.6711570
0.2283322 0.5630623 0.6697195
0.3066929 0.5723529 0.6758386
0.3778732 0.5726599 0.6751728
0.4443072 0.5812360 0.6748260
0.5019279 0.5814996 0.6810241
0.5542507 0.5899666 0.6808181
0.5952352 0.5901253 0.6804743
0.1430436 0.6205661 0.6725657
0.2332212 0.6211714 0.6779907
0.3181900 0.6295712 0.6773160
0.3837228 0.6298386 0.6767125
0.4520960 0.6301390 0.6827868
0.5095754 0.6382765 0.6825381
0.5608066 0.6384638 0.6821160
0.5935242 0.6386254 0.6884415
0.1508756 0.6670046 0.6804681
0.2449841 0.6675407 0.6791942
0.3236749 0.6678855 0.6783781
0.3898856 0.6753559 0.6846309
0.4504251 0.6755729 0.6841188
0.5178375 0.6758078 0.6835645
0.5593845 0.6759908 0.6898073
0.5999849 0.6832235 0.6896823
