Plugins/FilmEmulator/Content/LUTs/FE_Kodak_Portra_Endura_64.cube
TITLE "FE_Kodak_Portra_Endura_33"
LUT_3D_SIZE 4
0.0013672 0.0089930 0.0172631
0.9545816 0.2556940 0.0771230
1.0000000 0.4474530 0.1664010
1.0000000 0.5186529 0.2324737
0.2421252 0.9385970 0.2972047
0.9031904 0.9516596 0.3433903
0.9909164 0.9590847 0.4076881
1.0000000 0.9563389 0.4663951
0.5556711 0.9964328 0.5970222
0.9397563 0.9971021 0.6209238
0.9787118 0.9993827 0.6275842
0.9850909 1.0000000 0.6197536
0.7676330 0.9927502 0.7964711
0.9635054 0.9947967 0.8028529
0.9844781 0.9964395 0.7992496
0.9884580 0.9973655 0.7880980
0.3649901 0.4554659 1.0000000
0.9891926 0.6107622 0.9827238
1.0000000 0.6636007 0.9764977
1.0000000 0.7100968 0.9727796
0.7526778 0.9637291 0.9817444
0.9645473 0.9733801 0.9788520
0.9884453 0.9762061 0.9788212
0.9938156 0.9762868 0.9781828
0.8793837 0.9853708 0.9851457
0.9757250 0.9889444 0.9846520
0.9879646 0.9900845 0.9847534
0.9910880 0.9903371 0.9845923
0.9304904 0.9896703 0.9873954
0.9815598 0.9919204 0.9873948
0.9888718 0.9925498 0.9874648
0.9910164 0.9927634 0.9873831
0.8394394 0.8200062 0.9992124
0.9909306 0.8561677 0.9936808
1.0000000 0.8585917 0.9930191
1.0000000 0.8499120 0.9933367
0.9268726 0.9804322 0.9903976
0.9811159 0.9846267 0.9899945
0.9891337 0.9853917 0.9900206
0.9916089 0.9854577 0.9900291
0.9559202 0.9893461 0.9907072
0.9844069 0.9912602 0.9907727
0.9894743 0.9917749 0.9908772
0.9910995 0.9919184 0.9908934
0.9706365 0.9918712 0.9910153
0.9864278 0.9930007 0.9911789
0.9899693 0.9933540 0.9912612
0.9912453 0.9934672 0.9912952
0.9508943 0.9352742 0.9916601
0.9904081 0.9423127 0.9908124
0.9987503 0.9413381 0.9907590
1.0000000 0.9371358 0.9908550
0.9699314 0.9868947 0.9909433
0.9865217 0.9884768 0.9910105
0.9902746 0.9888138 0.9910660
0.9917036 0.9888104 0.9910799
0.9784003 0.9914478 0.9913250
0.9878597 0.9922825 0.9914622
0.9904496 0.9925425 0.9915316
0.9914937 0.9926562 0.9915645
0.9829441 0.9929844 0.9915565
0.9889686 0.9935114 0.9916881
0.9907241 0.9936940 0.9917463
0.9915799 0.9937817 0.9917765
