Plugins/FilmEmulator/Content/LUTs/FE_Kodak_TriX_400_64.cube
TITLE "FE_Kodak_TriX_400_33"
LUT_3D_SIZE 8
0.0063196 0.0063196 0.0063196
0.0190824 0.0190824 0.0190824
0.0388631 0.0388631 0.0388631
0.0589577 0.0589577 0.0589577
0.0797783 0.0797783 0.0797783
0.1006428 0.1006428 0.1006428
0.1211519 0.1211519 0.1211519
0.1423668 0.1423668 0.1423668
0.0388631 0.0388631 0.0388631
0.0589577 0.0589577 0.0589577
0.0797783 0.0797783 0.0797783
0.1006428 0.1006428 0.1006428
0.1211519 0.1211519 0.1211519
0.1423668 0.1423668 0.1423668
0.1633297 0.1633297 0.1633297
0.1826737 0.1826737 0.1826737
0.0797783 0.0797783 0.0797783
0.1006428 0.1006428 0.1006428
0.1211519 0.1211519 0.1211519
0.1423668 0.1423668 0.1423668
0.1633297 0.1633297 0.1633297
0.1826737 0.1826737 0.1826737
0.2039579 0.2039579 0.2039579
0.2222743 0.2222743 0.2222743
0.1211519 0.1211519 0.1211519
0.1423668 0.1423668 0.1423668
0.1633297 0.1633297 0.1633297
0.1826737 0.1826737 0.1826737
0.2039579 0.2039579 0.2039579
0.2222743 0.2222743 0.2222743
0.2420098 0.2420098 0.2420098
0.2630014 0.2630014 0.2630014
0.1633297 0.1633297 0.1633297
0.1826737 0.1826737 0.1826737
0.2039579 0.2039579 0.2039579
0.2222743 0.2222743 0.2222743
0.2420098 0.2420098 0.2420098
0.2630014 0.2630014 0.2630014
0.2794932 0.2794932 0.2794932
0.2967529 0.2967529 0.2967529
0.2039579 0.2039579 0.2039579
0.2222743 0.2222743 0.2222743
0.2420098 0.2420098 0.2420098
0.2630014 0.2630014 0.2630014
0.2794932 0.2794932 0.2794932
0.2967529 0.2967529 0.2967529
0.3146326 0.3146326 0.3146326
0.3268697 0.3268697 0.3268697
0.2420098 0.2420098 0.2420098
0.2630014 0.2630014 0.2630014
0.2794932 0.2794932 0.2794932
0.2967529 0.2967529 0.2967529
0.3146326 0.3146326 0.3146326
0.3268697 0.3268697 0.3268697
0.3456656 0.3456656 0.3456656
0.3584400 0.3584400 0.3584400
0.2794932 0.2794932 0.2794932
0.2967529 0.2967529 0.2967529
0.3146326 0.3146326 0.3146326
0.3268697 0.3268697 0.3268697
0.3456656 0.3456656 0.3456656
0.3584400 0.3584400 0.3584400
0.3779789 0.3779789 0.3779789
0.3912334 0.3912334 0.3912334
0.0603483 0.0603483 0.0603483
0.0816505 0.0816505 0.0816505
0.1030005 0.1030005 0.1030005
0.1240065 0.1240065 0.1240065
0.1423668 0.1423668 0.1423668
0.1633297 0.1633297 0.1633297
0.1826737 0.1826737 0.1826737
0.2039579 0.2039579 0.2039579
0.1030005 0.1030005 0.1030005
0.1240065 0.1240065 0.1240065
0.1423668 0.1423668 0.1423668
0.1633297 0.1633297 0.1633297
0.1826737 0.1826737 0.1826737
0.2039579 0.2039579 0.2039579
0.2222743 0.2222743 0.2222743
0.2420098 0.2420098 0.2420098
0.1423668 0.1423668 0.1423668
0.1633297 0.1633297 0.1633297
0.1867880 0.1867880 0.1867880
0.2039579 0.2039579 0.2039579
0.2222743 0.2222743 0.2222743
0.2420098 0.2420098 0.2420098
0.2630014 0.2630014 0.2630014
0.2794932 0.2794932 0.2794932
0.1867880 0.1867880 0.1867880
0.2039579 0.2039579 0.2039579
0.2222743 0.2222743 0.2222743
0.2420098 0.2420098 0.2420098
0.2630014 0.2630014 0.2630014
0.2794932 0.2794932 0.2794932
0.2967529 0.2967529 0.2967529
0.3146326 0.3146326 0.3146326
0.2222743 0.2222743 0.2222743
0.2420098 0.2420098 0.2420098
0.2630014 0.2630014 0.2630014
0.2794932 0.2794932 0.2794932
0.2967529 0.2967529 0.2967529
0.3146326 0.3146326 0.3146326
0.3330792 0.3330792 0.3330792
0.3456656 0.3456656 0.3456656
0.2630014 0.2630014 0.2630014
0.2794932 0.2794932 0.2794932
0.2967529 0.2967529 0.2967529
0.3146326 0.3146326 0.3146326
0.3330792 0.3330792 0.3330792
0.3456656 0.3456656 0.3456656
0.3649045 0.3649045 0.3649045
0.3779789 0.3779789 0.3779789
0.2967529 0.2967529 0.2967529
0.3146326 0.3146326 0.3146326
0.3330792 0.3330792 0.3330792
0.3456656 0.3456656 0.3456656
0.3649045 0.3649045 0.3649045
0.3779789 0.3779789 0.3779789
0.3912334 0.3912334 0.3912334
0.4046501 0.4046501 0.4046501
0.3330792 0.3330792 0.3330792
0.3456656 0.3456656 0.3456656
0.3649045 0.3649045 0.3649045
0.3779789 0.3779789 0.3779789
0.3912334 0.3912334 0.3912334
0.4046501 0.4046501 0.4046501
0.4181594 0.4181594 0.4181594
0.4317404 0.4317404 0.4317404
0.1240065 0.1240065 0.1240065
0.1456803 0.1456803 0.1456803
0.1670594 0.1670594 0.1670594
0.1867880 0.1867880 0.1867880
0.2039579 0.2039579 0.2039579
0.2270328 0.2270328 0.2270328
0.2420098 0.2420098 0.2420098
0.2630014 0.2630014 0.2630014
0.1670594 0.1670594 0.1670594
0.1867880 0.1867880 0.1867880
0.2039579 0.2039579 0.2039579
0.2270328 0.2270328 0.2270328
0.2471489 0.2471489 0.2471489
0.2630014 0.2630014 0.2630014
0.2794932 0.2794932 0.2794932
0.2967529 0.2967529 0.2967529
0.2039579 0.2039579 0.2039579
0.2270328 0.2270328 0.2270328
0.2471489 0.2471489 0.2471489
0.2630014 0.2630014 0.2630014
0.2794932 0.2794932 0.2794932
0.2967529 0.2967529 0.2967529
0.3146326 0.3146326 0.3146326
0.3330792 0.3330792 0.3330792
0.2471489 0.2471489 0.2471489
0.2630014 0.2630014 0.2630014
0.2794932 0.2794932 0.2794932
0.2967529 0.2967529 0.2967529
0.3146326 0.3146326 0.3146326
0.3330792 0.3330792 0.3330792
0.3456656 0.3456656 0.3456656
0.3649045 0.3649045 0.3649045
0.2794932 0.2794932 0.2794932
0.2967529 0.2967529 0.2967529
0.3146326 0.3146326 0.3146326
0.3330792 0.3330792 0.3330792
0.3456656 0.3456656 0.3456656
0.3649045 0.3649045 0.3649045
0.3779789 0.3779789 0.3779789
0.3912334 0.3912334 0.3912334
0.3146326 0.3146326 0.3146326
0.3330792 0.3330792 0.3330792
0.3456656 0.3456656 0.3456656
0.3649045 0.3649045 0.3649045
0.3779789 0.3779789 0.3779789
0.3912334 0.3912334 0.3912334
0.4046501 0.4046501 0.4046501
0.4181594 0.4181594 0.4181594
0.3456656 0.3456656 0.3456656
0.3649045 0.3649045 0.3649045
0.3779789 0.3779789 0.3779789
0.3912334 0.3912334 0.3912334
0.4046501 0.4046501 0.4046501
0.4181594 0.4181594 0.4181594
0.4317404 0.4317404 0.4317404
0.4454246 0.4454246 0.4454246
0.3779789 0.3779789 0.3779789
0.3912334 0.3912334 0.3912334
0.4046501 0.4046501 0.4046501
0.4181594 0.4181594 0.4181594
0.4317404 0.4317404 0.4317404
0.4454246 0.4454246 0.4454246
0.4591922 0.4591922 0.4591922
0.4661008 0.4661008 0.4661008
0.1867880 0.1867880 0.1867880
0.2084292 0.2084292 0.2084292
0.2270328 0.2270328 0.2270328
0.2471489 0.2471489 0.2471489
0.2630014 0.2630014 0.2630014
0.2851655 0.2851655 0.2851655
0.3026475 0.3026475 0.3026475
0.3146326 0.3146326 0.3146326
0.2270328 0.2270328 0.2270328
0.2471489 0.2471489 0.2471489
0.2630014 0.2630014 0.2630014
0.2851655 0.2851655 0.2851655
0.3026475 0.3026475 0.3026475
0.3146326 0.3146326 0.3146326
0.3330792 0.3330792 0.3330792
0.3520263 0.3520263 0.3520263
0.2630014 0.2630014 0.2630014
0.2851655 0.2851655 0.2851655
0.3026475 0.3026475 0.3026475
0.3146326 0.3146326 0.3146326
0.3330792 0.3330792 0.3330792
0.3520263 0.3520263 0.3520263
0.3649045 0.3649045 0.3649045
0.3779789 0.3779789 0.3779789
0.3026475 0.3026475 0.3026475
0.3146326 0.3146326 0.3146326
0.3330792 0.3330792 0.3330792
0.3520263 0.3520263 0.3520263
0.3649045 0.3649045 0.3649045
0.3779789 0.3779789 0.3779789
0.3912334 0.3912334 0.3912334
0.4046501 0.4046501 0.4046501
0.3330792 0.3330792 0.3330792
0.3520263 0.3520263 0.3520263
0.3649045 0.3649045 0.3649045
0.3779789 0.3779789 0.3779789
0.3912334 0.3912334 0.3912334
0.4046501 0.4046501 0.4046501
0.4181594 0.4181594 0.4181594
0.4317404 0.4317404 0.4317404
0.3649045 0.3649045 0.3649045
0.3779789 0.3779789 0.3779789
0.3912334 0.3912334 0.3912334
0.4046501 0.4046501 0.4046501
0.4181594 0.4181594 0.4181594
0.4317404 0.4317404 0.4317404
0.4454246 0.4454246 0.4454246
0.4591922 0.4591922 0.4591922
0.3912334 0.3912334 0.3912334
0.4046501 0.4046501 0.4046501
0.4181594 0.4181594 0.4181594
0.4317404 0.4317404 0.4317404
0.4454246 0.4454246 0.4454246
0.4591922 0.4591922 0.4591922
0.4661008 0.4661008 0.4661008
0.4799544 0.4799544 0.4799544
0.4181594 0.4181594 0.4181594
0.4317404 0.4317404 0.4317404
0.4454246 0.4454246 0.4454246
0.4591922 0.4591922 0.4591922
0.4661008 0.4661008 0.4661008
0.4799544 0.4799544 0.4799544
0.4938228 0.4938228 0.4938228
0.5007605 0.5007605 0.5007605
0.2471489 0.2471489 0.2471489
0.2684285 0.2684285 0.2684285
0.2851655 0.2851655 0.2851655
0.3026475 0.3026475 0.3026475
0.3207204 0.3207204 0.3207204
0.3330792 0.3330792 0.3330792
0.3520263 0.3520263 0.3520263
0.3649045 0.3649045 0.3649045
0.2851655 0.2851655 0.2851655
0.3026475 0.3026475 0.3026475
0.3207204 0.3207204 0.3207204
0.3330792 0.3330792 0.3330792
0.3520263 0.3520263 0.3520263
0.3649045 0.3649045 0.3649045
0.3779789 0.3779789 0.3779789
0.3979226 0.3979226 0.3979226
0.3207204 0.3207204 0.3207204
0.3330792 0.3330792 0.3330792
0.3520263 0.3520263 0.3520263
0.3649045 0.3649045 0.3649045
0.3779789 0.3779789 0.3779789
0.3979226 0.3979226 0.3979226
0.4114138 0.4114138 0.4114138
0.4249356 0.4249356 0.4249356
0.3520263 0.3520263 0.3520263
0.3649045 0.3649045 0.3649045
0.3779789 0.3779789 0.3779789
0.3979226 0.3979226 0.3979226
0.4114138 0.4114138 0.4114138
0.4249356 0.4249356 0.4249356
0.4317404 0.4317404 0.4317404
0.4454246 0.4454246 0.4454246
0.3779789 0.3779789 0.3779789
0.3979226 0.3979226 0.3979226
0.4114138 0.4114138 0.4114138
0.4249356 0.4249356 0.4249356
0.4317404 0.4317404 0.4317404
0.4454246 0.4454246 0.4454246
0.4591922 0.4591922 0.4591922
0.4730222 0.4730222 0.4730222
0.4114138 0.4114138 0.4114138
0.4249356 0.4249356 0.4249356
0.4317404 0.4317404 0.4317404
0.4454246 0.4454246 0.4454246
0.4591922 0.4591922 0.4591922
0.4730222 0.4730222 0.4730222
0.4799544 0.4799544 0.4799544
0.4938228 0.4938228 0.4938228
0.4317404 0.4317404 0.4317404
0.4454246 0.4454246 0.4454246
0.4591922 0.4591922 0.4591922
0.4730222 0.4730222 0.4730222
0.4799544 0.4799544 0.4799544
0.4938228 0.4938228 0.4938228
0.5007605 0.5007605 0.5007605
0.5146322 0.5146322 0.5146322
0.4591922 0.4591922 0.4591922
0.4730222 0.4730222 0.4730222
0.4799544 0.4799544 0.4799544
0.4938228 0.4938228 0.4938228
0.5007605 0.5007605 0.5007605
0.5146322 0.5146322 0.5146322
0.5215610 0.5215610 0.5215610
0.5284815 0.5284815 0.5284815
0.3026475 0.3026475 0.3026475
0.3207204 0.3207204 0.3207204
0.3330792 0.3330792 0.3330792
0.3520263 0.3520263 0.3520263
0.3649045 0.3649045 0.3649045
0.3845848 0.3845848 0.3845848
0.3979226 0.3979226 0.3979226
0.4114138 0.4114138 0.4114138
0.3330792 0.3330792 0.3330792
0.3520263 0.3520263 0.3520263
0.3649045 0.3649045 0.3649045
0.3845848 0.3845848 0.3845848
0.3979226 0.3979226 0.3979226
0.4114138 0.4114138 0.4114138
0.4249356 0.4249356 0.4249356
0.4385707 0.4385707 0.4385707
0.3649045 0.3649045 0.3649045
0.3845848 0.3845848 0.3845848
0.3979226 0.3979226 0.3979226
0.4114138 0.4114138 0.4114138
0.4249356 0.4249356 0.4249356
0.4385707 0.4385707 0.4385707
0.4454246 0.4454246 0.4454246
0.4591922 0.4591922 0.4591922
0.3979226 0.3979226 0.3979226
0.4114138 0.4114138 0.4114138
0.4249356 0.4249356 0.4249356
0.4385707 0.4385707 0.4385707
0.4454246 0.4454246 0.4454246
0.4591922 0.4591922 0.4591922
0.4730222 0.4730222 0.4730222
0.4799544 0.4799544 0.4799544
0.4249356 0.4249356 0.4249356
0.4385707 0.4385707 0.4385707
0.4454246 0.4454246 0.4454246
0.4591922 0.4591922 0.4591922
0.4730222 0.4730222 0.4730222
0.4799544 0.4799544 0.4799544
0.4938228 0.4938228 0.4938228
0.5007605 0.5007605 0.5007605
0.4454246 0.4454246 0.4454246
0.4591922 0.4591922 0.4591922
0.4730222 0.4730222 0.4730222
0.4799544 0.4799544 0.4799544
0.4938228 0.4938228 0.4938228
0.5007605 0.5007605 0.5007605
0.5146322 0.5146322 0.5146322
0.5215610 0.5215610 0.5215610
0.4730222 0.4730222 0.4730222
0.4799544 0.4799544 0.4799544
0.4938228 0.4938228 0.4938228
0.5007605 0.5007605 0.5007605
0.5146322 0.5146322 0.5146322
0.5215610 0.5215610 0.5215610
0.5353911 0.5353911 0.5353911
0.5422870 0.5422870 0.5422870
0.4938228 0.4938228 0.4938228
0.5007605 0.5007605 0.5007605
0.5146322 0.5146322 0.5146322
0.5215610 0.5215610 0.5215610
0.5353911 0.5353911 0.5353911
0.5422870 0.5422870 0.5422870
0.5491667 0.5491667 0.5491667
0.5559998 0.5559998 0.5559998
0.3520263 0.3520263 0.3520263
0.3649045 0.3649045 0.3649045
0.3845848 0.3845848 0.3845848
0.3979226 0.3979226 0.3979226
0.4114138 0.4114138 0.4114138
0.4249356 0.4249356 0.4249356
0.4385707 0.4385707 0.4385707
0.4454246 0.4454246 0.4454246
0.3845848 0.3845848 0.3845848
0.3979226 0.3979226 0.3979226
0.4114138 0.4114138 0.4114138
0.4249356 0.4249356 0.4249356
0.4385707 0.4385707 0.4385707
0.4454246 0.4454246 0.4454246
0.4591922 0.4591922 0.4591922
0.4730222 0.4730222 0.4730222
0.4114138 0.4114138 0.4114138
0.4249356 0.4249356 0.4249356
0.4385707 0.4385707 0.4385707
0.4454246 0.4454246 0.4454246
0.4591922 0.4591922 0.4591922
0.4730222 0.4730222 0.4730222
0.4799544 0.4799544 0.4799544
0.4938228 0.4938228 0.4938228
0.4385707 0.4385707 0.4385707
0.4454246 0.4454246 0.4454246
0.4591922 0.4591922 0.4591922
0.4730222 0.4730222 0.4730222
0.4799544 0.4799544 0.4799544
0.4938228 0.4938228 0.4938228
0.5007605 0.5007605 0.5007605
0.5146322 0.5146322 0.5146322
0.4591922 0.4591922 0.4591922
0.4730222 0.4730222 0.4730222
0.4799544 0.4799544 0.4799544
0.4938228 0.4938228 0.4938228
0.5007605 0.5007605 0.5007605
0.5146322 0.5146322 0.5146322
0.5215610 0.5215610 0.5215610
0.5353911 0.5353911 0.5353911
0.4799544 0.4799544 0.4799544
0.4938228 0.4938228 0.4938228
0.5007605 0.5007605 0.5007605
0.5146322 0.5146322 0.5146322
0.5215610 0.5215610 0.5215610
0.5353911 0.5353911 0.5353911
0.5422870 0.5422870 0.5422870
0.5491667 0.5491667 0.5491667
0.5007605 0.5007605 0.5007605
0.5146322 0.5146322 0.5146322
0.5215610 0.5215610 0.5215610
0.5353911 0.5353911 0.5353911
0.5422870 0.5422870 0.5422870
0.5491667 0.5491667 0.5491667
0.5559998 0.5559998 0.5559998
0.5694875 0.5694875 0.5694875
0.5215610 0.5215610 0.5215610
0.5353911 0.5353911 0.5353911
0.5422870 0.5422870 0.5422870
0.5491667 0.5491667 0.5491667
0.5559998 0.5559998 0.5559998
0.5694875 0.5694875 0.5694875
0.5761942 0.5761942 0.5761942
0.5828732 0.5828732 0.5828732
0.3979226 0.3979226 0.3979226
0.4114138 0.4114138 0.4114138
0.4249356 0.4249356 0.4249356
0.4385707 0.4385707 0.4385707
0.4522991 0.4522991 0.4522991
0.4591922 0.4591922 0.4591922
0.4730222 0.4730222 0.4730222
0.4868877 0.4868877 0.4868877
0.4249356 0.4249356 0.4249356
0.4385707 0.4385707 0.4385707
0.4522991 0.4522991 0.4522991
0.4591922 0.4591922 0.4591922
0.4730222 0.4730222 0.4730222
0.4868877 0.4868877 0.4868877
0.4938228 0.4938228 0.4938228
0.5076979 0.5076979 0.5076979
0.4522991 0.4522991 0.4522991
0.4591922 0.4591922 0.4591922
0.4730222 0.4730222 0.4730222
0.4868877 0.4868877 0.4868877
0.4938228 0.4938228 0.4938228
0.5076979 0.5076979 0.5076979
0.5146322 0.5146322 0.5146322
0.5215610 0.5215610 0.5215610
0.4730222 0.4730222 0.4730222
0.4868877 0.4868877 0.4868877
0.4938228 0.4938228 0.4938228
0.5076979 0.5076979 0.5076979
0.5146322 0.5146322 0.5146322
0.5215610 0.5215610 0.5215610
0.5353911 0.5353911 0.5353911
0.5422870 0.5422870 0.5422870
0.4938228 0.4938228 0.4938228
0.5076979 0.5076979 0.5076979
0.5146322 0.5146322 0.5146322
0.5215610 0.5215610 0.5215610
0.5353911 0.5353911 0.5353911
0.5422870 0.5422870 0.5422870
0.5491667 0.5491667 0.5491667
0.5627552 0.5627552 0.5627552
0.5146322 0.5146322 0.5146322
0.5215610 0.5215610 0.5215610
0.5353911 0.5353911 0.5353911
0.5422870 0.5422870 0.5422870
0.5491667 0.5491667 0.5491667
0.5627552 0.5627552 0.5627552
0.5694875 0.5694875 0.5694875
0.5761942 0.5761942 0.5761942
0.5353911 0.5353911 0.5353911
0.5422870 0.5422870 0.5422870
0.5491667 0.5491667 0.5491667
0.5627552 0.5627552 0.5627552
0.5694875 0.5694875 0.5694875
0.5761942 0.5761942 0.5761942
0.5828732 0.5828732 0.5828732
0.5895216 0.5895216 0.5895216
0.5491667 0.5491667 0.5491667
0.5627552 0.5627552 0.5627552
0.5694875 0.5694875 0.5694875
0.5761942 0.5761942 0.5761942
0.5828732 0.5828732 0.5828732
0.5895216 0.5895216 0.5895216
0.5961375 0.5961375 0.5961375
0.6027188 0.6027188 0.6027188
