Plugins/FilmEmulator/Content/LUTs/FE_Kodak_Polymax_Pro_64.cube
TITLE "FE_Kodak_Polymax_Pro_33"
LUT_3D_SIZE 64
0.0021468 0.0021468 0.0021468
0.0021468 0.0021468 0.0021468
0.0021468 0.0021468 0.0021468
0.0021468 0.0021468 0.0021468
0.0021468 0.0021468 0.0021468
0.0021468 0.0021468 0.0021468
0.0021468 0.0021468 0.0021468
0.0021468 0.0021468 0.0021468
0.0021468 0.0021468 0.0021468
0.0021468 0.0021468 0.0021468
0.0021468 0.0021468 0.0021468
0.0021468 0.0021468 0.0021468
0.0021468 0.0021468 0.0021468
0.0021468 0.0021468 0.0021468
0.0021468 0.0021468 0.0021468
0.0021468 0.0021468 0.0021468
0.0021468 0.0021468 0.0021468
0.0021468 0.0021468 0.0021468
0.0021468 0.0021468 0.0021468
0.0021468 0.0021468 0.0021468
0.0021468 0.0021468 0.0021468
0.0021468 0.0021468 0.0021468
0.0021468 0.0021468 0.0021468
0.0021468 0.0021468 0.0021468
0.0021468 0.0021468 0.0021468
0.0021468 0.0021468 0.0021468
0.0021468 0.0021468 0.0021468
0.0021468 0.0021468 0.0021468
0.0021468 0.0021468 0.0021468
0.0021468 0.0021468 0.0021468
0.0021468 0.0021468 0.0021468
0.0021468 0.0021468 0.0021468
0.0021468 0.0021468 0.0021468
0.0021468 0.0021468 0.0021468
0.0021468 0.0021468 0.0021468
0.0021468 0.0021468 0.0021468
0.0021468 0.0021468 0.0021468
0.0021471 0.0021471 0.0021471
0.0021489 0.0021489 0.0021489
0.0021506 0.0021506 0.0021506
0.0021527 0.0021527 0.0021527
0.0021544 0.0021544 0.0021544
0.0021557 0.0021557 0.0021557
0.0021574 0.0021574 0.0021574
0.0021591 0.0021591 0.0021591
0.0021604 0.0021604 0.0021604
0.0021621 0.0021621 0.0021621
0.0021634 0.0021634 0.0021634
0.0021648 0.0021648 0.0021648
0.0021664 0.0021664 0.0021664
0.0021677 0.0021677 0.0021677
0.0021689 0.0021689 0.0021689
0.0021702 0.0021702 0.0021702
0.0021711 0.0021711 0.0021711
0.0021721 0.0021721 0.0021721
0.0021732 0.0021732 0.0021732
0.0021742 0.0021742 0.0021742
0.0021749 0.0021749 0.0021749
0.0021759 0.0021759 0.0021759
0.0021767 0.0021767 0.0021767
0.0021774 0.0021774 0.0021774
0.0021785 0.0021785 0.0021785
0.0021793 0.0021793 0.0021793
0.0021802 0.0021802 0.0021802
0.0021468 0.0021468 0.0021468
0.0021468 0.0021468 0.0021468
0.0021468 0.0021468 0.0021468
0.0021468 0.0021468 0.0021468
0.0021468 0.0021468 0.0021468
0.0021468 0.0021468 0.0021468
0.0021468 0.0021468 0.0021468
0.0021468 0.0021468 0.0021468
0.0021468 0.0021468 0.0021468
0.0021468 0.0021468 0.0021468
0.0021468 0.0021468 0.0021468
0.0021468 0.0021468 0.0021468
0.0021468 0.0021468 0.0021468
0.0021468 0.0021468 0.0021468
0.0021468 0.0021468 0.0021468
0.0021468 0.0021468 0.0021468
0.0021468 0.0021468 0.0021468
0.0021468 0.0021468 0.0021468
0.0021468 0.0021468 0.0021468
0.0021468 0.0021468 0.0021468
0.0021468 0.0021468 0.0021468
0.0021468 0.0021468 0.0021468
0.0021468 0.0021468 0.0021468
0.0021468 0.0021468 0.0021468
0.0021468 0.0021468 0.0021468
0.0021468 0.0021468 0.0021468
0.0021468 0.0021468 0.0021468
0.0021468 0.0021468 0.0021468
0.0021468 0.0021468 0.0021468
0.0021468 0.0021468 0.0021468
0.0021475 0.0021475 0.0021475
0.0021492 0.0021492 0.0021492
0.0021513 0.0021513 0.0021513
0.0021530 0.0021530 0.0021530
0.0021547 0.0021547 0.0021547
0.0021564 0.0021564 0.0021564
0.0021578 0.0021578 0.0021578
0.0021594 0.0021594 0.0021594
0.0021608 0.0021608 0.0021608
0.0021624 0.0021624 0.0021624
0.0021638 0.0021638 0.0021638
0.0021651 0.0021651 0.0021651
0.0021667 0.0021667 0.0021667
0.0021680 0.0021680 0.0021680
0.0021692 0.0021692 0.0021692
0.0021702 0.0021702 0.0021702
0.0021713 0.0021713 0.0021713
0.0021724 0.0021724 0.0021724
0.0021734 0.0021734 0.0021734
0.0021742 0.0021742 0.0021742
0.0021752 0.0021752 0.0021752
0.0021759 0.0021759 0.0021759
0.0021769 0.0021769 0.0021769
0.0021777 0.0021777 0.0021777
0.0021787 0.0021787 0.0021787
0.0021796 0.0021796 0.0021796
0.0021804 0.0021804 0.0021804
0.0021813 0.0021813 0.0021813
0.0021823 0.0021823 0.0021823
0.0021833 0.0021833 0.0021833
0.0021844 0.0021844 0.0021844
0.0021854 0.0021854 0.0021854
0.0021868 0.0021868 0.0021868
0.0021881 0.0021881 0.0021881
0.0021468 0.0021468 0.0021468
0.0021468 0.0021468 0.0021468
0.0021468 0.0021468 0.0021468
0.0021468 0.0021468 0.0021468
0.0021468 0.0021468 0.0021468
0.0021468 0.0021468 0.0021468
0.0021468 0.0021468 0.0021468
0.0021468 0.0021468 0.0021468
0.0021468 0.0021468 0.0021468
0.0021468 0.0021468 0.0021468
0.0021468 0.0021468 0.0021468
0.0021468 0.0021468 0.0021468
0.0021468 0.0021468 0.0021468
0.0021468 0.0021468 0.0021468
0.0021468 0.0021468 0.0021468
0.0021468 0.0021468 0.0021468
0.0021468 0.0021468 0.0021468
0.0021468 0.0021468 0.0021468
0.0021468 0.0021468 0.0021468
0.0021468 0.0021468 0.0021468
0.0021468 0.0021468 0.0021468
0.0021468 0.0021468 0.0021468
0.0021468 0.0021468 0.0021468
0.0021478 0.0021478 0.0021478
0.0021499 0.0021499 0.0021499
0.0021516 0.0021516 0.0021516
0.0021533 0.0021533 0.0021533
0.0021550 0.0021550 0.0021550
0.0021567 0.0021567 0.0021567
0.0021581 0.0021581 0.0021581
0.0021598 0.0021598 0.0021598
0.0021611 0.0021611 0.0021611
0.0021628 0.0021628 0.0021628
0.0021641 0.0021641 0.0021641
0.0021654 0.0021654 0.0021654
0.0021667 0.0021667 0.0021667
0.0021683 0.0021683 0.0021683
0.0021692 0.0021692 0.0021692
0.0021705 0.0021705 0.0021705
0.0021716 0.0021716 0.0021716
0.0021727 0.0021727 0.0021727
0.0021737 0.0021737 0.0021737
0.0021744 0.0021744 0.0021744
0.0021754 0.0021754 0.0021754
0.0021762 0.0021762 0.0021762
0.0021772 0.0021772 0.0021772
0.0021780 0.0021780 0.0021780
0.0021787 0.0021787 0.0021787
0.0021799 0.0021799 0.0021799
0.0021807 0.0021807 0.0021807
0.0021816 0.0021816 0.0021816
0.0021826 0.0021826 0.0021826
0.0021837 0.0021837 0.0021837
0.0021847 0.0021847 0.0021847
0.0021859 0.0021859 0.0021859
0.0021872 0.0021872 0.0021872
0.0021885 0.0021885 0.0021885
0.0021899 0.0021899 0.0021899
0.0021915 0.0021915 0.0021915
0.0021926 0.0021926 0.0021926
0.0021943 0.0021943 0.0021943
0.0021961 0.0021961 0.0021961
0.0021977 0.0021977 0.0021977
0.0022001 0.0022001 0.0022001
0.0021468 0.0021468 0.0021468
0.0021468 0.0021468 0.0021468
0.0021468 0.0021468 0.0021468
0.0021468 0.0021468 0.0021468
0.0021468 0.0021468 0.0021468
0.0021468 0.0021468 0.0021468
0.0021468 0.0021468 0.0021468
0.0021468 0.0021468 0.0021468
0.0021468 0.0021468 0.0021468
0.0021468 0.0021468 0.0021468
0.0021468 0.0021468 0.0021468
0.0021468 0.0021468 0.0021468
0.0021468 0.0021468 0.0021468
0.0021468 0.0021468 0.0021468
0.0021468 0.0021468 0.0021468
0.0021468 0.0021468 0.0021468
0.0021485 0.0021485 0.0021485
0.0021502 0.0021502 0.0021502
0.0021520 0.0021520 0.0021520
0.0021537 0.0021537 0.0021537
0.0021554 0.0021554 0.0021554
0.0021571 0.0021571 0.0021571
0.0021584 0.0021584 0.0021584
0.0021601 0.0021601 0.0021601
0.0021614 0.0021614 0.0021614
0.0021631 0.0021631 0.0021631
0.0021644 0.0021644 0.0021644
0.0021657 0.0021657 0.0021657
0.0021670 0.0021670 0.0021670
0.0021683 0.0021683 0.0021683
0.0021695 0.0021695 0.0021695
0.0021708 0.0021708 0.0021708
0.0021719 0.0021719 0.0021719
0.0021729 0.0021729 0.0021729
0.0021737 0.0021737 0.0021737
0.0021747 0.0021747 0.0021747
0.0021757 0.0021757 0.0021757
0.0021764 0.0021764 0.0021764
0.0021772 0.0021772 0.0021772
0.0021782 0.0021782 0.0021782
0.0021790 0.0021790 0.0021790
0.0021799 0.0021799 0.0021799
0.0021810 0.0021810 0.0021810
0.0021819 0.0021819 0.0021819
0.0021830 0.0021830 0.0021830
0.0021840 0.0021840 0.0021840
0.0021851 0.0021851 0.0021851
0.0021863 0.0021863 0.0021863
0.0021876 0.0021876 0.0021876
0.0021890 0.0021890 0.0021890
0.0021899 0.0021899 0.0021899
0.0021915 0.0021915 0.0021915
0.0021932 0.0021932 0.0021932
0.0021949 0.0021949 0.0021949
0.0021961 0.0021961 0.0021961
0.0021985 0.0021985 0.0021985
0.0022009 0.0022009 0.0022009
0.0022025 0.0022025 0.0022025
0.0022052 0.0022052 0.0022052
0.0022075 0.0022075 0.0022075
0.0022110 0.0022110 0.0022110
0.0022134 0.0022134 0.0022134
0.0022172 0.0022172 0.0022172
0.0022206 0.0022206 0.0022206
0.0021468 0.0021468 0.0021468
0.0021468 0.0021468 0.0021468
0.0021468 0.0021468 0.0021468
0.0021468 0.0021468 0.0021468
0.0021468 0.0021468 0.0021468
0.0021468 0.0021468 0.0021468
0.0021468 0.0021468 0.0021468
0.0021468 0.0021468 0.0021468
0.0021468 0.0021468 0.0021468
0.0021489 0.0021489 0.0021489
0.0021506 0.0021506 0.0021506
0.0021523 0.0021523 0.0021523
0.0021540 0.0021540 0.0021540
0.0021557 0.0021557 0.0021557
0.0021574 0.0021574 0.0021574
0.0021588 0.0021588 0.0021588
0.0021604 0.0021604 0.0021604
0.0021618 0.0021618 0.0021618
0.0021634 0.0021634 0.0021634
0.0021648 0.0021648 0.0021648
0.0021661 0.0021661 0.0021661
0.0021674 0.0021674 0.0021674
0.0021686 0.0021686 0.0021686
0.0021699 0.0021699 0.0021699
0.0021711 0.0021711 0.0021711
0.0021721 0.0021721 0.0021721
0.0021732 0.0021732 0.0021732
0.0021740 0.0021740 0.0021740
0.0021749 0.0021749 0.0021749
0.0021757 0.0021757 0.0021757
0.0021767 0.0021767 0.0021767
0.0021774 0.0021774 0.0021774
0.0021785 0.0021785 0.0021785
0.0021793 0.0021793 0.0021793
0.0021802 0.0021802 0.0021802
0.0021810 0.0021810 0.0021810
0.0021819 0.0021819 0.0021819
0.0021830 0.0021830 0.0021830
0.0021844 0.0021844 0.0021844
0.0021854 0.0021854 0.0021854
0.0021863 0.0021863 0.0021863
0.0021876 0.0021876 0.0021876
0.0021890 0.0021890 0.0021890
0.0021904 0.0021904 0.0021904
0.0021921 0.0021921 0.0021921
0.0021938 0.0021938 0.0021938
0.0021949 0.0021949 0.0021949
0.0021969 0.0021969 0.0021969
0.0021993 0.0021993 0.0021993
0.0022009 0.0022009 0.0022009
0.0022032 0.0022032 0.0022032
0.0022052 0.0022052 0.0022052
0.0022087 0.0022087 0.0022087
0.0022110 0.0022110 0.0022110
0.0022146 0.0022146 0.0022146
0.0022172 0.0022172 0.0022172
0.0022223 0.0022223 0.0022223
0.0022257 0.0022257 0.0022257
0.0022291 0.0022291 0.0022291
0.0022353 0.0022353 0.0022353
0.0022455 0.0022455 0.0022455
0.0022558 0.0022558 0.0022558
0.0022661 0.0022661 0.0022661
0.0022816 0.0022816 0.0022816
0.0021468 0.0021468 0.0021468
0.0021475 0.0021475 0.0021475
0.0021492 0.0021492 0.0021492
0.0021509 0.0021509 0.0021509
0.0021527 0.0021527 0.0021527
0.0021544 0.0021544 0.0021544
0.0021561 0.0021561 0.0021561
0.0021578 0.0021578 0.0021578
0.0021594 0.0021594 0.0021594
0.0021608 0.0021608 0.0021608
0.0021621 0.0021621 0.0021621
0.0021638 0.0021638 0.0021638
0.0021651 0.0021651 0.0021651
0.0021664 0.0021664 0.0021664
0.0021677 0.0021677 0.0021677
0.0021689 0.0021689 0.0021689
0.0021702 0.0021702 0.0021702
0.0021713 0.0021713 0.0021713
0.0021724 0.0021724 0.0021724
0.0021732 0.0021732 0.0021732
0.0021742 0.0021742 0.0021742
0.0021752 0.0021752 0.0021752
0.0021759 0.0021759 0.0021759
0.0021769 0.0021769 0.0021769
0.0021777 0.0021777 0.0021777
0.0021785 0.0021785 0.0021785
0.0021796 0.0021796 0.0021796
0.0021804 0.0021804 0.0021804
0.0021813 0.0021813 0.0021813
0.0021823 0.0021823 0.0021823
0.0021833 0.0021833 0.0021833
0.0021844 0.0021844 0.0021844
0.0021854 0.0021854 0.0021854
0.0021868 0.0021868 0.0021868
0.0021881 0.0021881 0.0021881
0.0021894 0.0021894 0.0021894
0.0021909 0.0021909 0.0021909
0.0021926 0.0021926 0.0021926
0.0021938 0.0021938 0.0021938
0.0021955 0.0021955 0.0021955
0.0021977 0.0021977 0.0021977
0.0021993 0.0021993 0.0021993
0.0022017 0.0022017 0.0022017
0.0022032 0.0022032 0.0022032
0.0022064 0.0022064 0.0022064
0.0022087 0.0022087 0.0022087
0.0022122 0.0022122 0.0022122
0.0022146 0.0022146 0.0022146
0.0022189 0.0022189 0.0022189
0.0022223 0.0022223 0.0022223
0.0022274 0.0022274 0.0022274
0.0022308 0.0022308 0.0022308
0.0022353 0.0022353 0.0022353
0.0022455 0.0022455 0.0022455
0.0022609 0.0022609 0.0022609
0.0022712 0.0022712 0.0022712
0.0022816 0.0022816 0.0022816
0.0022959 0.0022959 0.0022959
0.0023142 0.0023142 0.0023142
0.0023419 0.0023419 0.0023419
0.0023606 0.0023606 0.0023606
0.0023794 0.0023794 0.0023794
0.0023990 0.0023990 0.0023990
0.0024189 0.0024189 0.0024189
0.0021581 0.0021581 0.0021581
0.0021598 0.0021598 0.0021598
0.0021611 0.0021611 0.0021611
0.0021624 0.0021624 0.0021624
0.0021641 0.0021641 0.0021641
0.0021654 0.0021654 0.0021654
0.0021667 0.0021667 0.0021667
0.0021680 0.0021680 0.0021680
0.0021692 0.0021692 0.0021692
0.0021705 0.0021705 0.0021705
0.0021716 0.0021716 0.0021716
0.0021727 0.0021727 0.0021727
0.0021734 0.0021734 0.0021734
0.0021744 0.0021744 0.0021744
0.0021752 0.0021752 0.0021752
0.0021762 0.0021762 0.0021762
0.0021769 0.0021769 0.0021769
0.0021780 0.0021780 0.0021780
0.0021787 0.0021787 0.0021787
0.0021796 0.0021796 0.0021796
0.0021807 0.0021807 0.0021807
0.0021816 0.0021816 0.0021816
0.0021826 0.0021826 0.0021826
0.0021837 0.0021837 0.0021837
0.0021847 0.0021847 0.0021847
0.0021859 0.0021859 0.0021859
0.0021872 0.0021872 0.0021872
0.0021885 0.0021885 0.0021885
0.0021899 0.0021899 0.0021899
0.0021909 0.0021909 0.0021909
0.0021926 0.0021926 0.0021926
0.0021943 0.0021943 0.0021943
0.0021961 0.0021961 0.0021961
0.0021977 0.0021977 0.0021977
0.0022001 0.0022001 0.0022001
0.0022017 0.0022017 0.0022017
0.0022040 0.0022040 0.0022040
0.0022075 0.0022075 0.0022075
0.0022099 0.0022099 0.0022099
0.0022134 0.0022134 0.0022134
0.0022157 0.0022157 0.0022157
0.0022189 0.0022189 0.0022189
0.0022240 0.0022240 0.0022240
0.0022274 0.0022274 0.0022274
0.0022308 0.0022308 0.0022308
0.0022404 0.0022404 0.0022404
0.0022506 0.0022506 0.0022506
0.0022609 0.0022609 0.0022609
0.0022712 0.0022712 0.0022712
0.0022868 0.0022868 0.0022868
0.0023051 0.0023051 0.0023051
0.0023234 0.0023234 0.0023234
0.0023419 0.0023419 0.0023419
0.0023606 0.0023606 0.0023606
0.0023794 0.0023794 0.0023794
0.0023990 0.0023990 0.0023990
0.0024189 0.0024189 0.0024189
0.0024389 0.0024389 0.0024389
0.0024591 0.0024591 0.0024591
0.0024794 0.0024794 0.0024794
0.0025026 0.0025026 0.0025026
0.0025272 0.0025272 0.0025272
0.0025521 0.0025521 0.0025521
0.0025772 0.0025772 0.0025772
0.0021683 0.0021683 0.0021683
0.0021695 0.0021695 0.0021695
0.0021708 0.0021708 0.0021708
0.0021719 0.0021719 0.0021719
0.0021727 0.0021727 0.0021727
0.0021737 0.0021737 0.0021737
0.0021747 0.0021747 0.0021747
0.0021754 0.0021754 0.0021754
0.0021764 0.0021764 0.0021764
0.0021772 0.0021772 0.0021772
0.0021782 0.0021782 0.0021782
0.0021790 0.0021790 0.0021790
0.0021799 0.0021799 0.0021799
0.0021807 0.0021807 0.0021807
0.0021816 0.0021816 0.0021816
0.0021830 0.0021830 0.0021830
0.0021840 0.0021840 0.0021840
0.0021851 0.0021851 0.0021851
0.0021863 0.0021863 0.0021863
0.0021872 0.0021872 0.0021872
0.0021885 0.0021885 0.0021885
0.0021899 0.0021899 0.0021899
0.0021915 0.0021915 0.0021915
0.0021932 0.0021932 0.0021932
0.0021949 0.0021949 0.0021949
0.0021961 0.0021961 0.0021961
0.0021985 0.0021985 0.0021985
0.0022001 0.0022001 0.0022001
0.0022025 0.0022025 0.0022025
0.0022052 0.0022052 0.0022052
0.0022075 0.0022075 0.0022075
0.0022110 0.0022110 0.0022110
0.0022134 0.0022134 0.0022134
0.0022172 0.0022172 0.0022172
0.0022206 0.0022206 0.0022206
0.0022240 0.0022240 0.0022240
0.0022291 0.0022291 0.0022291
0.0022324 0.0022324 0.0022324
0.0022404 0.0022404 0.0022404
0.0022558 0.0022558 0.0022558
0.0022661 0.0022661 0.0022661
0.0022764 0.0022764 0.0022764
0.0022868 0.0022868 0.0022868
0.0023051 0.0023051 0.0023051
0.0023234 0.0023234 0.0023234
0.0023513 0.0023513 0.0023513
0.0023700 0.0023700 0.0023700
0.0023891 0.0023891 0.0023891
0.0024089 0.0024089 0.0024089
0.0024288 0.0024288 0.0024288
0.0024490 0.0024490 0.0024490
0.0024692 0.0024692 0.0024692
0.0024903 0.0024903 0.0024903
0.0025148 0.0025148 0.0025148
0.0025396 0.0025396 0.0025396
0.0025646 0.0025646 0.0025646
0.0025899 0.0025899 0.0025899
0.0026026 0.0026026 0.0026026
0.0026310 0.0026310 0.0026310
0.0026626 0.0026626 0.0026626
0.0026946 0.0026946 0.0026946
0.0027269 0.0027269 0.0027269
0.0027597 0.0027597 0.0027597
0.0027762 0.0027762 0.0027762
0.0021757 0.0021757 0.0021757
0.0021767 0.0021767 0.0021767
0.0021774 0.0021774 0.0021774
0.0021782 0.0021782 0.0021782
0.0021793 0.0021793 0.0021793
0.0021802 0.0021802 0.0021802
0.0021810 0.0021810 0.0021810
0.0021819 0.0021819 0.0021819
0.0021830 0.0021830 0.0021830
0.0021840 0.0021840 0.0021840
0.0021851 0.0021851 0.0021851
0.0021863 0.0021863 0.0021863
0.0021876 0.0021876 0.0021876
0.0021890 0.0021890 0.0021890
0.0021904 0.0021904 0.0021904
0.0021921 0.0021921 0.0021921
0.0021932 0.0021932 0.0021932
0.0021949 0.0021949 0.0021949
0.0021969 0.0021969 0.0021969
0.0021985 0.0021985 0.0021985
0.0022009 0.0022009 0.0022009
0.0022032 0.0022032 0.0022032
0.0022052 0.0022052 0.0022052
0.0022087 0.0022087 0.0022087
0.0022110 0.0022110 0.0022110
0.0022146 0.0022146 0.0022146
0.0022172 0.0022172 0.0022172
0.0022206 0.0022206 0.0022206
0.0022257 0.0022257 0.0022257
0.0022291 0.0022291 0.0022291
0.0022324 0.0022324 0.0022324
0.0022455 0.0022455 0.0022455
0.0022558 0.0022558 0.0022558
0.0022661 0.0022661 0.0022661
0.0022764 0.0022764 0.0022764
0.0022959 0.0022959 0.0022959
0.0023142 0.0023142 0.0023142
0.0023327 0.0023327 0.0023327
0.0023513 0.0023513 0.0023513
0.0023700 0.0023700 0.0023700
0.0023891 0.0023891 0.0023891
0.0024089 0.0024089 0.0024089
0.0024288 0.0024288 0.0024288
0.0024490 0.0024490 0.0024490
0.0024692 0.0024692 0.0024692
0.0024903 0.0024903 0.0024903
0.0025148 0.0025148 0.0025148
0.0025396 0.0025396 0.0025396
0.0025646 0.0025646 0.0025646
0.0025899 0.0025899 0.0025899
0.0026154 0.0026154 0.0026154
0.0026468 0.0026468 0.0026468
0.0026786 0.0026786 0.0026786
0.0026946 0.0026946 0.0026946
0.0027269 0.0027269 0.0027269
0.0027597 0.0027597 0.0027597
0.0027955 0.0027955 0.0027955
0.0028373 0.0028373 0.0028373
0.0028584 0.0028584 0.0028584
0.0029011 0.0029011 0.0029011
0.0029444 0.0029444 0.0029444
0.0029884 0.0029884 0.0029884
0.0030128 0.0030128 0.0030128
0.0030713 0.0030713 0.0030713
0.0021823 0.0021823 0.0021823
0.0021833 0.0021833 0.0021833
0.0021844 0.0021844 0.0021844
0.0021854 0.0021854 0.0021854
0.0021868 0.0021868 0.0021868
0.0021881 0.0021881 0.0021881
0.0021894 0.0021894 0.0021894
0.0021909 0.0021909 0.0021909
0.0021921 0.0021921 0.0021921
0.0021938 0.0021938 0.0021938
0.0021955 0.0021955 0.0021955
0.0021969 0.0021969 0.0021969
0.0021993 0.0021993 0.0021993
0.0022017 0.0022017 0.0022017
0.0022032 0.0022032 0.0022032
0.0022064 0.0022064 0.0022064
0.0022087 0.0022087 0.0022087
0.0022122 0.0022122 0.0022122
0.0022146 0.0022146 0.0022146
0.0022189 0.0022189 0.0022189
0.0022223 0.0022223 0.0022223
0.0022257 0.0022257 0.0022257
0.0022308 0.0022308 0.0022308
0.0022353 0.0022353 0.0022353
0.0022455 0.0022455 0.0022455
0.0022609 0.0022609 0.0022609
0.0022712 0.0022712 0.0022712
0.0022816 0.0022816 0.0022816
0.0022959 0.0022959 0.0022959
0.0023142 0.0023142 0.0023142
0.0023327 0.0023327 0.0023327
0.0023606 0.0023606 0.0023606
0.0023794 0.0023794 0.0023794
0.0023990 0.0023990 0.0023990
0.0024189 0.0024189 0.0024189
0.0024389 0.0024389 0.0024389
0.0024591 0.0024591 0.0024591
0.0024794 0.0024794 0.0024794
0.0025026 0.0025026 0.0025026
0.0025272 0.0025272 0.0025272
0.0025521 0.0025521 0.0025521
0.0025772 0.0025772 0.0025772
0.0025899 0.0025899 0.0025899
0.0026154 0.0026154 0.0026154
0.0026468 0.0026468 0.0026468
0.0026786 0.0026786 0.0026786
0.0027107 0.0027107 0.0027107
0.0027433 0.0027433 0.0027433
0.0027597 0.0027597 0.0027597
0.0027955 0.0027955 0.0027955
0.0028373 0.0028373 0.0028373
0.0028796 0.0028796 0.0028796
0.0029227 0.0029227 0.0029227
0.0029444 0.0029444 0.0029444
0.0029884 0.0029884 0.0029884
0.0030419 0.0030419 0.0030419
0.0030713 0.0030713 0.0030713
0.0031308 0.0031308 0.0031308
0.0031916 0.0031916 0.0031916
0.0032224 0.0032224 0.0032224
0.0032848 0.0032848 0.0032848
0.0033165 0.0033165 0.0033165
0.0033960 0.0033960 0.0033960
0.0034773 0.0034773 0.0034773
0.0021909 0.0021909 0.0021909
0.0021926 0.0021926 0.0021926
0.0021943 0.0021943 0.0021943
0.0021955 0.0021955 0.0021955
0.0021977 0.0021977 0.0021977
0.0022001 0.0022001 0.0022001
0.0022017 0.0022017 0.0022017
0.0022040 0.0022040 0.0022040
0.0022064 0.0022064 0.0022064
0.0022099 0.0022099 0.0022099
0.0022122 0.0022122 0.0022122
0.0022157 0.0022157 0.0022157
0.0022189 0.0022189 0.0022189
0.0022240 0.0022240 0.0022240
0.0022274 0.0022274 0.0022274
0.0022308 0.0022308 0.0022308
0.0022404 0.0022404 0.0022404
0.0022506 0.0022506 0.0022506
0.0022609 0.0022609 0.0022609
0.0022712 0.0022712 0.0022712
0.0022816 0.0022816 0.0022816
0.0023051 0.0023051 0.0023051
0.0023234 0.0023234 0.0023234
0.0023419 0.0023419 0.0023419
0.0023606 0.0023606 0.0023606
0.0023794 0.0023794 0.0023794
0.0023990 0.0023990 0.0023990
0.0024189 0.0024189 0.0024189
0.0024389 0.0024389 0.0024389
0.0024591 0.0024591 0.0024591
0.0024794 0.0024794 0.0024794
0.0025026 0.0025026 0.0025026
0.0025272 0.0025272 0.0025272
0.0025521 0.0025521 0.0025521
0.0025772 0.0025772 0.0025772
0.0026026 0.0026026 0.0026026
0.0026310 0.0026310 0.0026310
0.0026626 0.0026626 0.0026626
0.0026786 0.0026786 0.0026786
0.0027107 0.0027107 0.0027107
0.0027433 0.0027433 0.0027433
0.0027762 0.0027762 0.0027762
0.0028163 0.0028163 0.0028163
0.0028373 0.0028373 0.0028373
0.0028796 0.0028796 0.0028796
0.0029227 0.0029227 0.0029227
0.0029663 0.0029663 0.0029663
0.0029884 0.0029884 0.0029884
0.0030419 0.0030419 0.0030419
0.0031009 0.0031009 0.0031009
0.0031308 0.0031308 0.0031308
0.0031916 0.0031916 0.0031916
0.0032534 0.0032534 0.0032534
0.0032848 0.0032848 0.0032848
0.0033560 0.0033560 0.0033560
0.0033960 0.0033960 0.0033960
0.0034773 0.0034773 0.0034773
0.0035606 0.0035606 0.0035606
0.0036030 0.0036030 0.0036030
0.0036893 0.0036893 0.0036893
0.0037332 0.0037332 0.0037332
0.0038388 0.0038388 0.0038388
0.0038944 0.0038944 0.0038944
0.0040079 0.0040079 0.0040079
0.0022040 0.0022040 0.0022040
0.0022075 0.0022075 0.0022075
0.0022099 0.0022099 0.0022099
0.0022134 0.0022134 0.0022134
0.0022157 0.0022157 0.0022157
0.0022206 0.0022206 0.0022206
0.0022240 0.0022240 0.0022240
0.0022274 0.0022274 0.0022274
0.0022324 0.0022324 0.0022324
0.0022404 0.0022404 0.0022404
0.0022506 0.0022506 0.0022506
0.0022661 0.0022661 0.0022661
0.0022764 0.0022764 0.0022764
0.0022868 0.0022868 0.0022868
0.0023051 0.0023051 0.0023051
0.0023234 0.0023234 0.0023234
0.0023419 0.0023419 0.0023419
0.0023700 0.0023700 0.0023700
0.0023891 0.0023891 0.0023891
0.0024089 0.0024089 0.0024089
0.0024288 0.0024288 0.0024288
0.0024490 0.0024490 0.0024490
0.0024692 0.0024692 0.0024692
0.0024903 0.0024903 0.0024903
0.0025148 0.0025148 0.0025148
0.0025396 0.0025396 0.0025396
0.0025646 0.0025646 0.0025646
0.0025772 0.0025772 0.0025772
0.0026026 0.0026026 0.0026026
0.0026310 0.0026310 0.0026310
0.0026626 0.0026626 0.0026626
0.0026946 0.0026946 0.0026946
0.0027269 0.0027269 0.0027269
0.0027597 0.0027597 0.0027597
0.0027762 0.0027762 0.0027762
0.0028163 0.0028163 0.0028163
0.0028584 0.0028584 0.0028584
0.0029011 0.0029011 0.0029011
0.0029227 0.0029227 0.0029227
0.0029663 0.0029663 0.0029663
0.0030128 0.0030128 0.0030128
0.0030419 0.0030419 0.0030419
0.0031009 0.0031009 0.0031009
0.0031610 0.0031610 0.0031610
0.0031916 0.0031916 0.0031916
0.0032534 0.0032534 0.0032534
0.0033165 0.0033165 0.0033165
0.0033560 0.0033560 0.0033560
0.0034364 0.0034364 0.0034364
0.0034773 0.0034773 0.0034773
0.0035606 0.0035606 0.0035606
0.0036030 0.0036030 0.0036030
0.0036893 0.0036893 0.0036893
0.0037840 0.0037840 0.0037840
0.0038388 0.0038388 0.0038388
0.0039508 0.0039508 0.0039508
0.0040079 0.0040079 0.0040079
0.0041248 0.0041248 0.0041248
0.0041845 0.0041845 0.0041845
0.0042450 0.0042450 0.0042450
0.0043707 0.0043707 0.0043707
0.0044398 0.0044398 0.0044398
0.0045813 0.0045813 0.0045813
0.0046538 0.0046538 0.0046538
0.0022291 0.0022291 0.0022291
0.0022324 0.0022324 0.0022324
0.0022455 0.0022455 0.0022455
0.0022558 0.0022558 0.0022558
0.0022661 0.0022661 0.0022661
0.0022764 0.0022764 0.0022764
0.0022868 0.0022868 0.0022868
0.0023142 0.0023142 0.0023142
0.0023327 0.0023327 0.0023327
0.0023513 0.0023513 0.0023513
0.0023700 0.0023700 0.0023700
0.0023891 0.0023891 0.0023891
0.0024089 0.0024089 0.0024089
0.0024288 0.0024288 0.0024288
0.0024490 0.0024490 0.0024490
0.0024692 0.0024692 0.0024692
0.0024903 0.0024903 0.0024903
0.0025148 0.0025148 0.0025148
0.0025396 0.0025396 0.0025396
0.0025646 0.0025646 0.0025646
0.0025899 0.0025899 0.0025899
0.0026154 0.0026154 0.0026154
0.0026468 0.0026468 0.0026468
0.0026626 0.0026626 0.0026626
0.0026946 0.0026946 0.0026946
0.0027269 0.0027269 0.0027269
0.0027597 0.0027597 0.0027597
0.0027955 0.0027955 0.0027955
0.0028163 0.0028163 0.0028163
0.0028584 0.0028584 0.0028584
