Plugins/FilmEmulator/Content/LUTs/FE_Kodak_Aerochrome_III_64.cube
TITLE "FE_Kodak_Aerochrome_III_33"
LUT_3D_SIZE 4
0.0005847 0.0004999 0.0004647
0.0503151 0.0626322 0.0000000
0.2957963 0.2107952 0.0000000
0.6109784 0.3233917 0.0000000
0.0000000 0.0000000 0.0438695
0.0279310 0.1724257 0.1441907
0.2927993 0.4230102 0.1959785
0.6173394 0.5300506 0.2239838
0.0000000 0.0002313 0.0874512
0.0384327 0.2081005 0.2298616
0.3339614 0.4615174 0.2827202
0.6602356 0.5567836 0.3012518
0.0000000 0.0047689 0.1092587
0.0605610 0.2329132 0.2512921
0.3833256 0.4787225 0.3002111
0.7092863 0.5668154 0.3153908
0.2592996 0.0849323 0.1627949
0.8926704 0.4401612 0.2136917
1.0000000 0.5826162 0.2320823
1.0000000 0.6189716 0.2493525
0.2990074 0.1040727 0.2517336
0.9344975 0.4719404 0.3058139
1.0000000 0.6041858 0.3128131
1.0000000 0.6345208 0.3160298
0.3449072 0.1226877 0.2726948
0.9913366 0.4924932 0.3219235
1.0000000 0.6118009 0.3257845
1.0000000 0.6382216 0.3270066
0.3921493 0.1426433 0.2826837
1.0000000 0.5061171 0.3263744
1.0000000 0.6161432 0.3299167
1.0000000 0.6405808 0.3311924
1.0000000 0.3405849 0.3059749
1.0000000 0.5948716 0.3150931
1.0000000 0.6442831 0.3171031
1.0000000 0.6535808 0.3196058
1.0000000 0.3658070 0.3215302
1.0000000 0.6027558 0.3277044
1.0000000 0.6477258 0.3278783
1.0000000 0.6557609 0.3282734
1.0000000 0.3909541 0.3266733
1.0000000 0.6091895 0.3317671
1.0000000 0.6493124 0.3319548
1.0000000 0.6570605 0.3324540
1.0000000 0.4135417 0.3322418
1.0000000 0.6141887 0.3367048
1.0000000 0.6513345 0.3370534
1.0000000 0.6583915 0.3373763
1.0000000 0.5493192 0.3283679
1.0000000 0.6430875 0.3281938
1.0000000 0.6589785 0.3282956
1.0000000 0.6636097 0.3286522
1.0000000 0.5615433 0.3323420
1.0000000 0.6466396 0.3322966
1.0000000 0.6601249 0.3325010
1.0000000 0.6648001 0.3330494
1.0000000 0.5713452 0.3372532
1.0000000 0.6491973 0.3372792
1.0000000 0.6614200 0.3376158
1.0000000 0.6660897 0.3380477
1.0000000 0.5816748 0.3414345
1.0000000 0.6515974 0.3414014
1.0000000 0.6625613 0.3415180
1.0000000 0.6671474 0.3418173
