Plugins/FilmEmulator/Content/LUTs/FE_Kodak_EXR_5386_64.cube
TITLE "FE_Kodak_EXR_5386_33"
LUT_3D_SIZE 8
0.0000000 0.0126967 0.1922250
0.1454661 0.0373079 0.1991574
0.4139826 0.0905413 0.2149292
0.7043272 0.1684536 0.2382076
0.9187186 0.2616677 0.2747156
1.0000000 0.3424284 0.3142402
1.0000000 0.4087537 0.3522343
1.0000000 0.4606950 0.3865575
0.0443624 0.3783584 0.2438698
0.1562806 0.3865571 0.2467540
0.3981131 0.4182935 0.2619512
0.6575064 0.4683322 0.2921402
0.8570353 0.5206630 0.3288745
0.9805359 0.5694725 0.3681033
1.0000000 0.6115693 0.4050943
1.0000000 0.6436561 0.4375557
0.1764276 0.7797996 0.3544970
0.2455813 0.7785807 0.3587453
0.4453357 0.7875009 0.3786732
0.6525946 0.8047602 0.4082972
0.8198281 0.8228860 0.4442461
0.9200063 0.8401200 0.4797049
0.9770140 0.8549433 0.5129541
1.0000000 0.8666323 0.5423281
0.3019451 0.9340503 0.4602039
0.3363607 0.9301559 0.4607230
0.5060973 0.9316144 0.4815578
0.6802918 0.9334594 0.5073567
0.8221430 0.9379218 0.5386472
0.9080441 0.9432629 0.5706118
0.9551321 0.9480546 0.6006205
0.9810005 0.9518997 0.6280231
0.3933353 0.9887078 0.5381607
0.4063220 0.9873625 0.5381588
0.5499084 0.9837633 0.5550662
0.7026686 0.9810849 0.5776142
0.8286451 0.9802824 0.6057904
0.9072911 0.9809405 0.6360819
0.9500191 0.9820236 0.6644475
0.9725878 0.9830207 0.6877398
0.4614234 1.0000000 0.5950813
0.4593282 1.0000000 0.5933367
0.5813445 1.0000000 0.6082478
0.7209045 1.0000000 0.6300376
0.8366206 0.9977483 0.6564736
0.9089656 0.9963881 0.6834964
0.9494160 0.9959067 0.7087096
0.9706932 0.9957173 0.7304686
0.5133501 1.0000000 0.6390492
0.5114713 1.0000000 0.6374274
0.6008998 1.0000000 0.6492858
0.7303069 1.0000000 0.6694372
0.8399696 1.0000000 0.6930460
0.9119053 1.0000000 0.7186830
0.9498658 1.0000000 0.7413000
0.9699142 1.0000000 0.7613541
0.5559126 1.0000000 0.6751604
0.5540230 1.0000000 0.6735939
0.6115227 1.0000000 0.6798208
0.7352334 1.0000000 0.6983156
0.8426390 1.0000000 0.7205362
0.9122270 1.0000000 0.7437102
0.9493065 1.0000000 0.7653011
0.9696877 1.0000000 0.7846598
0.4815869 0.3595152 0.7573020
0.7285422 0.4253886 0.7672613
0.8938726 0.4884372 0.7788557
0.9933028 0.5447196 0.7910710
1.0000000 0.5896870 0.8025013
1.0000000 0.6244824 0.8150307
1.0000000 0.6505034 0.8242787
1.0000000 0.6725051 0.8326184
0.5164250 0.7254452 0.7852700
0.7203277 0.7511760 0.7961551
0.8609852 0.7809305 0.8087626
0.9425442 0.8047917 0.8210002
0.9878473 0.8243092 0.8323404
1.0000000 0.8390971 0.8424547
1.0000000 0.8502737 0.8510905
1.0000000 0.8596871 0.8589071
0.5750477 0.8982460 0.8210537
0.7459550 0.9058291 0.8311850
0.8631203 0.9152571 0.8424562
0.9314604 0.9244013 0.8538167
0.9678296 0.9330376 0.8645855
0.9871632 0.9386430 0.8733557
0.9985311 0.9430913 0.8809954
1.0000000 0.9464290 0.8874077
0.6195426 0.9602184 0.8477790
0.7696646 0.9609871 0.8584412
0.8729190 0.9637750 0.8686442
0.9318206 0.9671811 0.8785981
0.9643971 0.9703822 0.8877872
0.9814029 0.9728930 0.8955774
0.9904066 0.9747106 0.9019176
0.9962388 0.9762341 0.9078172
0.6484300 0.9846147 0.8682746
0.7850480 0.9826387 0.8764353
0.8805530 0.9826739 0.8855639
0.9354351 0.9838216 0.8945857
0.9646069 0.9851844 0.9027480
0.9798250 0.9863454 0.9096752
0.9882181 0.9872482 0.9157018
0.9932918 0.9879635 0.9209273
0.6686753 0.9965841 0.8842455
0.7933469 0.9932877 0.8912961
0.8858303 0.9918540 0.8994915
0.9372471 0.9918085 0.9074609
0.9654971 0.9922777 0.9149826
0.9795793 0.9927731 0.9213866
0.9873183 0.9931886 0.9267666
0.9919686 0.9935237 0.9313838
0.6782410 1.0000000 0.8954959
0.7979214 0.9983830 0.9017957
0.8878310 0.9961931 0.9091861
0.9388699 0.9955862 0.9155974
0.9652112 0.9955786 0.9224821
0.9795280 0.9957647 0.9285499
0.9869522 0.9959484 0.9335002
0.9916075 0.9961174 0.9378836
0.6856014 1.0000000 0.9036700
0.7990919 1.0000000 0.9093343
0.8871731 0.9990607 0.9162817
0.9388158 0.9979350 0.9233628
0.9656359 0.9976259 0.9297817
0.9795740 0.9976008 0.9353217
0.9870884 0.9976475 0.9399899
0.9912798 0.9977251 0.9431062
0.8849789 0.7625822 0.9659342
0.9497983 0.7904190 0.9666916
0.9843719 0.8108395 0.9671190
1.0000000 0.8287197 0.9678165
1.0000000 0.8408258 0.9686552
1.0000000 0.8504856 0.9695800
1.0000000 0.8588015 0.9705023
1.0000000 0.8660148 0.9714068
0.8897489 0.9082406 0.9665849
0.9415352 0.9189045 0.9676439
0.9699602 0.9273450 0.9689243
0.9858858 0.9337997 0.9702123
0.9954369 0.9388725 0.9714831
1.0000000 0.9426550 0.9726205
1.0000000 0.9458902 0.9736909
1.0000000 0.9486918 0.9746962
0.9009889 0.9594006 0.9701548
0.9457970 0.9641111 0.9715346
0.9691951 0.9679416 0.9735540
0.9827281 0.9709864 0.9749414
0.9899580 0.9731420 0.9761311
0.9947641 0.9749413 0.9772316
0.9978766 0.9763752 0.9782139
1.0000000 0.9776152 0.9791256
0.9092431 0.9791638 0.9741527
0.9503403 0.9814134 0.9755623
0.9716292 0.9833876 0.9769903
0.9827120 0.9848947 0.9782659
0.9892594 0.9863334 0.9794827
0.9932658 0.9872568 0.9804908
0.9958481 0.9879904 0.9813802
0.9977090 0.9886252 0.9822016
0.9162598 0.9883103 0.9769541
0.9538333 0.9893007 0.9782929
0.9732890 0.9903486 0.9796317
0.9833613 0.9912011 0.9808168
0.9892318 0.9919060 0.9822455
0.9928304 0.9924547 0.9831495
0.9952786 0.9929194 0.9839740
0.9969045 0.9932946 0.9847030
0.9185537 0.9925576 0.9793861
0.9547365 0.9929164 0.9805903
0.9742257 0.9935390 0.9818419
0.9838052 0.9940816 0.9829242
0.9896383 0.9946469 0.9839684
0.9929330 0.9950055 0.9848053
0.9950333 0.9952917 0.9855364
0.9966395 0.9955575 0.9862366
0.9195796 0.9951261 0.9809295
0.9559027 0.9950861 0.9820713
0.9742584 0.9954010 0.9832128
0.9844777 0.9957855 0.9842957
0.9897237 0.9960969 0.9851956
0.9929020 0.9963535 0.9859819
0.9950478 0.9966302 0.9867384
0.9964516 0.9968054 0.9873572
0.9200637 0.9969810 0.9822915
0.9558311 0.9966154 0.9836960
0.9747655 0.9967227 0.9847664
0.9847406 0.9969542 0.9857600
0.9898512 0.9971643 0.9865878
0.9930888 0.9973553 0.9873312
0.9951038 0.9975116 0.9879745
0.9964274 0.9976389 0.9885388
0.9733562 0.9183776 0.9927877
0.9861801 0.9260179 0.9923397
0.9945839 0.9315894 0.9922968
0.9999748 0.9360004 0.9923404
1.0000000 0.9395682 0.9924331
1.0000000 0.9424183 0.9923583
1.0000000 0.9446223 0.9925073
1.0000000 0.9465125 0.9926619
0.9730839 0.9658121 0.9919512
0.9836907 0.9688504 0.9918998
0.9898291 0.9711494 0.9920926
0.9940330 0.9730743 0.9923043
0.9970343 0.9747280 0.9925236
0.9989942 0.9763636 0.9925954
1.0000000 0.9773039 0.9927992
1.0000000 0.9780990 0.9929932
0.9753937 0.9831390 0.9925033
0.9843049 0.9846766 0.9925822
0.9896822 0.9859073 0.9928383
0.9930841 0.9868740 0.9930885
0.9954955 0.9877006 0.9933331
0.9971141 0.9883183 0.9934313
0.9981310 0.9888018 0.9936359
0.9988817 0.9892064 0.9938257
0.9778179 0.9901889 0.9931866
0.9856164 0.9910877 0.9933116
0.9902838 0.9918131 0.9935772
0.9932165 0.9923849 0.9938276
0.9951481 0.9928405 0.9940584
0.9966561 0.9933603 0.9941956
0.9975317 0.9936441 0.9943894
0.9981732 0.9938798 0.9945668
0.9791225 0.9936047 0.9937750
0.9863801 0.9941824 0.9939148
0.9906890 0.9946569 0.9941742
0.9933783 0.9950340 0.9944153
0.9952528 0.9953558 0.9946437
0.9965952 0.9956190 0.9947605
0.9973888 0.9958112 0.9949431
0.9979659 0.9959695 0.9951067
0.9798437 0.9953747 0.9942290
0.9868277 0.9957786 0.9943714
0.9911513 0.9961382 0.9946298
0.9936548 0.9964107 0.9948602
0.9953973 0.9966369 0.9949844
0.9966299 0.9968367 0.9951913
0.9973722 0.9969783 0.9953622
0.9979073 0.9970945 0.9955164
0.9803811 0.9965711 0.9946278
0.9874643 0.9968669 0.9947770
0.9913719 0.9971137 0.9950165
0.9939162 0.9973282 0.9952446
0.9955472 0.9974969 0.9953650
0.9967023 0.9976461 0.9955589
0.9974046 0.9977534 0.9957211
0.9979067 0.9978410 0.9958667
0.9805827 0.9973003 0.9949416
0.9876096 0.9975135 0.9950864
0.9916532 0.9977129 0.9953240
0.9940980 0.9978802 0.9955400
0.9956570 0.9980135 0.9956564
0.9967624 0.9981321 0.9958413
0.9974411 0.9982185 0.9959965
0.9979268 0.9982854 0.9960653
0.9906870 0.9672435 0.9970149
0.9944139 0.9693284 0.9969713
0.9971722 0.9710625 0.9968798
0.9989908 0.9724706 0.9968954
1.0000000 0.9734638 0.9968562
1.0000000 0.9743132 0.9969010
1.0000000 0.9750374 0.9968780
1.0000000 0.9756148 0.9969329
0.9904417 0.9846098 0.9967451
0.9934047 0.9855947 0.9967224
0.9955413 0.9864670 0.9967806
0.9970090 0.9871278 0.9967836
0.9979168 0.9878582 0.9968554
0.9985791 0.9882602 0.9969224
0.9991533 0.9886016 0.9969318
0.9995626 0.9889039 0.9969972
0.9911310 0.9914854 0.9969174
0.9936140 0.9920460 0.9969327
0.9954012 0.9925418 0.9970116
0.9966323 0.9929214 0.9970376
0.9974130 0.9932125 0.9971122
0.9979804 0.9934285 0.9971323
0.9984318 0.9937515 0.9972096
0.9987878 0.9939082 0.9972273
0.9916845 0.9946926 0.9971035
0.9940315 0.9950834 0.9971882
0.9956002 0.9953870 0.9972251
0.9966713 0.9956396 0.9973080
0.9973530 0.9958245 0.9973823
0.9978415 0.9959611 0.9974070
0.9982408 0.9960943 0.9974739
0.9985498 0.9961954 0.9974946
0.9921876 0.9962177 0.9973058
0.9943488 0.9964987 0.9973922
0.9957858 0.9967181 0.9974335
0.9967762 0.9969027 0.9975154
0.9974082 0.9970307 0.9975470
0.9978849 0.9971456 0.9976161
0.9982145 0.9972261 0.9976389
0.9984893 0.9973061 0.9976990
0.9926124 0.9971978 0.9974881
0.9945204 0.9973887 0.9975293
0.9959675 0.9975702 0.9976169
0.9969042 0.9977056 0.9976585
0.9974877 0.9978073 0.9977294
0.9979328 0.9978887 0.9977590
0.9982318 0.9979540 0.9978184
0.9984850 0.9980139 0.9978754
0.9927639 0.9977810 0.9975932
0.9947314 0.9979453 0.9976790
0.9960188 0.9980786 0.9977607
0.9970013 0.9981968 0.9978060
0.9975603 0.9982784 0.9978746
0.9979798 0.9983434 0.9979039
0.9982902 0.9984002 0.9979630
0.9985282 0.9984439 0.9979847
0.9929353 0.9981335 0.9977084
0.9948665 0.9982899 0.9977968
0.9961136 0.9983978 0.9978404
0.9970614 0.9984995 0.9979206
0.9976130 0.9985663 0.9979541
0.9980165 0.9986241 0.9980164
0.9983174 0.9986690 0.9980416
0.9985420 0.9987083 0.9980935
0.9958605 0.9846112 0.9983174
0.9971541 0.9853408 0.9983205
0.9979719 0.9858214 0.9982973
0.9986334 0.9862869 0.9983175
0.9991553 0.9866457 0.9983032
0.9995852 0.9869616 0.9982920
0.9998906 0.9872447 0.9983209
1.0000000 0.9874820 0.9983137
0.9956470 0.9920054 0.9982621
0.9967263 0.9923881 0.9982553
0.9973742 0.9926634 0.9982867
0.9979231 0.9928977 0.9982864
0.9983720 0.9931259 0.9983197
0.9986746 0.9932751 0.9983213
0.9989367 0.9934115 0.9983234
0.9991550 0.9935528 0.9983565
0.9958575 0.9951941 0.9983254
0.9967832 0.9954435 0.9983619
0.9974013 0.9956206 0.9983692
0.9978079 0.9957593 0.9984044
0.9981984 0.9958905 0.9984123
0.9984779 0.9960032 0.9984466
0.9986952 0.9960862 0.9984527
0.9988863 0.9961630 0.9984589
0.9960709 0.9966771 0.9984337
0.9969221 0.9968488 0.9984459
0.9974753 0.9969816 0.9984838
0.9978849 0.9970829 0.9984943
0.9981901 0.9971722 0.9985291
0.9984480 0.9972458 0.9985383
0.9986363 0.9973108 0.9985703
0.9988062 0.9973649 0.9985778
0.9962639 0.9975539 0.9985343
0.9970587 0.9976841 0.9985495
0.9975762 0.9977795 0.9985631
0.9979479 0.9978603 0.9985989
0.9982326 0.9979226 0.9986097
0.9984657 0.9979828 0.9986427
0.9986431 0.9980269 0.9986513
0.9987934 0.9980719 0.9986815
0.9964352 0.9981224 0.9986014
0.9971856 0.9982283 0.9986418
0.9976724 0.9983032 0.9986565
0.9980228 0.9983624 0.9986695
0.9982846 0.9984145 0.9987025
0.9985064 0.9984581 0.9987134
0.9986864 0.9984999 0.9987442
0.9988102 0.9985273 0.9987517
0.9965368 0.9984487 0.9986723
0.9972695 0.9985352 0.9986906
0.9977369 0.9986010 0.9987272
0.9980723 0.9986506 0.9987404
0.9983512 0.9986956 0.9987534
0.9985360 0.9987308 0.9987833
0.9987109 0.9987631 0.9987937
0.9988413 0.9987918 0.9988215
0.9966018 0.9986579 0.9987085
0.9973225 0.9987363 0.9987484
0.9977829 0.9987916 0.9987640
0.9981067 0.9988374 0.9987973
0.9983773 0.9988766 0.9988103
0.9985802 0.9989085 0.9988216
0.9987277 0.9989358 0.9988496
0.9988557 0.9989583 0.9988582
0.9974775 0.9916780 0.9989497
0.9979488 0.9919298 0.9989599
0.9983581 0.9921440 0.9989501
0.9986848 0.9923475 0.9989635
0.9989439 0.9925001 0.9989576
0.9991459 0.9926246 0.9989532
0.9993166 0.9927549 0.9989686
0.9994586 0.9929878 0.9989642
0.9974149 0.9952089 0.9989451
0.9978178 0.9953501 0.9989425
0.9981531 0.9954876 0.9989595
0.9984342 0.9955999 0.9989589
0.9986476 0.9956900 0.9989588
0.9988083 0.9957721 0.9989758
0.9989731 0.9959259 0.9989778
0.9990844 0.9959788 0.9989784
0.9975210 0.9968676 0.9989793
0.9979042 0.9969785 0.9989980
0.9981983 0.9970641 0.9990003
0.9984136 0.9971306 0.9990026
0.9985952 0.9971967 0.9990202
0.9987604 0.9972532 0.9990228
0.9988850 0.9973047 0.9990398
0.9989971 0.9973463 0.9990421
0.9976328 0.9977305 0.9990369
0.9979863 0.9978085 0.9990411
0.9982517 0.9978765 0.9990595
0.9984460 0.9979256 0.9990631
0.9986152 0.9979706 0.9990668
0.9987613 0.9980165 0.9990841
0.9988788 0.9980509 0.9990874
0.9989793 0.9980815 0.9990905
0.9977422 0.9982696 0.9990773
0.9980676 0.9983334 0.9990963
0.9983164 0.9983830 0.9991016
0.9985182 0.9984260 0.9991066
0.9986692 0.9984637 0.9991239
0.9987918 0.9985136 0.9991300
0.9989110 0.9985464 0.9991467
0.9990017 0.9985695 0.9991502
0.9978279 0.9986128 0.9991249
0.9981378 0.9986623 0.9991313
0.9983701 0.9987051 0.9991495
0.9985618 0.9987405 0.9991550
0.9987071 0.9987689 0.9991599
0.9988326 0.9987975 0.9991764
0.9989326 0.9988191 0.9991804
0.9990185 0.9988383 0.9991842
0.9978846 0.9988184 0.9991504
0.9981823 0.9988631 0.9991692
0.9984086 0.9988980 0.9991754
0.9985946 0.9989288 0.9991813
0.9987329 0.9989554 0.9991978
0.9988558 0.9989780 0.9992027
0.9989493 0.9989985 0.9992180
0.9990324 0.9990152 0.9992219
0.9979287 0.9989730 0.9991843
0.9982204 0.9990106 0.9991913
0.9984617 0.9990464 0.9992097
0.9986210 0.9990704 0.9992151
0.9987729 0.9990947 0.9992209
0.9988748 0.9991138 0.9992361
0.9989793 0.9991323 0.9992409
0.9990584 0.9991469 0.9992449
0.9981807 0.9949527 0.9992808
0.9984257 0.9950619 0.9992758
0.9986415 0.9951630 0.9992716
0.9988032 0.9952540 0.9992813
0.9989503 0.9953290 0.9992787
0.9990729 0.9954808 0.9992759
0.9991668 0.9955316 0.9992744
0.9992400 0.9955838 0.9992855
0.9981889 0.9968413 0.9992772
0.9983991 0.9969121 0.9992761
0.9985792 0.9969829 0.9992868
0.9987417 0.9970432 0.9992864
0.9988647 0.9971371 0.9992871
0.9989551 0.9971800 0.9992982
0.9990474 0.9972178 0.9992983
0.9991142 0.9972460 0.9992986
0.9982530 0.9977550 0.9992977
0.9984608 0.9978168 0.9993089
0.9986047 0.9978583 0.9993097
0.9987498 0.9979021 0.9993107
0.9988580 0.9979410 0.9993219
0.9989568 0.9979733 0.9993230
0.9990271 0.9979970 0.9993239
0.9990856 0.9980222 0.9993346
0.9983528 0.9983484 0.9993348
0.9985231 0.9983872 0.9993365
0.9986715 0.9984229 0.9993384
0.9987836 0.9984545 0.9993496
0.9988858 0.9984812 0.9993513
0.9989768 0.9985059 0.9993531
0.9990482 0.9985295 0.9993638
0.9991033 0.9985455 0.9993650
0.9984182 0.9986942 0.9993588
0.9985762 0.9987279 0.9993702
0.9987143 0.9987565 0.9993726
0.9988362 0.9987829 0.9993750
0.9989281 0.9988065 0.9993859
0.9990118 0.9988262 0.9993880
0.9990701 0.9988404 0.9993895
0.9991229 0.9988536 0.9993911
0.9984655 0.9989111 0.9993870
0.9986188 0.9989379 0.9993898
0.9987500 0.9989620 0.9993925
0.9988647 0.9989864 0.9994037
0.9989548 0.9990046 0.9994060
0.9990340 0.9990212 0.9994083
0.9990890 0.9990354 0.9994181
0.9991474 0.9990484 0.9994201
0.9984978 0.9990454 0.9994015
0.9986638 0.9990719 0.9994048
0.9987876 0.9990948 0.9994159
0.9988881 0.9991210 0.9994195
0.9989759 0.9991371 0.9994221
0.9990506 0.9991533 0.9994323
0.9991148 0.9991660 0.9994345
0.9991637 0.9991760 0.9994363
0.9985277 0.9991558 0.9994150
0.9986875 0.9991809 0.9994265
0.9988101 0.9991999 0.9994296
0.9989184 0.9992177 0.9994326
0.9990014 0.9992335 0.9994430
0.9990745 0.9992466 0.9994454
0.9991281 0.9992564 0.9994474
0.9991820 0.9992684 0.9994569
