Plugins/FilmEmulator/Content/LUTs/FE_Kodak_5381_64.cube
TITLE "FE_Kodak_5381_33"
LUT_3D_SIZE 64
0.0000000 0.1718453 0.1992958
0.0000000 0.1718453 0.1992958
0.0000000 0.1718453 0.1992958
0.0000000 0.1718453 0.1992958
0.0000000 0.1711158 0.1989741
0.0000000 0.1712198 0.1990203
0.0023010 0.1721191 0.1994168
0.0170014 0.1738472 0.2001797
0.0471530 0.1774657 0.2017825
0.0885199 0.1825970 0.2040673
0.1388125 0.1891133 0.2069888
0.1922792 0.1964008 0.2102838
0.2488112 0.2045466 0.2140022
0.3061176 0.2133117 0.2180467
0.3673015 0.2232980 0.2227112
0.4275264 0.2338392 0.2277026
0.4963837 0.2468793 0.2339762
0.5594110 0.2598852 0.2403470
0.6189814 0.2732152 0.2467207
0.6707920 0.2851024 0.2494252
0.7149394 0.2962519 0.2530512
0.7554768 0.3074342 0.2575477
0.7894510 0.3175954 0.2622418
0.8204039 0.3275660 0.2673316
0.8458360 0.3363099 0.2720525
0.8689849 0.3448649 0.2773118
0.8879814 0.3524806 0.2829113
0.9054921 0.3599765 0.2889594
0.9217213 0.3673611 0.2953240
0.9351750 0.3738592 0.3013086
0.9476669 0.3804327 0.3083402
0.9591482 0.3870711 0.3165187
0.9698234 0.3937167 0.3253253
0.9785879 0.3995185 0.3333634
0.9868598 0.4053067 0.3416608
0.9947538 0.4110421 0.3498880
1.0000000 0.4167414 0.3580893
1.0000000 0.4222813 0.3655920
1.0000000 0.4260649 0.3733540
1.0000000 0.4297878 0.3804155
1.0000000 0.4338353 0.3880024
1.0000000 0.4380327 0.3956901
1.0000000 0.4423976 0.4036934
1.0000000 0.4467631 0.4109399
1.0000000 0.4508733 0.4191585
1.0000000 0.4549090 0.4266809
1.0000000 0.4596521 0.4347761
1.0000000 0.4642262 0.4442028
1.0000000 0.4685515 0.4525147
1.0000000 0.4730337 0.4612473
1.0000000 0.4772121 0.4686619
1.0000000 0.4814229 0.4774768
1.0000000 0.4862465 0.4869400
1.0000000 0.4910004 0.4949896
1.0000000 0.4957979 0.5054139
1.0000000 0.5003469 0.5139207
1.0000000 0.5055720 0.5234284
1.0000000 0.5107179 0.5345943
1.0000000 0.5155170 0.5439715
1.0000000 0.5203626 0.5535110
1.0000000 0.5253118 0.5628932
1.0000000 0.5306408 0.5726976
1.0000000 0.5359241 0.5823320
1.0000000 0.5416100 0.5922576
0.0000000 0.1718453 0.1992958
0.0000000 0.1718453 0.1992958
0.0000000 0.1718453 0.1992958
0.0000000 0.1718453 0.1992958
0.0000000 0.1711165 0.1989746
0.0000000 0.1712307 0.1990249
0.0025110 0.1721435 0.1994275
0.0175939 0.1739177 0.2002109
0.0471530 0.1774657 0.2017825
0.0903777 0.1828321 0.2041724
0.1410108 0.1894058 0.2071204
0.1947157 0.1967424 0.2104388
0.2488112 0.2045466 0.2140022
0.3061176 0.2133117 0.2180467
0.3673015 0.2232980 0.2227112
0.4313251 0.2345300 0.2280320
0.4963837 0.2468793 0.2339762
0.5637556 0.2608241 0.2408116
0.6189514 0.2732720 0.2470281
0.6707217 0.2852311 0.2501179
0.7150230 0.2952465 0.2530552
0.7557904 0.3048461 0.2569540
0.7899790 0.3138322 0.2611896
0.8211560 0.3227558 0.2658734
0.8467827 0.3307235 0.2702841
0.8701171 0.3386455 0.2752389
0.8892807 0.3458210 0.2804208
0.9069370 0.3529474 0.2862131
0.9232781 0.3601167 0.2924335
0.9368387 0.3664524 0.2981484
0.9493566 0.3730178 0.3054909
0.9609897 0.3794962 0.3128706
0.9717340 0.3861317 0.3214598
0.9804991 0.3921211 0.3294982
0.9886364 0.3983515 0.3386570
0.9964499 0.4045438 0.3470414
1.0000000 0.4108291 0.3546729
1.0000000 0.4171250 0.3631746
1.0000000 0.4228251 0.3706868
1.0000000 0.4288910 0.3793276
1.0000000 0.4347116 0.3874147
1.0000000 0.4405374 0.3955532
1.0000000 0.4464428 0.4040576
1.0000000 0.4525927 0.4117724
1.0000000 0.4583673 0.4205223
1.0000000 0.4648018 0.4288258
1.0000000 0.4709234 0.4371952
1.0000000 0.4768550 0.4468915
1.0000000 0.4832334 0.4558377
1.0000000 0.4897168 0.4650334
1.0000000 0.4953722 0.4728963
1.0000000 0.5013938 0.4820881
1.0000000 0.5075029 0.4919171
1.0000000 0.5131975 0.5000478
1.0000000 0.5194531 0.5107744
1.0000000 0.5252478 0.5197577
1.0000000 0.5310360 0.5308532
1.0000000 0.5369658 0.5403584
1.0000000 0.5423571 0.5496980
1.0000000 0.5478064 0.5593625
1.0000000 0.5532601 0.5688399
1.0000000 0.5588217 0.5785226
1.0000000 0.5643616 0.5881778
1.0000000 0.5698597 0.5977153
0.0000000 0.1718453 0.1992958
0.0000000 0.1718453 0.1992958
0.0000000 0.1712165 0.1991271
0.0000000 0.1693274 0.1986209
0.0000000 0.1669883 0.1978701
0.0000000 0.1656827 0.1975428
0.0017601 0.1655174 0.1976544
0.0167779 0.1664493 0.1982095
0.0476564 0.1695001 0.1996682
0.0895970 0.1741413 0.2018225
0.1403284 0.1804328 0.2046779
0.1941533 0.1875457 0.2079166
0.2511839 0.1956754 0.2116241
0.3090227 0.2044748 0.2156731
0.3708287 0.2146425 0.2203860
0.4314132 0.2253946 0.2254283
0.4966500 0.2382504 0.2314858
0.5641981 0.2526351 0.2384144
0.6236153 0.2669839 0.2453631
0.6712714 0.2788557 0.2487267
0.7189555 0.2920115 0.2527462
0.7559793 0.3031598 0.2567478
0.7899088 0.3142417 0.2614480
0.8207579 0.3252413 0.2667283
0.8460569 0.3349862 0.2716652
0.8690053 0.3448504 0.2771032
0.8877593 0.3539528 0.2827287
0.9049820 0.3629373 0.2890172
0.9207565 0.3724402 0.2959680
0.9353664 0.3817759 0.3031369
0.9472474 0.3904945 0.3106338
0.9567842 0.3980939 0.3184514
0.9668871 0.4070168 0.3276953
0.9751704 0.4145651 0.3362570
0.9840240 0.4234322 0.3456842
0.9901552 0.4302641 0.3541003
0.9970219 0.4382785 0.3630422
1.0000000 0.4456062 0.3718547
1.0000000 0.4521264 0.3795646
1.0000000 0.4588196 0.3884029
1.0000000 0.4660011 0.3968575
1.0000000 0.4725170 0.4051630
1.0000000 0.4788778 0.4128674
1.0000000 0.4855193 0.4215527
1.0000000 0.4916211 0.4303852
1.0000000 0.4980416 0.4385415
1.0000000 0.5040601 0.4468644
1.0000000 0.5103498 0.4564934
1.0000000 0.5164307 0.4653235
1.0000000 0.5225062 0.4742209
1.0000000 0.5287509 0.4835643
1.0000000 0.5339148 0.4911347
1.0000000 0.5396473 0.5006571
1.0000000 0.5458602 0.5103158
1.0000000 0.5514710 0.5191257
1.0000000 0.5571787 0.5296403
1.0000000 0.5627922 0.5387800
1.0000000 0.5677658 0.5479470
1.0000000 0.5734187 0.5571594
1.0000000 0.5791465 0.5668572
1.0000000 0.5841091 0.5761327
1.0000000 0.5897915 0.5856643
1.0000000 0.5948094 0.5951087
1.0000000 0.6004586 0.6045429
0.0000000 0.1637349 0.1971279
0.0000000 0.1643190 0.1972834
0.0000000 0.1652499 0.1975316
0.0000000 0.1663324 0.1978203
0.0000000 0.1666830 0.1977884
0.0000000 0.1680428 0.1981749
0.0024966 0.1701999 0.1989105
0.0181347 0.1735170 0.2001153
0.0499581 0.1793211 0.2023401
0.0925518 0.1865724 0.2052311
0.1436758 0.1957482 0.2089119
0.1952294 0.2047984 0.2126678
0.2521136 0.2156408 0.2171766
0.3097152 0.2275195 0.2221506
0.3711214 0.2397928 0.2275371
0.4312177 0.2532996 0.2334614
0.5003718 0.2686785 0.2405496
0.5625716 0.2845474 0.2478778
0.6212395 0.2998832 0.2552673
0.6717961 0.3147228 0.2607720
0.7150353 0.3275077 0.2642139
0.7545971 0.3403167 0.2689205
0.7876253 0.3521514 0.2739415
0.8148532 0.3636336 0.2792552
0.8395878 0.3740411 0.2844979
0.8620361 0.3843266 0.2900564
0.8823806 0.3944497 0.2963140
0.8990529 0.4036485 0.3027107
0.9126971 0.4120901 0.3091986
0.9270569 0.4211927 0.3160946
0.9387778 0.4295363 0.3232256
0.9495494 0.4378330 0.3311860
0.9582859 0.4448413 0.3394319
0.9675175 0.4533651 0.3491743
0.9750183 0.4610514 0.3579872
0.9821233 0.4686742 0.3668623
0.9879411 0.4748917 0.3750201
0.9943923 0.4824913 0.3839128
0.9996064 0.4893081 0.3916704
1.0000000 0.4953151 0.3994910
1.0000000 0.5029207 0.4089743
1.0000000 0.5090261 0.4161441
1.0000000 0.5150239 0.4244798
1.0000000 0.5217996 0.4331776
1.0000000 0.5273070 0.4417106
1.0000000 0.5339097 0.4498004
1.0000000 0.5392333 0.4578676
1.0000000 0.5447266 0.4670436
1.0000000 0.5509022 0.4758889
1.0000000 0.5562185 0.4843595
1.0000000 0.5623846 0.4936510
1.0000000 0.5674195 0.5011598
1.0000000 0.5723103 0.5101992
1.0000000 0.5776551 0.5195274
1.0000000 0.5830926 0.5279807
1.0000000 0.5885777 0.5383590
1.0000000 0.5932731 0.5469229
1.0000000 0.5980327 0.5559681
1.0000000 0.6031076 0.5666369
1.0000000 0.6085886 0.5761726
1.0000000 0.6133028 0.5852754
1.0000000 0.6180065 0.5944121
1.0000000 0.6227168 0.6036632
1.0000000 0.6273718 0.6127045
0.0037042 0.2029550 0.2077763
0.0039271 0.2047157 0.2082642
0.0042619 0.2073500 0.2089959
0.0045987 0.2099752 0.2097271
0.0000000 0.2119761 0.2101600
0.0003405 0.2147982 0.2109745
0.0085847 0.2183517 0.2121341
0.0239955 0.2228169 0.2137056
0.0555186 0.2292764 0.2162016
0.0976336 0.2370722 0.2193574
0.1480734 0.2460725 0.2231271
0.2013626 0.2560000 0.2273400
0.2550468 0.2663133 0.2318015
0.3117847 0.2774501 0.2367394
0.3722392 0.2887306 0.2420165
0.4356265 0.3023154 0.2483249
0.4994717 0.3167692 0.2552165
0.5606753 0.3316262 0.2624735
0.6183915 0.3458118 0.2697315
0.6680480 0.3600121 0.2758508
0.7104779 0.3728564 0.2794428
0.7493752 0.3847184 0.2839575
0.7817292 0.3966678 0.2891750
0.8084813 0.4075958 0.2943472
0.8351553 0.4179952 0.2999073
0.8547648 0.4275383 0.3050460
0.8748158 0.4367527 0.3109813
0.8910825 0.4460934 0.3174962
0.9045762 0.4536826 0.3236548
0.9185829 0.4627380 0.3308334
0.9302214 0.4701376 0.3375511
0.9409344 0.4775193 0.3450775
0.9492931 0.4852651 0.3536275
0.9586256 0.4925556 0.3621915
0.9660976 0.4993222 0.3712806
0.9730403 0.5068491 0.3801465
0.9787576 0.5128407 0.3882253
0.9853911 0.5192116 0.3959553
0.9906301 0.5251267 0.4040815
0.9966785 0.5314485 0.4121501
1.0000000 0.5380003 0.4201918
1.0000000 0.5437139 0.4282217
1.0000000 0.5488782 0.4359995
1.0000000 0.5545415 0.4442907
1.0000000 0.5597045 0.4525729
1.0000000 0.5651539 0.4602511
1.0000000 0.5701431 0.4680461
1.0000000 0.5752959 0.4769709
1.0000000 0.5803111 0.4853340
1.0000000 0.5852757 0.4936078
1.0000000 0.5903023 0.5023752
1.0000000 0.5952741 0.5110775
1.0000000 0.5995798 0.5184923
1.0000000 0.6045718 0.5276586
1.0000000 0.6088915 0.5354317
1.0000000 0.6140346 0.5456436
1.0000000 0.6183907 0.5538273
1.0000000 0.6232228 0.5645475
1.0000000 0.6276433 0.5732414
1.0000000 0.6325040 0.5824997
1.0000000 0.6362553 0.5912333
1.0000000 0.6406119 0.6000842
1.0000000 0.6446207 0.6089512
1.0000000 0.6489725 0.6178563
0.0109448 0.2561396 0.2229173
0.0112916 0.2585000 0.2236091
0.0116402 0.2608523 0.2243003
0.0119899 0.2631974 0.2249915
0.0064822 0.2661672 0.2257426
0.0081108 0.2687245 0.2265266
0.0164512 0.2719730 0.2276598
0.0320820 0.2771628 0.2295312
0.0637898 0.2829394 0.2319526
0.1041024 0.2910263 0.2353080
0.1537067 0.2991398 0.2389691
0.2062104 0.3090470 0.2433552
0.2616549 0.3184901 0.2478067
0.3177890 0.3285007 0.2526054
0.3742707 0.3401922 0.2581257
0.4365470 0.3521666 0.2641569
0.4992881 0.3649793 0.2707645
0.5635568 0.3801284 0.2785700
0.6161004 0.3928254 0.2853893
0.6648367 0.4054819 0.2920654
0.7065732 0.4167396 0.2951938
0.7446692 0.4290209 0.2997947
0.7765368 0.4393770 0.3045799
0.8054736 0.4495205 0.3098072
0.8291177 0.4586073 0.3148034
0.8506271 0.4674402 0.3200001
0.8682368 0.4754099 0.3252653
0.8844213 0.4832611 0.3311611
0.8993774 0.4910083 0.3375456
0.9115120 0.4989220 0.3441437
0.9230115 0.5057999 0.3504412
0.9335947 0.5126742 0.3576743
0.9420704 0.5190375 0.3655755
0.9512392 0.5259446 0.3744516
0.9587213 0.5321611 0.3825984
0.9658087 0.5383490 0.3909807
0.9727653 0.5436455 0.3989615
0.9781773 0.5492111 0.4068672
0.9833839 0.5547609 0.4148557
0.9893892 0.5606885 0.4227183
0.9941691 0.5660653 0.4302447
0.9986864 0.5714557 0.4381515
1.0000000 0.5762714 0.4457116
1.0000000 0.5815492 0.4538496
1.0000000 0.5860968 0.4619339
1.0000000 0.5907189 0.4691350
1.0000000 0.5953578 0.4766541
1.0000000 0.6001735 0.4854236
1.0000000 0.6048765 0.4935144
1.0000000 0.6088469 0.5013870
1.0000000 0.6135511 0.5098754
1.0000000 0.6182288 0.5184435
1.0000000 0.6215739 0.5253345
1.0000000 0.6262795 0.5343664
1.0000000 0.6307973 0.5434706
1.0000000 0.6355743 0.5519752
1.0000000 0.6391226 0.5597609
1.0000000 0.6438726 0.5702556
1.0000000 0.6486470 0.5791697
1.0000000 0.6522996 0.5876966
1.0000000 0.6568487 0.5966734
1.0000000 0.6605829 0.6051872
1.0000000 0.6648223 0.6140528
1.0000000 0.6693830 0.6229951
0.0194736 0.3101304 0.2392017
0.0196863 0.3113804 0.2395906
0.0201129 0.3138741 0.2403681
0.0205384 0.3163484 0.2411415
0.0150355 0.3182116 0.2415981
0.0169427 0.3207934 0.2424409
0.0252334 0.3239889 0.2436180
0.0407664 0.3278928 0.2451840
0.0714451 0.3333321 0.2475942
0.1127390 0.3399499 0.2506701
0.1618973 0.3475935 0.2543400
0.2113795 0.3555227 0.2582076
0.2659634 0.3643631 0.2626289
0.3212119 0.3736732 0.2673726
0.3801429 0.3839721 0.2727420
0.4380367 0.3946860 0.2784348
0.4997773 0.4066722 0.2849740
0.5630286 0.4197829 0.2923154
0.6147405 0.4316594 0.2990499
0.6626737 0.4435594 0.3059294
0.7069619 0.4548901 0.3096759
0.7413592 0.4637318 0.3130580
0.7727510 0.4734665 0.3175573
0.8012437 0.4830262 0.3226599
0.8245283 0.4915808 0.3275433
0.8457221 0.4998341 0.3326083
0.8630922 0.5072618 0.3376346
0.8790514 0.5146047 0.3434018
0.8939561 0.5210125 0.3492757
0.9061354 0.5275472 0.3551320
0.9174838 0.5340401 0.3614310
0.9279424 0.5405269 0.3685570
0.9377904 0.5462048 0.3762221
0.9456778 0.5520804 0.3837957
0.9530324 0.5580364 0.3924209
0.9600623 0.5638735 0.4006748
0.9669280 0.5689679 0.4085686
0.9722481 0.5744805 0.4164316
0.9784312 0.5803481 0.4240590
0.9834809 0.5849288 0.4318135
0.9881724 0.5902582 0.4393312
0.9926155 0.5955817 0.4471422
0.9970521 0.6000507 0.4546419
1.0000000 0.6051297 0.4625368
1.0000000 0.6095207 0.4695299
1.0000000 0.6145742 0.4778185
1.0000000 0.6194519 0.4853008
1.0000000 0.6235855 0.4937663
1.0000000 0.6284705 0.5017852
1.0000000 0.6325146 0.5096575
1.0000000 0.6375260 0.5181165
1.0000000 0.6415735 0.5264057
1.0000000 0.6463225 0.5338256
1.0000000 0.6499956 0.5422751
1.0000000 0.6549587 0.5513923
1.0000000 0.6584949 0.5592583
1.0000000 0.6632158 0.5689074
1.0000000 0.6668370 0.5772418
1.0000000 0.6717126 0.5861681
1.0000000 0.6752962 0.5944695
1.0000000 0.6798054 0.6033948
1.0000000 0.6833829 0.6117980
1.0000000 0.6878375 0.6206828
1.0000000 0.6910633 0.6289895
0.0274714 0.3544765 0.2533479
0.0274714 0.3544765 0.2533479
0.0279206 0.3568196 0.2541162
0.0283716 0.3591542 0.2548839
0.0230255 0.3609446 0.2553465
0.0248202 0.3622503 0.2558121
0.0331566 0.3652765 0.2569884
0.0487573 0.3688956 0.2585311
0.0795015 0.3729007 0.2605693
0.1207363 0.3791074 0.2636299
0.1674957 0.3860482 0.2671450
0.2185138 0.3926455 0.2707487
0.2700169 0.4006446 0.2749556
0.3245319 0.4094136 0.2796562
0.3826682 0.4190922 0.2849666
0.4397147 0.4281493 0.2902291
0.5048631 0.4401252 0.2971190
0.5630244 0.4518191 0.3039594
0.6178159 0.4638649 0.3111275
0.6648157 0.4743207 0.3176389
0.7049530 0.4847088 0.3214540
0.7387701 0.4942834 0.3251609
0.7697842 0.5027152 0.3292225
0.7978472 0.5120424 0.3343162
0.8207632 0.5204748 0.3392321
0.8417255 0.5277748 0.3439876
0.8587726 0.5354260 0.3490770
0.8746052 0.5418561 0.3543791
0.8890700 0.5493110 0.3606553
0.9009576 0.5561131 0.3668753
0.9122702 0.5617005 0.3725758
0.9224958 0.5684198 0.3796241
0.9321699 0.5740741 0.3870034
0.9397795 0.5803687 0.3952004
0.9471436 0.5855577 0.4034871
0.9539545 0.5917239 0.4118657
0.9606826 0.5967492 0.4197271
0.9658712 0.6023203 0.4276114
0.9721363 0.6072060 0.4348323
0.9768354 0.6127948 0.4429481
0.9816335 0.6171973 0.4500782
0.9859440 0.6226357 0.4578785
0.9902986 0.6269941 0.4652737
0.9933543 0.6319550 0.4730946
0.9974085 0.6361470 0.4799060
1.0000000 0.6400799 0.4877005
1.0000000 0.6447859 0.4949880
1.0000000 0.6487266 0.5033323
1.0000000 0.6534305 0.5111386
1.0000000 0.6572143 0.5188709
1.0000000 0.6609830 0.5266612
1.0000000 0.6656770 0.5351906
1.0000000 0.6694400 0.5433340
1.0000000 0.6734507 0.5506022
1.0000000 0.6771641 0.5590088
1.0000000 0.6804225 0.5666394
1.0000000 0.6847146 0.5760744
1.0000000 0.6883437 0.5842776
1.0000000 0.6916492 0.5924308
1.0000000 0.6960024 0.6025328
1.0000000 0.6993138 0.6109195
1.0000000 0.7025795 0.6191245
1.0000000 0.7058715 0.6274949
1.0000000 0.7095486 0.6358923
0.0347678 0.3908195 0.2655172
0.0347678 0.3908195 0.2655172
0.0353127 0.3934003 0.2664024
0.0352964 0.3946610 0.2668294
0.0304534 0.3967521 0.2674292
0.0323833 0.3981765 0.2679579
0.0408604 0.4014821 0.2692816
0.0564156 0.4042886 0.2706060
0.0878202 0.4099683 0.2733142
0.1271765 0.4150620 0.2760592
0.1754836 0.4225833 0.2799520
0.2238432 0.4289573 0.2835375
0.2772528 0.4361708 0.2876765
0.3313028 0.4451625 0.2926216
0.3858126 0.4548161 0.2979993
0.4459662 0.4643009 0.3037297
0.5062473 0.4758592 0.3105262
0.5634867 0.4863209 0.3170957
0.6174206 0.4983495 0.3244700
0.6636461 0.5083941 0.3310022
0.7030341 0.5187669 0.3358108
0.7392434 0.5276144 0.3391948
0.7693654 0.5370474 0.3437420
0.7943813 0.5444345 0.3479342
0.8168612 0.5528288 0.3529497
0.8374423 0.5597820 0.3576532
0.8543527 0.5659876 0.3621150
0.8697422 0.5732787 0.3677308
0.8841383 0.5792950 0.3733690
0.8958210 0.5858514 0.3795553
0.9069165 0.5911984 0.3854027
0.9169961 0.5975666 0.3922305
0.9265392 0.6028392 0.3993248
0.9342813 0.6076770 0.4067944
0.9413993 0.6134983 0.4147872
0.9483764 0.6181890 0.4224256
0.9550340 0.6228511 0.4301276
0.9602053 0.6279874 0.4378448
0.9663497 0.6325840 0.4455428
0.9713545 0.6366249 0.4522050
0.9758384 0.6416985 0.4603432
0.9803902 0.6457319 0.4674514
0.9847287 0.6497514 0.4746892
0.9878477 0.6542002 0.4822133
0.9919003 0.6580319 0.4888334
0.9948945 0.6616226 0.4963888
0.9976496 0.6658714 0.5033559
1.0000000 0.6698775 0.5118461
1.0000000 0.6733243 0.5189587
1.0000000 0.6764430 0.5262280
1.0000000 0.6806959 0.5340862
1.0000000 0.6842220 0.5420877
1.0000000 0.6877064 0.5499483
1.0000000 0.6907060 0.5567666
1.0000000 0.6949931 0.5653946
1.0000000 0.6980264 0.5726573
1.0000000 0.7013171 0.5816324
1.0000000 0.7047151 0.5895051
1.0000000 0.7081093 0.5992091
1.0000000 0.7119898 0.6073949
1.0000000 0.7151957 0.6157058
1.0000000 0.7183658 0.6238397
1.0000000 0.7215375 0.6320101
1.0000000 0.7247250 0.6402889
0.0436629 0.4308591 0.2795898
0.0436629 0.4308591 0.2795898
0.0443934 0.4339669 0.2807130
0.0441913 0.4354777 0.2812477
0.0395571 0.4366194 0.2815472
0.0422059 0.4398723 0.2827764
0.0503460 0.4420507 0.2837529
0.0659804 0.4448514 0.2851386
0.0976645 0.4505228 0.2879775
0.1369234 0.4554420 0.2907791
0.1845590 0.4612679 0.2942017
0.2326566 0.4673716 0.2978316
0.2830344 0.4753606 0.3023478
0.3360608 0.4825673 0.3067870
0.3927993 0.4906237 0.3118445
0.4488972 0.5004310 0.3177764
0.5081230 0.5099275 0.3239696
0.5684435 0.5215591 0.3314062
0.6175185 0.5308728 0.3377029
0.6629879 0.5402246 0.3441307
0.7017056 0.5498821 0.3493594
0.7373013 0.5580914 0.3527465
0.7670557 0.5656089 0.3563248
0.7915891 0.5735341 0.3608087
0.8159773 0.5807152 0.3655720
0.8341235 0.5865843 0.3696670
0.8525888 0.5928090 0.3743677
0.8676717 0.5993953 0.3796040
0.8801998 0.6044804 0.3847914
0.8933836 0.6099543 0.3904831
0.9040905 0.6158316 0.3965792
0.9129220 0.6202312 0.4020964
0.9223891 0.6250838 0.4087365
0.9300646 0.6295680 0.4159919
0.9370992 0.6350220 0.4242982
0.9440063 0.6394442 0.4317647
0.9505955 0.6438457 0.4393440
0.9568951 0.6482057 0.4468695
0.9618199 0.6530297 0.4544935
0.9667804 0.6568421 0.4610310
0.9714465 0.6607635 0.4685855
0.9759696 0.6645712 0.4755164
0.9802602 0.6684420 0.4826807
0.9833416 0.6728219 0.4901074
0.9873396 0.6765417 0.4966769
0.9903107 0.6800156 0.5040668
0.9939479 0.6837137 0.5109282
0.9965855 0.6872168 0.5188936
0.9992071 0.6905581 0.5258598
1.0000000 0.6947787 0.5337175
1.0000000 0.6978236 0.5408255
1.0000000 0.7012746 0.5486853
1.0000000 0.7046956 0.5564922
1.0000000 0.7076352 0.5631313
1.0000000 0.7110768 0.5713593
1.0000000 0.7142575 0.5798316
1.0000000 0.7181036 0.5876089
1.0000000 0.7213943 0.5952039
1.0000000 0.7247092 0.6048207
1.0000000 0.7277517 0.6126224
1.0000000 0.7308567 0.6207184
1.0000000 0.7339485 0.6287860
1.0000000 0.7370198 0.6367645
1.0000000 0.7401237 0.6449737
0.0527852 0.4679340 0.2933081
0.0527852 0.4679340 0.2933081
0.0534880 0.4706416 0.2943380
0.0529966 0.4719250 0.2948076
0.0487403 0.4729145 0.2950768
0.0510765 0.4744101 0.2956959
0.0594877 0.4763722 0.2966399
0.0753613 0.4801400 0.2984573
0.1067982 0.4839018 0.3006811
0.1458803 0.4883916 0.3034220
0.1911854 0.4935762 0.3066621
0.2409996 0.4993970 0.3103656
0.2907168 0.5054872 0.3142815
0.3433261 0.5133685 0.3191356
0.3964639 0.5205121 0.3238751
0.4516447 0.5283722 0.3291731
0.5140737 0.5378126 0.3356777
0.5695097 0.5470217 0.3421041
0.6179616 0.5569561 0.3488199
0.6627956 0.5657879 0.3551739
0.7009517 0.5739306 0.3606351
0.7360768 0.5816655 0.3636168
0.7653471 0.5898349 0.3676749
0.7919279 0.5968211 0.3718506
0.8136845 0.6031560 0.3760716
0.8315737 0.6088135 0.3801011
0.8497726 0.6148176 0.3847323
0.8647782 0.6202276 0.3894125
0.8769953 0.6261665 0.3949129
0.8899756 0.6314651 0.4006686
0.9007028 0.6362084 0.4060279
0.9106618 0.6409189 0.4119906
0.9187469 0.6451755 0.4180533
0.9263104 0.6495662 0.4252753
0.9343606 0.6553363 0.4332609
0.9400432 0.6593350 0.4408792
0.9465324 0.6636405 0.4484177
0.9527358 0.6679026 0.4558957
0.9578383 0.6716793 0.4623680
0.9626621 0.6755104 0.4695401
0.9673296 0.6792578 0.4762718
0.9717239 0.6830757 0.4838054
0.9757318 0.6877973 0.4913917
0.9798396 0.6914358 0.4977724
0.9829286 0.6948112 0.5047925
0.9858696 0.6981897 0.5120288
0.9894529 0.7017913 0.5188415
0.9920717 0.7051871 0.5266109
0.9946580 0.7084459 0.5335225
0.9970812 0.7117236 0.5407957
0.9987817 0.7146611 0.5478278
1.0000000 0.7179415 0.5554614
1.0000000 0.7212576 0.5631950
1.0000000 0.7242769 0.5709196
1.0000000 0.7274297 0.5777876
1.0000000 0.7304765 0.5859244
1.0000000 0.7336930 0.5935180
1.0000000 0.7367945 0.6022123
1.0000000 0.7397677 0.6100961
1.0000000 0.7427086 0.6178232
1.0000000 0.7464935 0.6260616
1.0000000 0.7495048 0.6340594
1.0000000 0.7525125 0.6418998
1.0000000 0.7555537 0.6500078
0.0608115 0.4977684 0.3048800
0.0608115 0.4977684 0.3048800
0.0611703 0.4990470 0.3053873
0.0602803 0.5002307 0.3058276
0.0565444 0.5012031 0.3061158
0.0589662 0.5026243 0.3067321
0.0678263 0.5059441 0.3082573
0.0837128 0.5084479 0.3096448
0.1140479 0.5120693 0.3118615
0.1543185 0.5165611 0.3147290
0.1995128 0.5216157 0.3180248
0.2466817 0.5270496 0.3216178
0.2957925 0.5329118 0.3255492
0.3475626 0.5393400 0.3299288
0.4000507 0.5462123 0.3346756
0.4582802 0.5542694 0.3403409
0.5161783 0.5629205 0.3465157
0.5708865 0.5718050 0.3529543
0.6221946 0.5808767 0.3596381
0.6629177 0.5900726 0.3661191
0.7034845 0.5985533 0.3725559
0.7351064 0.6054628 0.3750240
0.7640049 0.6123548 0.3785455
0.7901981 0.6191236 0.3826709
0.8116380 0.6252160 0.3868264
0.8311564 0.6311848 0.3912504
0.8471827 0.6365151 0.3954248
0.8619615 0.6417569 0.4000366
0.8756510 0.6469438 0.4052032
0.8867868 0.6527302 0.4109958
0.8973309 0.6573555 0.4165111
0.9071709 0.6618685 0.4219476
0.9151290 0.6660075 0.4279844
0.9237154 0.6705643 0.4351990
0.9307045 0.6748003 0.4426451
0.9373804 0.6789645 0.4498557
0.9427682 0.6827580 0.4569850
0.9488858 0.6868775 0.4643970
0.9538653 0.6906087 0.4714202
0.9586233 0.6943167 0.4785285
0.9632308 0.6979361 0.4851370
0.9676343 0.7015342 0.4918385
0.9718224 0.7051321 0.4988055
0.9758234 0.7087007 0.5057947
0.9788697 0.7120057 0.5127684
0.9817711 0.7153348 0.5198780
0.9852922 0.7188840 0.5266651
0.9878814 0.7222175 0.5342656
0.9904236 0.7254349 0.5411448
0.9928189 0.7286501 0.5482507
0.9950908 0.7318641 0.5555348
0.9966484 0.7347674 0.5627003
0.9986793 0.7379797 0.5703584
1.0000000 0.7408921 0.5778708
1.0000000 0.7439861 0.5846962
1.0000000 0.7470186 0.5925590
1.0000000 0.7502402 0.6001332
1.0000000 0.7533365 0.6087124
1.0000000 0.7562994 0.6164249
1.0000000 0.7592465 0.6241202
1.0000000 0.7624124 0.6334517
1.0000000 0.7653651 0.6413528
1.0000000 0.7682825 0.6490838
1.0000000 0.7712283 0.6570740
0.0691266 0.5263335 0.3164492
0.0691266 0.5263335 0.3164492
0.0695551 0.5277469 0.3170349
0.0684758 0.5290511 0.3175392
0.0651555 0.5301979 0.3179235
0.0678954 0.5317818 0.3186407
0.0763068 0.5337986 0.3196818
0.0925443 0.5363631 0.3211553
0.1230714 0.5399743 0.3234532
0.1616081 0.5442630 0.3262913
0.2082790 0.5493339 0.3297527
0.2551849 0.5546327 0.3334085
0.3039420 0.5603327 0.3373990
0.3554686 0.5665842 0.3418492
0.4073336 0.5732232 0.3466392
0.4616702 0.5805507 0.3520201
0.5187580 0.5888058 0.3581811
0.5726836 0.5972814 0.3646008
0.6232415 0.6059338 0.3712608
0.6665426 0.6140904 0.3776116
0.7033252 0.6216806 0.3835840
0.7344356 0.6283840 0.3866749
0.7629111 0.6349699 0.3899131
0.7887043 0.6414608 0.3939652
0.8098158 0.6472943 0.3980508
0.8290351 0.6529755 0.4023965
0.8448070 0.6581385 0.4065484
0.8593500 0.6632456 0.4110597
0.8728226 0.6682910 0.4160782
0.8839350 0.6728798 0.4212187
