Plugins/FilmEmulator/Content/LUTs/FE_Kodak_Polymax_Grade_5_64.cube
TITLE "FE_Kodak_Polymax_Grade_5_33"
LUT_3D_SIZE 4
0.0022376 0.0022376 0.0022376
0.0022376 0.0022376 0.0022376
0.0022376 0.0022376 0.0022376
0.0022376 0.0022376 0.0022376
0.0023997 0.0023997 0.0023997
0.0026325 0.0026325 0.0026325
0.0032088 0.0032088 0.0032088
0.0042536 0.0042536 0.0042536
0.0360673 0.0360673 0.0360673
0.0626363 0.0626363 0.0626363
0.1033527 0.1033527 0.1033527
0.1756449 0.1756449 0.1756449
0.6709848 0.6709848 0.6709848
0.7580869 0.7580869 0.7580869
0.8271546 0.8271546 0.8271546
0.8736241 0.8736241 0.8736241
0.9171803 0.9171803 0.9171803
0.9381253 0.9381253 0.9381253
0.9520193 0.9520193 0.9520193
0.9624787 0.9624787 0.9624787
0.9800004 0.9800004 0.9800004
0.9813285 0.9813285 0.9813285
0.9822708 0.9822708 0.9822708
0.9829270 0.9829270 0.9829270
0.9845631 0.9845631 0.9845631
0.9847944 0.9847944 0.9847944
0.9850134 0.9850134 0.9850134
0.9852061 0.9852061 0.9852061
0.9858074 0.9858074 0.9858074
0.9859347 0.9859347 0.9859347
0.9860392 0.9860392 0.9860392
0.9861380 0.9861380 0.9861380
0.9862713 0.9862713 0.9862713
0.9863411 0.9863411 0.9863411
0.9864257 0.9864257 0.9864257
0.9864953 0.9864953 0.9864953
0.9866791 0.9866791 0.9866791
0.9867162 0.9867162 0.9867162
0.9867441 0.9867441 0.9867441
0.9867698 0.9867698 0.9867698
0.9868601 0.9868601 0.9868601
0.9868777 0.9868777 0.9868777
0.9868954 0.9868954 0.9868954
0.9869069 0.9869069 0.9869069
0.9869524 0.9869524 0.9869524
0.9869598 0.9869598 0.9869598
0.9869691 0.9869691 0.9869691
0.9869759 0.9869759 0.9869759
0.9869872 0.9869872 0.9869872
0.9869937 0.9869937 0.9869937
0.9870003 0.9870003 0.9870003
0.9870068 0.9870068 0.9870068
0.9870341 0.9870341 0.9870341
0.9870402 0.9870402 0.9870402
0.9870463 0.9870463 0.9870463
0.9870523 0.9870523 0.9870523
0.9870736 0.9870736 0.9870736
0.9870792 0.9870792 0.9870792
0.9870848 0.9870848 0.9870848
0.9870885 0.9870885 0.9870885
0.9871081 0.9871081 0.9871081
0.9871132 0.9871132 0.9871132
0.9871166 0.9871166 0.9871166
0.9871217 0.9871217 0.9871217
