Plugins/FilmEmulator/Content/LUTs/FE_Kodak_Portra_Endura_64.cube
TITLE "FE_Kodak_Portra_Endura_33"
LUT_3D_SIZE 64
0.0013672 0.0089930 0.0172631
0.0018684 0.0090710 0.0172734
0.0077934 0.0099932 0.0173973
0.0146875 0.0110711 0.0175433
0.0362847 0.0144816 0.0180106
0.0752785 0.0207694 0.0188968
0.1217254 0.0284911 0.0200286
0.1735732 0.0374280 0.0213979
0.2363553 0.0487373 0.0232218
0.3055708 0.0618902 0.0254701
0.3768764 0.0762882 0.0280908
0.4471824 0.0914931 0.0310825
0.5146028 0.1072088 0.0344387
0.5739697 0.1220980 0.0378507
0.6370910 0.1391464 0.0419984
0.6990523 0.1572953 0.0466778
0.7561811 0.1755149 0.0516535
0.8049376 0.1924376 0.0565366
0.8495870 0.2092825 0.0616588
0.8917016 0.2265832 0.0671850
0.9265132 0.2421451 0.0723958
0.9545816 0.2556940 0.0771230
0.9840077 0.2710425 0.0826939
1.0000000 0.2844617 0.0877532
1.0000000 0.2959372 0.0922318
1.0000000 0.3091792 0.0975658
1.0000000 0.3204931 0.1022711
1.0000000 0.3316223 0.1070399
1.0000000 0.3408049 0.1110756
1.0000000 0.3517442 0.1160136
1.0000000 0.3608038 0.1202018
1.0000000 0.3697678 0.1244490
1.0000000 0.3786255 0.1287358
1.0000000 0.3873147 0.1330437
1.0000000 0.3958208 0.1373512
1.0000000 0.4025146 0.1408112
1.0000000 0.4107392 0.1451436
1.0000000 0.4172058 0.1486137
1.0000000 0.4235680 0.1520893
1.0000000 0.4298252 0.1555584
1.0000000 0.4359228 0.1591772
1.0000000 0.4417341 0.1627486
1.0000000 0.4474530 0.1664010
1.0000000 0.4527425 0.1700550
1.0000000 0.4567077 0.1732624
1.0000000 0.4618199 0.1772834
1.0000000 0.4654368 0.1804312
1.0000000 0.4689725 0.1835434
1.0000000 0.4736509 0.1877792
1.0000000 0.4768552 0.1909958
1.0000000 0.4798805 0.1941133
1.0000000 0.4828810 0.1972200
1.0000000 0.4861979 0.2005011
1.0000000 0.4891919 0.2035943
1.0000000 0.4921631 0.2066761
1.0000000 0.4953391 0.2098407
1.0000000 0.4986062 0.2130117
1.0000000 0.5018010 0.2161425
1.0000000 0.5039173 0.2182233
1.0000000 0.5073419 0.2214555
1.0000000 0.5107021 0.2246311
1.0000000 0.5129274 0.2267414
1.0000000 0.5162439 0.2298968
1.0000000 0.5186529 0.2324737
0.0013614 0.0125470 0.0174649
0.0029994 0.0124794 0.0174809
0.0093814 0.0131530 0.0175970
0.0166945 0.0140636 0.0177392
0.0425200 0.0179181 0.0182898
0.0839749 0.0243565 0.0192297
0.1309684 0.0319604 0.0203789
0.1838860 0.0409018 0.0217868
0.2466709 0.0520802 0.0236317
0.3180885 0.0655682 0.0259869
0.3908601 0.0802140 0.0287270
0.4565440 0.0943643 0.0316120
0.5243935 0.1100117 0.0350212
0.5845681 0.1249117 0.0385104
0.6483903 0.1423142 0.0427730
0.7049425 0.1591017 0.0471579
0.7618433 0.1774097 0.0521872
0.8152937 0.1962210 0.0576644
0.8545136 0.2112314 0.0622682
0.8960825 0.2284780 0.0678094
0.9306384 0.2440735 0.0730561
0.9584278 0.2576286 0.0778121
0.9875525 0.2729815 0.0834145
1.0000000 0.2863535 0.0884827
1.0000000 0.2978474 0.0929894
1.0000000 0.3110151 0.0982720
1.0000000 0.3223526 0.1030569
1.0000000 0.3334017 0.1077644
1.0000000 0.3426191 0.1118835
1.0000000 0.3535714 0.1168509
1.0000000 0.3625949 0.1210420
1.0000000 0.3715543 0.1253062
1.0000000 0.3803748 0.1295933
1.0000000 0.3890302 0.1339054
1.0000000 0.3958208 0.1373512
1.0000000 0.4041733 0.1416782
1.0000000 0.4107392 0.1451436
1.0000000 0.4188080 0.1494840
1.0000000 0.4251418 0.1529571
1.0000000 0.4313737 0.1564251
1.0000000 0.4373841 0.1600708
1.0000000 0.4430863 0.1634715
1.0000000 0.4474530 0.1664010
1.0000000 0.4528211 0.1703551
1.0000000 0.4579940 0.1742297
1.0000000 0.4618199 0.1772834
1.0000000 0.4665473 0.1810575
1.0000000 0.4701433 0.1845785
1.0000000 0.4736509 0.1877792
1.0000000 0.4768552 0.1909958
1.0000000 0.4807959 0.1946444
1.0000000 0.4839869 0.1983143
1.0000000 0.4871985 0.2015336
1.0000000 0.4901847 0.2046227
1.0000000 0.4928995 0.2071126
1.0000000 0.4953391 0.2098407
1.0000000 0.4986062 0.2130117
1.0000000 0.5018010 0.2161425
1.0000000 0.5049715 0.2192618
1.0000000 0.5073419 0.2214555
1.0000000 0.5107021 0.2246311
1.0000000 0.5134999 0.2270925
1.0000000 0.5162439 0.2298968
1.0000000 0.5191984 0.2328115
0.0013546 0.0241047 0.0181324
0.0045216 0.0243118 0.0181829
0.0111369 0.0250521 0.0183074
0.0216125 0.0262541 0.0185089
0.0509597 0.0305854 0.0191462
0.0956873 0.0375220 0.0201868
0.1432802 0.0450479 0.0213742
0.1976755 0.0542135 0.0228639
0.2648463 0.0661845 0.0249199
0.3352212 0.0795038 0.0274089
0.4084642 0.0941926 0.0303956
0.4747384 0.1085234 0.0335157
0.5385101 0.1232944 0.0369297
0.5990539 0.1382294 0.0406233
0.6583164 0.1540872 0.0447203
0.7210567 0.1722237 0.0496322
0.7717971 0.1882541 0.0542988
0.8242710 0.2062194 0.0597022
0.8631130 0.2206125 0.0643726
0.9040336 0.2371826 0.0698647
0.9338126 0.2500995 0.0743962
0.9651904 0.2648258 0.0797596
0.9904068 0.2775705 0.0845898
1.0000000 0.2902086 0.0895528
1.0000000 0.3011076 0.0940236
1.0000000 0.3118276 0.0985006
1.0000000 0.3224896 0.1031412
1.0000000 0.3334739 0.1078465
1.0000000 0.3444295 0.1126956
1.0000000 0.3535714 0.1168509
1.0000000 0.3643823 0.1218861
1.0000000 0.3733334 0.1261638
1.0000000 0.3821224 0.1304568
1.0000000 0.3890302 0.1339054
1.0000000 0.3975009 0.1382122
1.0000000 0.4057395 0.1424422
1.0000000 0.4123640 0.1460094
1.0000000 0.4188080 0.1494840
1.0000000 0.4251418 0.1529571
1.0000000 0.4313737 0.1564251
1.0000000 0.4373841 0.1600708
1.0000000 0.4431733 0.1636404
1.0000000 0.4488630 0.1674240
1.0000000 0.4528211 0.1703551
1.0000000 0.4579940 0.1742297
1.0000000 0.4629882 0.1779372
1.0000000 0.4666192 0.1814697
1.0000000 0.4701433 0.1845785
1.0000000 0.4748243 0.1889113
1.0000000 0.4778665 0.1920362
1.0000000 0.4808835 0.1951500
1.0000000 0.4839869 0.1983143
1.0000000 0.4871985 0.2015336
1.0000000 0.4901847 0.2046227
1.0000000 0.4931487 0.2077009
1.0000000 0.4964625 0.2109179
1.0000000 0.4992592 0.2134029
1.0000000 0.5018010 0.2161425
1.0000000 0.5049715 0.2192618
1.0000000 0.5084649 0.2225155
1.0000000 0.5107021 0.2246311
1.0000000 0.5140358 0.2277945
1.0000000 0.5162439 0.2298968
1.0000000 0.5198551 0.2337961
0.0014174 0.0473795 0.0195894
0.0062296 0.0461119 0.0195265
0.0129988 0.0461399 0.0196000
0.0288773 0.0465736 0.0198232
0.0623215 0.0497896 0.0204680
0.1069766 0.0562111 0.0215125
0.1558412 0.0628644 0.0227166
0.2119004 0.0718389 0.0243488
0.2788293 0.0825814 0.0265228
0.3526520 0.0961453 0.0293075
0.4213108 0.1089163 0.0322142
0.4885153 0.1230634 0.0355200
0.5521653 0.1372517 0.0390469
0.6129975 0.1523382 0.0429314
0.6732237 0.1680970 0.0472391
0.7308430 0.1848570 0.0519460
0.7865461 0.2021700 0.0571851
0.8326166 0.2180734 0.0621845
0.8710097 0.2321054 0.0669129
0.9112194 0.2485681 0.0724698
0.9401491 0.2614455 0.0770750
0.9707768 0.2760587 0.0824695
0.9954468 0.2887527 0.0873905
1.0000000 0.2995687 0.0917692
1.0000000 0.3121734 0.0969077
1.0000000 0.3228531 0.1014574
1.0000000 0.3333881 0.1060700
1.0000000 0.3438963 0.1107866
1.0000000 0.3524151 0.1147981
1.0000000 0.3627227 0.1196027
1.0000000 0.3711220 0.1237642
1.0000000 0.3794641 0.1279077
1.0000000 0.3876364 0.1320678
1.0000000 0.3940890 0.1354647
1.0000000 0.4019510 0.1396288
1.0000000 0.4081042 0.1430337
1.0000000 0.4156704 0.1471984
1.0000000 0.4215734 0.1506105
1.0000000 0.4273685 0.1539169
1.0000000 0.4330804 0.1573774
1.0000000 0.4388397 0.1609638
1.0000000 0.4446067 0.1645315
1.0000000 0.4488630 0.1674240
1.0000000 0.4541210 0.1713250
1.0000000 0.4591982 0.1748983
1.0000000 0.4630604 0.1783510
1.0000000 0.4666192 0.1814697
1.0000000 0.4713105 0.1856127
1.0000000 0.4748243 0.1889113
1.0000000 0.4778665 0.1920362
1.0000000 0.4808835 0.1951500
1.0000000 0.4839869 0.1983143
1.0000000 0.4871985 0.2015336
1.0000000 0.4901847 0.2046227
1.0000000 0.4931487 0.2077009
1.0000000 0.4964625 0.2109179
1.0000000 0.4996738 0.2140566
1.0000000 0.5028607 0.2171836
1.0000000 0.5049715 0.2192618
1.0000000 0.5084649 0.2225155
1.0000000 0.5118161 0.2256869
1.0000000 0.5140358 0.2277945
1.0000000 0.5174288 0.2311383
1.0000000 0.5198551 0.2337961
0.0025946 0.1100126 0.0245390
0.0084727 0.1092556 0.0244211
0.0150873 0.1070590 0.0241928
0.0362005 0.1085401 0.0244663
0.0745724 0.1126507 0.0251862
0.1184623 0.1177937 0.0261172
0.1690216 0.1227126 0.0272474
0.2267165 0.1307554 0.0290893
0.2973177 0.1416126 0.0315976
0.3671368 0.1531805 0.0344274
0.4364759 0.1656349 0.0376005
0.5030375 0.1785151 0.0410783
0.5612881 0.1905261 0.0445068
0.6231236 0.2044387 0.0486045
0.6841964 0.2194400 0.0531722
0.7409845 0.2346582 0.0580618
0.7899837 0.2475739 0.0627633
0.8348771 0.2617409 0.0677435
0.8770332 0.2762668 0.0731418
0.9119620 0.2893520 0.0781898
0.9402725 0.3006514 0.0827333
0.9664747 0.3118902 0.0874752
0.9911352 0.3221527 0.0921986
1.0000000 0.3333599 0.0972364
1.0000000 0.3428054 0.1016408
1.0000000 0.3539180 0.1068603
1.0000000 0.3614466 0.1106240
1.0000000 0.3698058 0.1151718
1.0000000 0.3790205 0.1198169
1.0000000 0.3865849 0.1238995
1.0000000 0.3932534 0.1278319
1.0000000 0.4006631 0.1319138
1.0000000 0.4079220 0.1360077
1.0000000 0.4134681 0.1393353
1.0000000 0.4197145 0.1433236
1.0000000 0.4251164 0.1465768
1.0000000 0.4320132 0.1506995
1.0000000 0.4367240 0.1540272
1.0000000 0.4419426 0.1574612
1.0000000 0.4470812 0.1608887
1.0000000 0.4513274 0.1643353
1.0000000 0.4547731 0.1672949
1.0000000 0.4588602 0.1708493
1.0000000 0.4633028 0.1743346
1.0000000 0.4665154 0.1774188
1.0000000 0.4703715 0.1811233
1.0000000 0.4733132 0.1841481
1.0000000 0.4758276 0.1872006
1.0000000 0.4796540 0.1910367
1.0000000 0.4816728 0.1940011
1.0000000 0.4841902 0.1970347
1.0000000 0.4865012 0.1996495
1.0000000 0.4886463 0.2026349
1.0000000 0.4911753 0.2056501
1.0000000 0.4941884 0.2087480
1.0000000 0.4971191 0.2113100
1.0000000 0.4996738 0.2140566
1.0000000 0.5028607 0.2171836
1.0000000 0.5061584 0.2203595
1.0000000 0.5084649 0.2225155
1.0000000 0.5118161 0.2256869
1.0000000 0.5146066 0.2281451
1.0000000 0.5174288 0.2311383
1.0000000 0.5203902 0.2341275
0.0053105 0.1840708 0.0314934
0.0115687 0.1819732 0.0312156
0.0192157 0.1800581 0.0309464
0.0449934 0.1806059 0.0311807
0.0862855 0.1834107 0.0318607
0.1290456 0.1869771 0.0326924
0.1805035 0.1922704 0.0338522
0.2415933 0.1994717 0.0354958
0.3111107 0.2086840 0.0379559
0.3819807 0.2189609 0.0409843
0.4505487 0.2297418 0.0442775
0.5121777 0.2400839 0.0476370
0.5709289 0.2507359 0.0511999
0.6330604 0.2654756 0.0557090
0.6884063 0.2774790 0.0600595
0.7441452 0.2908638 0.0650479
0.7915378 0.3033198 0.0698821
0.8350789 0.3161654 0.0749661
0.8759375 0.3293489 0.0803953
0.9059597 0.3395309 0.0848539
0.9374745 0.3512871 0.0901393
0.9628332 0.3613158 0.0948510
0.9864632 0.3713863 0.0997221
1.0000000 0.3827860 0.1049103
1.0000000 0.3911178 0.1093228
1.0000000 0.3994603 0.1137662
1.0000000 0.4076704 0.1183437
1.0000000 0.4157978 0.1228962
1.0000000 0.4225343 0.1268280
1.0000000 0.4292482 0.1309011
1.0000000 0.4358863 0.1349310
1.0000000 0.4424569 0.1389092
1.0000000 0.4488941 0.1429744
1.0000000 0.4551961 0.1470493
1.0000000 0.4599536 0.1503558
1.0000000 0.4646353 0.1535630
1.0000000 0.4706388 0.1578797
1.0000000 0.4751520 0.1612574
1.0000000 0.4796174 0.1646308
1.0000000 0.4839937 0.1686153
1.0000000 0.4881189 0.1722386
1.0000000 0.4909590 0.1751294
1.0000000 0.4948561 0.1789259
1.0000000 0.4985110 0.1826720
1.0000000 0.5010136 0.1857376
1.0000000 0.5044424 0.1894665
1.0000000 0.5058420 0.1925470
1.0000000 0.5081148 0.1957624
1.0000000 0.5102420 0.1983915
1.0000000 0.5129523 0.2019700
1.0000000 0.5147894 0.2050930
1.0000000 0.5164938 0.2075924
1.0000000 0.5178804 0.2104292
1.0000000 0.5185394 0.2123291
1.0000000 0.5199193 0.2152793
1.0000000 0.5203882 0.2174421
1.0000000 0.5215526 0.2202464
1.0000000 0.5227612 0.2225069
1.0000000 0.5233479 0.2244117
1.0000000 0.5244659 0.2272493
1.0000000 0.5249368 0.2290728
1.0000000 0.5252604 0.2311249
1.0000000 0.5257490 0.2333874
1.0000000 0.5267915 0.2369323
0.0099972 0.2723799 0.0408789
0.0163030 0.2698640 0.0405399
0.0274279 0.2711972 0.0405936
0.0571263 0.2716472 0.0409071
0.0979345 0.2736582 0.0415307
0.1438053 0.2765445 0.0424492
0.1964630 0.2806443 0.0436431
0.2580541 0.2864434 0.0453273
0.3253679 0.2967772 0.0478079
0.3955098 0.3052562 0.0505201
0.4590399 0.3134702 0.0537544
0.5202341 0.3221049 0.0572300
0.5781087 0.3339292 0.0612803
0.6350539 0.3435463 0.0653462
0.6953636 0.3551229 0.0702773
0.7494799 0.3665550 0.0753663
0.7944036 0.3794501 0.0805792
0.8319374 0.3884880 0.0851504
0.8715200 0.3992485 0.0905174
0.8999628 0.4096660 0.0953152
0.9304543 0.4191392 0.1005000
0.9550823 0.4271122 0.1051718
0.9778621 0.4350594 0.1098807
0.9957712 0.4439310 0.1144778
1.0000000 0.4518846 0.1194426
1.0000000 0.4583532 0.1238561
1.0000000 0.4633434 0.1275294
1.0000000 0.4696936 0.1319681
1.0000000 0.4768050 0.1360962
1.0000000 0.4831121 0.1406933
1.0000000 0.4882534 0.1446232
1.0000000 0.4919434 0.1478030
1.0000000 0.4987136 0.1519516
1.0000000 0.5035629 0.1558914
1.0000000 0.5070266 0.1591497
1.0000000 0.5117208 0.1633283
1.0000000 0.5150605 0.1665719
1.0000000 0.5200745 0.1704563
1.0000000 0.5233125 0.1743664
1.0000000 0.5263821 0.1779065
1.0000000 0.5293087 0.1816417
1.0000000 0.5310690 0.1847201
1.0000000 0.5339181 0.1884094
1.0000000 0.5380967 0.1923781
1.0000000 0.5398347 0.1951257
1.0000000 0.5414356 0.1982667
1.0000000 0.5439265 0.2019930
1.0000000 0.5454575 0.2051927
1.0000000 0.5466939 0.2077404
1.0000000 0.5478101 0.2107434
1.0000000 0.5502476 0.2139746
1.0000000 0.5512363 0.2164075
1.0000000 0.5519351 0.2192431
1.0000000 0.5526062 0.2214833
1.0000000 0.5533909 0.2237383
1.0000000 0.5542854 0.2265509
1.0000000 0.5551114 0.2287842
1.0000000 0.5553573 0.2306230
1.0000000 0.5562018 0.2334587
1.0000000 0.5578148 0.2357392
1.0000000 0.5579708 0.2379367
1.0000000 0.5586467 0.2405653
1.0000000 0.5588042 0.2428371
1.0000000 0.5594463 0.2462717
0.0162767 0.3558859 0.0513632
0.0226596 0.3565643 0.0513129
0.0388908 0.3545349 0.0511118
0.0706037 0.3542604 0.0513847
0.1132205 0.3591433 0.0524744
0.1582261 0.3607430 0.0532944
0.2117452 0.3636794 0.0545383
0.2753175 0.3685156 0.0563702
0.3451196 0.3783835 0.0591843
0.4100180 0.3850160 0.0617373
0.4733039 0.3921614 0.0645368
0.5284768 0.4018349 0.0680597
0.5858249 0.4095356 0.0719630
0.6426096 0.4180626 0.0762716
0.6966674 0.4300901 0.0814011
0.7492459 0.4398592 0.0865477
0.7924218 0.4513294 0.0919034
0.8331448 0.4601619 0.0970591
0.8670352 0.4679149 0.1018916
0.8941742 0.4771501 0.1066974
0.9234662 0.4850218 0.1118935
0.9472132 0.4915969 0.1164854
0.9655316 0.4994273 0.1210023
0.9862297 0.5060459 0.1258509
1.0000000 0.5116460 0.1302155
1.0000000 0.5193654 0.1349221
1.0000000 0.5248714 0.1393317
1.0000000 0.5311480 0.1434038
1.0000000 0.5366297 0.1478767
1.0000000 0.5407723 0.1516986
1.0000000 0.5469786 0.1559644
1.0000000 0.5510296 0.1597525
1.0000000 0.5538085 0.1630366
1.0000000 0.5597024 0.1673702
1.0000000 0.5623667 0.1707019
1.0000000 0.5661281 0.1749973
1.0000000 0.5706381 0.1789297
1.0000000 0.5731455 0.1824680
1.0000000 0.5756174 0.1861504
1.0000000 0.5798098 0.1902868
1.0000000 0.5820547 0.1940066
1.0000000 0.5832895 0.1969960
1.0000000 0.5852597 0.2008051
1.0000000 0.5880583 0.2042750
1.0000000 0.5899353 0.2080231
1.0000000 0.5907351 0.2105497
1.0000000 0.5941514 0.2146807
1.0000000 0.5949436 0.2178178
1.0000000 0.5953586 0.2201383
1.0000000 0.5975358 0.2234049
1.0000000 0.5979396 0.2257947
1.0000000 0.5981610 0.2286091
1.0000000 0.5982027 0.2307188
1.0000000 0.5999982 0.2337878
1.0000000 0.6000536 0.2359524
1.0000000 0.6000303 0.2380130
1.0000000 0.5994867 0.2396802
1.0000000 0.6010993 0.2426626
1.0000000 0.6010386 0.2451101
1.0000000 0.6004189 0.2472187
1.0000000 0.6002659 0.2496691
1.0000000 0.6012607 0.2520866
1.0000000 0.6010902 0.2545095
1.0000000 0.6004792 0.2580702
0.0244883 0.4380977 0.0633986
0.0309461 0.4387069 0.0634155
0.0517061 0.4367729 0.0632418
0.0876250 0.4363946 0.0635740
0.1292974 0.4406740 0.0647784
0.1748986 0.4416488 0.0655953
0.2324480 0.4481258 0.0676188
0.2957762 0.4518471 0.0694914
0.3611041 0.4564037 0.0717564
0.4255194 0.4652910 0.0748975
0.4830340 0.4703339 0.0775118
0.5372276 0.4755228 0.0803002
0.5945274 0.4853991 0.0844211
0.6513517 0.4926777 0.0889762
0.7038525 0.5034413 0.0942944
0.7493147 0.5103008 0.0989517
0.7906953 0.5203815 0.1044319
0.8300335 0.5275908 0.1095400
0.8621631 0.5368910 0.1149349
0.8887491 0.5420129 0.1192902
0.9166830 0.5482960 0.1243509
0.9358233 0.5552889 0.1288633
0.9571347 0.5604806 0.1335196
0.9735645 0.5673941 0.1381340
0.9920263 0.5726011 0.1430072
1.0000000 0.5793717 0.1477647
1.0000000 0.5822476 0.1512933
1.0000000 0.5889110 0.1561670
1.0000000 0.5919593 0.1597654
1.0000000 0.5950516 0.1634893
1.0000000 0.6005245 0.1679437
1.0000000 0.6035335 0.1717938
1.0000000 0.6087967 0.1761302
1.0000000 0.6106384 0.1796912
1.0000000 0.6147360 0.1836330
1.0000000 0.6174976 0.1878323
1.0000000 0.6192153 0.1914001
1.0000000 0.6231411 0.1956413
1.0000000 0.6247869 0.1993694
1.0000000 0.6284392 0.2034411
1.0000000 0.6298569 0.2072924
1.0000000 0.6325070 0.2108697
1.0000000 0.6336249 0.2140095
1.0000000 0.6339276 0.2169974
1.0000000 0.6371193 0.2212228
1.0000000 0.6373385 0.2236980
1.0000000 0.6396119 0.2271701
1.0000000 0.6406367 0.2307863
1.0000000 0.6406957 0.2330950
1.0000000 0.6426053 0.2358210
1.0000000 0.6426686 0.2386850
1.0000000 0.6442803 0.2411579
1.0000000 0.6440275 0.2438519
1.0000000 0.6437560 0.2459338
1.0000000 0.6447939 0.2479845
1.0000000 0.6443688 0.2499285
1.0000000 0.6439703 0.2528994
1.0000000 0.6453915 0.2557662
1.0000000 0.6444784 0.2577899
1.0000000 0.6457711 0.2605342
1.0000000 0.6448171 0.2625100
1.0000000 0.6442865 0.2651977
1.0000000 0.6451662 0.2681153
1.0000000 0.6448161 0.2709692
0.0347060 0.5173891 0.0769489
0.0423335 0.5136046 0.0762796
0.0673110 0.5157113 0.0768814
0.1050996 0.5145868 0.0772329
0.1451645 0.5138094 0.0776457
0.1940966 0.5184736 0.0792972
0.2517991 0.5202533 0.0807972
0.3128276 0.5268066 0.0832823
0.3783692 0.5305710 0.0857384
0.4372278 0.5378784 0.0887783
0.4983759 0.5423563 0.0917732
0.5523349 0.5501765 0.0953333
0.6049447 0.5547811 0.0986404
0.6558349 0.5598483 0.1022292
0.7067211 0.5693327 0.1075734
0.7544762 0.5790775 0.1134468
0.7899992 0.5835011 0.1177224
0.8271496 0.5924925 0.1234750
0.8586293 0.5973814 0.1283076
0.8834968 0.6044841 0.1332154
0.9070715 0.6083561 0.1376225
0.9283950 0.6154270 0.1427773
0.9488603 0.6194001 0.1473714
0.9644425 0.6253956 0.1520236
0.9798039 0.6283810 0.1560851
0.9932181 0.6342912 0.1607779
1.0000000 0.6373270 0.1649679
1.0000000 0.6421918 0.1691279
1.0000000 0.6445166 0.1727669
1.0000000 0.6493161 0.1772454
1.0000000 0.6515993 0.1809973
1.0000000 0.6562672 0.1855553
1.0000000 0.6584307 0.1899553
1.0000000 0.6620415 0.1938837
1.0000000 0.6641048 0.1981272
1.0000000 0.6676110 0.2023726
1.0000000 0.6687196 0.2060013
1.0000000 0.6721256 0.2102058
1.0000000 0.6731434 0.2140563
1.0000000 0.6763119 0.2178967
1.0000000 0.6763920 0.2208953
1.0000000 0.6794176 0.2251427
1.0000000 0.6800313 0.2288200
1.0000000 0.6821641 0.2318708
1.0000000 0.6826532 0.2354271
1.0000000 0.6846288 0.2383527
1.0000000 0.6843817 0.2413270
1.0000000 0.6841832 0.2436771
1.0000000 0.6864178 0.2474697
1.0000000 0.6860281 0.2496280
1.0000000 0.6876233 0.2523285
1.0000000 0.6869672 0.2548794
1.0000000 0.6883385 0.2573586
1.0000000 0.6872193 0.2588717
1.0000000 0.6885299 0.2614534
1.0000000 0.6877531 0.2646163
1.0000000 0.6889913 0.2674494
1.0000000 0.6877953 0.2693673
1.0000000 0.6889582 0.2721131
1.0000000 0.6876976 0.2743173
1.0000000 0.6868016 0.2770407
1.0000000 0.6879404 0.2802690
1.0000000 0.6866518 0.2826009
1.0000000 0.6873930 0.2854317
0.0461754 0.5863687 0.0909833
0.0575162 0.5871795 0.0911530
0.0851026 0.5851233 0.0910935
0.1232667 0.5880171 0.0922339
0.1657196 0.5873259 0.0928315
0.2128317 0.5912484 0.0945190
0.2729344 0.5925504 0.0961560
0.3362319 0.5985631 0.0990269
0.3961240 0.6007534 0.1011623
0.4545251 0.6072081 0.1044796
0.5102807 0.6100060 0.1072142
0.5632933 0.6168687 0.1110193
0.6155018 0.6204232 0.1143219
0.6654452 0.6280869 0.1189110
0.7147471 0.6326768 0.1232159
0.7556544 0.6402211 0.1281740
0.7940279 0.6443294 0.1330189
0.8254744 0.6512396 0.1382695
0.8554302 0.6548243 0.1429113
0.8791836 0.6609688 0.1478918
0.9010617 0.6670483 0.1529612
0.9219146 0.6700362 0.1573589
0.9381773 0.6752748 0.1619939
0.9563407 0.6783251 0.1666157
0.9701155 0.6834601 0.1713812
0.9816011 0.6847882 0.1745756
0.9935011 0.6898255 0.1795375
1.0000000 0.6911769 0.1830177
1.0000000 0.6961731 0.1882206
1.0000000 0.7002993 0.1927699
1.0000000 0.7016008 0.1967093
1.0000000 0.7048005 0.2006358
1.0000000 0.7060159 0.2045797
1.0000000 0.7091231 0.2088193
1.0000000 0.7102679 0.2130347
1.0000000 0.7132851 0.2172397
1.0000000 0.7136148 0.2208409
1.0000000 0.7165539 0.2252871
1.0000000 0.7193798 0.2296445
1.0000000 0.7195225 0.2331939
1.0000000 0.7215511 0.2363930
1.0000000 0.7215458 0.2399281
1.0000000 0.7240151 0.2436129
1.0000000 0.7235177 0.2464696
1.0000000 0.7252696 0.2500280
1.0000000 0.7253171 0.2529371
1.0000000 0.7270133 0.2558843
1.0000000 0.7263350 0.2585455
1.0000000 0.7277795 0.2612876
1.0000000 0.7270114 0.2633656
1.0000000 0.7283983 0.2666169
1.0000000 0.7295836 0.2690703
1.0000000 0.7285776 0.2710356
1.0000000 0.7297633 0.2739804
1.0000000 0.7286824 0.2769991
1.0000000 0.7297502 0.2797955
1.0000000 0.7282828 0.2815605
1.0000000 0.7293544 0.2847003
1.0000000 0.7281474 0.2872676
1.0000000 0.7288114 0.2901191
1.0000000 0.7276024 0.2926657
1.0000000 0.7282671 0.2954947
1.0000000 0.7270187 0.2981782
1.0000000 0.7276607 0.3013512
0.0592433 0.6498809 0.1063145
0.0750873 0.6508487 0.1065121
0.1059464 0.6486425 0.1063165
0.1426685 0.6510451 0.1074756
0.1860480 0.6498929 0.1080366
0.2366316 0.6535667 0.1100872
0.2921374 0.6537822 0.1115025
0.3559760 0.6591189 0.1145782
0.4151118 0.6606743 0.1168520
0.4726222 0.6663290 0.1203446
0.5228093 0.6716475 0.1237403
0.5748348 0.6740494 0.1267831
0.6263834 0.6805149 0.1312261
0.6757776 0.6838131 0.1351346
0.7183957 0.6902384 0.1398791
0.7578493 0.6933212 0.1437920
0.7942698 0.6998966 0.1489866
0.8249289 0.7025809 0.1533225
0.8494554 0.7078152 0.1581827
0.8753798 0.7137855 0.1638606
0.8968934 0.7158862 0.1680668
0.9161224 0.7210760 0.1732917
0.9322321 0.7225038 0.1769314
0.9465176 0.7269430 0.1816411
0.9597141 0.7313161 0.1863610
0.9727601 0.7327338 0.1904949
0.9821895 0.7363040 0.1946599
0.9937416 0.7377529 0.1991351
1.0000000 0.7413007 0.2037838
1.0000000 0.7448264 0.2084786
1.0000000 0.7455044 0.2122847
1.0000000 0.7482324 0.2165105
1.0000000 0.7489225 0.2206043
1.0000000 0.7515734 0.2247970
1.0000000 0.7548230 0.2299184
1.0000000 0.7549351 0.2335297
1.0000000 0.7574599 0.2379367
1.0000000 0.7575334 0.2410436
1.0000000 0.7599158 0.2454781
1.0000000 0.7622325 0.2498772
1.0000000 0.7615808 0.2522235
1.0000000 0.7637145 0.2564227
1.0000000 0.7629353 0.2586852
1.0000000 0.7650133 0.2629297
1.0000000 0.7664694 0.2658569
1.0000000 0.7660735 0.2691287
1.0000000 0.7675100 0.2721042
1.0000000 0.7664238 0.2740205
1.0000000 0.7676514 0.2772980
1.0000000 0.7665607 0.2791989
1.0000000 0.7676654 0.2819045
1.0000000 0.7686743 0.2848187
1.0000000 0.7673829 0.2869385
1.0000000 0.7683780 0.2898178
1.0000000 0.7669922 0.2926084
1.0000000 0.7676040 0.2953348
1.0000000 0.7662127 0.2978308
1.0000000 0.7670977 0.3010526
1.0000000 0.7676554 0.3038548
1.0000000 0.7663373 0.3062690
1.0000000 0.7668981 0.3092466
1.0000000 0.7655724 0.3120230
1.0000000 0.7660983 0.3138995
1.0000000 0.7647390 0.3166186
0.0736397 0.7058462 0.1235569
0.0934523 0.7031203 0.1229518
0.1269828 0.7049234 0.1235676
0.1633378 0.7032212 0.1233624
0.2076010 0.7058413 0.1248939
0.2587808 0.7090458 0.1267681
0.3167285 0.7092719 0.1282822
0.3765727 0.7136368 0.1313896
0.4347662 0.7146515 0.1335850
0.4869022 0.7191546 0.1367992
0.5361807 0.7237468 0.1401969
0.5884639 0.7255731 0.1433794
0.6348473 0.7307313 0.1476021
0.6824294 0.7331241 0.1515544
0.7274572 0.7391911 0.1568847
0.7646425 0.7413733 0.1607742
0.7957423 0.7464131 0.1654535
0.8246619 0.7514911 0.1703420
0.8485268 0.7529653 0.1738080
0.8730651 0.7580297 0.1794790
0.8935710 0.7595956 0.1836562
0.9093754 0.7634049 0.1882126
0.9264609 0.7678158 0.1935285
0.9407287 0.7688015 0.1974904
0.9532273 0.7725241 0.2023162
0.9629576 0.7755983 0.2065452
0.9745609 0.7765523 0.2111222
0.9830520 0.7796049 0.2157365
0.9909436 0.7826037 0.2203903
0.9991610 0.7829728 0.2243888
