Plugins/FilmEmulator/Content/LUTs/FE_Kodak_2302_Dev7_64.cube
TITLE "FE_Kodak_2302_Dev7_33"
LUT_3D_SIZE 8
0.0019167 0.0019167 0.0019167
0.0022275 0.0022275 0.0022275
0.0033270 0.0033270 0.0033270
0.0055705 0.0055705 0.0055705
0.0095742 0.0095742 0.0095742
0.0160426 0.0160426 0.0160426
0.0273375 0.0273375 0.0273375
0.0441604 0.0441604 0.0441604
0.0020931 0.0020931 0.0020931
0.0029161 0.0029161 0.0029161
0.0048027 0.0048027 0.0048027
0.0081139 0.0081139 0.0081139
0.0137845 0.0137845 0.0137845
0.0235696 0.0235696 0.0235696
0.0387024 0.0387024 0.0387024
0.0622310 0.0622310 0.0622310
0.0025583 0.0025583 0.0025583
0.0040915 0.0040915 0.0040915
0.0069476 0.0069476 0.0069476
0.0119457 0.0119457 0.0119457
0.0198441 0.0198441 0.0198441
0.0329560 0.0329560 0.0329560
0.0540808 0.0540808 0.0540808
0.0858788 0.0858788 0.0858788
0.0035622 0.0035622 0.0035622
0.0059296 0.0059296 0.0059296
0.0102183 0.0102183 0.0102183
0.0173530 0.0173530 0.0173530
0.0290984 0.0290984 0.0290984
0.0471577 0.0471577 0.0471577
0.0741994 0.0741994 0.0741994
0.1146896 0.1146896 0.1146896
0.0051567 0.0051567 0.0051567
0.0087990 0.0087990 0.0087990
0.0148297 0.0148297 0.0148297
0.0249571 0.0249571 0.0249571
0.0413453 0.0413453 0.0413453
0.0644410 0.0644410 0.0644410
0.1028060 0.1028060 0.1028060
0.1472516 0.1472516 0.1472516
0.0074817 0.0074817 0.0074817
0.0128326 0.0128326 0.0128326
0.0216286 0.0216286 0.0216286
0.0350657 0.0350657 0.0350657
0.0580217 0.0580217 0.0580217
0.0890487 0.0890487 0.0890487
0.1324478 0.1324478 0.1324478
0.1884596 0.1884596 0.1884596
0.0109052 0.0109052 0.0109052
0.0182845 0.0182845 0.0182845
0.0309691 0.0309691 0.0309691
0.0503932 0.0503932 0.0503932
0.0798443 0.0798443 0.0798443
0.1189246 0.1189246 0.1189246
0.1697465 0.1697465 0.1697465
0.2390697 0.2390697 0.2390697
0.0160426 0.0160426 0.0160426
0.0264964 0.0264964 0.0264964
0.0441604 0.0441604 0.0441604
0.0690818 0.0690818 0.0690818
0.1066126 0.1066126 0.1066126
0.1581124 0.1581124 0.1581124
0.2158157 0.2158157 0.2158157
0.2905076 0.2905076 0.2905076
0.0362221 0.0362221 0.0362221
0.0580217 0.0580217 0.0580217
0.0923237 0.0923237 0.0923237
0.1372368 0.1372368 0.1372368
0.1950393 0.1950393 0.1950393
0.2639861 0.2639861 0.2639861
0.3387706 0.3387706 0.3387706
0.4236224 0.4236224 0.4236224
0.0503932 0.0503932 0.0503932
0.0798443 0.0798443 0.0798443
0.1232943 0.1232943 0.1232943
0.1758144 0.1758144 0.1758144
0.2390697 0.2390697 0.2390697
0.3188783 0.3188783 0.3188783
0.4017173 0.4017173 0.4017173
0.4796024 0.4796024 0.4796024
0.0715166 0.0715166 0.0715166
0.1105866 0.1105866 0.1105866
0.1581124 0.1581124 0.1581124
0.2233804 0.2233804 0.2233804
0.2905076 0.2905076 0.2905076
0.3696905 0.3696905 0.3696905
0.4570687 0.4570687 0.4570687
0.5359561 0.5359561 0.5359561
0.0957065 0.0957065 0.0957065
0.1421707 0.1421707 0.1421707
0.2017914 0.2017914 0.2017914
0.2726521 0.2726521 0.2726521
0.3489405 0.3489405 0.3489405
0.4347092 0.4347092 0.4347092
0.5135306 0.5135306 0.5135306
0.5800077 0.5800077 0.5800077
0.1278011 0.1278011 0.1278011
0.1820517 0.1820517 0.1820517
0.2471926 0.2471926 0.2471926
0.3287475 0.3287475 0.3287475
0.4126122 0.4126122 0.4126122
0.4909064 0.4909064 0.4909064
0.5580961 0.5580961 0.5580961
0.6332581 0.6332581 0.6332581
0.1638463 0.1638463 0.1638463
0.2311320 0.2311320 0.2311320
0.2996898 0.2996898 0.2996898
0.3802541 0.3802541 0.3802541
0.4683194 0.4683194 0.4683194
0.5470493 0.5470493 0.5470493
0.6122676 0.6122676 0.6122676
0.6729619 0.6729619 0.6729619
0.2087169 0.2087169 0.2087169
0.2814937 0.2814937 0.2814937
0.3592498 0.3592498 0.3592498
0.4458614 0.4458614 0.4458614
0.5248272 0.5248272 0.5248272
0.5908518 0.5908518 0.5908518
0.6534109 0.6534109 0.6534109
0.7102716 0.7102716 0.7102716
0.2639861 0.2639861 0.2639861
0.3387706 0.3387706 0.3387706
0.4236224 0.4236224 0.4236224
0.5022196 0.5022196 0.5022196
0.5690857 0.5690857 0.5690857
0.6434326 0.6434326 0.6434326
0.6919299 0.6919299 0.6919299
0.7448617 0.7448617 0.7448617
0.3909330 0.3909330 0.3909330
0.4683194 0.4683194 0.4683194
0.5470493 0.5470493 0.5470493
0.6122676 0.6122676 0.6122676
0.6729619 0.6729619 0.6729619
0.7279504 0.7279504 0.7279504
0.7688470 0.7688470 0.7688470
0.8052098 0.8052098 0.8052098
0.4458614 0.4458614 0.4458614
0.5248272 0.5248272 0.5248272
0.5908518 0.5908518 0.5908518
0.6632562 0.6632562 0.6632562
0.7102716 0.7102716 0.7102716
0.7610309 0.7610309 0.7610309
0.7983006 0.7983006 0.7983006
0.8310038 0.8310038 0.8310038
0.5022196 0.5022196 0.5022196
0.5800077 0.5800077 0.5800077
0.6434326 0.6434326 0.6434326
0.7011815 0.7011815 0.7011815
0.7448617 0.7448617 0.7448617
0.7912098 0.7912098 0.7912098
0.8248255 0.8248255 0.8248255
0.8484975 0.8484975 0.8484975
0.5580961 0.5580961 0.5580961
0.6228204 0.6228204 0.6228204
0.6825216 0.6825216 0.6825216
0.7365122 0.7365122 0.7365122
0.7764828 0.7764828 0.7764828
0.8119382 0.8119382 0.8119382
0.8428378 0.8428378 0.8428378
0.8644757 0.8644757 0.8644757
0.6016084 0.6016084 0.6016084
0.6632562 0.6632562 0.6632562
0.7191957 0.7191957 0.7191957
0.7688470 0.7688470 0.7688470
0.8052098 0.8052098 0.8052098
0.8370072 0.8370072 0.8370072
0.8593140 0.8593140 0.8593140
0.8836311 0.8836311 0.8836311
0.6534109 0.6534109 0.6534109
0.7011815 0.7011815 0.7011815
0.7530352 0.7530352 0.7530352
0.7912098 0.7912098 0.7912098
0.8248255 0.8248255 0.8248255
0.8539888 0.8539888 0.8539888
0.8743428 0.8743428 0.8743428
0.8964431 0.8964431 0.8964431
0.6919299 0.6919299 0.6919299
0.7365122 0.7365122 0.7365122
0.7839372 0.7839372 0.7839372
0.8184707 0.8184707 0.8184707
0.8484975 0.8484975 0.8484975
0.8694769 0.8694769 0.8694769
0.8880478 0.8880478 0.8880478
0.9079913 0.9079913 0.9079913
0.7279504 0.7279504 0.7279504
0.7688470 0.7688470 0.7688470
0.8052098 0.8052098 0.8052098
0.8370072 0.8370072 0.8370072
0.8644757 0.8644757 0.8644757
0.8836311 0.8836311 0.8836311
0.9004283 0.9004283 0.9004283
0.9184063 0.9184063 0.9184063
0.7912098 0.7912098 0.7912098
0.8248255 0.8248255 0.8248255
0.8539888 0.8539888 0.8539888
0.8790638 0.8790638 0.8790638
0.8964431 0.8964431 0.8964431
0.9115760 0.9115760 0.9115760
0.9247701 0.9247701 0.9247701
0.9361484 0.9361484 0.9361484
0.8184707 0.8184707 0.8184707
0.8484975 0.8484975 0.8484975
0.8694769 0.8694769 0.8694769
0.8923174 0.8923174 0.8923174
0.9079913 0.9079913 0.9079913
0.9216473 0.9216473 0.9216473
0.9334639 0.9334639 0.9334639
0.9412170 0.9412170 0.9412170
0.8370072 0.8370072 0.8370072
0.8644757 0.8644757 0.8644757
0.8836311 0.8836311 0.8836311
0.9042765 0.9042765 0.9042765
0.9184063 0.9184063 0.9184063
0.9306750 0.9306750 0.9306750
0.9387316 0.9387316 0.9387316
0.9479661 0.9479661 0.9479661
0.8593140 0.8593140 0.8593140
0.8790638 0.8790638 0.8790638
0.8964431 0.8964431 0.8964431
0.9150438 0.9150438 0.9150438
0.9247701 0.9247701 0.9247701
0.9361484 0.9361484 0.9361484
0.9458281 0.9458281 0.9458281
0.9520050 0.9520050 0.9520050
0.8743428 0.8743428 0.8743428
0.8923174 0.8923174 0.8923174
0.9079913 0.9079913 0.9079913
0.9216473 0.9216473 0.9216473
0.9334639 0.9334639 0.9334639
0.9436075 0.9436075 0.9436075
0.9500242 0.9500242 0.9500242
0.9575093 0.9575093 0.9575093
0.8880478 0.8880478 0.8880478
0.9042765 0.9042765 0.9042765
0.9184063 0.9184063 0.9184063
0.9306750 0.9306750 0.9306750
0.9412170 0.9412170 0.9412170
0.9479661 0.9479661 0.9479661
0.9557450 0.9557450 0.9557450
0.9608381 0.9608381 0.9608381
0.9004283 0.9004283 0.9004283
0.9150438 0.9150438 0.9150438
0.9277781 0.9277781 0.9277781
0.9387316 0.9387316 0.9387316
0.9458281 0.9458281 0.9458281
0.9539111 0.9539111 0.9539111
0.9592062 0.9592062 0.9592062
0.9652235 0.9652235 0.9652235
0.9115760 0.9115760 0.9115760
0.9247701 0.9247701 0.9247701
0.9361484 0.9361484 0.9361484
0.9436075 0.9436075 0.9436075
0.9520050 0.9520050 0.9520050
0.9575093 0.9575093 0.9575093
0.9638566 0.9638566 0.9638566
0.9678093 0.9678093 0.9678093
0.9306750 0.9306750 0.9306750
0.9412170 0.9412170 0.9412170
0.9500242 0.9500242 0.9500242
0.9557450 0.9557450 0.9557450
0.9608381 0.9608381 0.9608381
0.9665405 0.9665405 0.9665405
0.9702088 0.9702088 0.9702088
0.9734861 0.9734861 0.9734861
0.9387316 0.9387316 0.9387316
0.9479661 0.9479661 0.9479661
0.9539111 0.9539111 0.9539111
0.9592062 0.9592062 0.9592062
0.9652235 0.9652235 0.9652235
0.9690315 0.9690315 0.9690315
0.9724346 0.9724346 0.9724346
0.9754593 0.9754593 0.9754593
0.9458281 0.9458281 0.9458281
0.9520050 0.9520050 0.9520050
0.9592062 0.9592062 0.9592062
0.9638566 0.9638566 0.9638566
0.9678093 0.9678093 0.9678093
0.9713427 0.9713427 0.9713427
0.9744985 0.9744985 0.9744985
0.9772246 0.9772246 0.9772246
0.9500242 0.9500242 0.9500242
0.9575093 0.9575093 0.9575093
0.9624072 0.9624072 0.9624072
0.9665405 0.9665405 0.9665405
0.9702088 0.9702088 0.9702088
0.9734861 0.9734861 0.9734861
0.9763581 0.9763581 0.9763581
0.9788659 0.9788659 0.9788659
0.9557450 0.9557450 0.9557450
0.9608381 0.9608381 0.9608381
0.9652235 0.9652235 0.9652235
0.9690315 0.9690315 0.9690315
0.9724346 0.9724346 0.9724346
0.9754593 0.9754593 0.9754593
0.9780602 0.9780602 0.9780602
0.9803912 0.9803912 0.9803912
0.9592062 0.9592062 0.9592062
0.9638566 0.9638566 0.9638566
0.9678093 0.9678093 0.9678093
0.9724346 0.9724346 0.9724346
0.9754593 0.9754593 0.9754593
0.9772246 0.9772246 0.9772246
0.9796425 0.9796425 0.9796425
0.9818084 0.9818084 0.9818084
0.9624072 0.9624072 0.9624072
0.9678093 0.9678093 0.9678093
0.9713427 0.9713427 0.9713427
0.9744985 0.9744985 0.9744985
0.9772246 0.9772246 0.9772246
0.9788659 0.9788659 0.9788659
0.9811128 0.9811128 0.9811128
0.9831250 0.9831250 0.9831250
0.9665405 0.9665405 0.9665405
0.9702088 0.9702088 0.9702088
0.9734861 0.9734861 0.9734861
0.9763581 0.9763581 0.9763581
0.9788659 0.9788659 0.9788659
0.9803912 0.9803912 0.9803912
0.9824789 0.9824789 0.9824789
0.9843050 0.9843050 0.9843050
0.9724346 0.9724346 0.9724346
0.9754593 0.9754593 0.9754593
0.9780602 0.9780602 0.9780602
0.9796425 0.9796425 0.9796425
0.9818084 0.9818084 0.9818084
0.9837255 0.9837255 0.9837255
0.9848641 0.9848641 0.9848641
0.9864265 0.9864265 0.9864265
0.9744985 0.9744985 0.9744985
0.9772246 0.9772246 0.9772246
0.9796425 0.9796425 0.9796425
0.9811128 0.9811128 0.9811128
0.9831250 0.9831250 0.9831250
0.9848641 0.9848641 0.9848641
0.9859242 0.9859242 0.9859242
0.9873785 0.9873785 0.9873785
0.9763581 0.9763581 0.9763581
0.9788659 0.9788659 0.9788659
0.9811128 0.9811128 0.9811128
0.9824789 0.9824789 0.9824789
0.9843050 0.9843050 0.9843050
0.9859242 0.9859242 0.9859242
0.9869110 0.9869110 0.9869110
0.9878295 0.9878295 0.9878295
0.9780602 0.9780602 0.9780602
0.9803912 0.9803912 0.9803912
0.9824789 0.9824789 0.9824789
0.9837255 0.9837255 0.9837255
0.9854036 0.9854036 0.9854036
0.9864265 0.9864265 0.9864265
0.9878295 0.9878295 0.9878295
0.9886788 0.9886788 0.9886788
0.9796425 0.9796425 0.9796425
0.9818084 0.9818084 0.9818084
0.9831250 0.9831250 0.9831250
0.9848641 0.9848641 0.9848641
0.9864265 0.9864265 0.9864265
0.9873785 0.9873785 0.9873785
0.9886788 0.9886788 0.9886788
0.9894590 0.9894590 0.9894590
0.9811128 0.9811128 0.9811128
0.9831250 0.9831250 0.9831250
0.9843050 0.9843050 0.9843050
0.9859242 0.9859242 0.9859242
0.9869110 0.9869110 0.9869110
0.9882646 0.9882646 0.9882646
0.9890757 0.9890757 0.9890757
0.9901860 0.9901860 0.9901860
0.9824789 0.9824789 0.9824789
0.9843050 0.9843050 0.9843050
0.9854036 0.9854036 0.9854036
0.9869110 0.9869110 0.9869110
0.9878295 0.9878295 0.9878295
0.9890757 0.9890757 0.9890757
0.9898289 0.9898289 0.9898289
0.9905307 0.9905307 0.9905307
0.9837255 0.9837255 0.9837255
0.9848641 0.9848641 0.9848641
0.9864265 0.9864265 0.9864265
0.9873785 0.9873785 0.9873785
0.9886788 0.9886788 0.9886788
0.9894590 0.9894590 0.9894590
0.9901860 0.9901860 0.9901860
0.9911844 0.9911844 0.9911844
0.9859242 0.9859242 0.9859242
0.9869110 0.9869110 0.9869110
0.9882646 0.9882646 0.9882646
0.9890757 0.9890757 0.9890757
0.9901860 0.9901860 0.9901860
0.9908633 0.9908633 0.9908633
0.9914943 0.9914943 0.9914943
0.9920797 0.9920797 0.9920797
0.9869110 0.9869110 0.9869110
0.9878295 0.9878295 0.9878295
0.9890757 0.9890757 0.9890757
0.9898289 0.9898289 0.9898289
0.9905307 0.9905307 0.9905307
0.9914943 0.9914943 0.9914943
0.9920797 0.9920797 0.9920797
0.9926139 0.9926139 0.9926139
0.9878295 0.9878295 0.9878295
0.9886788 0.9886788 0.9886788
0.9894590 0.9894590 0.9894590
0.9905307 0.9905307 0.9905307
0.9911844 0.9911844 0.9911844
0.9917935 0.9917935 0.9917935
0.9923514 0.9923514 0.9923514
0.9928674 0.9928674 0.9928674
0.9882646 0.9882646 0.9882646
0.9894590 0.9894590 0.9894590
0.9901860 0.9901860 0.9901860
0.9908633 0.9908633 0.9908633
0.9914943 0.9914943 0.9914943
0.9923514 0.9923514 0.9923514
0.9928674 0.9928674 0.9928674
0.9933488 0.9933488 0.9933488
0.9890757 0.9890757 0.9890757
0.9898289 0.9898289 0.9898289
0.9908633 0.9908633 0.9908633
0.9914943 0.9914943 0.9914943
0.9920797 0.9920797 0.9920797
0.9926139 0.9926139 0.9926139
0.9931123 0.9931123 0.9931123
0.9935773 0.9935773 0.9935773
0.9898289 0.9898289 0.9898289
0.9905307 0.9905307 0.9905307
0.9911844 0.9911844 0.9911844
0.9917935 0.9917935 0.9917935
0.9926139 0.9926139 0.9926139
0.9931123 0.9931123 0.9931123
0.9935773 0.9935773 0.9935773
0.9940111 0.9940111 0.9940111
0.9901860 0.9901860 0.9901860
0.9911844 0.9911844 0.9911844
0.9917935 0.9917935 0.9917935
0.9923514 0.9923514 0.9923514
0.9928674 0.9928674 0.9928674
0.9933488 0.9933488 0.9933488
0.9937980 0.9937980 0.9937980
0.9942170 0.9942170 0.9942170
0.9908633 0.9908633 0.9908633
0.9914943 0.9914943 0.9914943
0.9920797 0.9920797 0.9920797
0.9926139 0.9926139 0.9926139
0.9931123 0.9931123 0.9931123
0.9937980 0.9937980 0.9937980
0.9942170 0.9942170 0.9942170
0.9944158 0.9944158 0.9944158
0.9917935 0.9917935 0.9917935
0.9926139 0.9926139 0.9926139
0.9931123 0.9931123 0.9931123
0.9935773 0.9935773 0.9935773
0.9940111 0.9940111 0.9940111
0.9944158 0.9944158 0.9944158
0.9947794 0.9947794 0.9947794
0.9951195 0.9951195 0.9951195
0.9923514 0.9923514 0.9923514
0.9928674 0.9928674 0.9928674
0.9933488 0.9933488 0.9933488
0.9937980 0.9937980 0.9937980
0.9942170 0.9942170 0.9942170
0.9946007 0.9946007 0.9946007
0.9949523 0.9949523 0.9949523
0.9952812 0.9952812 0.9952812
0.9926139 0.9926139 0.9926139
0.9933488 0.9933488 0.9933488
0.9937980 0.9937980 0.9937980
0.9942170 0.9942170 0.9942170
0.9946007 0.9946007 0.9946007
0.9949523 0.9949523 0.9949523
0.9951195 0.9951195 0.9951195
0.9954376 0.9954376 0.9954376
0.9931123 0.9931123 0.9931123
0.9935773 0.9935773 0.9935773
0.9940111 0.9940111 0.9940111
0.9944158 0.9944158 0.9944158
0.9947794 0.9947794 0.9947794
0.9951195 0.9951195 0.9951195
0.9954376 0.9954376 0.9954376
0.9957350 0.9957350 0.9957350
0.9933488 0.9933488 0.9933488
0.9937980 0.9937980 0.9937980
0.9942170 0.9942170 0.9942170
0.9946007 0.9946007 0.9946007
0.9949523 0.9949523 0.9949523
0.9952812 0.9952812 0.9952812
0.9955888 0.9955888 0.9955888
0.9958763 0.9958763 0.9958763
0.9937980 0.9937980 0.9937980
0.9942170 0.9942170 0.9942170
0.9946007 0.9946007 0.9946007
0.9949523 0.9949523 0.9949523
0.9952812 0.9952812 0.9952812
0.9955888 0.9955888 0.9955888
0.9957350 0.9957350 0.9957350
0.9960130 0.9960130 0.9960130
0.9940111 0.9940111 0.9940111
0.9944158 0.9944158 0.9944158
0.9947794 0.9947794 0.9947794
0.9951195 0.9951195 0.9951195
0.9954376 0.9954376 0.9954376
0.9957350 0.9957350 0.9957350
0.9960130 0.9960130 0.9960130
0.9961408 0.9961408 0.9961408
0.9944158 0.9944158 0.9944158
0.9947794 0.9947794 0.9947794
0.9951195 0.9951195 0.9951195
0.9952812 0.9952812 0.9952812
0.9955888 0.9955888 0.9955888
0.9958763 0.9958763 0.9958763
0.9961408 0.9961408 0.9961408
0.9963800 0.9963800 0.9963800
