Plugins/FilmEmulator/Content/LUTs/FE_Kodak_2302_Dev3_64.cube
TITLE "FE_Kodak_2302_Dev3_33"
LUT_3D_SIZE 64
0.0018678 0.0018678 0.0018678
0.0018678 0.0018678 0.0018678
0.0018678 0.0018678 0.0018678
0.0018678 0.0018678 0.0018678
0.0018862 0.0018862 0.0018862
0.0019772 0.0019772 0.0019772
0.0020891 0.0020891 0.0020891
0.0022119 0.0022119 0.0022119
0.0023358 0.0023358 0.0023358
0.0024680 0.0024680 0.0024680
0.0026091 0.0026091 0.0026091
0.0027786 0.0027786 0.0027786
0.0029555 0.0029555 0.0029555
0.0031333 0.0031333 0.0031333
0.0033344 0.0033344 0.0033344
0.0035398 0.0035398 0.0035398
0.0037419 0.0037419 0.0037419
0.0039619 0.0039619 0.0039619
0.0042195 0.0042195 0.0042195
0.0045010 0.0045010 0.0045010
0.0047666 0.0047666 0.0047666
0.0050625 0.0050625 0.0050625
0.0054200 0.0054200 0.0054200
0.0057240 0.0057240 0.0057240
0.0061848 0.0061848 0.0061848
0.0065799 0.0065799 0.0065799
0.0070276 0.0070276 0.0070276
0.0075204 0.0075204 0.0075204
0.0079123 0.0079123 0.0079123
0.0085285 0.0085285 0.0085285
0.0090315 0.0090315 0.0090315
0.0097482 0.0097482 0.0097482
0.0103834 0.0103834 0.0103834
0.0110595 0.0110595 0.0110595
0.0117791 0.0117791 0.0117791
0.0125763 0.0125763 0.0125763
0.0134535 0.0134535 0.0134535
0.0143910 0.0143910 0.0143910
0.0150515 0.0150515 0.0150515
0.0161383 0.0161383 0.0161383
0.0173143 0.0173143 0.0173143
0.0181447 0.0181447 0.0181447
0.0194641 0.0194641 0.0194641
0.0204287 0.0204287 0.0204287
0.0214401 0.0214401 0.0214401
0.0230496 0.0230496 0.0230496
0.0241875 0.0241875 0.0241875
0.0254001 0.0254001 0.0254001
0.0267139 0.0267139 0.0267139
0.0280936 0.0280936 0.0280936
0.0295424 0.0295424 0.0295424
0.0310636 0.0310636 0.0310636
0.0326740 0.0326740 0.0326740
0.0344360 0.0344360 0.0344360
0.0362893 0.0362893 0.0362893
0.0382386 0.0382386 0.0382386
0.0402881 0.0402881 0.0402881
0.0424426 0.0424426 0.0424426
0.0436160 0.0436160 0.0436160
0.0460561 0.0460561 0.0460561
0.0486258 0.0486258 0.0486258
0.0513312 0.0513312 0.0513312
0.0527368 0.0527368 0.0527368
0.0556575 0.0556575 0.0556575
0.0018678 0.0018678 0.0018678
0.0018678 0.0018678 0.0018678
0.0018678 0.0018678 0.0018678
0.0018678 0.0018678 0.0018678
0.0019487 0.0019487 0.0019487
0.0020551 0.0020551 0.0020551
0.0021791 0.0021791 0.0021791
0.0022988 0.0022988 0.0022988
0.0024206 0.0024206 0.0024206
0.0025645 0.0025645 0.0025645
0.0027252 0.0027252 0.0027252
0.0029143 0.0029143 0.0029143
0.0030862 0.0030862 0.0030862
0.0032790 0.0032790 0.0032790
0.0034799 0.0034799 0.0034799
0.0036713 0.0036713 0.0036713
0.0039244 0.0039244 0.0039244
0.0041754 0.0041754 0.0041754
0.0044004 0.0044004 0.0044004
0.0047123 0.0047123 0.0047123
0.0049939 0.0049939 0.0049939
0.0052741 0.0052741 0.0052741
0.0056464 0.0056464 0.0056464
0.0059962 0.0059962 0.0059962
0.0064788 0.0064788 0.0064788
0.0069095 0.0069095 0.0069095
0.0072698 0.0072698 0.0072698
0.0077795 0.0077795 0.0077795
0.0083671 0.0083671 0.0083671
0.0088607 0.0088607 0.0088607
0.0095640 0.0095640 0.0095640
0.0101673 0.0101673 0.0101673
0.0108294 0.0108294 0.0108294
0.0115342 0.0115342 0.0115342
0.0122966 0.0122966 0.0122966
0.0131546 0.0131546 0.0131546
0.0140716 0.0140716 0.0140716
0.0150515 0.0150515 0.0150515
0.0157640 0.0157640 0.0157640
0.0169132 0.0169132 0.0169132
0.0177248 0.0177248 0.0177248
0.0190142 0.0190142 0.0190142
0.0199407 0.0199407 0.0199407
0.0214401 0.0214401 0.0214401
0.0225004 0.0225004 0.0225004
0.0236118 0.0236118 0.0236118
0.0247768 0.0247768 0.0247768
0.0267139 0.0267139 0.0267139
0.0280936 0.0280936 0.0280936
0.0295424 0.0295424 0.0295424
0.0310636 0.0310636 0.0310636
0.0326740 0.0326740 0.0326740
0.0344360 0.0344360 0.0344360
0.0362893 0.0362893 0.0362893
0.0372517 0.0372517 0.0372517
0.0392505 0.0392505 0.0392505
0.0413519 0.0413519 0.0413519
0.0436160 0.0436160 0.0436160
0.0460561 0.0460561 0.0460561
0.0473244 0.0473244 0.0473244
0.0499612 0.0499612 0.0499612
0.0527368 0.0527368 0.0527368
0.0541786 0.0541786 0.0541786
0.0572354 0.0572354 0.0572354
0.0018678 0.0018678 0.0018678
0.0018678 0.0018678 0.0018678
0.0018678 0.0018678 0.0018678
0.0019188 0.0019188 0.0019188
0.0020235 0.0020235 0.0020235
0.0021404 0.0021404 0.0021404
0.0022629 0.0022629 0.0022629
0.0023857 0.0023857 0.0023857
0.0025208 0.0025208 0.0025208
0.0026902 0.0026902 0.0026902
0.0028535 0.0028535 0.0028535
0.0030397 0.0030397 0.0030397
0.0032053 0.0032053 0.0032053
0.0034210 0.0034210 0.0034210
0.0036365 0.0036365 0.0036365
0.0038503 0.0038503 0.0038503
0.0040887 0.0040887 0.0040887
0.0043545 0.0043545 0.0043545
0.0046054 0.0046054 0.0046054
0.0048772 0.0048772 0.0048772
0.0052026 0.0052026 0.0052026
0.0055699 0.0055699 0.0055699
0.0059040 0.0059040 0.0059040
0.0062813 0.0062813 0.0062813
0.0066825 0.0066825 0.0066825
0.0071477 0.0071477 0.0071477
0.0076488 0.0076488 0.0076488
0.0082087 0.0082087 0.0082087
0.0086930 0.0086930 0.0086930
0.0093831 0.0093831 0.0093831
0.0099556 0.0099556 0.0099556
0.0106041 0.0106041 0.0106041
0.0112944 0.0112944 0.0112944
0.0120291 0.0120291 0.0120291
0.0128622 0.0128622 0.0128622
0.0137591 0.0137591 0.0137591
0.0147176 0.0147176 0.0147176
0.0157640 0.0157640 0.0157640
0.0165213 0.0165213 0.0165213
0.0177248 0.0177248 0.0177248
0.0185745 0.0185745 0.0185745
0.0199407 0.0199407 0.0199407
0.0209284 0.0209284 0.0209284
0.0219640 0.0219640 0.0219640
0.0236118 0.0236118 0.0236118
0.0247768 0.0247768 0.0247768
0.0260489 0.0260489 0.0260489
0.0273953 0.0273953 0.0273953
0.0288092 0.0288092 0.0288092
0.0302938 0.0302938 0.0302938
0.0318524 0.0318524 0.0318524
0.0335438 0.0335438 0.0335438
0.0353510 0.0353510 0.0353510
0.0372517 0.0372517 0.0372517
0.0392505 0.0392505 0.0392505
0.0413519 0.0413519 0.0413519
0.0424426 0.0424426 0.0424426
0.0448202 0.0448202 0.0448202
0.0473244 0.0473244 0.0473244
0.0499612 0.0499612 0.0499612
0.0513312 0.0513312 0.0513312
0.0541786 0.0541786 0.0541786
0.0572354 0.0572354 0.0572354
0.0588867 0.0588867 0.0588867
0.0018678 0.0018678 0.0018678
0.0018678 0.0018678 0.0018678
0.0018939 0.0018939 0.0018939
0.0019887 0.0019887 0.0019887
0.0021100 0.0021100 0.0021100
0.0022288 0.0022288 0.0022288
0.0023452 0.0023452 0.0023452
0.0024800 0.0024800 0.0024800
0.0026392 0.0026392 0.0026392
0.0027966 0.0027966 0.0027966
0.0029764 0.0029764 0.0029764
0.0031571 0.0031571 0.0031571
0.0033630 0.0033630 0.0033630
0.0035702 0.0035702 0.0035702
0.0037777 0.0037777 0.0037777
0.0040037 0.0040037 0.0040037
0.0042640 0.0042640 0.0042640
0.0045529 0.0045529 0.0045529
0.0048216 0.0048216 0.0048216
0.0051321 0.0051321 0.0051321
0.0054200 0.0054200 0.0054200
0.0058133 0.0058133 0.0058133
0.0061848 0.0061848 0.0061848
0.0065799 0.0065799 0.0065799
0.0070276 0.0070276 0.0070276
0.0075204 0.0075204 0.0075204
0.0080533 0.0080533 0.0080533
0.0085285 0.0085285 0.0085285
0.0092057 0.0092057 0.0092057
0.0097482 0.0097482 0.0097482
0.0103834 0.0103834 0.0103834
0.0110595 0.0110595 0.0110595
0.0117791 0.0117791 0.0117791
0.0125763 0.0125763 0.0125763
0.0134535 0.0134535 0.0134535
0.0143910 0.0143910 0.0143910
0.0153983 0.0153983 0.0153983
0.0161383 0.0161383 0.0161383
0.0173143 0.0173143 0.0173143
0.0181447 0.0181447 0.0181447
0.0194641 0.0194641 0.0194641
0.0204287 0.0204287 0.0204287
0.0219640 0.0219640 0.0219640
0.0230496 0.0230496 0.0230496
0.0241875 0.0241875 0.0241875
0.0254001 0.0254001 0.0254001
0.0267139 0.0267139 0.0267139
0.0288092 0.0288092 0.0288092
0.0302938 0.0302938 0.0302938
0.0318524 0.0318524 0.0318524
0.0335438 0.0335438 0.0335438
0.0353510 0.0353510 0.0353510
0.0362893 0.0362893 0.0362893
0.0382386 0.0382386 0.0382386
0.0402881 0.0402881 0.0402881
0.0424426 0.0424426 0.0424426
0.0448202 0.0448202 0.0448202
0.0460561 0.0460561 0.0460561
0.0486258 0.0486258 0.0486258
0.0513312 0.0513312 0.0513312
0.0527368 0.0527368 0.0527368
0.0556575 0.0556575 0.0556575
0.0588867 0.0588867 0.0588867
0.0605825 0.0605825 0.0605825
0.0018678 0.0018678 0.0018678
0.0018770 0.0018770 0.0018770
0.0019629 0.0019629 0.0019629
0.0020755 0.0020755 0.0020755
0.0021952 0.0021952 0.0021952
0.0023172 0.0023172 0.0023172
0.0024442 0.0024442 0.0024442
0.0025941 0.0025941 0.0025941
0.0027607 0.0027607 0.0027607
0.0029348 0.0029348 0.0029348
0.0031096 0.0031096 0.0031096
0.0033061 0.0033061 0.0033061
0.0035097 0.0035097 0.0035097
0.0037064 0.0037064 0.0037064
0.0039619 0.0039619 0.0039619
0.0041754 0.0041754 0.0041754
0.0044497 0.0044497 0.0044497
0.0047123 0.0047123 0.0047123
0.0049939 0.0049939 0.0049939
0.0053466 0.0053466 0.0053466
0.0057240 0.0057240 0.0057240
0.0060898 0.0060898 0.0060898
0.0064788 0.0064788 0.0064788
0.0069095 0.0069095 0.0069095
0.0073940 0.0073940 0.0073940
0.0079123 0.0079123 0.0079123
0.0083671 0.0083671 0.0083671
0.0090315 0.0090315 0.0090315
0.0095640 0.0095640 0.0095640
0.0101673 0.0101673 0.0101673
0.0110595 0.0110595 0.0110595
0.0117791 0.0117791 0.0117791
0.0125763 0.0125763 0.0125763
0.0131546 0.0131546 0.0131546
0.0140716 0.0140716 0.0140716
0.0150515 0.0150515 0.0150515
0.0161383 0.0161383 0.0161383
0.0169132 0.0169132 0.0169132
0.0181447 0.0181447 0.0181447
0.0190142 0.0190142 0.0190142
0.0204287 0.0204287 0.0204287
0.0214401 0.0214401 0.0214401
0.0225004 0.0225004 0.0225004
0.0236118 0.0236118 0.0236118
0.0254001 0.0254001 0.0254001
0.0267139 0.0267139 0.0267139
0.0280936 0.0280936 0.0280936
0.0295424 0.0295424 0.0295424
0.0310636 0.0310636 0.0310636
0.0326740 0.0326740 0.0326740
0.0344360 0.0344360 0.0344360
0.0362893 0.0362893 0.0362893
0.0382386 0.0382386 0.0382386
0.0402881 0.0402881 0.0402881
0.0413519 0.0413519 0.0413519
0.0436160 0.0436160 0.0436160
0.0460561 0.0460561 0.0460561
0.0486258 0.0486258 0.0486258
0.0499612 0.0499612 0.0499612
0.0527368 0.0527368 0.0527368
0.0556575 0.0556575 0.0556575
0.0572354 0.0572354 0.0572354
0.0605825 0.0605825 0.0605825
0.0623239 0.0623239 0.0623239
0.0018678 0.0018678 0.0018678
0.0019299 0.0019299 0.0019299
0.0020417 0.0020417 0.0020417
0.0021558 0.0021558 0.0021558
0.0022804 0.0022804 0.0022804
0.0024089 0.0024089 0.0024089
0.0025499 0.0025499 0.0025499
0.0027076 0.0027076 0.0027076
0.0028736 0.0028736 0.0028736
0.0030629 0.0030629 0.0030629
0.0032297 0.0032297 0.0032297
0.0034503 0.0034503 0.0034503
0.0036365 0.0036365 0.0036365
0.0038872 0.0038872 0.0038872
0.0041318 0.0041318 0.0041318
0.0043545 0.0043545 0.0043545
0.0046586 0.0046586 0.0046586
0.0049334 0.0049334 0.0049334
0.0052741 0.0052741 0.0052741
0.0055699 0.0055699 0.0055699
0.0059962 0.0059962 0.0059962
0.0063793 0.0063793 0.0063793
0.0067934 0.0067934 0.0067934
0.0072698 0.0072698 0.0072698
0.0077795 0.0077795 0.0077795
0.0082087 0.0082087 0.0082087
0.0088607 0.0088607 0.0088607
0.0093831 0.0093831 0.0093831
0.0099556 0.0099556 0.0099556
0.0108294 0.0108294 0.0108294
0.0115342 0.0115342 0.0115342
0.0122966 0.0122966 0.0122966
0.0131546 0.0131546 0.0131546
0.0137591 0.0137591 0.0137591
0.0147176 0.0147176 0.0147176
0.0157640 0.0157640 0.0157640
0.0165213 0.0165213 0.0165213
0.0177248 0.0177248 0.0177248
0.0185745 0.0185745 0.0185745
0.0199407 0.0199407 0.0199407
0.0209284 0.0209284 0.0209284
0.0225004 0.0225004 0.0225004
0.0236118 0.0236118 0.0236118
0.0247768 0.0247768 0.0247768
0.0260489 0.0260489 0.0260489
0.0273953 0.0273953 0.0273953
0.0288092 0.0288092 0.0288092
0.0302938 0.0302938 0.0302938
0.0318524 0.0318524 0.0318524
0.0335438 0.0335438 0.0335438
0.0353510 0.0353510 0.0353510
0.0372517 0.0372517 0.0372517
0.0392505 0.0392505 0.0392505
0.0413519 0.0413519 0.0413519
0.0436160 0.0436160 0.0436160
0.0448202 0.0448202 0.0448202
0.0473244 0.0473244 0.0473244
0.0499612 0.0499612 0.0499612
0.0513312 0.0513312 0.0513312
0.0541786 0.0541786 0.0541786
0.0572354 0.0572354 0.0572354
0.0588867 0.0588867 0.0588867
0.0623239 0.0623239 0.0623239
0.0641120 0.0641120 0.0641120
0.0019081 0.0019081 0.0019081
0.0020061 0.0020061 0.0020061
0.0021251 0.0021251 0.0021251
0.0022458 0.0022458 0.0022458
0.0023640 0.0023640 0.0023640
0.0025063 0.0025063 0.0025063
0.0026556 0.0026556 0.0026556
0.0028335 0.0028335 0.0028335
0.0029973 0.0029973 0.0029973
0.0031811 0.0031811 0.0031811
0.0033919 0.0033919 0.0033919
0.0035702 0.0035702 0.0035702
0.0038138 0.0038138 0.0038138
0.0040460 0.0040460 0.0040460
0.0043090 0.0043090 0.0043090
0.0045529 0.0045529 0.0045529
0.0048216 0.0048216 0.0048216
0.0051321 0.0051321 0.0051321
0.0054945 0.0054945 0.0054945
0.0058133 0.0058133 0.0058133
0.0062813 0.0062813 0.0062813
0.0066825 0.0066825 0.0066825
0.0071477 0.0071477 0.0071477
0.0076488 0.0076488 0.0076488
0.0080533 0.0080533 0.0080533
0.0086930 0.0086930 0.0086930
0.0092057 0.0092057 0.0092057
0.0099556 0.0099556 0.0099556
0.0106041 0.0106041 0.0106041
0.0112944 0.0112944 0.0112944
0.0120291 0.0120291 0.0120291
0.0128622 0.0128622 0.0128622
0.0137591 0.0137591 0.0137591
0.0143910 0.0143910 0.0143910
0.0153983 0.0153983 0.0153983
0.0165213 0.0165213 0.0165213
0.0173143 0.0173143 0.0173143
0.0185745 0.0185745 0.0185745
0.0194641 0.0194641 0.0194641
0.0209284 0.0209284 0.0209284
0.0219640 0.0219640 0.0219640
0.0230496 0.0230496 0.0230496
0.0241875 0.0241875 0.0241875
0.0260489 0.0260489 0.0260489
0.0273953 0.0273953 0.0273953
0.0288092 0.0288092 0.0288092
0.0302938 0.0302938 0.0302938
0.0318524 0.0318524 0.0318524
0.0335438 0.0335438 0.0335438
0.0353510 0.0353510 0.0353510
0.0372517 0.0372517 0.0372517
0.0392505 0.0392505 0.0392505
0.0402881 0.0402881 0.0402881
0.0424426 0.0424426 0.0424426
0.0448202 0.0448202 0.0448202
0.0473244 0.0473244 0.0473244
0.0486258 0.0486258 0.0486258
0.0513312 0.0513312 0.0513312
0.0541786 0.0541786 0.0541786
0.0556575 0.0556575 0.0556575
0.0588867 0.0588867 0.0588867
0.0605825 0.0605825 0.0605825
0.0641120 0.0641120 0.0641120
0.0678323 0.0678323 0.0678323
0.0019725 0.0019725 0.0019725
0.0020891 0.0020891 0.0020891
0.0022119 0.0022119 0.0022119
0.0023265 0.0023265 0.0023265
0.0024560 0.0024560 0.0024560
0.0026091 0.0026091 0.0026091
0.0027786 0.0027786 0.0027786
0.0029555 0.0029555 0.0029555
0.0031333 0.0031333 0.0031333
0.0033344 0.0033344 0.0033344
0.0035398 0.0035398 0.0035398
0.0037419 0.0037419 0.0037419
0.0039619 0.0039619 0.0039619
0.0042195 0.0042195 0.0042195
0.0045010 0.0045010 0.0045010
0.0047666 0.0047666 0.0047666
0.0050625 0.0050625 0.0050625
0.0054200 0.0054200 0.0054200
0.0057240 0.0057240 0.0057240
0.0060898 0.0060898 0.0060898
0.0065799 0.0065799 0.0065799
0.0070276 0.0070276 0.0070276
0.0073940 0.0073940 0.0073940
0.0079123 0.0079123 0.0079123
0.0085285 0.0085285 0.0085285
0.0090315 0.0090315 0.0090315
0.0097482 0.0097482 0.0097482
0.0103834 0.0103834 0.0103834
0.0110595 0.0110595 0.0110595
0.0117791 0.0117791 0.0117791
0.0125763 0.0125763 0.0125763
0.0134535 0.0134535 0.0134535
0.0143910 0.0143910 0.0143910
0.0150515 0.0150515 0.0150515
0.0161383 0.0161383 0.0161383
0.0173143 0.0173143 0.0173143
0.0181447 0.0181447 0.0181447
0.0194641 0.0194641 0.0194641
0.0204287 0.0204287 0.0204287
0.0214401 0.0214401 0.0214401
0.0230496 0.0230496 0.0230496
0.0241875 0.0241875 0.0241875
0.0254001 0.0254001 0.0254001
0.0267139 0.0267139 0.0267139
0.0280936 0.0280936 0.0280936
0.0295424 0.0295424 0.0295424
0.0310636 0.0310636 0.0310636
0.0326740 0.0326740 0.0326740
0.0344360 0.0344360 0.0344360
0.0362893 0.0362893 0.0362893
0.0382386 0.0382386 0.0382386
0.0402881 0.0402881 0.0402881
0.0424426 0.0424426 0.0424426
0.0436160 0.0436160 0.0436160
0.0460561 0.0460561 0.0460561
0.0486258 0.0486258 0.0486258
0.0513312 0.0513312 0.0513312
0.0527368 0.0527368 0.0527368
0.0556575 0.0556575 0.0556575
0.0572354 0.0572354 0.0572354
0.0605825 0.0605825 0.0605825
0.0641120 0.0641120 0.0641120
0.0659478 0.0659478 0.0659478
0.0697666 0.0697666 0.0697666
0.0020551 0.0020551 0.0020551
0.0021713 0.0021713 0.0021713
0.0022988 0.0022988 0.0022988
0.0024206 0.0024206 0.0024206
0.0025645 0.0025645 0.0025645
0.0027252 0.0027252 0.0027252
0.0028939 0.0028939 0.0028939
0.0030862 0.0030862 0.0030862
0.0032543 0.0032543 0.0032543
0.0034799 0.0034799 0.0034799
0.0036713 0.0036713 0.0036713
0.0039244 0.0039244 0.0039244
0.0041318 0.0041318 0.0041318
0.0044004 0.0044004 0.0044004
0.0046586 0.0046586 0.0046586
0.0049334 0.0049334 0.0049334
0.0052741 0.0052741 0.0052741
0.0056464 0.0056464 0.0056464
0.0059962 0.0059962 0.0059962
0.0063793 0.0063793 0.0063793
0.0067934 0.0067934 0.0067934
0.0072698 0.0072698 0.0072698
0.0077795 0.0077795 0.0077795
0.0083671 0.0083671 0.0083671
0.0088607 0.0088607 0.0088607
0.0095640 0.0095640 0.0095640
0.0101673 0.0101673 0.0101673
0.0108294 0.0108294 0.0108294
0.0115342 0.0115342 0.0115342
0.0122966 0.0122966 0.0122966
0.0131546 0.0131546 0.0131546
0.0140716 0.0140716 0.0140716
0.0150515 0.0150515 0.0150515
0.0157640 0.0157640 0.0157640
0.0169132 0.0169132 0.0169132
0.0177248 0.0177248 0.0177248
0.0190142 0.0190142 0.0190142
0.0199407 0.0199407 0.0199407
0.0214401 0.0214401 0.0214401
0.0225004 0.0225004 0.0225004
0.0236118 0.0236118 0.0236118
0.0247768 0.0247768 0.0247768
0.0260489 0.0260489 0.0260489
0.0280936 0.0280936 0.0280936
0.0295424 0.0295424 0.0295424
0.0310636 0.0310636 0.0310636
0.0326740 0.0326740 0.0326740
0.0344360 0.0344360 0.0344360
0.0362893 0.0362893 0.0362893
0.0372517 0.0372517 0.0372517
0.0392505 0.0392505 0.0392505
0.0413519 0.0413519 0.0413519
0.0436160 0.0436160 0.0436160
0.0460561 0.0460561 0.0460561
0.0473244 0.0473244 0.0473244
0.0499612 0.0499612 0.0499612
0.0527368 0.0527368 0.0527368
0.0541786 0.0541786 0.0541786
0.0572354 0.0572354 0.0572354
0.0605825 0.0605825 0.0605825
0.0623239 0.0623239 0.0623239
0.0659478 0.0659478 0.0659478
0.0678323 0.0678323 0.0678323
0.0717519 0.0717519 0.0717519
0.0021404 0.0021404 0.0021404
0.0022629 0.0022629 0.0022629
0.0023857 0.0023857 0.0023857
0.0025208 0.0025208 0.0025208
0.0026729 0.0026729 0.0026729
0.0028535 0.0028535 0.0028535
0.0030185 0.0030185 0.0030185
0.0032053 0.0032053 0.0032053
0.0034210 0.0034210 0.0034210
0.0036020 0.0036020 0.0036020
0.0038503 0.0038503 0.0038503
0.0040887 0.0040887 0.0040887
0.0043090 0.0043090 0.0043090
0.0046054 0.0046054 0.0046054
0.0048772 0.0048772 0.0048772
0.0052026 0.0052026 0.0052026
0.0055699 0.0055699 0.0055699
0.0059040 0.0059040 0.0059040
0.0062813 0.0062813 0.0062813
0.0066825 0.0066825 0.0066825
0.0071477 0.0071477 0.0071477
0.0076488 0.0076488 0.0076488
0.0082087 0.0082087 0.0082087
0.0086930 0.0086930 0.0086930
0.0093831 0.0093831 0.0093831
0.0099556 0.0099556 0.0099556
0.0106041 0.0106041 0.0106041
0.0112944 0.0112944 0.0112944
0.0120291 0.0120291 0.0120291
0.0128622 0.0128622 0.0128622
0.0137591 0.0137591 0.0137591
0.0147176 0.0147176 0.0147176
0.0153983 0.0153983 0.0153983
0.0165213 0.0165213 0.0165213
0.0177248 0.0177248 0.0177248
0.0185745 0.0185745 0.0185745
0.0199407 0.0199407 0.0199407
0.0209284 0.0209284 0.0209284
0.0219640 0.0219640 0.0219640
0.0230496 0.0230496 0.0230496
0.0247768 0.0247768 0.0247768
0.0260489 0.0260489 0.0260489
0.0273953 0.0273953 0.0273953
0.0288092 0.0288092 0.0288092
0.0302938 0.0302938 0.0302938
0.0318524 0.0318524 0.0318524
0.0335438 0.0335438 0.0335438
0.0353510 0.0353510 0.0353510
0.0372517 0.0372517 0.0372517
0.0392505 0.0392505 0.0392505
0.0413519 0.0413519 0.0413519
0.0424426 0.0424426 0.0424426
0.0448202 0.0448202 0.0448202
0.0473244 0.0473244 0.0473244
0.0499612 0.0499612 0.0499612
0.0513312 0.0513312 0.0513312
0.0541786 0.0541786 0.0541786
0.0556575 0.0556575 0.0556575
0.0588867 0.0588867 0.0588867
0.0623239 0.0623239 0.0623239
0.0641120 0.0641120 0.0641120
0.0678323 0.0678323 0.0678323
0.0697666 0.0697666 0.0697666
0.0737892 0.0737892 0.0737892
0.0022288 0.0022288 0.0022288
0.0023452 0.0023452 0.0023452
0.0024800 0.0024800 0.0024800
0.0026241 0.0026241 0.0026241
0.0027966 0.0027966 0.0027966
0.0029764 0.0029764 0.0029764
0.0031571 0.0031571 0.0031571
0.0033344 0.0033344 0.0033344
0.0035398 0.0035398 0.0035398
0.0037777 0.0037777 0.0037777
0.0040037 0.0040037 0.0040037
0.0042640 0.0042640 0.0042640
0.0045010 0.0045010 0.0045010
0.0048216 0.0048216 0.0048216
0.0050625 0.0050625 0.0050625
0.0054200 0.0054200 0.0054200
0.0058133 0.0058133 0.0058133
0.0061848 0.0061848 0.0061848
0.0065799 0.0065799 0.0065799
0.0070276 0.0070276 0.0070276
0.0075204 0.0075204 0.0075204
0.0080533 0.0080533 0.0080533
0.0085285 0.0085285 0.0085285
0.0092057 0.0092057 0.0092057
0.0097482 0.0097482 0.0097482
0.0103834 0.0103834 0.0103834
0.0110595 0.0110595 0.0110595
0.0117791 0.0117791 0.0117791
0.0125763 0.0125763 0.0125763
0.0134535 0.0134535 0.0134535
0.0143910 0.0143910 0.0143910
0.0153983 0.0153983 0.0153983
0.0161383 0.0161383 0.0161383
0.0173143 0.0173143 0.0173143
0.0181447 0.0181447 0.0181447
0.0194641 0.0194641 0.0194641
0.0204287 0.0204287 0.0204287
0.0219640 0.0219640 0.0219640
0.0230496 0.0230496 0.0230496
0.0241875 0.0241875 0.0241875
0.0254001 0.0254001 0.0254001
0.0267139 0.0267139 0.0267139
0.0280936 0.0280936 0.0280936
0.0302938 0.0302938 0.0302938
0.0318524 0.0318524 0.0318524
0.0335438 0.0335438 0.0335438
0.0344360 0.0344360 0.0344360
0.0362893 0.0362893 0.0362893
0.0382386 0.0382386 0.0382386
0.0402881 0.0402881 0.0402881
0.0424426 0.0424426 0.0424426
0.0448202 0.0448202 0.0448202
0.0460561 0.0460561 0.0460561
0.0486258 0.0486258 0.0486258
0.0513312 0.0513312 0.0513312
0.0527368 0.0527368 0.0527368
0.0556575 0.0556575 0.0556575
0.0588867 0.0588867 0.0588867
0.0605825 0.0605825 0.0605825
0.0641120 0.0641120 0.0641120
0.0659478 0.0659478 0.0659478
0.0697666 0.0697666 0.0697666
0.0717519 0.0717519 0.0717519
0.0759202 0.0759202 0.0759202
0.0023080 0.0023080 0.0023080
0.0024442 0.0024442 0.0024442
0.0025941 0.0025941 0.0025941
0.0027429 0.0027429 0.0027429
0.0029143 0.0029143 0.0029143
0.0031096 0.0031096 0.0031096
0.0032790 0.0032790 0.0032790
0.0034799 0.0034799 0.0034799
0.0037064 0.0037064 0.0037064
0.0039244 0.0039244 0.0039244
0.0041754 0.0041754 0.0041754
0.0044497 0.0044497 0.0044497
0.0047123 0.0047123 0.0047123
0.0049939 0.0049939 0.0049939
0.0053466 0.0053466 0.0053466
0.0056464 0.0056464 0.0056464
0.0060898 0.0060898 0.0060898
0.0064788 0.0064788 0.0064788
0.0069095 0.0069095 0.0069095
0.0073940 0.0073940 0.0073940
0.0079123 0.0079123 0.0079123
0.0083671 0.0083671 0.0083671
0.0090315 0.0090315 0.0090315
0.0095640 0.0095640 0.0095640
0.0101673 0.0101673 0.0101673
0.0108294 0.0108294 0.0108294
0.0115342 0.0115342 0.0115342
0.0122966 0.0122966 0.0122966
0.0131546 0.0131546 0.0131546
0.0140716 0.0140716 0.0140716
0.0150515 0.0150515 0.0150515
0.0161383 0.0161383 0.0161383
0.0169132 0.0169132 0.0169132
0.0181447 0.0181447 0.0181447
0.0190142 0.0190142 0.0190142
0.0204287 0.0204287 0.0204287
0.0214401 0.0214401 0.0214401
0.0225004 0.0225004 0.0225004
0.0236118 0.0236118 0.0236118
0.0254001 0.0254001 0.0254001
0.0267139 0.0267139 0.0267139
0.0280936 0.0280936 0.0280936
0.0295424 0.0295424 0.0295424
0.0310636 0.0310636 0.0310636
0.0326740 0.0326740 0.0326740
0.0344360 0.0344360 0.0344360
0.0362893 0.0362893 0.0362893
0.0382386 0.0382386 0.0382386
0.0402881 0.0402881 0.0402881
0.0413519 0.0413519 0.0413519
0.0436160 0.0436160 0.0436160
0.0460561 0.0460561 0.0460561
0.0486258 0.0486258 0.0486258
0.0499612 0.0499612 0.0499612
0.0527368 0.0527368 0.0527368
0.0556575 0.0556575 0.0556575
0.0572354 0.0572354 0.0572354
0.0605825 0.0605825 0.0605825
0.0623239 0.0623239 0.0623239
0.0659478 0.0659478 0.0659478
0.0678323 0.0678323 0.0678323
0.0717519 0.0717519 0.0717519
0.0737892 0.0737892 0.0737892
0.0781910 0.0781910 0.0781910
0.0023973 0.0023973 0.0023973
0.0025353 0.0025353 0.0025353
0.0027076 0.0027076 0.0027076
0.0028736 0.0028736 0.0028736
0.0030397 0.0030397 0.0030397
0.0032297 0.0032297 0.0032297
0.0034210 0.0034210 0.0034210
0.0036365 0.0036365 0.0036365
0.0038872 0.0038872 0.0038872
0.0041318 0.0041318 0.0041318
0.0043545 0.0043545 0.0043545
0.0046586 0.0046586 0.0046586
0.0049334 0.0049334 0.0049334
0.0052026 0.0052026 0.0052026
0.0055699 0.0055699 0.0055699
0.0059962 0.0059962 0.0059962
0.0063793 0.0063793 0.0063793
0.0067934 0.0067934 0.0067934
0.0072698 0.0072698 0.0072698
0.0077795 0.0077795 0.0077795
0.0082087 0.0082087 0.0082087
0.0088607 0.0088607 0.0088607
0.0093831 0.0093831 0.0093831
0.0099556 0.0099556 0.0099556
0.0108294 0.0108294 0.0108294
0.0115342 0.0115342 0.0115342
0.0122966 0.0122966 0.0122966
0.0131546 0.0131546 0.0131546
0.0137591 0.0137591 0.0137591
0.0147176 0.0147176 0.0147176
