Plugins/FilmEmulator/Content/LUTs/FE_Kodak_Duraflex_Plus_64.cube
TITLE "FE_Kodak_Duraflex_Plus_33"
LUT_3D_SIZE 64
0.0039107 0.0000000 0.0198706
0.0048632 0.0000000 0.0199137
0.0094756 0.0007817 0.0201255
0.0143552 0.0019681 0.0203501
0.0270680 0.0050738 0.0209403
0.0604830 0.0133360 0.0225274
0.1038194 0.0291954 0.0247440
0.1692512 0.0503842 0.0282555
0.2337774 0.0678637 0.0318791
0.3073855 0.0883088 0.0363528
0.3848450 0.1109245 0.0415089
0.4620893 0.1347836 0.0471802
0.5300064 0.1569881 0.0526844
0.6120009 0.1857245 0.0600932
0.6651813 0.2055528 0.0654503
0.7193684 0.2269931 0.0714376
0.7739564 0.2500661 0.0781143
0.8244002 0.2729342 0.0849873
0.8727474 0.2965242 0.0923610
0.9166961 0.3196918 0.0999010
0.9498403 0.3384787 0.1062481
0.9763882 0.3545158 0.1118366
1.0000000 0.3727375 0.1183710
1.0000000 0.3890890 0.1244262
1.0000000 0.4039544 0.1300961
1.0000000 0.4212646 0.1368726
1.0000000 0.4361637 0.1429018
1.0000000 0.4503831 0.1487941
1.0000000 0.4617107 0.1536265
1.0000000 0.4746230 0.1592784
1.0000000 0.4849050 0.1639189
1.0000000 0.4948460 0.1685889
1.0000000 0.5044721 0.1732267
1.0000000 0.5137839 0.1778979
1.0000000 0.5210127 0.1815878
1.0000000 0.5297501 0.1862213
1.0000000 0.5364348 0.1898360
1.0000000 0.5445714 0.1943637
1.0000000 0.5506862 0.1978555
1.0000000 0.5566745 0.2013339
1.0000000 0.5624893 0.2048005
1.0000000 0.5681279 0.2082094
1.0000000 0.5723167 0.2107750
1.0000000 0.5778345 0.2141980
1.0000000 0.5832373 0.2175915
1.0000000 0.5874239 0.2201874
1.0000000 0.5922663 0.2232487
1.0000000 0.5957353 0.2254714
1.0000000 0.5992551 0.2277012
1.0000000 0.6024382 0.2297351
1.0000000 0.6064022 0.2323052
1.0000000 0.6093464 0.2342599
1.0000000 0.6121111 0.2361452
1.0000000 0.6147249 0.2379507
1.0000000 0.6173202 0.2397690
1.0000000 0.6197370 0.2414740
1.0000000 0.6215734 0.2429689
1.0000000 0.6240211 0.2448359
1.0000000 0.6265321 0.2467940
1.0000000 0.6283075 0.2482252
1.0000000 0.6307177 0.2502238
1.0000000 0.6331075 0.2522159
1.0000000 0.6347420 0.2536366
1.0000000 0.6373057 0.2560319
0.0045989 0.0064946 0.0204233
0.0063125 0.0070195 0.0205108
0.0106201 0.0081742 0.0207183
0.0158985 0.0095739 0.0209727
0.0310703 0.0133648 0.0216911
0.0656091 0.0219850 0.0230696
0.1081568 0.0327971 0.0249133
0.1748546 0.0502405 0.0283943
0.2370965 0.0671347 0.0319272
0.3113246 0.0881532 0.0364895
0.3848420 0.1100438 0.0414295
0.4674169 0.1360164 0.0475488
0.5300092 0.1569152 0.0526800
0.6120023 0.1857064 0.0600955
0.6651813 0.2055528 0.0654503
0.7193684 0.2269931 0.0714376
0.7739564 0.2500661 0.0781143
0.8300481 0.2755998 0.0858055
0.8779062 0.2991673 0.0931962
0.9166961 0.3196918 0.0999010
0.9498403 0.3384787 0.1062481
0.9800092 0.3567918 0.1126323
1.0000000 0.3727282 0.1183781
1.0000000 0.3890814 0.1244342
1.0000000 0.4039544 0.1300961
1.0000000 0.4212600 0.1368815
1.0000000 0.4361637 0.1429018
1.0000000 0.4503842 0.1488041
1.0000000 0.4617107 0.1536265
1.0000000 0.4746230 0.1592784
1.0000000 0.4849050 0.1639189
1.0000000 0.4948460 0.1685889
1.0000000 0.5044721 0.1732267
1.0000000 0.5137839 0.1778979
1.0000000 0.5227962 0.1825205
1.0000000 0.5297501 0.1862213
1.0000000 0.5380645 0.1906459
1.0000000 0.5445714 0.1943637
1.0000000 0.5506862 0.1978555
1.0000000 0.5566745 0.2013339
1.0000000 0.5624893 0.2048005
1.0000000 0.5681279 0.2082094
1.0000000 0.5736634 0.2114978
1.0000000 0.5778345 0.2141980
1.0000000 0.5832373 0.2175915
1.0000000 0.5874239 0.2201874
1.0000000 0.5922663 0.2232487
1.0000000 0.5957353 0.2254714
1.0000000 0.5992551 0.2277012
1.0000000 0.6032607 0.2302078
1.0000000 0.6064022 0.2323052
1.0000000 0.6093464 0.2342599
1.0000000 0.6121111 0.2361452
1.0000000 0.6147249 0.2379507
1.0000000 0.6173202 0.2397690
1.0000000 0.6197370 0.2414740
1.0000000 0.6215734 0.2429689
1.0000000 0.6240211 0.2448359
1.0000000 0.6265321 0.2467940
1.0000000 0.6288404 0.2485507
1.0000000 0.6307177 0.2502238
1.0000000 0.6331075 0.2522159
1.0000000 0.6347420 0.2536366
1.0000000 0.6373057 0.2560319
0.0047051 0.0074395 0.0198584
0.0072224 0.0079262 0.0199699
0.0112762 0.0087867 0.0202019
0.0169870 0.0100667 0.0206255
0.0358335 0.0145437 0.0213766
0.0705863 0.0230170 0.0229528
0.1174362 0.0347474 0.0252975
0.1831551 0.0518270 0.0288082
0.2498450 0.0698349 0.0326400
0.3233199 0.0905972 0.0372130
0.4018009 0.1139777 0.0425625
0.4779755 0.1380271 0.0482926
0.5438874 0.1600662 0.0537637
0.6220092 0.1879433 0.0609592
0.6746958 0.2079778 0.0663616
0.7248222 0.2281492 0.0719889
0.7798091 0.2517183 0.0787956
0.8357306 0.2775409 0.0865657
0.8780123 0.2985612 0.0931519
0.9211934 0.3216440 0.1006687
0.9499204 0.3381049 0.1062167
0.9800751 0.3565073 0.1126144
1.0000000 0.3725370 0.1183596
1.0000000 0.3889820 0.1244240
1.0000000 0.4064241 0.1310550
1.0000000 0.4212600 0.1368815
1.0000000 0.4361637 0.1429018
1.0000000 0.4503842 0.1488041
1.0000000 0.4639314 0.1545745
1.0000000 0.4746230 0.1592784
1.0000000 0.4849050 0.1639189
1.0000000 0.4948460 0.1685889
1.0000000 0.5044721 0.1732267
1.0000000 0.5137839 0.1778979
1.0000000 0.5227962 0.1825205
1.0000000 0.5297501 0.1862213
1.0000000 0.5380827 0.1907350
1.0000000 0.5445714 0.1943637
1.0000000 0.5506862 0.1978555
1.0000000 0.5566745 0.2013339
1.0000000 0.5624893 0.2048005
1.0000000 0.5681279 0.2082094
1.0000000 0.5737081 0.2116340
1.0000000 0.5778345 0.2141980
1.0000000 0.5832373 0.2175915
1.0000000 0.5874239 0.2201874
1.0000000 0.5922663 0.2232487
1.0000000 0.5957353 0.2254714
1.0000000 0.5992551 0.2277012
1.0000000 0.6034344 0.2303789
1.0000000 0.6064022 0.2323052
1.0000000 0.6093464 0.2342599
1.0000000 0.6121111 0.2361452
1.0000000 0.6147249 0.2379507
1.0000000 0.6173202 0.2397690
1.0000000 0.6199290 0.2417203
1.0000000 0.6215734 0.2429689
1.0000000 0.6240211 0.2448359
1.0000000 0.6265321 0.2467940
1.0000000 0.6291131 0.2488920
1.0000000 0.6307177 0.2502238
1.0000000 0.6331075 0.2522159
1.0000000 0.6347420 0.2536366
1.0000000 0.6373057 0.2560319
0.0061659 0.0314509 0.0218831
0.0102575 0.0310259 0.0219357
0.0141037 0.0305452 0.0219786
0.0202358 0.0306113 0.0221353
0.0435978 0.0348287 0.0231278
0.0770346 0.0420375 0.0246861
0.1299742 0.0543372 0.0273578
0.1922840 0.0695309 0.0307112
0.2630146 0.0881393 0.0348544
0.3325874 0.1068766 0.0392239
0.4128666 0.1299111 0.0447546
0.4875978 0.1527242 0.0504359
0.5569193 0.1752018 0.0562605
0.6262140 0.1992121 0.0627070
0.6785492 0.2183604 0.0680755
0.7344674 0.2402045 0.0743815
0.7901384 0.2635717 0.0813651
0.8402624 0.2861884 0.0883959
0.8871577 0.3090172 0.0957676
0.9245456 0.3285217 0.1023101
0.9567991 0.3464983 0.1085581
0.9828552 0.3620774 0.1141169
1.0000000 0.3775572 0.1198271
1.0000000 0.3934399 0.1258032
1.0000000 0.4081441 0.1315078
1.0000000 0.4252009 0.1382734
1.0000000 0.4398477 0.1442490
1.0000000 0.4537950 0.1501026
1.0000000 0.4649235 0.1548992
1.0000000 0.4775009 0.1604927
1.0000000 0.4876362 0.1652017
1.0000000 0.4973823 0.1697879
1.0000000 0.5068559 0.1744289
1.0000000 0.5141621 0.1781288
1.0000000 0.5230569 0.1826781
1.0000000 0.5299196 0.1863540
1.0000000 0.5381290 0.1907485
1.0000000 0.5445714 0.1943637
1.0000000 0.5506862 0.1978555
1.0000000 0.5566745 0.2013339
1.0000000 0.5624893 0.2048005
1.0000000 0.5681279 0.2082094
1.0000000 0.5737081 0.2116340
1.0000000 0.5778345 0.2141980
1.0000000 0.5832373 0.2175915
1.0000000 0.5874239 0.2201874
1.0000000 0.5922663 0.2232487
1.0000000 0.5957353 0.2254714
1.0000000 0.6002588 0.2282737
1.0000000 0.6034344 0.2303789
1.0000000 0.6064022 0.2323052
1.0000000 0.6093464 0.2342599
1.0000000 0.6121111 0.2361452
1.0000000 0.6147249 0.2379507
1.0000000 0.6173202 0.2397690
1.0000000 0.6199290 0.2417203
1.0000000 0.6222009 0.2433460
1.0000000 0.6240211 0.2448359
1.0000000 0.6265321 0.2467940
1.0000000 0.6291131 0.2488920
1.0000000 0.6307177 0.2502238
1.0000000 0.6331075 0.2522159
1.0000000 0.6347420 0.2536366
1.0000000 0.6373057 0.2560319
0.0126094 0.0899778 0.0271031
0.0171338 0.0891453 0.0271287
0.0207092 0.0862337 0.0269520
0.0270186 0.0858003 0.0270650
0.0544872 0.0883820 0.0280943
0.0884922 0.0926369 0.0294998
0.1418774 0.1036502 0.0321890
0.2029914 0.1152681 0.0353451
0.2729421 0.1318984 0.0395285
0.3466538 0.1508581 0.0443533
0.4236538 0.1707345 0.0497404
0.4961855 0.1918449 0.0554604
0.5684114 0.2143197 0.0617563
0.6334969 0.2347866 0.0678895
0.6848249 0.2527418 0.0733199
0.7363765 0.2708696 0.0791273
0.7918609 0.2934824 0.0863068
0.8415260 0.3144624 0.0933481
0.8875332 0.3362594 0.1007939
0.9240136 0.3539851 0.1072223
0.9556129 0.3711113 0.1134900
0.9813731 0.3851448 0.1189267
1.0000000 0.4001216 0.1247258
1.0000000 0.4148197 0.1306712
1.0000000 0.4288738 0.1363974
1.0000000 0.4446478 0.1430912
1.0000000 0.4583948 0.1490198
1.0000000 0.4687011 0.1537247
1.0000000 0.4807965 0.1594319
1.0000000 0.4905900 0.1640766
1.0000000 0.4997858 0.1686639
1.0000000 0.5108774 0.1741728
1.0000000 0.5175963 0.1777805
1.0000000 0.5258862 0.1822634
1.0000000 0.5339265 0.1866875
1.0000000 0.5402707 0.1902941
1.0000000 0.5462955 0.1938323
1.0000000 0.5536547 0.1979944
1.0000000 0.5591437 0.2013769
1.0000000 0.5645138 0.2046281
1.0000000 0.5698987 0.2078722
1.0000000 0.5736135 0.2104250
1.0000000 0.5786226 0.2135811
1.0000000 0.5835258 0.2167062
1.0000000 0.5870539 0.2190939
1.0000000 0.5917172 0.2221298
1.0000000 0.5944864 0.2241197
1.0000000 0.5972296 0.2261009
1.0000000 0.6009404 0.2286203
1.0000000 0.6034344 0.2303789
1.0000000 0.6064022 0.2323052
1.0000000 0.6093464 0.2342599
1.0000000 0.6121111 0.2361452
1.0000000 0.6147249 0.2379507
1.0000000 0.6173202 0.2397690
1.0000000 0.6199290 0.2417203
1.0000000 0.6223918 0.2435917
1.0000000 0.6240211 0.2448359
1.0000000 0.6265321 0.2467940
1.0000000 0.6291131 0.2488920
1.0000000 0.6307177 0.2502238
1.0000000 0.6331075 0.2522159
1.0000000 0.6347420 0.2536366
1.0000000 0.6373057 0.2560319
0.0229547 0.1690916 0.0348077
0.0271516 0.1672773 0.0347305
0.0305104 0.1625834 0.0343554
0.0379880 0.1614562 0.0344558
0.0673839 0.1650517 0.0357460
0.1017877 0.1701316 0.0373769
0.1593043 0.1807907 0.0404471
0.2175506 0.1898771 0.0435297
0.2882940 0.2049777 0.0479032
0.3570162 0.2204927 0.0525814
0.4346220 0.2395095 0.0584106
0.5041118 0.2575556 0.0641376
0.5783543 0.2784915 0.0709335
0.6387321 0.2964774 0.0770139
0.6886112 0.3121647 0.0824990
0.7403935 0.3282843 0.0885256
0.7903124 0.3467215 0.0952174
0.8440379 0.3684447 0.1033144
0.8837318 0.3854938 0.1099591
0.9188405 0.4016107 0.1164403
0.9496912 0.4167135 0.1226931
0.9746556 0.4295627 0.1282018
0.9991366 0.4415632 0.1337395
1.0000000 0.4553643 0.1398570
1.0000000 0.4677844 0.1455455
1.0000000 0.4824299 0.1523524
1.0000000 0.4946145 0.1583357
1.0000000 0.5030354 0.1628729
1.0000000 0.5141509 0.1685949
1.0000000 0.5226904 0.1732837
1.0000000 0.5309740 0.1778635
1.0000000 0.5380252 0.1821700
1.0000000 0.5457892 0.1865929
1.0000000 0.5532658 0.1910344
1.0000000 0.5589237 0.1946178
1.0000000 0.5649897 0.1985555
1.0000000 0.5702093 0.2019948
1.0000000 0.5752330 0.2052696
1.0000000 0.5791557 0.2082741
1.0000000 0.5839160 0.2114416
1.0000000 0.5886679 0.2146019
1.0000000 0.5927307 0.2175312
1.0000000 0.5972761 0.2206185
1.0000000 0.5999303 0.2227688
1.0000000 0.6043237 0.2258028
1.0000000 0.6073613 0.2280630
1.0000000 0.6102508 0.2303611
1.0000000 0.6127922 0.2322911
1.0000000 0.6148989 0.2340662
1.0000000 0.6168967 0.2356954
1.0000000 0.6184703 0.2370879
1.0000000 0.6204346 0.2387481
1.0000000 0.6218258 0.2400339
1.0000000 0.6234882 0.2415319
1.0000000 0.6248348 0.2428652
1.0000000 0.6265190 0.2444930
1.0000000 0.6277266 0.2457380
1.0000000 0.6292673 0.2472798
1.0000000 0.6298535 0.2482722
1.0000000 0.6309667 0.2495868
1.0000000 0.6317593 0.2508543
1.0000000 0.6331075 0.2522159
1.0000000 0.6352617 0.2539583
1.0000000 0.6373057 0.2560319
0.0373186 0.2651293 0.0453148
0.0409639 0.2620648 0.0450755
0.0446472 0.2589974 0.0448381
0.0532910 0.2569969 0.0449033
0.0840658 0.2593928 0.0462816
0.1208171 0.2631432 0.0480639
0.1790651 0.2716066 0.0513166
0.2377353 0.2807140 0.0548008
0.3048668 0.2923835 0.0591562
0.3683913 0.3040437 0.0635864
0.4459941 0.3202280 0.0696321
0.5120978 0.3346898 0.0753211
0.5876646 0.3532252 0.0825999
0.6389909 0.3660585 0.0879515
0.6882031 0.3821537 0.0940275
0.7386670 0.3971723 0.1003994
0.7923059 0.4147635 0.1079675
0.8393848 0.4313926 0.1153645
0.8778411 0.4457851 0.1220072
0.9115648 0.4592303 0.1284076
0.9415245 0.4719570 0.1346236
0.9657514 0.4826519 0.1400401
0.9894845 0.4939609 0.1458677
1.0000000 0.5056540 0.1519823
1.0000000 0.5159050 0.1576166
1.0000000 0.5266459 0.1635113
1.0000000 0.5371799 0.1695057
1.0000000 0.5470963 0.1752996
1.0000000 0.5565631 0.1809564
1.0000000 0.5637727 0.1855553
1.0000000 0.5707586 0.1900923
1.0000000 0.5774977 0.1944656
1.0000000 0.5840391 0.1989248
1.0000000 0.5888383 0.2024258
1.0000000 0.5950050 0.2066623
1.0000000 0.5995355 0.2100865
1.0000000 0.6053803 0.2141882
1.0000000 0.6096045 0.2173586
1.0000000 0.6136588 0.2205870
1.0000000 0.6176265 0.2236596
1.0000000 0.6214188 0.2266416
1.0000000 0.6251374 0.2295928
1.0000000 0.6276273 0.2317863
1.0000000 0.6312174 0.2346811
1.0000000 0.6336179 0.2368171
1.0000000 0.6360562 0.2390795
1.0000000 0.6379808 0.2408658
1.0000000 0.6398827 0.2426403
1.0000000 0.6425014 0.2449340
1.0000000 0.6438992 0.2463184
1.0000000 0.6452899 0.2478251
1.0000000 0.6466609 0.2491933
1.0000000 0.6470089 0.2503451
1.0000000 0.6481149 0.2516319
1.0000000 0.6493218 0.2531282
1.0000000 0.6498762 0.2540231
1.0000000 0.6509496 0.2555574
1.0000000 0.6513179 0.2566398
1.0000000 0.6523684 0.2579839
1.0000000 0.6527724 0.2589005
1.0000000 0.6536125 0.2604100
1.0000000 0.6539520 0.2615034
1.0000000 0.6540965 0.2626467
1.0000000 0.6544034 0.2637137
0.0532070 0.3561066 0.0567557
0.0563736 0.3528356 0.0564376
0.0610514 0.3536289 0.0566830
0.0734593 0.3519371 0.0569562
0.1026708 0.3532128 0.0583041
0.1409001 0.3562533 0.0602994
0.1975895 0.3630034 0.0636899
0.2557893 0.3707036 0.0674229
0.3224285 0.3810254 0.0721389
0.3876861 0.3950673 0.0776035
0.4630200 0.4091332 0.0840302
0.5206301 0.4200723 0.0892942
0.5903360 0.4351919 0.0964754
0.6437583 0.4471368 0.1024914
0.6927948 0.4588155 0.1085017
0.7422477 0.4745740 0.1157715
0.7886957 0.4876139 0.1227028
0.8337187 0.5014422 0.1301845
0.8749551 0.5152005 0.1378036
0.9027746 0.5244571 0.1432824
0.9310683 0.5374578 0.1501394
0.9542931 0.5462314 0.1555716
0.9773221 0.5557041 0.1615455
0.9994798 0.5655996 0.1678835
1.0000000 0.5740439 0.1735654
1.0000000 0.5848556 0.1801038
1.0000000 0.5932083 0.1859639
1.0000000 0.6010939 0.1916804
1.0000000 0.6070399 0.1962991
1.0000000 0.6141505 0.2016951
1.0000000 0.6214684 0.2066418
1.0000000 0.6266562 0.2109927
1.0000000 0.6303196 0.2143902
1.0000000 0.6352571 0.2185506
1.0000000 0.6400644 0.2226443
1.0000000 0.6433570 0.2258603
1.0000000 0.6465769 0.2289470
1.0000000 0.6512849 0.2325203
1.0000000 0.6552843 0.2361785
1.0000000 0.6569883 0.2382510
1.0000000 0.6596690 0.2410057
1.0000000 0.6622976 0.2437282
1.0000000 0.6648725 0.2464099
1.0000000 0.6663761 0.2483180
1.0000000 0.6689550 0.2509625
1.0000000 0.6704406 0.2526615
1.0000000 0.6737200 0.2553776
1.0000000 0.6748824 0.2570106
1.0000000 0.6758893 0.2584038
1.0000000 0.6766200 0.2597178
1.0000000 0.6773399 0.2609594
1.0000000 0.6780608 0.2624000
1.0000000 0.6785647 0.2635087
1.0000000 0.6790459 0.2647671
1.0000000 0.6795168 0.2659080
1.0000000 0.6799348 0.2670700
1.0000000 0.6805282 0.2685139
1.0000000 0.6805861 0.2693334
1.0000000 0.6811608 0.2705265
1.0000000 0.6816086 0.2718079
1.0000000 0.6815569 0.2730988
1.0000000 0.6819360 0.2743592
1.0000000 0.6818657 0.2752903
1.0000000 0.6821867 0.2766091
0.0716193 0.4463689 0.0703732
0.0743111 0.4426777 0.0697656
0.0793135 0.4434243 0.0699579
0.0949391 0.4416784 0.0702925
0.1234729 0.4419702 0.0715397
0.1623933 0.4440546 0.0736697
0.2201409 0.4535714 0.0779452
0.2767989 0.4593393 0.0818001
0.3409779 0.4670561 0.0865920
0.4083292 0.4762247 0.0921193
0.4756547 0.4900767 0.0988380
0.5320727 0.4987286 0.1042911
0.5981704 0.5106137 0.1114556
0.6493139 0.5199522 0.1174095
0.6929533 0.5316845 0.1236881
0.7413855 0.5421304 0.1305515
0.7913111 0.5542552 0.1384623
0.8290927 0.5669459 0.1457965
0.8685080 0.5779384 0.1534028
0.8984819 0.5864313 0.1596252
0.9227076 0.5933695 0.1650195
0.9446794 0.6031854 0.1713166
0.9668171 0.6105744 0.1772435
0.9884009 0.6188754 0.1837759
1.0000000 0.6281446 0.1901861
1.0000000 0.6354076 0.1962017
1.0000000 0.6423475 0.2021178
1.0000000 0.6509838 0.2085286
1.0000000 0.6558035 0.2131464
1.0000000 0.6603869 0.2175337
1.0000000 0.6648203 0.2219368
1.0000000 0.6710339 0.2268916
1.0000000 0.6751511 0.2311859
1.0000000 0.6791208 0.2352780
1.0000000 0.6836774 0.2391425
1.0000000 0.6872784 0.2430285
1.0000000 0.6897353 0.2461454
1.0000000 0.6920615 0.2490170
1.0000000 0.6960132 0.2525119
1.0000000 0.6983142 0.2553294
1.0000000 0.7005128 0.2580601
1.0000000 0.7026639 0.2606339
1.0000000 0.7053868 0.2631803
1.0000000 0.7074529 0.2658041
1.0000000 0.7086077 0.2677056
1.0000000 0.7102574 0.2699162
1.0000000 0.7123998 0.2720720
1.0000000 0.7130525 0.2734517
1.0000000 0.7141592 0.2753913
1.0000000 0.7144396 0.2765417
1.0000000 0.7147208 0.2778552
1.0000000 0.7163895 0.2795904
1.0000000 0.7164893 0.2807951
1.0000000 0.7165814 0.2818840
1.0000000 0.7166702 0.2829650
1.0000000 0.7162283 0.2838246
1.0000000 0.7176178 0.2854404
1.0000000 0.7176054 0.2866051
1.0000000 0.7171386 0.2874215
1.0000000 0.7170085 0.2885143
1.0000000 0.7168189 0.2895527
1.0000000 0.7162334 0.2902591
1.0000000 0.7174588 0.2923586
1.0000000 0.7168757 0.2943401
0.0912243 0.5283163 0.0855175
0.0945853 0.5287493 0.0855546
0.0986479 0.5246818 0.0847874
0.1187280 0.5273149 0.0859542
0.1461041 0.5263935 0.0870541
0.1877817 0.5275905 0.0892892
0.2409065 0.5352584 0.0933927
0.2991346 0.5398632 0.0974555
0.3575423 0.5451865 0.1019412
0.4246124 0.5526552 0.1077228
0.4888881 0.5643792 0.1145728
0.5461036 0.5716971 0.1204264
0.6066518 0.5806234 0.1273766
0.6514653 0.5906789 0.1336797
0.6987426 0.5983596 0.1400399
0.7461598 0.6070237 0.1471251
0.7890325 0.6189780 0.1552176
0.8298970 0.6278502 0.1627867
0.8624758 0.6384646 0.1703633
0.8909696 0.6450869 0.1767044
0.9141483 0.6504589 0.1821364
0.9353324 0.6589316 0.1886830
0.9564109 0.6648408 0.1946698
0.9766514 0.6741333 0.2021389
0.9934499 0.6796976 0.2079602
1.0000000 0.6854134 0.2139513
1.0000000 0.6931131 0.2206227
1.0000000 0.6982350 0.2263353
1.0000000 0.7018686 0.2307293
1.0000000 0.7075025 0.2359790
1.0000000 0.7108293 0.2402094
1.0000000 0.7161279 0.2451900
1.0000000 0.7192047 0.2493841
1.0000000 0.7211840 0.2524951
1.0000000 0.7260450 0.2572406
1.0000000 0.7277944 0.2601578
1.0000000 0.7303995 0.2638581
1.0000000 0.7338430 0.2673947
1.0000000 0.7353071 0.2700512
1.0000000 0.7367314 0.2726300
1.0000000 0.7391503 0.2752272
1.0000000 0.7404766 0.2776089
1.0000000 0.7417738 0.2800739
1.0000000 0.7440919 0.2826589
1.0000000 0.7453275 0.2849847
1.0000000 0.7454919 0.2863929
1.0000000 0.7479590 0.2890340
1.0000000 0.7480220 0.2904678
1.0000000 0.7478681 0.2915181
1.0000000 0.7493790 0.2934765
1.0000000 0.7491142 0.2944070
1.0000000 0.7488106 0.2954164
1.0000000 0.7501328 0.2973689
1.0000000 0.7496897 0.2982308
1.0000000 0.7494518 0.2991855
1.0000000 0.7506963 0.3012323
1.0000000 0.7500798 0.3019764
1.0000000 0.7498596 0.3030966
1.0000000 0.7510679 0.3049109
1.0000000 0.7503492 0.3055429
1.0000000 0.7499872 0.3069301
1.0000000 0.7496312 0.3085238
1.0000000 0.7503605 0.3104861
1.0000000 0.7496158 0.3116981
0.1124806 0.6041662 0.1022011
0.1145369 0.6003450 0.1011767
0.1198800 0.6009416 0.1013111
0.1411805 0.5992728 0.1019596
0.1705273 0.6026625 0.1039631
0.2139437 0.6038157 0.1065762
0.2639958 0.6060802 0.1098189
0.3221627 0.6137449 0.1149283
0.3790742 0.6177845 0.1195955
0.4421455 0.6271374 0.1261100
0.5024306 0.6329508 0.1320275
0.5605564 0.6391919 0.1383399
0.6159157 0.6493673 0.1459653
0.6585793 0.6542093 0.1513307
0.7050197 0.6605229 0.1578708
0.7464887 0.6699550 0.1653100
0.7879233 0.6767333 0.1724707
0.8264692 0.6869767 0.1810577
0.8576403 0.6927512 0.1878095
0.8841844 0.7009457 0.1951814
0.9062251 0.7051239 0.2008203
0.9272056 0.7094595 0.2065645
0.9465793 0.7167845 0.2136006
0.9668076 0.7219859 0.2202370
0.9822484 0.7287384 0.2270013
0.9974384 0.7328791 0.2329018
1.0000000 0.7393208 0.2395233
1.0000000 0.7419821 0.2440673
1.0000000 0.7478632 0.2503441
1.0000000 0.7501702 0.2545908
1.0000000 0.7547476 0.2596771
1.0000000 0.7568582 0.2636589
1.0000000 0.7588754 0.2675360
1.0000000 0.7622666 0.2714908
1.0000000 0.7640884 0.2751689
1.0000000 0.7672470 0.2789305
1.0000000 0.7682568 0.2816482
1.0000000 0.7711806 0.2851811
1.0000000 0.7720784 0.2877064
1.0000000 0.7729247 0.2901636
1.0000000 0.7756624 0.2935361
1.0000000 0.7764257 0.2958258
1.0000000 0.7784178 0.2984312
1.0000000 0.7791341 0.3006579
1.0000000 0.7791892 0.3022599
1.0000000 0.7813860 0.3050810
1.0000000 0.7810958 0.3063923
1.0000000 0.7826606 0.3085005
1.0000000 0.7821851 0.3095829
1.0000000 0.7838916 0.3119754
1.0000000 0.7833224 0.3128920
1.0000000 0.7826725 0.3139302
1.0000000 0.7837915 0.3156416
1.0000000 0.7831641 0.3164846
1.0000000 0.7839124 0.3179815
1.0000000 0.7834157 0.3189889
1.0000000 0.7829080 0.3203003
1.0000000 0.7839409 0.3221057
1.0000000 0.7830956 0.3231130
1.0000000 0.7824627 0.3245580
1.0000000 0.7830840 0.3264999
1.0000000 0.7824508 0.3279281
1.0000000 0.7830706 0.3298561
1.0000000 0.7823781 0.3313258
0.1315269 0.6625377 0.1172240
0.1336536 0.6591643 0.1163418
0.1397524 0.6597564 0.1163946
0.1633056 0.6584588 0.1173004
0.1918054 0.6613096 0.1194462
0.2381896 0.6625702 0.1225110
0.2863123 0.6678035 0.1266217
0.3436033 0.6709101 0.1312638
0.3993497 0.6743531 0.1361378
0.4629948 0.6826769 0.1430936
0.5194542 0.6873736 0.1491233
0.5750329 0.6957547 0.1564108
0.6254895 0.7008394 0.1628686
0.6663371 0.7079364 0.1692029
0.7079175 0.7126710 0.1753594
0.7525425 0.7216164 0.1838832
0.7922511 0.7273839 0.1912029
0.8251078 0.7323126 0.1977381
0.8541973 0.7397106 0.2051448
0.8799165 0.7439942 0.2116000
0.9004276 0.7499894 0.2183148
0.9205605 0.7535898 0.2242765
0.9391873 0.7598118 0.2313666
0.9584271 0.7641026 0.2382577
0.9732149 0.7698214 0.2451634
0.9875671 0.7731896 0.2510212
0.9996777 0.7785768 0.2578002
1.0000000 0.7807013 0.2622873
1.0000000 0.7856129 0.2685559
1.0000000 0.7874293 0.2728509
1.0000000 0.7912695 0.2779518
1.0000000 0.7929267 0.2819462
1.0000000 0.7958319 0.2859558
1.0000000 0.7973505 0.2897806
1.0000000 0.8000807 0.2936244
1.0000000 0.8014050 0.2971880
1.0000000 0.8039640 0.3007357
1.0000000 0.8044667 0.3032121
1.0000000 0.8068736 0.3066992
1.0000000 0.8072977 0.3091040
1.0000000 0.8095821 0.3123939
1.0000000 0.8093947 0.3139674
1.0000000 0.8116171 0.3171948
1.0000000 0.8114109 0.3188235
1.0000000 0.8135464 0.3220410
1.0000000 0.8130485 0.3232777
1.0000000 0.8148050 0.3259896
1.0000000 0.8143010 0.3273137
1.0000000 0.8153797 0.3292208
1.0000000 0.8146951 0.3300851
1.0000000 0.8157626 0.3319729
1.0000000 0.8150099 0.3330140
1.0000000 0.8141980 0.3338905
1.0000000 0.8151374 0.3357947
1.0000000 0.8143171 0.3366436
1.0000000 0.8151875 0.3384471
1.0000000 0.8140249 0.3389254
1.0000000 0.8149020 0.3413331
1.0000000 0.8139970 0.3426440
1.0000000 0.8145142 0.3445577
1.0000000 0.8135356 0.3457552
1.0000000 0.8123042 0.3466185
1.0000000 0.8130649 0.3490655
1.0000000 0.8117979 0.3501104
0.1502515 0.7128785 0.1316323
0.1537757 0.7131692 0.1316622
0.1598027 0.7098163 0.1309876
0.1854463 0.7119524 0.1329562
0.2129521 0.7104772 0.1342304
0.2625844 0.7149211 0.1386276
0.3070595 0.7153487 0.1418148
0.3647808 0.7211145 0.1476338
0.4159065 0.7228980 0.1521538
0.4792711 0.7301326 0.1596310
0.5325379 0.7331727 0.1652849
0.5890871 0.7406911 0.1732484
0.6352588 0.7439390 0.1792621
0.6752410 0.7501057 0.1858078
0.7160046 0.7535869 0.1920950
0.7551193 0.7605801 0.1999216
0.7934427 0.7654430 0.2073157
0.8283525 0.7727951 0.2159279
0.8556943 0.7765644 0.2221887
0.8767647 0.7817081 0.2283733
0.8993952 0.7852202 0.2345193
0.9183136 0.7905172 0.2416242
0.9342607 0.7929375 0.2470497
0.9520003 0.7986202 0.2549767
0.9667848 0.8014205 0.2609078
0.9797956 0.8062313 0.2678137
0.9894454 0.8100194 0.2735372
1.0000000 0.8124474 0.2790952
1.0000000 0.8159089 0.2843954
1.0000000 0.8173754 0.2886087
