Plugins/FilmEmulator/Content/LUTs/FE_Kodak_16mm_Variant_64.cube
# FilmEmulator LUT (resampled to 64)
LUT_3D_SIZE 4
0.000000 0.000000 0.000031
0.340658 0.000417 0.028321
0.659892 0.000000 0.067901
0.839447 0.000000 0.105927
0.098480 0.204071 0.062449
0.300964 0.215987 0.062568
0.636854 0.141361 0.037181
0.851308 0.047760 0.056895
0.213328 0.490488 0.141764
0.370717 0.488861 0.139174
0.670970 0.503065 0.127773
0.899933 0.421946 0.079692
0.580597 0.912445 0.258545
0.733907 0.944865 0.265666
0.920329 0.959046 0.285186
0.971802 0.873688 0.269562
0.000325 0.110260 0.451854
0.238129 0.073039 0.392761
0.617031 0.045101 0.256087
0.958089 0.111796 0.293152
0.029900 0.231272 0.231093
0.317073 0.303700 0.322451
0.706761 0.297213 0.295790
0.963264 0.241923 0.238427
0.187822 0.571689 0.292558
0.374277 0.566555 0.271838
0.713658 0.558146 0.290893
0.930325 0.482629 0.223460
0.573690 0.944234 0.366719
0.777086 0.948490 0.384729
0.948632 0.961409 0.406817
0.986165 0.965831 0.420196
0.000000 0.176727 0.785441
0.135973 0.184201 0.776896
0.490580 0.135193 0.647787
0.729126 0.056468 0.458791
0.000041 0.311588 0.651760
0.152994 0.332463 0.701832
0.487994 0.298881 0.615007
0.806580 0.221588 0.472178
0.097381 0.578827 0.607059
0.251387 0.591471 0.611763
0.678756 0.653057 0.677641
0.993832 0.608514 0.597619
0.310862 0.926280 0.626271
0.499383 0.937459 0.642907
0.881734 0.960293 0.667460
0.984650 0.970072 0.651245
0.000000 0.220215 0.933655
0.097249 0.232829 0.920532
0.410756 0.238770 0.846446
0.709656 0.188324 0.751068
0.000000 0.374634 0.914368
0.097314 0.385837 0.910519
0.415433 0.392609 0.878618
0.731974 0.359223 0.794098
0.000000 0.535726 0.839315
0.104065 0.560357 0.862406
0.438300 0.627425 0.908505
0.789266 0.589426 0.860982
0.242401 0.966888 0.936829
0.318359 0.969218 0.946655
0.644226 0.978058 0.984090
0.999969 0.999969 0.999969
