Plugins/FilmEmulator/Content/LUTs/FE_Kodak_5207_64.cube
TITLE "FE_Kodak_5207_33"
LUT_3D_SIZE 8
0.0016864 0.0010798 0.0015275
0.0868219 0.0027010 0.0032675
0.1912888 0.0055913 0.0066465
0.2937127 0.0101555 0.0118963
0.3810556 0.0152840 0.0179780
0.4599392 0.0212816 0.0248096
0.5232580 0.0275252 0.0315861
0.5771125 0.0343014 0.0386757
0.0040467 0.0905225 0.0040129
0.0827619 0.0983132 0.0071448
0.1854277 0.1097104 0.0120753
0.2809493 0.1179546 0.0180032
0.3682672 0.1266275 0.0247255
0.4479048 0.1357598 0.0313432
0.5122284 0.1453886 0.0381823
0.5671651 0.1555427 0.0449408
0.0082192 0.2219983 0.0086517
0.0837018 0.2307397 0.0134694
0.1821683 0.2387101 0.0192884
0.2840461 0.2465779 0.0254631
0.3718808 0.2619379 0.0322536
0.4428386 0.2700221 0.0392241
0.5073116 0.2781966 0.0460884
0.5625402 0.2864550 0.0523593
0.0139114 0.3403669 0.0155353
0.0854211 0.3511291 0.0205127
0.1855320 0.3612703 0.0269381
0.2812743 0.3712066 0.0339879
0.3688799 0.3810891 0.0412835
0.4398670 0.3815324 0.0468723
0.5042860 0.3913557 0.0549540
0.5595487 0.4011917 0.0623835
0.0199556 0.4541531 0.0234647
0.0874563 0.4557846 0.0284329
0.1840450 0.4667541 0.0357228
0.2794393 0.4674876 0.0418834
0.3667432 0.4779974 0.0491159
0.4464897 0.4884227 0.0557287
0.5112524 0.4888649 0.0631615
0.5572459 0.4991916 0.0717135
0.0268814 0.5343169 0.0321571
0.0896783 0.5455143 0.0363317
0.1884016 0.5465671 0.0438854
0.2851522 0.5571716 0.0513669
0.3736154 0.5577270 0.0581623
0.4446681 0.5680258 0.0659804
0.5093952 0.5684064 0.0724265
0.5645475 0.5785356 0.0795750
0.0339073 0.6036244 0.0407383
0.0920986 0.6142658 0.0445751
0.1929731 0.6152185 0.0519647
0.2840359 0.6158361 0.0587831
0.3721039 0.6258933 0.0666217
0.4432958 0.6263412 0.0754528
0.5077621 0.6361278 0.0828536
0.5631677 0.6364607 0.0908831
0.0413448 0.6605190 0.0497585
0.0947324 0.6613421 0.0543550
0.1921286 0.6711801 0.0613810
0.2903585 0.6717352 0.0672275
0.3708093 0.6810912 0.0761814
0.4419141 0.6814577 0.0835234
0.5065938 0.6817982 0.0915853
0.5617781 0.6908740 0.1005401
0.0094197 0.0036748 0.1072279
0.1034209 0.0070629 0.1140161
0.2120377 0.0115203 0.1222237
0.3069325 0.0166309 0.1308349
0.3967958 0.0223051 0.1397774
0.4676869 0.0288227 0.1492062
0.5314819 0.0346092 0.1588717
0.5853250 0.0415318 0.1690995
0.0102757 0.0994152 0.1224643
0.1004037 0.1111050 0.1320946
0.2022996 0.1193009 0.1397227
0.3035050 0.1279225 0.1480478
0.3854843 0.1370111 0.1570060
0.4569570 0.1465898 0.1617021
0.5213665 0.1567425 0.1714804
0.5760942 0.1674153 0.1817808
0.0145877 0.2325377 0.1336507
0.1016515 0.2408631 0.1398456
0.2047033 0.2486546 0.1476865
0.2992046 0.2564215 0.1562760
0.3806276 0.2719309 0.1656505
0.4612643 0.2800084 0.1703244
0.5166628 0.2882101 0.1803737
0.5717032 0.2965571 0.1908920
0.0208691 0.3531386 0.1396673
0.1004169 0.3635512 0.1465319
0.2024726 0.3734556 0.1546868
0.2963024 0.3832284 0.1636201
0.3864765 0.3836504 0.1729307
0.4582472 0.3933630 0.1830058
0.5228997 0.4030831 0.1881678
0.5686984 0.4128842 0.1990914
0.0270982 0.4577600 0.1497680
0.1027565 0.4689066 0.1573421
0.2068450 0.4696428 0.1610308
0.3020022 0.4800763 0.1702712
0.3842719 0.4804941 0.1799338
0.4559251 0.4907823 0.1903314
0.5205549 0.5009993 0.1956548
0.5666170 0.5012679 0.2066955
0.0341167 0.5473207 0.1555192
0.1053989 0.5484321 0.1634182
0.2056488 0.5491965 0.1722154
0.3004453 0.5595357 0.1768064
0.3822909 0.5697724 0.1869636
0.4540691 0.5701271 0.1974691
0.5189139 0.5703942 0.2027332
0.5738730 0.5804566 0.2142432
0.0415605 0.6159174 0.1659306
0.1081864 0.6167879 0.1695146
0.2045989 0.6174926 0.1786237
0.2990798 0.6274539 0.1833528
0.3809659 0.6278489 0.1935995
0.4524359 0.6375951 0.2046083
0.5172613 0.6378486 0.2100171
0.5724794 0.6381274 0.2216124
0.0489990 0.6627547 0.1715478
0.1111265 0.6724701 0.1756096
0.2096072 0.6731296 0.1849795
0.2981102 0.6735808 0.1951465
0.3883554 0.6827855 0.2003689
0.4604602 0.6831015 0.2114480
0.5158417 0.6920574 0.2172742
0.5710764 0.6922654 0.2229945
0.0229226 0.0091520 0.2403923
0.1232848 0.0138673 0.2465247
0.2285602 0.0193062 0.2540753
0.3286131 0.0249646 0.2617351
0.4127191 0.0311120 0.2695698
0.4847154 0.0373441 0.2774242
0.5392536 0.0447963 0.2855627
0.5930882 0.0517781 0.2935762
0.0231194 0.1073630 0.2569638
0.1175378 0.1196274 0.2683723
0.2200989 0.1283204 0.2745686
0.3188644 0.1374622 0.2813330
0.4027825 0.1470978 0.2884678
0.4750837 0.1572661 0.2958488
0.5303152 0.1679369 0.3034794
0.5850445 0.1735586 0.3109410
0.0250352 0.2409438 0.2700970
0.1190659 0.2492075 0.2743503
0.2228217 0.2570962 0.2803645
0.3146354 0.2649730 0.2870110
0.3980688 0.2808176 0.3016918
0.4704012 0.2890364 0.3089858
0.5258461 0.2973017 0.3088487
0.5806698 0.3057529 0.3163852
0.0282914 0.3637634 0.2808876
0.1213948 0.3741853 0.2854536
0.2206022 0.3747924 0.2914296
0.3118452 0.3844975 0.2982360
0.3951620 0.3942195 0.3053430
0.4673609 0.4039764 0.3126878
0.5320758 0.4137878 0.3202040
0.5779104 0.4139908 0.3276726
0.0355541 0.4692537 0.2906547
0.1204301 0.4703963 0.2955343
0.2251049 0.4809780 0.3018485
0.3177170 0.4814250 0.3085150
0.3929376 0.4916858 0.3158338
0.4650308 0.5019341 0.3233203
0.5299686 0.5022056 0.3306810
0.5756083 0.5123675 0.3385775
0.0432718 0.5489250 0.2998771
0.1234676 0.5498621 0.2976840
0.2238219 0.5603719 0.3040948
0.3161079 0.5608157 0.3107901
0.3999732 0.5709891 0.3180681
0.4633951 0.5712563 0.3253636
0.5280879 0.5812875 0.3330452
0.5739893 0.5814931 0.3406714
0.0509165 0.6173162 0.3014976
0.1266723 0.6181581 0.3071130
0.2227016 0.6282499 0.3137144
0.3147011 0.6286726 0.3205293
0.3983983 0.6384110 0.3279356
0.4709833 0.6386926 0.3352788
0.5266724 0.6389175 0.3428554
0.5814334 0.6484321 0.3508262
0.0579209 0.6730421 0.3105077
0.1260657 0.6737246 0.3165033
0.2281993 0.6743057 0.3228523
0.3214006 0.6835505 0.3300727
0.3972742 0.6838410 0.3373684
0.4695714 0.6928383 0.3451251
0.5252475 0.6929960 0.3446782
0.5802701 0.6932037 0.3523624
0.0389037 0.0160188 0.3540282
0.1426390 0.0215568 0.3616673
0.2466207 0.0278930 0.3706980
0.3431520 0.0347579 0.3799847
0.4199784 0.0417112 0.3808491
0.4924500 0.0482463 0.3900028
0.5471926 0.0557550 0.3994023
0.6009899 0.0621512 0.4085673
0.0383826 0.1155406 0.3792569
0.1371654 0.1284671 0.3856701
0.2389911 0.1376584 0.3848285
0.3345956 0.1473497 0.3930021
0.4113252 0.1575483 0.4015553
0.4842027 0.1629178 0.4099263
0.5394313 0.1738674 0.4100947
0.5936693 0.1854384 0.4190145
0.0402236 0.2490970 0.3867070
0.1390234 0.2573565 0.3926051
0.2420564 0.2653737 0.4000435
0.3302611 0.2812333 0.4084115
0.4157380 0.2894608 0.4079362
0.4795036 0.2978074 0.4164316
0.5442182 0.3062933 0.4249820
0.5895495 0.3148159 0.4249063
0.0410775 0.3740482 0.4000068
0.1375045 0.3751172 0.4057355
0.2396954 0.3849355 0.4045513
0.3275941 0.3947172 0.4126264
0.4127933 0.4045358 0.4209114
0.4764622 0.4143518 0.4294886
0.5414082 0.4145571 0.4289198
0.5868054 0.4243902 0.4377073
0.0450801 0.4702791 0.4029858
0.1405808 0.4812682 0.4092133
0.2380237 0.4818609 0.4165139
0.3336263 0.4922406 0.4245840
0.4105276 0.5024601 0.4241835
0.4836143 0.5027619 0.4323690
0.5390709 0.5129548 0.4410913
0.5847390 0.5131060 0.4406839
0.0512367 0.5498913 0.4139630
0.1440553 0.5607475 0.4204887
0.2432830 0.5612772 0.4190442
0.3319737 0.5715056 0.4272098
0.4089495 0.5718319 0.4353304
0.4817350 0.5818318 0.4350077
0.5374281 0.5820675 0.4434117
0.5829045 0.5920026 0.4522711
0.0602089 0.6182418 0.4158506
0.1432643 0.6285515 0.4227923
0.2420933 0.6291115 0.4301658
0.3307288 0.6294508 0.4291949
0.4073562 0.6391533 0.4376592
0.4803214 0.6394347 0.4459110
0.5357715 0.6488897 0.4457540
0.5905310 0.6491112 0.4542069
0.0684097 0.6739072 0.4262999
0.1471333 0.6745894 0.4332033
0.2410695 0.6838800 0.4321598
0.3294890 0.6842475 0.4400634
0.4151586 0.6845644 0.4481626
0.4788995 0.6934740 0.4479238
0.5345926 0.6936823 0.4563831
0.5891489 0.7024742 0.4652058
0.0558565 0.0240175 0.4604896
0.1598739 0.0311200 0.4600895
0.2659816 0.0374023 0.4692534
0.3583978 0.0448931 0.4699299
0.4367830 0.0519114 0.4795335
0.5003944 0.0599860 0.4802955
0.5552962 0.0668395 0.4898430
0.6088155 0.0744224 0.4994065
0.0555434 0.1240915 0.4757856
0.1547843 0.1377467 0.4831788
0.2589909 0.1474867 0.4823677
0.3509197 0.1526490 0.4907513
0.4291613 0.1630999 0.4906782
0.4930758 0.1741101 0.4998193
0.5482572 0.1856601 0.4999948
0.6024490 0.1917499 0.5088897
0.0563180 0.2571772 0.4834508
0.1569654 0.2654813 0.4901768
0.2554553 0.2735721 0.4891073
0.3464732 0.2897411 0.4978345
0.4245805 0.2981423 0.5064762
0.4886052 0.3065843 0.5062295
0.5532361 0.3152145 0.5150391
0.5983562 0.3238759 0.5149611
0.0575435 0.3749245 0.4971249
0.1552790 0.3850697 0.4948919
0.2530089 0.3949916 0.5028737
0.3437390 0.4048120 0.5022153
0.4216101 0.4146881 0.5108579
0.4950680 0.4149228 0.5101910
0.5504341 0.4247885 0.5190824
0.5956231 0.4346336 0.5190047
0.0609412 0.4810910 0.5006652
0.1588139 0.4820337 0.5072328
0.2581417 0.4924711 0.5061617
0.3499219 0.5028378 0.5145586
0.4285830 0.5031106 0.5138085
0.4927228 0.5133337 0.5226142
0.5483303 0.5135161 0.5221149
0.5935751 0.5236735 0.5310804
0.0625773 0.5605135 0.5032805
0.1626602 0.5614483 0.5098487
0.2567330 0.5717905 0.5179150
0.3484399 0.5721454 0.5169196
0.4267541 0.5822300 0.5255562
0.4910758 0.5824380 0.5249733
0.5464639 0.5924006 0.5338511
0.5919738 0.5925475 0.5334373
0.0687142 0.6284674 0.5144613
0.1617844 0.6292183 0.5122234
0.2626243 0.6297507 0.5198686
0.3469508 0.6394494 0.5192964
0.4253682 0.6397584 0.5275939
0.4894158 0.6492378 0.5273510
0.5450462 0.6494599 0.5358877
0.5903568 0.6587694 0.5358134
0.0780515 0.6745355 0.5158308
0.1659392 0.6840561 0.5232342
0.2615416 0.6844741 0.5219098
0.3458923 0.6848154 0.5300419
0.4239815 0.6937729 0.5296338
0.4882351 0.6940072 0.5380828
0.5436267 0.7027447 0.5379249
0.5981796 0.7029488 0.5464419
0.0747471 0.0334282 0.5349681
0.1791925 0.0402168 0.5433053
0.2793109 0.0465633 0.5433205
0.3658391 0.0538438 0.5527056
0.4447987 0.0622338 0.5533009
0.5088033 0.0693368 0.5626527
0.5635649 0.0771679 0.5631595
0.6167921 0.0858509 0.5636722
0.0723421 0.1330716 0.5480628
0.1743812 0.1426967 0.5553812
0.2730013 0.1527009 0.5547395
0.3674262 0.1632342 0.5633464
0.4378328 0.1742361 0.5633549
0.5021815 0.1800456 0.5720010
0.5572492 0.1919055 0.5721736
0.6109297 0.2044051 0.5811937
0.0733967 0.2652971 0.5642759
0.1767866 0.2736356 0.5623172
0.2765478 0.2819090 0.5702367
0.3630989 0.2983059 0.5700016
0.4425636 0.3068508 0.5784539
0.5069990 0.3154352 0.5782123
0.5622047 0.3241268 0.5780533
0.6070923 0.3329723 0.5867929
0.0749676 0.3848736 0.5688479
0.1749312 0.3950703 0.5758464
0.2739641 0.4050034 0.5748761
0.3605170 0.4053208 0.5739791
0.4397907 0.4152010 0.5824126
0.5041752 0.4250410 0.5821715
0.5594191 0.4349757 0.5908064
0.6046042 0.4351236 0.5904030
0.0768261 0.4817670 0.5720836
0.1788238 0.4925541 0.5790703
0.2723112 0.4930014 0.5778525
0.3583777 0.5033388 0.5861077
0.4374827 0.5135635 0.5857050
0.5020635 0.5138348 0.5939106
0.5573222 0.5239639 0.5937536
0.6025640 0.5241147 0.5933510
0.0788549 0.5612419 0.5834876
0.1777489 0.5718143 0.5817118
0.2780904 0.5723419 0.5892172
0.3651482 0.5824249 0.5886562
0.4358680 0.5826622 0.5880070
0.5001789 0.5926529 0.5965271
0.5556886 0.5928295 0.5960436
0.6007504 0.6027474 0.6046780
0.0809940 0.6290492 0.5857249
0.1822314 0.6297729 0.5836221
0.2767819 0.6396348 0.5915297
0.3638414 0.6399435 0.5906415
0.4342477 0.6495021 0.5990673
0.4987536 0.6496982 0.5985032
0.5542815 0.6499195 0.6067128
0.5993732 0.6592236 0.6066414
0.0860041 0.6838725 0.5875546
0.1814088 0.6845453 0.5943885
0.2758478 0.6849374 0.5931825
0.3625406 0.6939939 0.6013553
0.4421917 0.6942296 0.6006315
0.4975650 0.6943869 0.6001484
0.5528665 0.7031678 0.6086746
0.5982236 0.7032961 0.6082767
0.0933532 0.0431861 0.5988522
0.1947687 0.0500350 0.6069171
0.2930713 0.0578740 0.6070157
0.3817988 0.0668703 0.6074350
0.4620359 0.0744847 0.6163092
0.5262403 0.0828863 0.6167204
0.5717919 0.0889987 0.6255293
0.6247083 0.0988948 0.6260197
0.0907693 0.1425645 0.6099083
0.1957864 0.1527232 0.6171885
0.2948319 0.1632736 0.6166496
0.3756272 0.1743445 0.6250541
0.4559451 0.1801587 0.6246645
0.5203327 0.1920438 0.6247514
0.5662020 0.1982775 0.6331704
0.6195595 0.2110542 0.6333368
0.0921379 0.2734692 0.6251533
0.1929072 0.2818785 0.6235933
0.2911856 0.2902840 0.6312358
0.3803340 0.2986952 0.6306946
0.4515229 0.3155794 0.6307015
0.5161016 0.3243508 0.6389105
0.5713692 0.3245089 0.6384463
0.6159762 0.3333083 0.6383740
0.0940663 0.3948426 0.6295214
0.1965320 0.4049973 0.6279683
0.2887065 0.4054545 0.6353381
0.3774795 0.4153360 0.6347992
0.4487372 0.4252063 0.6344911
0.5132785 0.4351721 0.6426652
0.5685892 0.4353502 0.6422030
0.6132892 0.4453158 0.6504578
0.0963468 0.4923145 0.6326070
0.1952344 0.4930540 0.6392469
0.2943122 0.5034503 0.6384042
0.3752895 0.5137035 0.6379447
0.4466563 0.5140049 0.6456985
0.5111600 0.5241645 0.6454713
0.5665009 0.5243460 0.6450108
0.6112638 0.5344890 0.6532372
0.0957163 0.5715784 0.6351320
0.1940822 0.5723063 0.6417531
0.2927736 0.5825043 0.6409127
0.3737647 0.5828565 0.6484882
0.4539649 0.5928475 0.6481096
0.5095106 0.5930244 0.6476493
0.5646458 0.6029706 0.6557748
0.6096825 0.6031163 0.6553968
0.0983529 0.6296020 0.6453242
0.1987380 0.6396285 0.6438785
0.2916138 0.6400182 0.6428045
0.3808694 0.6496583 0.6505986
0.4525565 0.6498817 0.6499868
0.5080914 0.6501035 0.6577774
0.5632378 0.6594332 0.6576334
0.6083155 0.6595708 0.6572564
0.1010518 0.6843607 0.6471315
0.1980007 0.6849309 0.6454512
0.2904601 0.6940627 0.6529955
0.3797581 0.6943489 0.6521589
0.4513825 0.6945582 0.6515486
0.5159566 0.7033628 0.6595570
0.5620629 0.7034910 0.6591803
0.6071800 0.7036692 0.6669517
0.1125305 0.0537040 0.6513547
0.2174453 0.0621774 0.6591570
0.3152552 0.0693164 0.6590230
0.3984866 0.0771824 0.6591877
0.4703628 0.0859065 0.6676449
0.5346080 0.0955024 0.6680339
0.5799707 0.1024338 0.6682694
0.6240739 0.1098362 0.6765392
0.1098233 0.1525835 0.6606055
0.2130727 0.1632662 0.6677069
0.3100422 0.1688610 0.6669691
0.3928715 0.1802028 0.6668296
0.4647240 0.1921446 0.6748912
0.5294187 0.1983833 0.6746733
0.5748726 0.2111457 0.6749038
0.6193727 0.2178452 0.6827915
0.1115390 0.2817329 0.6746727
0.2101541 0.2902298 0.6734283
0.3062796 0.2987126 0.6726967
0.3888710 0.3072887 0.6802449
0.4607534 0.3159060 0.6799551
0.5254211 0.3246317 0.6797384
0.5802530 0.3335116 0.6874917
0.6245657 0.3424380 0.6874243
0.1102841 0.4047953 0.6788442
0.2141840 0.4054207 0.6772370
0.3037290 0.4154144 0.6845164
0.3859905 0.4253429 0.6840849
0.4577237 0.4352814 0.6837971
0.5226003 0.4354899 0.6832867
0.5774868 0.4454863 0.6909948
0.6218941 0.4554456 0.6909279
0.1130044 0.4928145 0.6814387
0.2126398 0.5033854 0.6802077
0.3095069 0.5138149 0.6873804
0.3927566 0.5141169 0.6866575
0.4648351 0.5243064 0.6863711
0.5204900 0.5245473 0.6937478
0.5754080 0.5346618 0.6936094
0.6201084 0.5348124 0.6932529
0.1158768 0.5720996 0.6837299
0.2174905 0.5825270 0.6903607
0.3081194 0.5829079 0.6894285
0.3909738 0.5929265 0.6890013
0.4632053 0.5932193 0.6962022
0.5186042 0.6031080 0.6960655
0.5737861 0.6032830 0.6956390
0.6183138 0.6130623 0.6955752
0.1152211 0.6394050 0.6858048
0.2165441 0.6400397 0.6921218
0.3067243 0.6496783 0.6914862
0.3896275 0.6499563 0.6907684
0.4617914 0.6502337 0.6979468
0.5264646 0.6595899 0.6977397
0.5723847 0.6597273 0.6973854
0.6169637 0.6689611 0.7049773
0.1184262 0.6847978 0.6950084
0.2155994 0.6940312 0.6938800
0.3135231 0.6943930 0.6928819
0.3885121 0.6946779 0.6999637
0.4603768 0.7034561 0.6996874
0.5252767 0.7036366 0.6991912
0.5712214 0.7038146 0.7064717
0.6158303 0.7123668 0.7064101
