Plugins/FilmEmulator/Content/LUTs/FE_Kodak_Polymax_Grade_3_64.cube
TITLE "FE_Kodak_Polymax_Grade_3_33"
LUT_3D_SIZE 4
0.0022144 0.0022144 0.0022144
0.0022144 0.0022144 0.0022144
0.0022229 0.0022229 0.0022229
0.0022695 0.0022695 0.0022695
0.0070833 0.0070833 0.0070833
0.0105025 0.0105025 0.0105025
0.0154125 0.0154125 0.0154125
0.0217607 0.0217607 0.0217607
0.0759393 0.0759393 0.0759393
0.0985617 0.0985617 0.0985617
0.1265703 0.1265703 0.1265703
0.1636817 0.1636817 0.1636817
0.3946376 0.3946376 0.3946376
0.4615316 0.4615316 0.4615316
0.5305173 0.5305173 0.5305173
0.5908692 0.5908692 0.5908692
0.6747683 0.6747683 0.6747683
0.7284664 0.7284664 0.7284664
0.7690406 0.7690406 0.7690406
0.8102137 0.8102137 0.8102137
0.9051516 0.9051516 0.9051516
0.9180855 0.9180855 0.9180855
0.9288164 0.9288164 0.9288164
0.9380513 0.9380513 0.9380513
0.9623631 0.9623631 0.9623631
0.9654990 0.9654990 0.9654990
0.9686992 0.9686992 0.9686992
0.9710162 0.9710162 0.9710162
0.9771442 0.9771442 0.9771442
0.9782958 0.9782958 0.9782958
0.9792025 0.9792025 0.9792025
0.9798456 0.9798456 0.9798456
0.9808374 0.9808374 0.9808374
0.9815176 0.9815176 0.9815176
0.9820120 0.9820120 0.9820120
0.9824649 0.9824649 0.9824649
0.9840347 0.9840347 0.9840347
0.9843524 0.9843524 0.9843524
0.9846640 0.9846640 0.9846640
0.9849418 0.9849418 0.9849418
0.9859044 0.9859044 0.9859044
0.9861003 0.9861003 0.9861003
0.9862294 0.9862294 0.9862294
0.9863868 0.9863868 0.9863868
0.9868031 0.9868031 0.9868031
0.9869104 0.9869104 0.9869104
0.9869815 0.9869815 0.9869815
0.9870874 0.9870874 0.9870874
0.9871795 0.9871795 0.9871795
0.9872361 0.9872361 0.9872361
0.9872925 0.9872925 0.9872925
0.9873767 0.9873767 0.9873767
0.9875482 0.9875482 0.9875482
0.9875830 0.9875830 0.9875830
0.9876009 0.9876009 0.9876009
0.9876102 0.9876102 0.9876102
0.9876446 0.9876446 0.9876446
0.9876475 0.9876475 0.9876475
0.9876505 0.9876505 0.9876505
0.9876534 0.9876534 0.9876534
0.9876632 0.9876632 0.9876632
0.9876643 0.9876643 0.9876643
0.9876664 0.9876664 0.9876664
0.9876685 0.9876685 0.9876685
