Plugins/FilmEmulator/Content/LUTs/FE_Kodak_Vision2_250D_5205_64.cube
# FilmEmulator LUT (resampled to 64)
LUT_3D_SIZE 64
0.000916 0.000916 0.000000
0.005814 0.000451 0.000000
0.010805 0.000000 0.000000
0.018680 0.000000 0.000000
0.026609 0.000000 0.000000
0.035367 0.000000 0.000000
0.044294 0.000000 0.000000
0.054850 0.000000 0.000000
0.065529 0.000000 0.000000
0.077061 0.000000 0.000000
0.088887 0.000000 0.000000
0.102296 0.000000 0.000000
0.115413 0.000073 0.000000
0.127272 0.000460 0.000000
0.139323 0.000678 0.000000
0.152065 0.000291 0.000000
0.164946 0.000000 0.000000
0.178246 0.000000 0.000000
0.191716 0.000000 0.000000
0.205620 0.000000 0.000000
0.219335 0.000000 0.000000
0.232636 0.000000 0.000000
0.245968 0.000000 0.000000
0.259361 0.000000 0.000000
0.272701 0.000058 0.000000
0.285954 0.000213 0.000000
0.299824 0.000683 0.000000
0.314597 0.001613 0.000000
0.328345 0.002536 0.000000
0.340777 0.003451 0.000000
0.352962 0.004526 0.000000
0.364867 0.005781 0.000000
0.376554 0.007587 0.000000
0.388025 0.009943 0.000000
0.399306 0.012571 0.000000
0.410421 0.015438 0.000000
0.421273 0.018533 0.000000
0.431923 0.021803 0.000000
0.442342 0.024936 0.000000
0.452603 0.027975 0.000000
0.462768 0.031119 0.000000
0.472875 0.034328 0.000000
0.483409 0.037699 0.000000
0.494166 0.041156 0.000000
0.504913 0.044634 0.000000
0.515656 0.048122 0.000000
0.525518 0.051532 0.000000
0.535036 0.054911 0.000000
0.544681 0.058383 0.000000
0.554369 0.061887 0.000000
0.563875 0.064978 0.000000
0.573331 0.067954 0.000000
0.582509 0.070325 0.000000
0.591624 0.072557 0.000000
0.600830 0.074816 0.000000
0.610053 0.077079 0.000000
0.619683 0.081268 0.000000
0.629372 0.085732 0.000000
0.639032 0.088651 0.000000
0.648688 0.091411 0.000000
0.657866 0.093022 0.000000
0.667011 0.094556 0.000000
0.676082 0.096496 0.000000
0.685150 0.098450 0.000000
0.003876 0.005923 0.002046
0.007271 0.005339 0.001007
0.010812 0.004763 0.000000
0.018899 0.004409 0.000000
0.027065 0.004083 0.000000
0.036422 0.004186 0.000000
0.045930 0.004315 0.000000
0.056912 0.004709 0.000000
0.068005 0.005130 0.000000
0.079885 0.005744 0.000000
0.092068 0.006364 0.000000
0.105894 0.007018 0.000000
0.119467 0.007571 0.000000
0.131947 0.007691 0.000000
0.144671 0.007669 0.000000
0.158263 0.007140 0.000000
0.171892 0.006735 0.000000
0.185633 0.006704 0.000000
0.199433 0.006727 0.000000
0.213385 0.006893 0.000000
0.227187 0.007105 0.000000
0.240660 0.007420 0.000000
0.254008 0.007908 0.000000
0.267118 0.008727 0.000000
0.280641 0.009432 0.000000
0.294855 0.009949 0.000000
0.308825 0.010634 0.000000
0.322440 0.011565 0.000000
0.335507 0.012454 0.000000
0.347868 0.013290 0.000000
0.360004 0.014341 0.000000
0.371885 0.015635 0.000000
0.383498 0.017362 0.000000
0.394843 0.019522 0.000000
0.405986 0.021969 0.000000
0.416950 0.024672 0.000000
0.427595 0.027614 0.000000
0.437993 0.030743 0.000000
0.448202 0.033790 0.000000
0.458283 0.036781 0.000000
0.468286 0.039825 0.000000
0.478243 0.042900 0.000000
0.489025 0.046070 0.000000
0.500240 0.049290 0.000000
0.510621 0.052521 0.000000
0.520623 0.055757 0.000000
0.530112 0.059017 0.000000
0.539402 0.062286 0.000000
0.548765 0.065583 0.000000
0.558154 0.068889 0.000000
0.567515 0.072405 0.000000
0.576869 0.075980 0.000000
0.585977 0.078592 0.000000
0.595028 0.080981 0.000000
0.604171 0.083151 0.000000
0.613332 0.085280 0.000000
0.622878 0.088557 0.000000
0.632480 0.091998 0.000000
0.642032 0.094714 0.000000
0.651578 0.097355 0.000000
0.660705 0.098840 0.000000
0.669803 0.100249 0.000000
0.678811 0.102078 0.000000
0.687816 0.103921 0.000000
0.006756 0.010878 0.004003
0.008725 0.010217 0.001970
0.010891 0.009556 0.000000
0.019153 0.008877 0.000000
0.027521 0.008253 0.000000
0.037473 0.008459 0.000000
0.047562 0.008719 0.000000
0.058968 0.009496 0.000000
0.070479 0.010328 0.000000
0.082732 0.011538 0.000000
0.095291 0.012759 0.000000
0.109505 0.014038 0.000000
0.123509 0.015052 0.000000
0.136607 0.014917 0.000000
0.149997 0.014667 0.000000
0.164427 0.014012 0.000000
0.178794 0.013508 0.000000
0.192966 0.013458 0.000000
0.207089 0.013516 0.000000
0.221090 0.013849 0.000000
0.234978 0.014274 0.000000
0.248618 0.014901 0.000000
0.261985 0.015864 0.000000
0.274832 0.017469 0.000000
0.288537 0.018800 0.000000
0.303669 0.019672 0.000000
0.317732 0.020565 0.000000
0.330229 0.021489 0.000000
0.342639 0.022343 0.000000
0.354936 0.023106 0.000000
0.367027 0.024138 0.000000
0.378885 0.025473 0.000000
0.390424 0.027125 0.000000
0.401644 0.029094 0.000000
0.412648 0.031366 0.000000
0.423462 0.033906 0.000000
0.433902 0.036699 0.000000
0.444053 0.039687 0.000000
0.454056 0.042647 0.000000
0.463957 0.045587 0.000000
0.473815 0.048529 0.000000
0.483646 0.051471 0.000000
0.494655 0.054442 0.000000
0.506282 0.057428 0.000000
0.516293 0.060422 0.000000
0.525572 0.063419 0.000000
0.534696 0.066546 0.000000
0.543759 0.069725 0.000000
0.552847 0.072851 0.000000
0.561942 0.075960 0.000000
0.571159 0.079863 0.000000
0.580411 0.083989 0.000000
0.589448 0.086822 0.000000
0.598436 0.089357 0.000000
0.607516 0.091441 0.000000
0.616613 0.093441 0.000000
0.626075 0.095830 0.000000
0.635590 0.098274 0.000000
0.645035 0.100789 0.000000
0.654474 0.103310 0.000000
0.663550 0.104670 0.000000
0.672601 0.105953 0.000000
0.681545 0.107671 0.000000
0.690485 0.109403 0.000000
0.007144 0.014242 0.003213
0.010121 0.014770 0.001581
0.013232 0.015279 0.000000
0.020493 0.015174 0.000000
0.027956 0.015098 0.000000
0.038428 0.015454 0.000000
0.049026 0.015857 0.000000
0.060842 0.016713 0.000000
0.072863 0.017617 0.000000
0.086328 0.018859 0.000000
0.099829 0.020070 0.000000
0.113523 0.021121 0.000000
0.127196 0.021975 0.000000
0.140774 0.021974 0.000000
0.154644 0.021907 0.000000
0.169555 0.021606 0.000000
0.184315 0.021462 0.000000
0.198620 0.021789 0.000000
0.212869 0.022187 0.000000
0.226972 0.022764 0.000000
0.240921 0.023424 0.000000
0.254529 0.024263 0.000000
0.268008 0.025298 0.000000
0.281241 0.026707 0.000000
0.295051 0.027965 0.000000
0.309822 0.028971 0.000000
0.323714 0.029854 0.000000
0.336321 0.030557 0.000000
0.348862 0.031348 0.000000
0.361316 0.032254 0.000000
0.373484 0.033398 0.000000
0.385326 0.034812 0.000000
0.396806 0.036504 0.000000
0.407923 0.038472 0.000000
0.418783 0.040707 0.000000
0.429416 0.043176 0.000000
0.439733 0.045875 0.000000
0.449805 0.048753 0.000000
0.459701 0.051584 0.000000
0.469476 0.054383 0.000000
0.479680 0.057198 0.000000
0.490142 0.060021 0.000000
0.500717 0.062848 0.000000
0.511350 0.065677 0.000000
0.520901 0.068741 0.000000
0.529958 0.071912 0.000000
0.538924 0.075456 0.000000
0.547854 0.079146 0.000000
0.556819 0.082234 0.000000
0.565797 0.085122 0.000000
0.574920 0.088258 0.000000
0.584085 0.091462 0.000000
0.593036 0.093937 0.000000
0.601937 0.096244 0.000000
0.610944 0.098312 0.000000
0.619970 0.100336 0.000000
0.629341 0.102597 0.000000
0.638761 0.104892 0.000000
0.648155 0.107250 0.000000
0.657546 0.109614 0.000000
0.666575 0.110846 0.000000
0.675579 0.112002 0.000000
0.684414 0.113594 0.000000
0.693244 0.115201 0.000000
0.007551 0.017732 0.002428
0.011537 0.019399 0.001195
0.015597 0.021029 0.000000
0.021942 0.021521 0.000000
0.028572 0.022015 0.000000
0.039485 0.022526 0.000000
0.050520 0.023078 0.000000
0.062734 0.024018 0.000000
0.075249 0.024998 0.000000
0.089876 0.026260 0.000000
0.104286 0.027455 0.000000
0.117524 0.028290 0.000000
0.130912 0.028995 0.000000
0.144950 0.029137 0.000000
0.159281 0.029260 0.000000
0.174660 0.029313 0.000000
0.189805 0.029527 0.000000
0.204251 0.030223 0.000000
0.218632 0.030954 0.000000
0.232846 0.031773 0.000000
0.246862 0.032667 0.000000
0.260443 0.033722 0.000000
0.274056 0.034834 0.000000
0.287731 0.036054 0.000000
0.301675 0.037245 0.000000
0.316070 0.038385 0.000000
0.329787 0.039269 0.000000
0.342513 0.039777 0.000000
0.355184 0.040516 0.000000
0.367785 0.041552 0.000000
0.380020 0.042799 0.000000
0.391841 0.044284 0.000000
0.403259 0.046008 0.000000
0.414275 0.047969 0.000000
0.424992 0.050163 0.000000
0.435443 0.052561 0.000000
0.445632 0.055176 0.000000
0.455616 0.057959 0.000000
0.465399 0.060697 0.000000
0.475046 0.063403 0.000000
0.485576 0.066110 0.000000
0.496635 0.068817 0.000000
0.506791 0.071501 0.000000
0.516473 0.074174 0.000000
0.525580 0.077277 0.000000
0.534424 0.080577 0.000000
0.543233 0.084467 0.000000
0.552028 0.088587 0.000000
0.560868 0.091626 0.000000
0.569723 0.094304 0.000000
0.578750 0.096717 0.000000
0.587824 0.099057 0.000000
0.596690 0.101191 0.000000
0.605507 0.103279 0.000000
0.614440 0.105325 0.000000
0.623395 0.107363 0.000000
0.632675 0.109495 0.000000
0.642001 0.111640 0.000000
0.651337 0.113838 0.000000
0.660674 0.116041 0.000000
0.669646 0.117140 0.000000
0.678593 0.118166 0.000000
0.687379 0.119629 0.000000
0.696160 0.121106 0.000000
0.008249 0.023126 0.001731
0.013266 0.025171 0.000852
0.018335 0.027197 0.000000
0.025011 0.028626 0.000000
0.031905 0.030013 0.000000
0.042078 0.030769 0.000000
0.052463 0.031557 0.000000
0.064897 0.032654 0.000000
0.077656 0.033754 0.000000
0.092693 0.034874 0.000000
0.107526 0.035944 0.000000
0.121260 0.036739 0.000000
0.135079 0.037465 0.000000
0.149266 0.037890 0.000000
0.163775 0.038312 0.000000
0.179429 0.038719 0.000000
0.194840 0.039258 0.000000
0.209522 0.040191 0.000000
0.224139 0.041152 0.000000
0.238589 0.042184 0.000000
0.252780 0.043307 0.000000
0.266401 0.044630 0.000000
0.280478 0.045893 0.000000
0.295428 0.047042 0.000000
0.309951 0.048241 0.000000
0.323763 0.049523 0.000000
0.337234 0.050571 0.000000
0.350204 0.051276 0.000000
0.363002 0.052109 0.000000
0.375579 0.053106 0.000000
0.387750 0.054309 0.000000
0.399460 0.055747 0.000000
0.410784 0.057392 0.000000
0.421721 0.059243 0.000000
0.432305 0.061352 0.000000
0.442576 0.063688 0.000000
0.452557 0.066350 0.000000
0.462312 0.069268 0.000000
0.471905 0.072438 0.000000
0.481386 0.075781 0.000000
0.491922 0.078673 0.000000
0.503092 0.081294 0.000000
0.513063 0.083850 0.000000
0.522407 0.086373 0.000000
0.531338 0.089068 0.000000
0.540080 0.091840 0.000000
0.548753 0.095009 0.000000
0.557398 0.098334 0.000000
0.566059 0.101139 0.000000
0.574725 0.103770 0.000000
0.583599 0.106155 0.000000
0.592532 0.108470 0.000000
0.601333 0.110537 0.000000
0.610103 0.112546 0.000000
0.618962 0.114466 0.000000
0.627838 0.116370 0.000000
0.637032 0.118355 0.000000
0.646272 0.120350 0.000000
0.655457 0.122334 0.000000
0.664637 0.124316 0.000000
0.673414 0.125217 0.000000
0.682165 0.126047 0.000000
0.691784 0.127328 0.000000
0.701431 0.128624 0.000000
0.008859 0.028801 0.001047
0.014900 0.031205 0.000515
0.020972 0.033604 0.000000
0.028034 0.035861 0.000000
0.035252 0.038042 0.000000
0.044806 0.039083 0.000000
0.054639 0.040142 0.000000
0.067174 0.041374 0.000000
0.080073 0.042576 0.000000
0.095521 0.043559 0.000000
0.110777 0.044512 0.000000
0.124995 0.045302 0.000000
0.139238 0.046076 0.000000
0.153593 0.046779 0.000000
0.168286 0.047493 0.000000
0.184192 0.048245 0.000000
0.199850 0.049099 0.000000
0.214767 0.050254 0.000000
0.229618 0.051437 0.000000
0.244302 0.052690 0.000000
0.258677 0.054045 0.000000
0.272372 0.055624 0.000000
0.286910 0.057064 0.000000
0.303056 0.058238 0.000000
0.318138 0.059511 0.000000
0.331446 0.060949 0.000000
0.344708 0.062171 0.000000
0.357903 0.063077 0.000000
0.370823 0.064012 0.000000
0.383391 0.064986 0.000000
0.395503 0.066165 0.000000
0.407101 0.067575 0.000000
0.418333 0.069152 0.000000
0.429199 0.070894 0.000000
0.439658 0.072915 0.000000
0.449757 0.075182 0.000000
0.459539 0.077860 0.000000
0.469074 0.080857 0.000000
0.478537 0.084361 0.000000
0.487952 0.088211 0.000000
0.498460 0.091239 0.000000
0.509623 0.093774 0.000000
0.519383 0.096208 0.000000
0.528408 0.098589 0.000000
0.537166 0.100903 0.000000
0.545802 0.103186 0.000000
0.554340 0.105688 0.000000
0.562840 0.108275 0.000000
0.571328 0.110849 0.000000
0.579812 0.113419 0.000000
0.588537 0.115763 0.000000
0.597329 0.118042 0.000000
0.606060 0.120027 0.000000
0.614778 0.121943 0.000000
0.623555 0.123735 0.000000
0.632343 0.125503 0.000000
0.641436 0.127323 0.000000
0.650572 0.129151 0.000000
0.659610 0.130915 0.000000
0.668639 0.132673 0.000000
0.677231 0.133377 0.000000
0.685795 0.134010 0.000000
0.696164 0.135111 0.000000
0.706591 0.136228 0.000000
0.008627 0.037187 0.000488
0.015612 0.039764 0.000240
0.022629 0.042323 0.000000
0.030612 0.044352 0.000000
0.038727 0.046362 0.000000
0.048833 0.048088 0.000000
0.059068 0.049761 0.000000
0.070555 0.050914 0.000000
0.082591 0.052035 0.000000
0.098464 0.052924 0.000000
0.114136 0.053849 0.000000
0.128725 0.054970 0.000000
0.143331 0.056054 0.000000
0.158016 0.056977 0.000000
0.172971 0.057918 0.000000
0.188892 0.058922 0.000000
0.204617 0.059988 0.000000
0.219755 0.061239 0.000000
0.234825 0.062574 0.000000
0.249721 0.064125 0.000000
0.264370 0.065733 0.000000
0.278474 0.067462 0.000000
0.293432 0.069325 0.000000
0.310019 0.071443 0.000000
0.325472 0.073419 0.000000
0.339032 0.075157 0.000000
0.352456 0.076649 0.000000
0.365682 0.077783 0.000000
0.378675 0.078908 0.000000
0.391369 0.080025 0.000000
0.403486 0.081356 0.000000
0.414949 0.082932 0.000000
0.426114 0.084540 0.000000
0.436981 0.086179 0.000000
0.447398 0.088085 0.000000
0.457418 0.090226 0.000000
0.467081 0.092606 0.000000
0.476466 0.095170 0.000000
0.486397 0.098045 0.000000
0.496702 0.101131 0.000000
0.506840 0.103823 0.000000
0.516878 0.106279 0.000000
0.526163 0.108645 0.000000
0.535053 0.110963 0.000000
0.543672 0.113176 0.000000
0.552166 0.115341 0.000000
0.560585 0.117679 0.000000
0.568975 0.120085 0.000000
0.577352 0.122467 0.000000
0.585726 0.124840 0.000000
0.594323 0.127017 0.000000
0.602981 0.129139 0.000000
0.611604 0.130915 0.000000
0.620219 0.132612 0.000000
0.628834 0.134236 0.000000
0.637449 0.135846 0.000000
0.646286 0.137344 0.000000
0.655154 0.138825 0.000000
0.664082 0.140321 0.000000
0.673016 0.141819 0.000000
0.681521 0.142330 0.000000
0.689999 0.142775 0.000000
0.700311 0.143710 0.000000
0.710683 0.144660 0.000000
0.008659 0.045742 0.000000
0.016665 0.048392 0.000000
0.024696 0.051017 0.000000
0.033515 0.052841 0.000000
0.042446 0.054700 0.000000
0.053050 0.057088 0.000000
0.063661 0.059370 0.000000
0.074338 0.060636 0.000000
0.085680 0.061850 0.000000
0.101678 0.062705 0.000000
0.117510 0.063647 0.000000
0.132447 0.065065 0.000000
0.147399 0.066428 0.000000
0.162421 0.067560 0.000000
0.177651 0.068714 0.000000
0.193620 0.069949 0.000000
0.209430 0.071209 0.000000
0.224759 0.072546 0.000000
0.240035 0.074028 0.000000
0.255173 0.075881 0.000000
0.270158 0.077739 0.000000
0.284807 0.079610 0.000000
0.300211 0.081834 0.000000
0.317057 0.084734 0.000000
0.332766 0.087298 0.000000
0.346580 0.089302 0.000000
0.360174 0.091048 0.000000
0.373446 0.092415 0.000000
0.386516 0.093744 0.000000
0.399327 0.095021 0.000000
0.411460 0.096517 0.000000
0.422822 0.098259 0.000000
0.433930 0.099912 0.000000
0.444784 0.101476 0.000000
0.455157 0.103285 0.000000
0.465108 0.105309 0.000000
0.474740 0.107417 0.000000
0.484124 0.109590 0.000000
0.494434 0.111893 0.000000
0.505377 0.114286 0.000000
0.515123 0.116657 0.000000
0.524150 0.119016 0.000000
0.532996 0.121292 0.000000
0.541746 0.123525 0.000000
0.550222 0.125626 0.000000
0.558575 0.127668 0.000000
0.566873 0.129836 0.000000
0.575151 0.132054 0.000000
0.583418 0.134240 0.000000
0.591681 0.136416 0.000000
0.600148 0.138424 0.000000
0.608672 0.140384 0.000000
0.617186 0.141967 0.000000
0.625697 0.143463 0.000000
0.634162 0.144922 0.000000
0.642618 0.146374 0.000000
0.651208 0.147554 0.000000
0.659817 0.148696 0.000000
0.668629 0.149929 0.000000
0.677461 0.151171 0.000000
0.685996 0.151491 0.000000
0.694512 0.151750 0.000000
0.704644 0.152513 0.000000
0.714828 0.153293 0.000000
0.010550 0.055476 0.000000
0.020099 0.057505 0.000000
0.029632 0.059525 0.000000
0.038696 0.061310 0.000000
0.047864 0.063164 0.000000
0.058602 0.066047 0.000000
0.069413 0.068915 0.000000
0.080933 0.071630 0.000000
0.092765 0.074160 0.000000
0.106787 0.075400 0.000000
0.120982 0.076677 0.000000
0.136115 0.078149 0.000000
0.151300 0.079582 0.000000
0.166708 0.080839 0.000000
0.182299 0.082109 0.000000
0.198544 0.083422 0.000000
0.214558 0.084749 0.000000
0.229880 0.086118 0.000000
0.245274 0.087711 0.000000
0.260853 0.089879 0.000000
0.276608 0.091978 0.000000
0.292754 0.093927 0.000000
0.308788 0.096079 0.000000
0.324610 0.098616 0.000000
0.339783 0.100969 0.000000
0.353873 0.103013 0.000000
0.367688 0.104894 0.000000
0.381101 0.106537 0.000000
0.394278 0.108151 0.000000
0.407153 0.109728 0.000000
0.419378 0.111463 0.000000
0.430866 0.113379 0.000000
0.441986 0.115174 0.000000
0.452737 0.116848 0.000000
0.463059 0.118683 0.000000
0.473002 0.120660 0.000000
0.483215 0.122690 0.000000
0.493638 0.124761 0.000000
0.503706 0.126901 0.000000
0.513532 0.129089 0.000000
0.522730 0.131240 0.000000
0.531552 0.133371 0.000000
0.540203 0.135408 0.000000
0.548764 0.137397 0.000000
0.557085 0.139314 0.000000
0.565296 0.141198 0.000000
0.573464 0.143152 0.000000
0.581615 0.145134 0.000000
0.589768 0.147108 0.000000
0.597922 0.149079 0.000000
0.606253 0.150894 0.000000
0.614635 0.152665 0.000000
0.623033 0.154162 0.000000
0.631434 0.155594 0.000000
0.639828 0.156904 0.000000
0.648221 0.158190 0.000000
0.656631 0.159095 0.000000
0.665044 0.159946 0.000000
0.673701 0.160945 0.000000
0.682384 0.161959 0.000000
0.691766 0.162109 0.000000
0.701195 0.162203 0.000000
0.710273 0.162755 0.000000
0.719339 0.163321 0.000000
0.013016 0.065383 0.000000
0.023805 0.066914 0.000000
0.034545 0.068452 0.000000
0.043784 0.070245 0.000000
0.053130 0.072135 0.000000
0.064084 0.075492 0.000000
0.075184 0.078903 0.000000
0.087691 0.082842 0.000000
0.100166 0.086488 0.000000
0.112417 0.088079 0.000000
0.125099 0.089653 0.000000
0.140105 0.091131 0.000000
0.155255 0.092594 0.000000
0.171026 0.093989 0.000000
0.186969 0.095377 0.000000
0.203530 0.096744 0.000000
0.219800 0.098127 0.000000
0.235199 0.099554 0.000000
0.250746 0.101266 0.000000
0.266669 0.103704 0.000000
0.283052 0.106021 0.000000
0.300446 0.108072 0.000000
0.317006 0.110187 0.000000
0.331973 0.112424 0.000000
0.346711 0.114608 0.000000
0.361067 0.116702 0.000000
0.375092 0.118723 0.000000
0.388635 0.120639 0.000000
0.401911 0.122530 0.000000
0.414845 0.124389 0.000000
0.427159 0.126358 0.000000
0.438771 0.128449 0.000000
0.449911 0.130387 0.000000
0.460578 0.132171 0.000000
0.470944 0.134035 0.000000
0.481043 0.135968 0.000000
0.491729 0.137935 0.000000
0.502871 0.139927 0.000000
0.512660 0.141913 0.000000
0.521524 0.143896 0.000000
0.530250 0.145832 0.000000
0.538894 0.147741 0.000000
0.547367 0.149557 0.000000
0.555751 0.151324 0.000000
0.563931 0.153065 0.000000
0.572019 0.154793 0.000000
0.580065 0.156547 0.000000
0.588095 0.158311 0.000000
0.596135 0.160086 0.000000
0.604179 0.161864 0.000000
0.612382 0.163499 0.000000
0.620631 0.165092 0.000000
0.628915 0.166506 0.000000
0.637207 0.167878 0.000000
0.645530 0.169056 0.000000
0.653859 0.170198 0.000000
0.662110 0.170850 0.000000
0.670351 0.171431 0.000000
0.678843 0.172198 0.000000
0.687362 0.172984 0.000000
0.697451 0.172954 0.000000
0.707646 0.172869 0.000000
0.715816 0.173184 0.000000
0.723920 0.173512 0.000000
0.018580 0.076218 0.000000
0.028976 0.077922 0.000000
0.039329 0.079637 0.000000
0.048371 0.081689 0.000000
0.057574 0.083845 0.000000
0.069190 0.087556 0.000000
0.081055 0.091290 0.000000
0.095333 0.095236 0.000000
0.109275 0.098909 0.000000
0.120865 0.100666 0.000000
0.132696 0.102338 0.000000
0.145828 0.103557 0.000000
0.159500 0.104845 0.000000
0.175507 0.106437 0.000000
0.191752 0.107962 0.000000
0.208848 0.109251 0.000000
0.225654 0.110625 0.000000
0.241588 0.112257 0.000000
0.257471 0.114125 0.000000
0.273221 0.116595 0.000000
0.289458 0.119005 0.000000
0.306766 0.121284 0.000000
0.323288 0.123559 0.000000
0.338310 0.125828 0.000000
0.353162 0.128073 0.000000
0.367730 0.130278 0.000000
0.381908 0.132467 0.000000
0.395513 0.134634 0.000000
0.408842 0.136753 0.000000
0.421815 0.138809 0.000000
0.434202 0.140971 0.000000
0.445924 0.143251 0.000000
0.457127 0.145338 0.000000
0.467810 0.147233 0.000000
0.478739 0.149135 0.000000
0.489886 0.151046 0.000000
0.500458 0.153029 0.000000
0.510584 0.155067 0.000000
0.519891 0.156952 0.000000
0.528636 0.158730 0.000000
0.537299 0.160471 0.000000
0.545912 0.162190 0.000000
0.554296 0.163879 0.000000
0.562561 0.165553 0.000000
0.570688 0.167161 0.000000
0.578753 0.168740 0.000000
0.586725 0.170367 0.000000
0.594660 0.172013 0.000000
0.602594 0.173664 0.000000
0.610527 0.175316 0.000000
0.618639 0.176830 0.000000
0.626801 0.178306 0.000000
0.634986 0.179659 0.000000
0.643176 0.180984 0.000000
0.651423 0.182128 0.000000
0.659681 0.183239 0.000000
0.667889 0.183755 0.000000
0.676090 0.184187 0.000000
0.684357 0.184733 0.000000
0.692631 0.185290 0.000000
0.702677 0.185017 0.000000
0.712840 0.184688 0.000000
0.720894 0.184630 0.000000
0.728880 0.184580 0.000000
0.024192 0.086856 0.000000
0.034285 0.088789 0.000000
0.044343 0.090735 0.000000
0.053294 0.093063 0.000000
0.062460 0.095497 0.000000
0.074837 0.099525 0.000000
0.087508 0.103554 0.000000
0.103013 0.107600 0.000000
0.117942 0.111401 0.000000
0.128844 0.113490 0.000000
0.139873 0.115409 0.000000
0.151588 0.116413 0.000000
0.164120 0.117539 0.000000
0.180190 0.119189 0.000000
0.196606 0.120770 0.000000
0.214259 0.122109 0.000000
0.231589 0.123545 0.000000
0.247954 0.125275 0.000000
0.264170 0.127216 0.000000
0.280007 0.129693 0.000000
0.296228 0.132161 0.000000
0.313294 0.134604 0.000000
0.329662 0.137005 0.000000
0.344698 0.139323 0.000000
0.359606 0.141636 0.000000
0.374300 0.143941 0.000000
0.388561 0.146275 0.000000
0.402190 0.148654 0.000000
0.415550 0.150956 0.000000
0.428567 0.153158 0.000000
0.441021 0.155459 0.000000
0.452836 0.157871 0.000000
0.464096 0.160065 0.000000
0.474800 0.162038 0.000000
0.486184 0.163974 0.000000
0.498166 0.165876 0.000000
0.508656 0.167877 0.000000
0.517983 0.169955 0.000000
0.526918 0.171777 0.000000
0.535586 0.173423 0.000000
0.544205 0.175027 0.000000
0.552795 0.176606 0.000000
0.561105 0.178196 0.000000
0.569268 0.179793 0.000000
0.577343 0.181290 0.000000
0.585378 0.182741 0.000000
0.593290 0.184244 0.000000
0.601153 0.185768 0.000000
0.608997 0.187299 0.000000
0.616835 0.188832 0.000000
0.624871 0.190232 0.000000
0.632962 0.191594 0.000000
0.641053 0.192866 0.000000
0.649144 0.194117 0.000000
0.657309 0.195211 0.000000
0.665489 0.196275 0.000000
0.673643 0.196659 0.000000
0.681792 0.196945 0.000000
0.690029 0.197281 0.000000
0.698275 0.197622 0.000000
0.708088 0.197135 0.000000
0.718006 0.196594 0.000000
0.725955 0.196194 0.000000
0.733840 0.195799 0.000000
0.030005 0.096637 0.000000
0.040193 0.099043 0.000000
0.050353 0.101457 0.000000
0.059675 0.104131 0.000000
0.069262 0.106900 0.000000
0.082836 0.111077 0.000000
0.096485 0.115288 0.000000
0.110856 0.119830 0.000000
0.124694 0.124197 0.000000
0.134792 0.127341 0.000000
0.145230 0.130148 0.000000
0.157505 0.131137 0.000000
0.170362 0.132148 0.000000
0.185748 0.133254 0.000000
0.201770 0.134544 0.000000
0.220068 0.136488 0.000000
0.237877 0.138289 0.000000
0.254218 0.139657 0.000000
0.270758 0.141310 0.000000
0.287808 0.143694 0.000000
0.304577 0.146061 0.000000
0.320729 0.148395 0.000000
0.336441 0.150767 0.000000
0.351312 0.153211 0.000000
0.366022 0.155623 0.000000
0.380464 0.157983 0.000000
0.394515 0.160366 0.000000
0.407994 0.162784 0.000000
0.421298 0.165074 0.000000
0.434378 0.167197 0.000000
0.446872 0.169404 0.000000
0.458703 0.171707 0.000000
0.469994 0.173817 0.000000
0.480746 0.175736 0.000000
0.492110 0.177675 0.000000
0.504014 0.179632 0.000000
0.514548 0.181662 0.000000
0.524017 0.183748 0.000000
0.533066 0.185681 0.000000
0.541828 0.187508 0.000000
0.550492 0.189224 0.000000
0.559099 0.190873 0.000000
0.567394 0.192488 0.000000
0.575525 0.194085 0.000000
0.583552 0.195560 0.000000
0.591532 0.196980 0.000000
0.599445 0.198372 0.000000
0.607332 0.199754 0.000000
0.615158 0.201185 0.000000
0.622965 0.202632 0.000000
0.630994 0.203939 0.000000
0.639085 0.205206 0.000000
0.647106 0.206307 0.000000
0.655110 0.207369 0.000000
