Plugins/FilmEmulator/Content/LUTs/FE_Kodak_Polymax_Grade_Minus_1_64.cube
TITLE "FE_Kodak_Polymax_Grade_Minus_1_33"
LUT_3D_SIZE 8
0.0021657 0.0021657 0.0021657
0.0021657 0.0021657 0.0021657
0.0021657 0.0021657 0.0021657
0.0021877 0.0021877 0.0021877
0.0022036 0.0022036 0.0022036
0.0023030 0.0023030 0.0023030
0.0025105 0.0025105 0.0025105
0.0028116 0.0028116 0.0028116
0.0029302 0.0029302 0.0029302
0.0034495 0.0034495 0.0034495
0.0041629 0.0041629 0.0041629
0.0051989 0.0051989 0.0051989
0.0063930 0.0063930 0.0063930
0.0079880 0.0079880 0.0079880
0.0098065 0.0098065 0.0098065
0.0117796 0.0117796 0.0117796
0.0124258 0.0124258 0.0124258
0.0145798 0.0145798 0.0145798
0.0175196 0.0175196 0.0175196
0.0204949 0.0204949 0.0204949
0.0233457 0.0233457 0.0233457
0.0272745 0.0272745 0.0272745
0.0310298 0.0310298 0.0310298
0.0343836 0.0343836 0.0343836
0.0352741 0.0352741 0.0352741
0.0400695 0.0400695 0.0400695
0.0443724 0.0443724 0.0443724
0.0504040 0.0504040 0.0504040
0.0557779 0.0557779 0.0557779
0.0601483 0.0601483 0.0601483
0.0664750 0.0664750 0.0664750
0.0733635 0.0733635 0.0733635
0.0733635 0.0733635 0.0733635
0.0807912 0.0807912 0.0807912
0.0868056 0.0868056 0.0868056
0.0931323 0.0931323 0.0931323
0.1019497 0.1019497 0.1019497
0.1090410 0.1090410 0.1090410
0.1164987 0.1164987 0.1164987
0.1215612 0.1215612 0.1215612
0.1241627 0.1241627 0.1241627
0.1322554 0.1322554 0.1322554
0.1378957 0.1378957 0.1378957
0.1466019 0.1466019 0.1466019
0.1555860 0.1555860 0.1555860
0.1618215 0.1618215 0.1618215
0.1715507 0.1715507 0.1715507
0.1781460 0.1781460 0.1781460
0.1781460 0.1781460 0.1781460
0.1881819 0.1881819 0.1881819
0.1951104 0.1951104 0.1951104
0.2022305 0.2022305 0.2022305
0.2095428 0.2095428 0.2095428
0.2166820 0.2166820 0.2166820
0.2276040 0.2276040 0.2276040
0.2350983 0.2350983 0.2350983
0.2350983 0.2350983 0.2350983
0.2427615 0.2427615 0.2427615
0.2505088 0.2505088 0.2505088
0.2579907 0.2579907 0.2579907
0.2656169 0.2656169 0.2656169
0.2733855 0.2733855 0.2733855
0.2773225 0.2773225 0.2773225
0.2853005 0.2853005 0.2853005
0.0572004 0.0572004 0.0572004
0.0632379 0.0632379 0.0632379
0.0698654 0.0698654 0.0698654
0.0751592 0.0751592 0.0751592
0.0827525 0.0827525 0.0827525
0.0888988 0.0888988 0.0888988
0.0952703 0.0952703 0.0952703
0.1019497 0.1019497 0.1019497
0.1042669 0.1042669 0.1042669
0.1114994 0.1114994 0.1114994
0.1190066 0.1190066 0.1190066
0.1268119 0.1268119 0.1268119
0.1322554 0.1322554 0.1322554
0.1407908 0.1407908 0.1407908
0.1495478 0.1495478 0.1495478
0.1555860 0.1555860 0.1555860
0.1586789 0.1586789 0.1586789
0.1650141 0.1650141 0.1650141
0.1748952 0.1748952 0.1748952
0.1814439 0.1814439 0.1814439
0.1881819 0.1881819 0.1881819
0.1951104 0.1951104 0.1951104
0.2058626 0.2058626 0.2058626
0.2131267 0.2131267 0.2131267
0.2131267 0.2131267 0.2131267
0.2202800 0.2202800 0.2202800
0.2276040 0.2276040 0.2276040
0.2350983 0.2350983 0.2350983
0.2427615 0.2427615 0.2427615
0.2505088 0.2505088 0.2505088
0.2579907 0.2579907 0.2579907
0.2656169 0.2656169 0.2656169
0.2656169 0.2656169 0.2656169
0.2733855 0.2733855 0.2733855
0.2812942 0.2812942 0.2812942
0.2893406 0.2893406 0.2893406
0.2973922 0.2973922 0.2973922
0.3014659 0.3014659 0.3014659
0.3097075 0.3097075 0.3097075
0.3180719 0.3180719 0.3180719
0.3180719 0.3180719 0.3180719
0.3265556 0.3265556 0.3265556
0.3308406 0.3308406 0.3308406
0.3396807 0.3396807 0.3396807
0.3441620 0.3441620 0.3441620
0.3532080 0.3532080 0.3532080
0.3577710 0.3577710 0.3577710
0.3669746 0.3669746 0.3669746
0.3669746 0.3669746 0.3669746
0.3716134 0.3716134 0.3716134
0.3809709 0.3809709 0.3809709
0.3857067 0.3857067 0.3857067
0.3952426 0.3952426 0.3952426
0.4000410 0.4000410 0.4000410
0.4048588 0.4048588 0.4048588
0.4145488 0.4145488 0.4145488
0.4145488 0.4145488 0.4145488
0.4194191 0.4194191 0.4194191
0.4292061 0.4292061 0.4292061
0.4341401 0.4341401 0.4341401
0.4390874 0.4390874 0.4390874
0.4440467 0.4440467 0.4440467
0.4539980 0.4539980 0.4539980
0.4589878 0.4589878 0.4589878
0.2466563 0.2466563 0.2466563
0.2542316 0.2542316 0.2542316
0.2617859 0.2617859 0.2617859
0.2694835 0.2694835 0.2694835
0.2773225 0.2773225 0.2773225
0.2812942 0.2812942 0.2812942
0.2893406 0.2893406 0.2893406
0.2973922 0.2973922 0.2973922
0.2973922 0.2973922 0.2973922
0.3055711 0.3055711 0.3055711
0.3138746 0.3138746 0.3138746
0.3180719 0.3180719 0.3180719
0.3265556 0.3265556 0.3265556
0.3308406 0.3308406 0.3308406
0.3396807 0.3396807 0.3396807
0.3441620 0.3441620 0.3441620
0.3486713 0.3486713 0.3486713
0.3532080 0.3532080 0.3532080
0.3623603 0.3623603 0.3623603
0.3669746 0.3669746 0.3669746
0.3762760 0.3762760 0.3762760
0.3809709 0.3809709 0.3809709
0.3904642 0.3904642 0.3904642
0.3952426 0.3952426 0.3952426
0.3952426 0.3952426 0.3952426
0.4048588 0.4048588 0.4048588
0.4096951 0.4096951 0.4096951
0.4145488 0.4145488 0.4145488
0.4243052 0.4243052 0.4243052
0.4292061 0.4292061 0.4292061
0.4341401 0.4341401 0.4341401
0.4390874 0.4390874 0.4390874
0.4440467 0.4440467 0.4440467
0.4490173 0.4490173 0.4490173
0.4539980 0.4539980 0.4539980
0.4589878 0.4589878 0.4589878
0.4689914 0.4689914 0.4689914
0.4740031 0.4740031 0.4740031
0.4790201 0.4790201 0.4790201
0.4840568 0.4840568 0.4840568
0.4840568 0.4840568 0.4840568
0.4891049 0.4891049 0.4891049
0.4992066 0.4992066 0.4992066
0.5042580 0.5042580 0.5042580
0.5093089 0.5093089 0.5093089
0.5143577 0.5143577 0.5143577
0.5194037 0.5194037 0.5194037
0.5244456 0.5244456 0.5244456
0.5244456 0.5244456 0.5244456
0.5294825 0.5294825 0.5294825
0.5345246 0.5345246 0.5345246
0.5395815 0.5395815 0.5395815
0.5446302 0.5446302 0.5446302
0.5496698 0.5496698 0.5496698
0.5546991 0.5546991 0.5546991
0.5597174 0.5597174 0.5597174
0.5647233 0.5647233 0.5647233
0.5697161 0.5697161 0.5697161
0.5746948 0.5746948 0.5746948
0.5746948 0.5746948 0.5746948
0.5796584 0.5796584 0.5796584
0.5846059 0.5846059 0.5846059
0.5895645 0.5895645 0.5895645
0.5945050 0.5945050 0.5945050
0.4243052 0.4243052 0.4243052
0.4292061 0.4292061 0.4292061
0.4390874 0.4390874 0.4390874
0.4440467 0.4440467 0.4440467
0.4490173 0.4490173 0.4490173
0.4539980 0.4539980 0.4539980
0.4639860 0.4639860 0.4639860
0.4689914 0.4689914 0.4689914
0.4689914 0.4689914 0.4689914
0.4740031 0.4740031 0.4740031
0.4790201 0.4790201 0.4790201
0.4840568 0.4840568 0.4840568
0.4941552 0.4941552 0.4941552
0.4992066 0.4992066 0.4992066
0.5042580 0.5042580 0.5042580
0.5093089 0.5093089 0.5093089
0.5093089 0.5093089 0.5093089
0.5143577 0.5143577 0.5143577
0.5194037 0.5194037 0.5194037
0.5244456 0.5244456 0.5244456
0.5294825 0.5294825 0.5294825
0.5395815 0.5395815 0.5395815
0.5446302 0.5446302 0.5446302
0.5496698 0.5496698 0.5496698
0.5496698 0.5496698 0.5496698
0.5546991 0.5546991 0.5546991
0.5597174 0.5597174 0.5597174
0.5647233 0.5647233 0.5647233
0.5697161 0.5697161 0.5697161
0.5746948 0.5746948 0.5746948
0.5796584 0.5796584 0.5796584
0.5846059 0.5846059 0.5846059
0.5846059 0.5846059 0.5846059
0.5895645 0.5895645 0.5895645
0.5945050 0.5945050 0.5945050
0.5994264 0.5994264 0.5994264
0.6043281 0.6043281 0.6043281
0.6043281 0.6043281 0.6043281
0.6092088 0.6092088 0.6092088
0.6140674 0.6140674 0.6140674
0.6140674 0.6140674 0.6140674
0.6189037 0.6189037 0.6189037
0.6237162 0.6237162 0.6237162
0.6285048 0.6285048 0.6285048
0.6332681 0.6332681 0.6332681
0.6380105 0.6380105 0.6380105
0.6427288 0.6427288 0.6427288
0.6427288 0.6427288 0.6427288
0.6474196 0.6474196 0.6474196
0.6474196 0.6474196 0.6474196
0.6520821 0.6520821 0.6520821
0.6567158 0.6567158 0.6567158
0.6613197 0.6613197 0.6613197
0.6658934 0.6658934 0.6658934
0.6658934 0.6658934 0.6658934
0.6704360 0.6704360 0.6704360
0.6704360 0.6704360 0.6704360
0.6749470 0.6749470 0.6749470
0.6794258 0.6794258 0.6794258
0.6838648 0.6838648 0.6838648
0.6882574 0.6882574 0.6882574
0.6882574 0.6882574 0.6882574
0.6926163 0.6926163 0.6926163
0.6969411 0.6969411 0.6969411
0.5697161 0.5697161 0.5697161
0.5746948 0.5746948 0.5746948
0.5796584 0.5796584 0.5796584
0.5846059 0.5846059 0.5846059
0.5895645 0.5895645 0.5895645
0.5945050 0.5945050 0.5945050
0.5994264 0.5994264 0.5994264
0.6043281 0.6043281 0.6043281
0.6043281 0.6043281 0.6043281
0.6092088 0.6092088 0.6092088
0.6140674 0.6140674 0.6140674
0.6189037 0.6189037 0.6189037
0.6189037 0.6189037 0.6189037
0.6237162 0.6237162 0.6237162
0.6285048 0.6285048 0.6285048
0.6332681 0.6332681 0.6332681
0.6332681 0.6332681 0.6332681
0.6380105 0.6380105 0.6380105
0.6427288 0.6427288 0.6427288
0.6474196 0.6474196 0.6474196
0.6520821 0.6520821 0.6520821
0.6520821 0.6520821 0.6520821
0.6567158 0.6567158 0.6567158
0.6613197 0.6613197 0.6613197
0.6613197 0.6613197 0.6613197
0.6658934 0.6658934 0.6658934
0.6704360 0.6704360 0.6704360
0.6749470 0.6749470 0.6749470
0.6749470 0.6749470 0.6749470
0.6794258 0.6794258 0.6794258
0.6838648 0.6838648 0.6838648
0.6882574 0.6882574 0.6882574
0.6882574 0.6882574 0.6882574
0.6926163 0.6926163 0.6926163
0.6926163 0.6926163 0.6926163
0.6969411 0.6969411 0.6969411
0.7012312 0.7012312 0.7012312
0.7054863 0.7054863 0.7054863
0.7054863 0.7054863 0.7054863
0.7097059 0.7097059 0.7097059
0.7097059 0.7097059 0.7097059
0.7138895 0.7138895 0.7138895
0.7180372 0.7180372 0.7180372
0.7180372 0.7180372 0.7180372
0.7221478 0.7221478 0.7221478
0.7262213 0.7262213 0.7262213
0.7262213 0.7262213 0.7262213
0.7302352 0.7302352 0.7302352
0.7302352 0.7302352 0.7302352
0.7342117 0.7342117 0.7342117
0.7381508 0.7381508 0.7381508
0.7381508 0.7381508 0.7381508
0.7420520 0.7420520 0.7420520
0.7459149 0.7459149 0.7459149
0.7459149 0.7459149 0.7459149
0.7497396 0.7497396 0.7497396
0.7497396 0.7497396 0.7497396
0.7535259 0.7535259 0.7535259
0.7535259 0.7535259 0.7535259
0.7572733 0.7572733 0.7572733
0.7609817 0.7609817 0.7609817
0.7609817 0.7609817 0.7609817
0.7646511 0.7646511 0.7646511
0.7646511 0.7646511 0.7646511
0.6794258 0.6794258 0.6794258
0.6794258 0.6794258 0.6794258
0.6838648 0.6838648 0.6838648
0.6882574 0.6882574 0.6882574
0.6926163 0.6926163 0.6926163
0.6926163 0.6926163 0.6926163
0.6969411 0.6969411 0.6969411
0.7012312 0.7012312 0.7012312
0.7012312 0.7012312 0.7012312
0.7054863 0.7054863 0.7054863
0.7097059 0.7097059 0.7097059
0.7097059 0.7097059 0.7097059
0.7138895 0.7138895 0.7138895
0.7180372 0.7180372 0.7180372
0.7180372 0.7180372 0.7180372
0.7221478 0.7221478 0.7221478
0.7221478 0.7221478 0.7221478
0.7262213 0.7262213 0.7262213
0.7302352 0.7302352 0.7302352
0.7302352 0.7302352 0.7302352
0.7342117 0.7342117 0.7342117
0.7381508 0.7381508 0.7381508
0.7381508 0.7381508 0.7381508
0.7420520 0.7420520 0.7420520
0.7420520 0.7420520 0.7420520
0.7459149 0.7459149 0.7459149
0.7497396 0.7497396 0.7497396
0.7497396 0.7497396 0.7497396
0.7535259 0.7535259 0.7535259
0.7535259 0.7535259 0.7535259
0.7572733 0.7572733 0.7572733
0.7609817 0.7609817 0.7609817
0.7609817 0.7609817 0.7609817
0.7646511 0.7646511 0.7646511
0.7646511 0.7646511 0.7646511
0.7683131 0.7683131 0.7683131
0.7683131 0.7683131 0.7683131
0.7719503 0.7719503 0.7719503
0.7755473 0.7755473 0.7755473
0.7755473 0.7755473 0.7755473
0.7755473 0.7755473 0.7755473
0.7791037 0.7791037 0.7791037
0.7826197 0.7826197 0.7826197
0.7826197 0.7826197 0.7826197
0.7860949 0.7860949 0.7860949
0.7860949 0.7860949 0.7860949
0.7895296 0.7895296 0.7895296
0.7929235 0.7929235 0.7929235
0.7929235 0.7929235 0.7929235
0.7929235 0.7929235 0.7929235
0.7962769 0.7962769 0.7962769
0.7962769 0.7962769 0.7962769
0.7995898 0.7995898 0.7995898
0.7995898 0.7995898 0.7995898
0.8028936 0.8028936 0.8028936
0.8062182 0.8062182 0.8062182
0.8062182 0.8062182 0.8062182
0.8062182 0.8062182 0.8062182
0.8095001 0.8095001 0.8095001
0.8095001 0.8095001 0.8095001
0.8127394 0.8127394 0.8127394
0.8127394 0.8127394 0.8127394
0.8159361 0.8159361 0.8159361
0.8190903 0.8190903 0.8190903
0.7535259 0.7535259 0.7535259
0.7572733 0.7572733 0.7572733
0.7572733 0.7572733 0.7572733
0.7609817 0.7609817 0.7609817
0.7646511 0.7646511 0.7646511
0.7646511 0.7646511 0.7646511
0.7683131 0.7683131 0.7683131
0.7683131 0.7683131 0.7683131
0.7719503 0.7719503 0.7719503
0.7719503 0.7719503 0.7719503
0.7755473 0.7755473 0.7755473
0.7755473 0.7755473 0.7755473
0.7791037 0.7791037 0.7791037
0.7826197 0.7826197 0.7826197
0.7826197 0.7826197 0.7826197
0.7860949 0.7860949 0.7860949
0.7860949 0.7860949 0.7860949
0.7895296 0.7895296 0.7895296
0.7895296 0.7895296 0.7895296
0.7929235 0.7929235 0.7929235
0.7929235 0.7929235 0.7929235
0.7962769 0.7962769 0.7962769
0.7962769 0.7962769 0.7962769
0.7995898 0.7995898 0.7995898
0.7995898 0.7995898 0.7995898
0.8028936 0.8028936 0.8028936
0.8028936 0.8028936 0.8028936
0.8062182 0.8062182 0.8062182
0.8062182 0.8062182 0.8062182
0.8095001 0.8095001 0.8095001
0.8127394 0.8127394 0.8127394
0.8127394 0.8127394 0.8127394
0.8127394 0.8127394 0.8127394
0.8159361 0.8159361 0.8159361
0.8159361 0.8159361 0.8159361
0.8190903 0.8190903 0.8190903
0.8190903 0.8190903 0.8190903
0.8222023 0.8222023 0.8222023
0.8222023 0.8222023 0.8222023
0.8252721 0.8252721 0.8252721
0.8252721 0.8252721 0.8252721
0.8282999 0.8282999 0.8282999
0.8282999 0.8282999 0.8282999
0.8312861 0.8312861 0.8312861
0.8312861 0.8312861 0.8312861
0.8342307 0.8342307 0.8342307
0.8342307 0.8342307 0.8342307
0.8372002 0.8372002 0.8372002
0.8372002 0.8372002 0.8372002
0.8372002 0.8372002 0.8372002
0.8401268 0.8401268 0.8401268
0.8401268 0.8401268 0.8401268
0.8430107 0.8430107 0.8430107
0.8430107 0.8430107 0.8430107
0.8458521 0.8458521 0.8458521
0.8458521 0.8458521 0.8458521
0.8458521 0.8458521 0.8458521
0.8486512 0.8486512 0.8486512
0.8486512 0.8486512 0.8486512
0.8514085 0.8514085 0.8514085
0.8514085 0.8514085 0.8514085
0.8541241 0.8541241 0.8541241
0.8541241 0.8541241 0.8541241
0.8567985 0.8567985 0.8567985
0.8095001 0.8095001 0.8095001
0.8095001 0.8095001 0.8095001
0.8127394 0.8127394 0.8127394
0.8127394 0.8127394 0.8127394
0.8159361 0.8159361 0.8159361
0.8159361 0.8159361 0.8159361
0.8190903 0.8190903 0.8190903
0.8190903 0.8190903 0.8190903
0.8222023 0.8222023 0.8222023
0.8222023 0.8222023 0.8222023
0.8252721 0.8252721 0.8252721
0.8252721 0.8252721 0.8252721
0.8282999 0.8282999 0.8282999
0.8282999 0.8282999 0.8282999
0.8312861 0.8312861 0.8312861
0.8312861 0.8312861 0.8312861
0.8312861 0.8312861 0.8312861
0.8342307 0.8342307 0.8342307
0.8342307 0.8342307 0.8342307
0.8372002 0.8372002 0.8372002
0.8372002 0.8372002 0.8372002
0.8401268 0.8401268 0.8401268
0.8401268 0.8401268 0.8401268
0.8430107 0.8430107 0.8430107
0.8430107 0.8430107 0.8430107
0.8430107 0.8430107 0.8430107
0.8458521 0.8458521 0.8458521
0.8458521 0.8458521 0.8458521
0.8486512 0.8486512 0.8486512
0.8486512 0.8486512 0.8486512
0.8514085 0.8514085 0.8514085
0.8514085 0.8514085 0.8514085
0.8514085 0.8514085 0.8514085
0.8541241 0.8541241 0.8541241
0.8541241 0.8541241 0.8541241
0.8567985 0.8567985 0.8567985
0.8567985 0.8567985 0.8567985
0.8594319 0.8594319 0.8594319
0.8594319 0.8594319 0.8594319
0.8620245 0.8620245 0.8620245
0.8620245 0.8620245 0.8620245
0.8620245 0.8620245 0.8620245
0.8646033 0.8646033 0.8646033
0.8646033 0.8646033 0.8646033
0.8671542 0.8671542 0.8671542
0.8671542 0.8671542 0.8671542
0.8696643 0.8696643 0.8696643
0.8696643 0.8696643 0.8696643
0.8696643 0.8696643 0.8696643
0.8721339 0.8721339 0.8721339
0.8721339 0.8721339 0.8721339
0.8721339 0.8721339 0.8721339
0.8745637 0.8745637 0.8745637
0.8745637 0.8745637 0.8745637
0.8769536 0.8769536 0.8769536
0.8769536 0.8769536 0.8769536
0.8769536 0.8769536 0.8769536
0.8793043 0.8793043 0.8793043
0.8793043 0.8793043 0.8793043
0.8816161 0.8816161 0.8816161
0.8816161 0.8816161 0.8816161
0.8816161 0.8816161 0.8816161
0.8838896 0.8838896 0.8838896
0.8838896 0.8838896 0.8838896
