Plugins/FilmEmulator/Content/LUTs/FE_Kodak_5222_64.cube
TITLE "FE_Kodak_5222_33"
LUT_3D_SIZE 64
0.0033839 0.0033839 0.0033839
0.0033839 0.0033839 0.0033839
0.0034564 0.0034564 0.0034564
0.0041872 0.0041872 0.0041872
0.0050132 0.0050132 0.0050132
0.0059777 0.0059777 0.0059777
0.0070985 0.0070985 0.0070985
0.0084063 0.0084063 0.0084063
0.0097167 0.0097167 0.0097167
0.0110405 0.0110405 0.0110405
0.0125796 0.0125796 0.0125796
0.0140197 0.0140197 0.0140197
0.0156211 0.0156211 0.0156211
0.0173818 0.0173818 0.0173818
0.0189231 0.0189231 0.0189231
0.0201705 0.0201705 0.0201705
0.0220094 0.0220094 0.0220094
0.0234952 0.0234952 0.0234952
0.0250787 0.0250787 0.0250787
0.0267817 0.0267817 0.0267817
0.0285970 0.0285970 0.0285970
0.0305315 0.0305315 0.0305315
0.0318926 0.0318926 0.0318926
0.0340504 0.0340504 0.0340504
0.0355665 0.0355665 0.0355665
0.0371475 0.0371475 0.0371475
0.0387959 0.0387959 0.0387959
0.0405428 0.0405428 0.0405428
0.0423795 0.0423795 0.0423795
0.0442957 0.0442957 0.0442957
0.0462943 0.0462943 0.0462943
0.0483784 0.0483784 0.0483784
0.0506133 0.0506133 0.0506133
0.0517987 0.0517987 0.0517987
0.0542487 0.0542487 0.0542487
0.0568075 0.0568075 0.0568075
0.0581291 0.0581291 0.0581291
0.0608592 0.0608592 0.0608592
0.0622689 0.0622689 0.0622689
0.0652433 0.0652433 0.0652433
0.0667861 0.0667861 0.0667861
0.0683627 0.0683627 0.0683627
0.0716199 0.0716199 0.0716199
0.0733017 0.0733017 0.0733017
0.0750197 0.0750197 0.0750197
0.0767747 0.0767747 0.0767747
0.0803917 0.0803917 0.0803917
0.0822418 0.0822418 0.0822418
0.0841306 0.0841306 0.0841306
0.0860587 0.0860587 0.0860587
0.0880267 0.0880267 0.0880267
0.0900353 0.0900353 0.0900353
0.0920850 0.0920850 0.0920850
0.0941767 0.0941767 0.0941767
0.0963107 0.0963107 0.0963107
0.0984880 0.0984880 0.0984880
0.1007089 0.1007089 0.1007089
0.1029816 0.1029816 0.1029816
0.1052995 0.1052995 0.1052995
0.1076634 0.1076634 0.1076634
0.1100738 0.1100738 0.1100738
0.1125314 0.1125314 0.1125314
0.1150367 0.1150367 0.1150367
0.1175904 0.1175904 0.1175904
0.0034564 0.0034564 0.0034564
0.0041872 0.0041872 0.0041872
0.0050132 0.0050132 0.0050132
0.0059777 0.0059777 0.0059777
0.0070985 0.0070985 0.0070985
0.0084063 0.0084063 0.0084063
0.0097167 0.0097167 0.0097167
0.0112834 0.0112834 0.0112834
0.0125796 0.0125796 0.0125796
0.0140197 0.0140197 0.0140197
0.0156211 0.0156211 0.0156211
0.0173818 0.0173818 0.0173818
0.0189231 0.0189231 0.0189231
0.0201705 0.0201705 0.0201705
0.0220094 0.0220094 0.0220094
0.0234952 0.0234952 0.0234952
0.0250787 0.0250787 0.0250787
0.0267817 0.0267817 0.0267817
0.0285970 0.0285970 0.0285970
0.0305315 0.0305315 0.0305315
0.0318926 0.0318926 0.0318926
0.0340504 0.0340504 0.0340504
0.0355665 0.0355665 0.0355665
0.0371475 0.0371475 0.0371475
0.0387959 0.0387959 0.0387959
0.0405428 0.0405428 0.0405428
0.0423795 0.0423795 0.0423795
0.0442957 0.0442957 0.0442957
0.0462943 0.0462943 0.0462943
0.0483784 0.0483784 0.0483784
0.0506133 0.0506133 0.0506133
0.0517987 0.0517987 0.0517987
0.0542487 0.0542487 0.0542487
0.0568075 0.0568075 0.0568075
0.0581291 0.0581291 0.0581291
0.0608592 0.0608592 0.0608592
0.0622689 0.0622689 0.0622689
0.0652433 0.0652433 0.0652433
0.0667861 0.0667861 0.0667861
0.0683627 0.0683627 0.0683627
0.0716199 0.0716199 0.0716199
0.0733017 0.0733017 0.0733017
0.0750197 0.0750197 0.0750197
0.0767747 0.0767747 0.0767747
0.0803917 0.0803917 0.0803917
0.0822418 0.0822418 0.0822418
0.0841306 0.0841306 0.0841306
0.0860587 0.0860587 0.0860587
0.0880267 0.0880267 0.0880267
0.0900353 0.0900353 0.0900353
0.0920850 0.0920850 0.0920850
0.0941767 0.0941767 0.0941767
0.0963107 0.0963107 0.0963107
0.0984880 0.0984880 0.0984880
0.1007089 0.1007089 0.1007089
0.1029816 0.1029816 0.1029816
0.1052995 0.1052995 0.1052995
0.1076634 0.1076634 0.1076634
0.1100738 0.1100738 0.1100738
0.1125314 0.1125314 0.1125314
0.1150367 0.1150367 0.1150367
0.1175904 0.1175904 0.1175904
0.1201932 0.1201932 0.1201932
0.1201932 0.1201932 0.1201932
0.0050132 0.0050132 0.0050132
0.0059777 0.0059777 0.0059777
0.0070985 0.0070985 0.0070985
0.0084063 0.0084063 0.0084063
0.0097167 0.0097167 0.0097167
0.0112834 0.0112834 0.0112834
0.0125796 0.0125796 0.0125796
0.0140197 0.0140197 0.0140197
0.0156211 0.0156211 0.0156211
0.0173818 0.0173818 0.0173818
0.0189231 0.0189231 0.0189231
0.0201705 0.0201705 0.0201705
0.0220094 0.0220094 0.0220094
0.0234952 0.0234952 0.0234952
0.0250787 0.0250787 0.0250787
0.0267817 0.0267817 0.0267817
0.0285970 0.0285970 0.0285970
0.0305315 0.0305315 0.0305315
0.0318926 0.0318926 0.0318926
0.0340504 0.0340504 0.0340504
0.0355665 0.0355665 0.0355665
0.0371475 0.0371475 0.0371475
0.0387959 0.0387959 0.0387959
0.0405428 0.0405428 0.0405428
0.0423795 0.0423795 0.0423795
0.0442957 0.0442957 0.0442957
0.0462943 0.0462943 0.0462943
0.0483784 0.0483784 0.0483784
0.0506133 0.0506133 0.0506133
0.0517987 0.0517987 0.0517987
0.0542487 0.0542487 0.0542487
0.0568075 0.0568075 0.0568075
0.0581291 0.0581291 0.0581291
0.0608592 0.0608592 0.0608592
0.0622689 0.0622689 0.0622689
0.0652433 0.0652433 0.0652433
0.0667861 0.0667861 0.0667861
0.0683627 0.0683627 0.0683627
0.0716199 0.0716199 0.0716199
0.0733017 0.0733017 0.0733017
0.0750197 0.0750197 0.0750197
0.0767747 0.0767747 0.0767747
0.0803917 0.0803917 0.0803917
0.0822418 0.0822418 0.0822418
0.0841306 0.0841306 0.0841306
0.0860587 0.0860587 0.0860587
0.0880267 0.0880267 0.0880267
0.0900353 0.0900353 0.0900353
0.0920850 0.0920850 0.0920850
0.0941767 0.0941767 0.0941767
0.0963107 0.0963107 0.0963107
0.0984880 0.0984880 0.0984880
0.1007089 0.1007089 0.1007089
0.1029816 0.1029816 0.1029816
0.1052995 0.1052995 0.1052995
0.1076634 0.1076634 0.1076634
0.1100738 0.1100738 0.1100738
0.1125314 0.1125314 0.1125314
0.1150367 0.1150367 0.1150367
0.1175904 0.1175904 0.1175904
0.1201932 0.1201932 0.1201932
0.1201932 0.1201932 0.1201932
0.1228454 0.1228454 0.1228454
0.1255479 0.1255479 0.1255479
0.0070985 0.0070985 0.0070985
0.0084063 0.0084063 0.0084063
0.0097167 0.0097167 0.0097167
0.0112834 0.0112834 0.0112834
0.0125796 0.0125796 0.0125796
0.0140197 0.0140197 0.0140197
0.0156211 0.0156211 0.0156211
0.0173818 0.0173818 0.0173818
0.0189231 0.0189231 0.0189231
0.0201705 0.0201705 0.0201705
0.0220094 0.0220094 0.0220094
0.0234952 0.0234952 0.0234952
0.0250787 0.0250787 0.0250787
0.0267817 0.0267817 0.0267817
0.0285970 0.0285970 0.0285970
0.0305315 0.0305315 0.0305315
0.0318926 0.0318926 0.0318926
0.0340504 0.0340504 0.0340504
0.0355665 0.0355665 0.0355665
0.0371475 0.0371475 0.0371475
0.0387959 0.0387959 0.0387959
0.0405428 0.0405428 0.0405428
0.0423795 0.0423795 0.0423795
0.0442957 0.0442957 0.0442957
0.0462943 0.0462943 0.0462943
0.0483784 0.0483784 0.0483784
0.0506133 0.0506133 0.0506133
0.0517987 0.0517987 0.0517987
0.0542487 0.0542487 0.0542487
0.0568075 0.0568075 0.0568075
0.0581291 0.0581291 0.0581291
0.0608592 0.0608592 0.0608592
0.0622689 0.0622689 0.0622689
0.0652433 0.0652433 0.0652433
0.0667861 0.0667861 0.0667861
0.0683627 0.0683627 0.0683627
0.0716199 0.0716199 0.0716199
0.0733017 0.0733017 0.0733017
0.0750197 0.0750197 0.0750197
0.0767747 0.0767747 0.0767747
0.0803917 0.0803917 0.0803917
0.0822418 0.0822418 0.0822418
0.0841306 0.0841306 0.0841306
0.0860587 0.0860587 0.0860587
0.0880267 0.0880267 0.0880267
0.0900353 0.0900353 0.0900353
0.0920850 0.0920850 0.0920850
0.0941767 0.0941767 0.0941767
0.0963107 0.0963107 0.0963107
0.0984880 0.0984880 0.0984880
0.1007089 0.1007089 0.1007089
0.1029816 0.1029816 0.1029816
0.1052995 0.1052995 0.1052995
0.1076634 0.1076634 0.1076634
0.1100738 0.1100738 0.1100738
0.1125314 0.1125314 0.1125314
0.1150367 0.1150367 0.1150367
0.1175904 0.1175904 0.1175904
0.1201932 0.1201932 0.1201932
0.1201932 0.1201932 0.1201932
0.1228454 0.1228454 0.1228454
0.1255479 0.1255479 0.1255479
0.1283227 0.1283227 0.1283227
0.1311604 0.1311604 0.1311604
0.0097167 0.0097167 0.0097167
0.0112834 0.0112834 0.0112834
0.0125796 0.0125796 0.0125796
0.0140197 0.0140197 0.0140197
0.0156211 0.0156211 0.0156211
0.0173818 0.0173818 0.0173818
0.0189231 0.0189231 0.0189231
0.0201705 0.0201705 0.0201705
0.0220094 0.0220094 0.0220094
0.0234952 0.0234952 0.0234952
0.0250787 0.0250787 0.0250787
0.0267817 0.0267817 0.0267817
0.0285970 0.0285970 0.0285970
0.0305315 0.0305315 0.0305315
0.0318926 0.0318926 0.0318926
0.0340504 0.0340504 0.0340504
0.0355665 0.0355665 0.0355665
0.0371475 0.0371475 0.0371475
0.0387959 0.0387959 0.0387959
0.0405428 0.0405428 0.0405428
0.0423795 0.0423795 0.0423795
0.0442957 0.0442957 0.0442957
0.0462943 0.0462943 0.0462943
0.0483784 0.0483784 0.0483784
0.0506133 0.0506133 0.0506133
0.0517987 0.0517987 0.0517987
0.0542487 0.0542487 0.0542487
0.0568075 0.0568075 0.0568075
0.0581291 0.0581291 0.0581291
0.0608592 0.0608592 0.0608592
0.0622689 0.0622689 0.0622689
0.0652433 0.0652433 0.0652433
0.0667861 0.0667861 0.0667861
0.0683627 0.0683627 0.0683627
0.0716199 0.0716199 0.0716199
0.0733017 0.0733017 0.0733017
0.0750197 0.0750197 0.0750197
0.0767747 0.0767747 0.0767747
0.0803917 0.0803917 0.0803917
0.0822418 0.0822418 0.0822418
0.0841306 0.0841306 0.0841306
0.0860587 0.0860587 0.0860587
0.0880267 0.0880267 0.0880267
0.0900353 0.0900353 0.0900353
0.0920850 0.0920850 0.0920850
0.0941767 0.0941767 0.0941767
0.0963107 0.0963107 0.0963107
0.0984880 0.0984880 0.0984880
0.1007089 0.1007089 0.1007089
0.1029816 0.1029816 0.1029816
0.1052995 0.1052995 0.1052995
0.1076634 0.1076634 0.1076634
0.1100738 0.1100738 0.1100738
0.1125314 0.1125314 0.1125314
0.1150367 0.1150367 0.1150367
0.1175904 0.1175904 0.1175904
0.1201932 0.1201932 0.1201932
0.1201932 0.1201932 0.1201932
0.1228454 0.1228454 0.1228454
0.1255479 0.1255479 0.1255479
0.1283227 0.1283227 0.1283227
0.1311604 0.1311604 0.1311604
0.1311604 0.1311604 0.1311604
0.1340513 0.1340513 0.1340513
0.0125796 0.0125796 0.0125796
0.0140197 0.0140197 0.0140197
0.0156211 0.0156211 0.0156211
0.0173818 0.0173818 0.0173818
0.0189231 0.0189231 0.0189231
0.0201705 0.0201705 0.0201705
0.0220094 0.0220094 0.0220094
0.0234952 0.0234952 0.0234952
0.0250787 0.0250787 0.0250787
0.0267817 0.0267817 0.0267817
0.0285970 0.0285970 0.0285970
0.0305315 0.0305315 0.0305315
0.0318926 0.0318926 0.0318926
0.0340504 0.0340504 0.0340504
0.0355665 0.0355665 0.0355665
0.0371475 0.0371475 0.0371475
0.0387959 0.0387959 0.0387959
0.0405428 0.0405428 0.0405428
0.0423795 0.0423795 0.0423795
0.0442957 0.0442957 0.0442957
0.0462943 0.0462943 0.0462943
0.0483784 0.0483784 0.0483784
0.0506133 0.0506133 0.0506133
0.0517987 0.0517987 0.0517987
0.0542487 0.0542487 0.0542487
0.0568075 0.0568075 0.0568075
0.0581291 0.0581291 0.0581291
0.0608592 0.0608592 0.0608592
0.0622689 0.0622689 0.0622689
0.0652433 0.0652433 0.0652433
0.0667861 0.0667861 0.0667861
0.0683627 0.0683627 0.0683627
0.0716199 0.0716199 0.0716199
0.0733017 0.0733017 0.0733017
0.0750197 0.0750197 0.0750197
0.0767747 0.0767747 0.0767747
0.0803917 0.0803917 0.0803917
0.0822418 0.0822418 0.0822418
0.0841306 0.0841306 0.0841306
0.0860587 0.0860587 0.0860587
0.0880267 0.0880267 0.0880267
0.0900353 0.0900353 0.0900353
0.0920850 0.0920850 0.0920850
0.0941767 0.0941767 0.0941767
0.0963107 0.0963107 0.0963107
0.0984880 0.0984880 0.0984880
0.1007089 0.1007089 0.1007089
0.1029816 0.1029816 0.1029816
0.1052995 0.1052995 0.1052995
0.1076634 0.1076634 0.1076634
0.1100738 0.1100738 0.1100738
0.1125314 0.1125314 0.1125314
0.1150367 0.1150367 0.1150367
0.1175904 0.1175904 0.1175904
0.1201932 0.1201932 0.1201932
0.1201932 0.1201932 0.1201932
0.1228454 0.1228454 0.1228454
0.1255479 0.1255479 0.1255479
0.1283227 0.1283227 0.1283227
0.1311604 0.1311604 0.1311604
0.1311604 0.1311604 0.1311604
0.1340513 0.1340513 0.1340513
0.1369959 0.1369959 0.1369959
0.1399946 0.1399946 0.1399946
0.0156211 0.0156211 0.0156211
0.0173818 0.0173818 0.0173818
0.0189231 0.0189231 0.0189231
0.0201705 0.0201705 0.0201705
0.0220094 0.0220094 0.0220094
0.0234952 0.0234952 0.0234952
0.0250787 0.0250787 0.0250787
0.0267817 0.0267817 0.0267817
0.0285970 0.0285970 0.0285970
0.0305315 0.0305315 0.0305315
0.0318926 0.0318926 0.0318926
0.0340504 0.0340504 0.0340504
0.0355665 0.0355665 0.0355665
0.0371475 0.0371475 0.0371475
0.0387959 0.0387959 0.0387959
0.0405428 0.0405428 0.0405428
0.0423795 0.0423795 0.0423795
0.0442957 0.0442957 0.0442957
0.0462943 0.0462943 0.0462943
0.0483784 0.0483784 0.0483784
0.0506133 0.0506133 0.0506133
0.0517987 0.0517987 0.0517987
0.0542487 0.0542487 0.0542487
0.0568075 0.0568075 0.0568075
0.0581291 0.0581291 0.0581291
0.0608592 0.0608592 0.0608592
0.0622689 0.0622689 0.0622689
0.0652433 0.0652433 0.0652433
0.0667861 0.0667861 0.0667861
0.0683627 0.0683627 0.0683627
0.0716199 0.0716199 0.0716199
0.0733017 0.0733017 0.0733017
0.0750197 0.0750197 0.0750197
0.0767747 0.0767747 0.0767747
0.0803917 0.0803917 0.0803917
0.0822418 0.0822418 0.0822418
0.0841306 0.0841306 0.0841306
0.0860587 0.0860587 0.0860587
0.0880267 0.0880267 0.0880267
0.0900353 0.0900353 0.0900353
0.0920850 0.0920850 0.0920850
0.0941767 0.0941767 0.0941767
0.0963107 0.0963107 0.0963107
0.0984880 0.0984880 0.0984880
0.1007089 0.1007089 0.1007089
0.1029816 0.1029816 0.1029816
0.1052995 0.1052995 0.1052995
0.1076634 0.1076634 0.1076634
0.1100738 0.1100738 0.1100738
0.1125314 0.1125314 0.1125314
0.1150367 0.1150367 0.1150367
0.1175904 0.1175904 0.1175904
0.1201932 0.1201932 0.1201932
0.1201932 0.1201932 0.1201932
0.1228454 0.1228454 0.1228454
0.1255479 0.1255479 0.1255479
0.1283227 0.1283227 0.1283227
0.1311604 0.1311604 0.1311604
0.1311604 0.1311604 0.1311604
0.1340513 0.1340513 0.1340513
0.1369959 0.1369959 0.1369959
0.1399946 0.1399946 0.1399946
0.1399946 0.1399946 0.1399946
0.1430481 0.1430481 0.1430481
0.0189231 0.0189231 0.0189231
0.0201705 0.0201705 0.0201705
0.0220094 0.0220094 0.0220094
0.0234952 0.0234952 0.0234952
0.0250787 0.0250787 0.0250787
0.0267817 0.0267817 0.0267817
0.0285970 0.0285970 0.0285970
0.0305315 0.0305315 0.0305315
0.0318926 0.0318926 0.0318926
0.0340504 0.0340504 0.0340504
0.0355665 0.0355665 0.0355665
0.0371475 0.0371475 0.0371475
0.0387959 0.0387959 0.0387959
0.0405428 0.0405428 0.0405428
0.0423795 0.0423795 0.0423795
0.0442957 0.0442957 0.0442957
0.0462943 0.0462943 0.0462943
0.0483784 0.0483784 0.0483784
0.0506133 0.0506133 0.0506133
0.0517987 0.0517987 0.0517987
0.0542487 0.0542487 0.0542487
0.0568075 0.0568075 0.0568075
0.0581291 0.0581291 0.0581291
0.0608592 0.0608592 0.0608592
0.0622689 0.0622689 0.0622689
0.0652433 0.0652433 0.0652433
0.0667861 0.0667861 0.0667861
0.0683627 0.0683627 0.0683627
0.0716199 0.0716199 0.0716199
0.0733017 0.0733017 0.0733017
0.0750197 0.0750197 0.0750197
0.0767747 0.0767747 0.0767747
0.0803917 0.0803917 0.0803917
0.0822418 0.0822418 0.0822418
0.0841306 0.0841306 0.0841306
0.0860587 0.0860587 0.0860587
0.0880267 0.0880267 0.0880267
0.0900353 0.0900353 0.0900353
0.0920850 0.0920850 0.0920850
0.0941767 0.0941767 0.0941767
0.0963107 0.0963107 0.0963107
0.0984880 0.0984880 0.0984880
0.1007089 0.1007089 0.1007089
0.1029816 0.1029816 0.1029816
0.1052995 0.1052995 0.1052995
0.1076634 0.1076634 0.1076634
0.1100738 0.1100738 0.1100738
0.1125314 0.1125314 0.1125314
0.1150367 0.1150367 0.1150367
0.1175904 0.1175904 0.1175904
0.1201932 0.1201932 0.1201932
0.1201932 0.1201932 0.1201932
0.1228454 0.1228454 0.1228454
0.1255479 0.1255479 0.1255479
0.1283227 0.1283227 0.1283227
0.1311604 0.1311604 0.1311604
0.1311604 0.1311604 0.1311604
0.1340513 0.1340513 0.1340513
0.1369959 0.1369959 0.1369959
0.1399946 0.1399946 0.1399946
0.1399946 0.1399946 0.1399946
0.1430481 0.1430481 0.1430481
0.1461569 0.1461569 0.1461569
0.1493215 0.1493215 0.1493215
0.0220094 0.0220094 0.0220094
0.0234952 0.0234952 0.0234952
0.0250787 0.0250787 0.0250787
0.0267817 0.0267817 0.0267817
0.0285970 0.0285970 0.0285970
0.0305315 0.0305315 0.0305315
0.0318926 0.0318926 0.0318926
0.0340504 0.0340504 0.0340504
0.0355665 0.0355665 0.0355665
0.0371475 0.0371475 0.0371475
0.0387959 0.0387959 0.0387959
0.0405428 0.0405428 0.0405428
0.0423795 0.0423795 0.0423795
0.0442957 0.0442957 0.0442957
0.0462943 0.0462943 0.0462943
0.0483784 0.0483784 0.0483784
0.0506133 0.0506133 0.0506133
0.0517987 0.0517987 0.0517987
0.0542487 0.0542487 0.0542487
0.0568075 0.0568075 0.0568075
0.0581291 0.0581291 0.0581291
0.0608592 0.0608592 0.0608592
0.0622689 0.0622689 0.0622689
0.0652433 0.0652433 0.0652433
0.0667861 0.0667861 0.0667861
0.0683627 0.0683627 0.0683627
0.0716199 0.0716199 0.0716199
0.0733017 0.0733017 0.0733017
0.0750197 0.0750197 0.0750197
0.0767747 0.0767747 0.0767747
0.0803917 0.0803917 0.0803917
0.0822418 0.0822418 0.0822418
0.0841306 0.0841306 0.0841306
0.0860587 0.0860587 0.0860587
0.0880267 0.0880267 0.0880267
0.0900353 0.0900353 0.0900353
0.0920850 0.0920850 0.0920850
0.0941767 0.0941767 0.0941767
0.0963107 0.0963107 0.0963107
0.0984880 0.0984880 0.0984880
0.1007089 0.1007089 0.1007089
0.1029816 0.1029816 0.1029816
0.1052995 0.1052995 0.1052995
0.1076634 0.1076634 0.1076634
0.1100738 0.1100738 0.1100738
0.1125314 0.1125314 0.1125314
0.1150367 0.1150367 0.1150367
0.1175904 0.1175904 0.1175904
0.1201932 0.1201932 0.1201932
0.1201932 0.1201932 0.1201932
0.1228454 0.1228454 0.1228454
0.1255479 0.1255479 0.1255479
0.1283227 0.1283227 0.1283227
0.1311604 0.1311604 0.1311604
0.1311604 0.1311604 0.1311604
0.1340513 0.1340513 0.1340513
0.1369959 0.1369959 0.1369959
0.1399946 0.1399946 0.1399946
0.1399946 0.1399946 0.1399946
0.1430481 0.1430481 0.1430481
0.1461569 0.1461569 0.1461569
0.1493215 0.1493215 0.1493215
0.1493215 0.1493215 0.1493215
0.1525424 0.1525424 0.1525424
0.0250787 0.0250787 0.0250787
0.0267817 0.0267817 0.0267817
0.0285970 0.0285970 0.0285970
0.0305315 0.0305315 0.0305315
0.0318926 0.0318926 0.0318926
0.0340504 0.0340504 0.0340504
0.0355665 0.0355665 0.0355665
0.0371475 0.0371475 0.0371475
0.0387959 0.0387959 0.0387959
0.0405428 0.0405428 0.0405428
0.0423795 0.0423795 0.0423795
0.0442957 0.0442957 0.0442957
0.0462943 0.0462943 0.0462943
0.0483784 0.0483784 0.0483784
0.0506133 0.0506133 0.0506133
0.0517987 0.0517987 0.0517987
0.0542487 0.0542487 0.0542487
0.0568075 0.0568075 0.0568075
0.0581291 0.0581291 0.0581291
0.0608592 0.0608592 0.0608592
0.0622689 0.0622689 0.0622689
0.0652433 0.0652433 0.0652433
0.0667861 0.0667861 0.0667861
0.0683627 0.0683627 0.0683627
0.0716199 0.0716199 0.0716199
0.0733017 0.0733017 0.0733017
0.0750197 0.0750197 0.0750197
0.0767747 0.0767747 0.0767747
0.0803917 0.0803917 0.0803917
0.0822418 0.0822418 0.0822418
0.0841306 0.0841306 0.0841306
0.0860587 0.0860587 0.0860587
0.0880267 0.0880267 0.0880267
0.0900353 0.0900353 0.0900353
0.0920850 0.0920850 0.0920850
0.0941767 0.0941767 0.0941767
0.0963107 0.0963107 0.0963107
0.0984880 0.0984880 0.0984880
0.1007089 0.1007089 0.1007089
0.1029816 0.1029816 0.1029816
0.1052995 0.1052995 0.1052995
0.1076634 0.1076634 0.1076634
0.1100738 0.1100738 0.1100738
0.1125314 0.1125314 0.1125314
0.1150367 0.1150367 0.1150367
0.1175904 0.1175904 0.1175904
0.1201932 0.1201932 0.1201932
0.1201932 0.1201932 0.1201932
0.1228454 0.1228454 0.1228454
0.1255479 0.1255479 0.1255479
0.1283227 0.1283227 0.1283227
0.1311604 0.1311604 0.1311604
0.1311604 0.1311604 0.1311604
0.1340513 0.1340513 0.1340513
0.1369959 0.1369959 0.1369959
0.1399946 0.1399946 0.1399946
0.1399946 0.1399946 0.1399946
0.1430481 0.1430481 0.1430481
0.1461569 0.1461569 0.1461569
0.1493215 0.1493215 0.1493215
0.1493215 0.1493215 0.1493215
0.1525424 0.1525424 0.1525424
0.1558200 0.1558200 0.1558200
0.1558200 0.1558200 0.1558200
0.0285970 0.0285970 0.0285970
0.0305315 0.0305315 0.0305315
0.0318926 0.0318926 0.0318926
0.0340504 0.0340504 0.0340504
0.0355665 0.0355665 0.0355665
0.0371475 0.0371475 0.0371475
0.0387959 0.0387959 0.0387959
0.0405428 0.0405428 0.0405428
0.0423795 0.0423795 0.0423795
0.0442957 0.0442957 0.0442957
0.0462943 0.0462943 0.0462943
0.0483784 0.0483784 0.0483784
0.0506133 0.0506133 0.0506133
0.0517987 0.0517987 0.0517987
0.0542487 0.0542487 0.0542487
0.0568075 0.0568075 0.0568075
0.0581291 0.0581291 0.0581291
0.0608592 0.0608592 0.0608592
0.0622689 0.0622689 0.0622689
0.0652433 0.0652433 0.0652433
0.0667861 0.0667861 0.0667861
0.0683627 0.0683627 0.0683627
0.0716199 0.0716199 0.0716199
0.0733017 0.0733017 0.0733017
0.0750197 0.0750197 0.0750197
0.0767747 0.0767747 0.0767747
0.0803917 0.0803917 0.0803917
0.0822418 0.0822418 0.0822418
0.0841306 0.0841306 0.0841306
0.0860587 0.0860587 0.0860587
0.0880267 0.0880267 0.0880267
0.0900353 0.0900353 0.0900353
0.0920850 0.0920850 0.0920850
0.0941767 0.0941767 0.0941767
0.0963107 0.0963107 0.0963107
0.0984880 0.0984880 0.0984880
0.1007089 0.1007089 0.1007089
0.1029816 0.1029816 0.1029816
0.1052995 0.1052995 0.1052995
0.1076634 0.1076634 0.1076634
0.1100738 0.1100738 0.1100738
0.1125314 0.1125314 0.1125314
0.1150367 0.1150367 0.1150367
0.1175904 0.1175904 0.1175904
0.1201932 0.1201932 0.1201932
0.1201932 0.1201932 0.1201932
0.1228454 0.1228454 0.1228454
0.1255479 0.1255479 0.1255479
0.1283227 0.1283227 0.1283227
0.1311604 0.1311604 0.1311604
0.1311604 0.1311604 0.1311604
0.1340513 0.1340513 0.1340513
0.1369959 0.1369959 0.1369959
0.1399946 0.1399946 0.1399946
0.1399946 0.1399946 0.1399946
0.1430481 0.1430481 0.1430481
0.1461569 0.1461569 0.1461569
0.1493215 0.1493215 0.1493215
0.1493215 0.1493215 0.1493215
0.1525424 0.1525424 0.1525424
0.1558200 0.1558200 0.1558200
0.1558200 0.1558200 0.1558200
0.1591528 0.1591528 0.1591528
0.1625395 0.1625395 0.1625395
0.0318926 0.0318926 0.0318926
0.0340504 0.0340504 0.0340504
0.0355665 0.0355665 0.0355665
0.0371475 0.0371475 0.0371475
0.0387959 0.0387959 0.0387959
0.0405428 0.0405428 0.0405428
0.0423795 0.0423795 0.0423795
0.0442957 0.0442957 0.0442957
0.0462943 0.0462943 0.0462943
0.0483784 0.0483784 0.0483784
0.0506133 0.0506133 0.0506133
0.0517987 0.0517987 0.0517987
0.0542487 0.0542487 0.0542487
0.0568075 0.0568075 0.0568075
0.0581291 0.0581291 0.0581291
0.0608592 0.0608592 0.0608592
0.0622689 0.0622689 0.0622689
0.0652433 0.0652433 0.0652433
0.0667861 0.0667861 0.0667861
0.0683627 0.0683627 0.0683627
0.0716199 0.0716199 0.0716199
0.0733017 0.0733017 0.0733017
0.0750197 0.0750197 0.0750197
0.0767747 0.0767747 0.0767747
0.0803917 0.0803917 0.0803917
0.0822418 0.0822418 0.0822418
0.0841306 0.0841306 0.0841306
0.0860587 0.0860587 0.0860587
0.0880267 0.0880267 0.0880267
0.0900353 0.0900353 0.0900353
0.0920850 0.0920850 0.0920850
0.0941767 0.0941767 0.0941767
0.0963107 0.0963107 0.0963107
0.0984880 0.0984880 0.0984880
0.1007089 0.1007089 0.1007089
0.1029816 0.1029816 0.1029816
0.1052995 0.1052995 0.1052995
0.1076634 0.1076634 0.1076634
0.1100738 0.1100738 0.1100738
0.1125314 0.1125314 0.1125314
0.1150367 0.1150367 0.1150367
0.1175904 0.1175904 0.1175904
0.1201932 0.1201932 0.1201932
0.1201932 0.1201932 0.1201932
0.1228454 0.1228454 0.1228454
0.1255479 0.1255479 0.1255479
0.1283227 0.1283227 0.1283227
0.1311604 0.1311604 0.1311604
0.1311604 0.1311604 0.1311604
0.1340513 0.1340513 0.1340513
0.1369959 0.1369959 0.1369959
0.1399946 0.1399946 0.1399946
0.1399946 0.1399946 0.1399946
0.1430481 0.1430481 0.1430481
0.1461569 0.1461569 0.1461569
0.1493215 0.1493215 0.1493215
0.1493215 0.1493215 0.1493215
0.1525424 0.1525424 0.1525424
0.1558200 0.1558200 0.1558200
0.1558200 0.1558200 0.1558200
0.1591528 0.1591528 0.1591528
0.1625395 0.1625395 0.1625395
0.1625395 0.1625395 0.1625395
0.1659837 0.1659837 0.1659837
0.0355665 0.0355665 0.0355665
0.0371475 0.0371475 0.0371475
0.0387959 0.0387959 0.0387959
0.0405428 0.0405428 0.0405428
0.0423795 0.0423795 0.0423795
0.0442957 0.0442957 0.0442957
0.0462943 0.0462943 0.0462943
0.0483784 0.0483784 0.0483784
0.0506133 0.0506133 0.0506133
0.0517987 0.0517987 0.0517987
0.0542487 0.0542487 0.0542487
0.0568075 0.0568075 0.0568075
0.0581291 0.0581291 0.0581291
0.0608592 0.0608592 0.0608592
0.0622689 0.0622689 0.0622689
0.0652433 0.0652433 0.0652433
0.0667861 0.0667861 0.0667861
0.0683627 0.0683627 0.0683627
0.0716199 0.0716199 0.0716199
0.0733017 0.0733017 0.0733017
0.0750197 0.0750197 0.0750197
0.0767747 0.0767747 0.0767747
0.0803917 0.0803917 0.0803917
0.0822418 0.0822418 0.0822418
0.0841306 0.0841306 0.0841306
0.0860587 0.0860587 0.0860587
0.0880267 0.0880267 0.0880267
0.0900353 0.0900353 0.0900353
0.0920850 0.0920850 0.0920850
0.0941767 0.0941767 0.0941767
