Plugins/FilmEmulator/Content/LUTs/FE_Kodak_5203_64.cube
TITLE "FE_Kodak_5203_33"
LUT_3D_SIZE 8
0.0015255 0.0010972 0.0016533
0.0865827 0.0021609 0.0032161
0.1926296 0.0052683 0.0071825
0.2992627 0.0094423 0.0118999
0.3863753 0.0141472 0.0171658
0.4573773 0.0191348 0.0227116
0.5222445 0.0250011 0.0290897
0.5786684 0.0315592 0.0360162
0.0032889 0.0920673 0.0043584
0.0831344 0.0991745 0.0084098
0.1898447 0.1093596 0.0133622
0.2845886 0.1166623 0.0191544
0.3717738 0.1242984 0.0252052
0.4518822 0.1323044 0.0311465
0.5096791 0.1407148 0.0383875
0.5675278 0.1495313 0.0444328
0.0079425 0.2188126 0.0098357
0.0858850 0.2264939 0.0145469
0.1908918 0.2398552 0.0201864
0.2862464 0.2468976 0.0265065
0.3739648 0.2539425 0.0327022
0.4461233 0.2610653 0.0402140
0.5125862 0.2682316 0.0464911
0.5623242 0.2754851 0.0536270
0.0145630 0.3467819 0.0168880
0.0897454 0.3483696 0.0218518
0.1935406 0.3573793 0.0277281
0.2898232 0.3662172 0.0341629
0.3702758 0.3749954 0.0407315
0.4505440 0.3838378 0.0484545
0.5088897 0.3841974 0.0557947
0.5670291 0.3929722 0.0624263
0.0213858 0.4495451 0.0244758
0.0941846 0.4509644 0.0299007
0.1968412 0.4607231 0.0356287
0.2873292 0.4702562 0.0423909
0.3754451 0.4708024 0.0503348
0.4478374 0.4801304 0.0563198
0.5146067 0.4804926 0.0629509
0.5643747 0.4897681 0.0703705
0.0280893 0.5307136 0.0323219
0.0990158 0.5409116 0.0383098
0.2006356 0.5417207 0.0440620
0.2922881 0.5512401 0.0507973
0.3811693 0.5517384 0.0583849
0.4455745 0.5610130 0.0652892
0.5123106 0.5613713 0.0728664
0.5621595 0.5705171 0.0791258
0.0355036 0.6021158 0.0412065
0.1013183 0.6030611 0.0458928
0.2046643 0.6124764 0.0527213
0.2976727 0.6130250 0.0605304
0.3792306 0.6220114 0.0676145
0.4520977 0.6223369 0.0733457
0.5105162 0.6226577 0.0818003
0.5603848 0.6314272 0.0887642
0.0433840 0.6616881 0.0507192
0.1067684 0.6624351 0.0548141
0.2036319 0.6630844 0.0610260
0.2961926 0.6716601 0.0680899
0.3856593 0.6720689 0.0758799
0.4505451 0.6723539 0.0822804
0.5171774 0.6806262 0.0892351
0.5671861 0.6808664 0.0967571
0.0067832 0.0032849 0.1113141
0.0979116 0.0070193 0.1166499
0.2075323 0.0112847 0.1234282
0.3066528 0.0163255 0.1306659
0.3878666 0.0220514 0.1382729
0.4681555 0.0278357 0.1422797
0.5254804 0.0339590 0.1504420
0.5825481 0.0400548 0.1589556
0.0091956 0.0969308 0.1251016
0.0973480 0.1070876 0.1297688
0.1974297 0.1141639 0.1362431
0.2950816 0.1215471 0.1395491
0.3841404 0.1293219 0.1469216
0.4569119 0.1374903 0.1548503
0.5150978 0.1460515 0.1589769
0.5730212 0.1550820 0.1675829
0.0145514 0.2278811 0.1339692
0.1011179 0.2351762 0.1355312
0.1990625 0.2420273 0.1421979
0.2971499 0.2555116 0.1495361
0.3787755 0.2625318 0.1574067
0.4515223 0.2696083 0.1614116
0.5182206 0.2768236 0.1699810
0.5680417 0.2841228 0.1790028
0.0213266 0.3499630 0.1423978
0.1027428 0.3592067 0.1444611
0.2019328 0.3680287 0.1514979
0.3012754 0.3684634 0.1591570
0.3834596 0.3770591 0.1631177
0.4563909 0.3857353 0.1717191
0.5147371 0.3944452 0.1807718
0.5648820 0.3946236 0.1852742
0.0288569 0.4525369 0.1509048
0.1079269 0.4624676 0.1533733
0.2056916 0.4630974 0.1608295
0.2989944 0.4724192 0.1646599
0.3808259 0.4817159 0.1732423
0.4538324 0.4820193 0.1821628
0.5122052 0.4911945 0.1867598
0.5706736 0.4914058 0.1913344
0.0353665 0.5422935 0.1556316
0.1103243 0.5432532 0.1626026
0.2098293 0.5438413 0.1660361
0.3042542 0.5532258 0.1745045
0.3869435 0.5535750 0.1833880
0.4600922 0.5627401 0.1879204
0.5187525 0.5629494 0.1925171
0.5685652 0.5720495 0.2024688
0.0432624 0.6043562 0.1645431
0.1162154 0.6137618 0.1677141
0.2141385 0.6143464 0.1758421
0.3099933 0.6147313 0.1798526
0.3851929 0.6236021 0.1891093
0.4584716 0.6238479 0.1936375
0.5168344 0.6325925 0.2035867
0.5669510 0.6327693 0.2085976
0.0497180 0.6635497 0.1740178
0.1190448 0.6642047 0.1773876
0.2188497 0.6647168 0.1811159
0.3085639 0.6731773 0.1902397
0.3918112 0.6734512 0.1946957
0.4570156 0.6737010 0.2045187
0.5154190 0.6818620 0.2096210
0.5738398 0.6820489 0.2146943
0.0187035 0.0085885 0.2411455
0.1144995 0.0133585 0.2456463
0.2211538 0.0186961 0.2517899
0.3174941 0.0244271 0.2582930
0.4003995 0.0308256 0.2650018
0.4733316 0.0363800 0.2716539
0.5309513 0.0428904 0.2785329
0.5797348 0.0505200 0.2855831
0.0206357 0.1038175 0.2573863
0.1121315 0.1109490 0.2608064
0.2124773 0.1218790 0.2662779
0.3075544 0.1296861 0.2721551
0.3903279 0.1378773 0.2783593
0.4634526 0.1464837 0.2847759
0.5303141 0.1510092 0.2911929
0.5797681 0.1602589 0.2979761
0.0236790 0.2352228 0.2674283
0.1130564 0.2424932 0.2710500
0.2143402 0.2494450 0.2763654
0.3100980 0.2563918 0.2822357
0.3931473 0.2702843 0.2885846
0.4666102 0.2774960 0.2949924
0.5250925 0.2847906 0.3016104
0.5748608 0.2921844 0.3083788
0.0289721 0.3593554 0.2760110
0.1183511 0.3603832 0.2798498
0.2175601 0.3691365 0.2853357
0.3141821 0.3778292 0.2913251
0.3899045 0.3864940 0.2977061
0.4632060 0.3952143 0.3042351
0.5218903 0.3954163 0.3108157
0.5717106 0.4041424 0.3177022
0.0365202 0.4627198 0.2839665
0.1206972 0.4636819 0.2882852
0.2214203 0.4731707 0.2938736
0.3120335 0.4735490 0.2998784
0.3954922 0.4828046 0.3063079
0.4606943 0.4920056 0.3130104
0.5277586 0.4922420 0.3196344
0.5775425 0.5013608 0.3194108
0.0433018 0.5435724 0.2917309
0.1269761 0.5444518 0.2963525
0.2257901 0.5539314 0.3020983
0.3174715 0.5543084 0.3082024
0.3935142 0.5634949 0.3147995
0.4671932 0.5637522 0.3213800
0.5257325 0.5727842 0.3210917
0.5757165 0.5729702 0.3279397
0.0512349 0.6055280 0.2993202
0.1298616 0.6148900 0.3044631
0.2305334 0.6154104 0.3101416
0.3158807 0.6243021 0.3165647
0.3999744 0.6245937 0.3230343
0.4656240 0.6247742 0.3225178
0.5240958 0.6334693 0.3294822
0.5741078 0.6336465 0.3364377
0.0588230 0.6646076 0.3070892
0.1330035 0.6652296 0.3123860
0.2293948 0.6737705 0.3183756
0.3219209 0.6741091 0.3246650
0.3986799 0.6743215 0.3240155
0.4723505 0.6825170 0.3308664
0.5226807 0.6826831 0.3378372
0.5727155 0.6828491 0.3449080
0.0314616 0.0157601 0.3594400
0.1267943 0.0213637 0.3654685
0.2304541 0.0270094 0.3728880
0.3296046 0.0329762 0.3728767
0.4139780 0.0402102 0.3809774
0.4792274 0.0458713 0.3890119
0.5369083 0.0540041 0.3894021
0.5857916 0.0614963 0.3976485
0.0328071 0.1108648 0.3773423
0.1253323 0.1183246 0.3824121
0.2288909 0.1259849 0.3811992
0.3209912 0.1340082 0.3884498
0.4052850 0.1424327 0.3959745
0.4707252 0.1512432 0.3957624
0.5373892 0.1605312 0.4035573
0.5869246 0.1653884 0.4114542
0.0361613 0.2423895 0.3897083
0.1301621 0.2496342 0.3868565
0.2308585 0.2566910 0.3934625
0.3235965 0.2637554 0.4006230
0.4003426 0.2708376 0.4000857
0.4741138 0.2780587 0.4076582
0.5326225 0.2853633 0.4155096
0.5823145 0.2927292 0.4152573
0.0401898 0.3602502 0.3922758
0.1323115 0.3693766 0.3975794
0.2342583 0.3782041 0.4042530
0.3204965 0.3868971 0.4034929
0.4051255 0.3871879 0.4107604
0.4707004 0.3958923 0.4185585
0.5292569 0.4046012 0.4182335
0.5789564 0.4133979 0.4262210
0.0447728 0.4636028 0.4021361
0.1348964 0.4734307 0.4076909
0.2325238 0.4739043 0.4062336
0.3256159 0.4832326 0.4134756
0.4027020 0.4835171 0.4209602
0.4766071 0.4926973 0.4204898
0.5269511 0.4928867 0.4283068
0.5767495 0.5020059 0.4280526
0.0513643 0.5444347 0.4114779
0.1418350 0.5541683 0.4091724
0.2370507 0.5546625 0.4158771
0.3311459 0.5639430 0.4232610
0.4088162 0.5641786 0.4225322
0.4745284 0.5732780 0.4303980
0.5333179 0.5734420 0.4298869
0.5829566 0.5824496 0.4379366
0.0589367 0.6149113 0.4125890
0.1451186 0.6156378 0.4184757
0.2417994 0.6246628 0.4254979
0.3297648 0.6249561 0.4245438
0.4072434 0.6252255 0.4320875
0.4729550 0.6338962 0.4316874
0.5316823 0.6340963 0.4394876
0.5813529 0.6426821 0.4475818
0.0657580 0.6653072 0.4215356
0.1485786 0.6659355 0.4277501
0.2469830 0.6744068 0.4265290
0.3359221 0.6747240 0.4338575
0.4138079 0.6828949 0.4333088
0.4799204 0.6831035 0.4410429
0.5302680 0.6832699 0.4489574
0.5800229 0.6912458 0.4487011
0.0445164 0.0235655 0.4578085
0.1448130 0.0298253 0.4645447
0.2467072 0.0364236 0.4725897
0.3423418 0.0429683 0.4724685
0.4201562 0.0490151 0.4809262
0.4854098 0.0576841 0.4812636
0.5434664 0.0635932 0.4898105
0.5922642 0.0723247 0.4901118
0.0453560 0.1146405 0.4752186
0.1400272 0.1260144 0.4729324
0.2400592 0.1341042 0.4802513
0.3349817 0.1383505 0.4793841
0.4125559 0.1469944 0.4874815
0.4866245 0.1560537 0.4871841
0.5365252 0.1655589 0.4956270
0.5861360 0.1705147 0.4953659
0.0484055 0.2494392 0.4800603
0.1454193 0.2567682 0.4859262
0.2422983 0.2638894 0.4846730
0.3376103 0.2710848 0.4922844
0.4156798 0.2782932 0.4917220
0.4816301 0.2856209 0.4998314
0.5401975 0.2930105 0.4994955
0.5896882 0.3005344 0.5077757
0.0520977 0.3691734 0.4913216
0.1478126 0.3782593 0.4888506
0.2459797 0.3787257 0.4958925
0.3346365 0.3874235 0.4950997
0.4123706 0.3961754 0.5030597
0.4782682 0.4049093 0.5026489
0.5370029 0.4051143 0.5106673
0.5866221 0.4138701 0.5104061
0.0562977 0.4642835 0.4931749
0.1507707 0.4740340 0.4993269
0.2502368 0.4834350 0.4980720
0.3398499 0.4837909 0.5056159
0.4181001 0.4929954 0.5050536
0.4843517 0.4932328 0.5129970
0.5345342 0.5023526 0.5127364
0.5843683 0.5025426 0.5208268
0.0609055 0.5450741 0.5031446
0.1540342 0.5547459 0.5009452
0.2551482 0.5552410 0.5080274
0.3380533 0.5644261 0.5073109
0.4162998 0.5647079 0.5151026
0.4823277 0.5737590 0.5146924
0.5410566 0.5739692 0.5227071
0.5906028 0.5829286 0.5224465
0.0678469 0.6155035 0.5043690
0.1575572 0.6161934 0.5107143
0.2538039 0.6251473 0.5095363
0.3440923 0.6254849 0.5170977
0.4226958 0.6341978 0.5165370
0.4806927 0.6343980 0.5245501
0.5394821 0.6345547 0.5240268
0.5890067 0.6431361 0.5322953
0.0756289 0.6658663 0.5137451
0.1611750 0.6744803 0.5119626
0.2590868 0.6749036 0.5191370
0.3428805 0.6751581 0.5182328
0.4213201 0.6833646 0.5262076
0.4877265 0.6835322 0.5256096
0.5380697 0.6836987 0.5336875
0.5876828 0.6916690 0.5334281
0.0572684 0.0318155 0.5438735
0.1563519 0.0388813 0.5424131
0.2577609 0.0458840 0.5504004
0.3482073 0.0523295 0.5501706
0.4265036 0.0596254 0.5586376
0.5005658 0.0678663 0.5587138
0.5502403 0.0747303 0.5588266
0.5990467 0.0822492 0.5673761
0.0586253 0.1221260 0.5515602
0.1563206 0.1301346 0.5578963
0.2582527 0.1384191 0.5568393
0.3490698 0.1471030 0.5646873
0.4279073 0.1561806 0.5643177
0.4942728 0.1609309 0.5639120
0.5441480 0.1706789 0.5722572
0.5933834 0.1808745 0.5721850
0.0608294 0.2499117 0.5645242
0.1578188 0.2639174 0.5624664
0.2605415 0.2712062 0.5696542
0.3444359 0.2784545 0.5689480
0.4230957 0.2857864 0.5683938
0.4892722 0.2932365 0.5763884
0.5478128 0.3007451 0.5760587
0.5971363 0.3083861 0.5841615
0.0654346 0.3697237 0.5672785
0.1604728 0.3787622 0.5735851
0.2579989 0.3875725 0.5724264
0.3489721 0.3963496 0.5716476
0.4281580 0.3966209 0.5792959
0.4861296 0.4053356 0.5789667
0.5446247 0.4141613 0.5869826
0.5940859 0.4229793 0.5867279
0.0685961 0.4738264 0.5777547
0.1682657 0.4745479 0.5754671
0.2625357 0.4839027 0.5743850
0.3466978 0.4932019 0.5820546
0.4257475 0.4934402 0.5813208
0.4919953 0.5026546 0.5892522
0.5423849 0.5027976 0.5888153
0.5919001 0.5119216 0.5885609
0.0720879 0.5545591 0.5792761
0.1718384 0.5552576 0.5770552
0.2674235 0.5646064 0.5843368
0.3526647 0.5648890 0.5834540
0.4237179 0.5740090 0.5913004
0.4901936 0.5741962 0.5907183
0.5487270 0.5831777 0.5903925
0.5900891 0.5833399 0.5983034
0.0758660 0.6159887 0.5804294
0.1755646 0.6252294 0.5868090
0.2662092 0.6255903 0.5856254
0.3509814 0.6343907 0.5932391
0.4303676 0.6346141 0.5925111
0.4886146 0.6347706 0.5920022
0.5470973 0.6433720 0.5999423
0.5967325 0.6435048 0.5995082
0.0849354 0.6743914 0.5897659
0.1796459 0.6749385 0.5878415
0.2716626 0.6753194 0.5949606
0.3573876 0.6835242 0.5942680
0.4290424 0.6837129 0.5936132
0.4955978 0.6839213 0.6012890
0.5457461 0.6918882 0.6010386
0.5954162 0.6920124 0.6006048
0.0714042 0.0414670 0.6116154
0.1735290 0.0489612 0.6102855
0.2759949 0.0558438 0.6096953
0.3618506 0.0636186 0.6176928
0.4414532 0.0701081 0.6175150
0.5074405 0.0796856 0.6176593
0.5569984 0.0876669 0.6258509
0.6059074 0.0933961 0.6257814
0.0714305 0.1261208 0.6178119
0.1742804 0.1343082 0.6159499
0.2706842 0.1428186 0.6231823
0.3561158 0.1516988 0.6226822
0.4355006 0.1610121 0.6223278
0.5017600 0.1707914 0.6301644
0.5518705 0.1758740 0.6299195
0.6009251 0.1863163 0.6298503
0.0741035 0.2569234 0.6221350
0.1760119 0.2642762 0.6282285
0.2732561 0.2714979 0.6271911
0.3590839 0.2858948 0.6266931
0.4306078 0.2933663 0.6342472
0.4970394 0.3008969 0.6338629
0.5555258 0.3085210 0.6335486
0.5965214 0.3162549 0.6413254
0.0774075 0.3785173 0.6328684
0.1788181 0.3875656 0.6309819
0.2706317 0.3879258 0.6298425
0.3561679 0.3967275 0.6371577
0.4357526 0.4055119 0.6366339
0.4938932 0.4142936 0.6363205
0.5525695 0.4145000 0.6437609
0.6018403 0.4233204 0.6435190
0.0813485 0.4742852 0.6346660
0.1823100 0.4838962 0.6328502
0.2752672 0.4843236 0.6396794
0.3615968 0.4935766 0.6390142
0.4333301 0.5027682 0.6385615
0.4999885 0.5030056 0.6459136
0.5501118 0.5121295 0.6456730
0.5996670 0.5122728 0.6452581
0.0857793 0.5550191 0.6361068
0.1860852 0.5645998 0.6423078
0.2803551 0.5649765 0.6411837
0.3674754 0.5741204 0.6405205
0.4397437 0.5743773 0.6477854
0.4979594 0.5833578 0.6474767
0.5566602 0.5835209 0.6469944
0.5978662 0.5836831 0.6544753
0.0904827 0.6250238 0.6452869
0.1902268 0.6256061 0.6434599
0.2858619 0.6259668 0.6423379
0.3659669 0.6347412 0.6496202
0.4381932 0.6349422 0.6490004
0.5047849 0.6435209 0.6486241
0.5550354 0.6436971 0.6560220
0.5963355 0.6438076 0.6556807
0.0955888 0.6747656 0.6461945
0.1945656 0.6752923 0.6444399
0.2845430 0.6836008 0.6514211
0.3724974 0.6838523 0.6505933
0.4368614 0.6840197 0.6500435
0.5033669 0.6920671 0.6574637
0.5536879 0.6921911 0.6570555
0.6031629 0.6923152 0.6566465
0.0865836 0.0521878 0.6601058
0.1872567 0.0595565 0.6665640
0.2882802 0.0656993 0.6659124
0.3760531 0.0747450 0.6657751
0.4482782 0.0822759 0.6656747
0.5145400 0.0905134 0.6732091
0.5640769 0.0994635 0.6733110
0.6127859 0.1058854 0.6732454
0.0845528 0.1341630 0.6651891
0.1885897 0.1427883 0.6711994
0.2834039 0.1517156 0.6704529
0.3710477 0.1564031 0.6698139
0.4431295 0.1659661 0.6770692
0.5095923 0.1759626 0.6768724
0.5596310 0.1811683 0.6766418
0.6084236 0.1918862 0.6840171
0.0880773 0.2640539 0.6766239
0.1906042 0.2714540 0.6749732
0.2862333 0.2787825 0.6740647
0.3742264 0.2861958 0.6809068
0.4467590 0.2936339 0.6804795
0.5050954 0.3011487 0.6801842
0.5634395 0.3088155 0.6872895
0.6043194 0.3165137 0.6871272
0.0924073 0.3789091 0.6789763
0.1937300 0.3878969 0.6773989
0.2903085 0.3967891 0.6839357
0.3711015 0.4055969 0.6833767
0.4436614 0.4058028 0.6827864
0.5102973 0.4146542 0.6897966
0.5603283 0.4234756 0.6895708
0.6012857 0.4323282 0.6894094
0.0971573 0.4836555 0.6808271
0.1974034 0.4842932 0.6865658
0.2883046 0.4936177 0.6857409
0.3768409 0.4939039 0.6849540
0.4411711 0.5031180 0.6919382
0.5078209 0.5122896 0.6915843
0.5581007 0.5124327 0.6911971
0.6072296 0.5215537 0.6909716
0.0993597 0.5643613 0.6896194
0.2014479 0.5649465 0.6879728
0.2937259 0.5652999 0.6869869
0.3748999 0.5744640 0.6937513
0.4476703 0.5746748 0.6931717
0.5060161 0.5836540 0.6928835
0.5563138 0.5837936 0.6924971
0.6054394 0.5927436 0.6995181
0.1048364 0.6253997 0.6906297
0.2004573 0.6259152 0.6891178
0.2922049 0.6347789 0.6955943
0.3812908 0.6350470 0.6948209
0.4461131 0.6352257 0.6943069
0.5128425 0.6438016 0.6939555
0.5630091 0.6439773 0.7007987
0.6039169 0.6523988 0.7006415
0.1106597 0.6751186 0.6914791
0.2049388 0.6756232 0.6973093
0.2980365 0.6838871 0.6965014
0.3800201 0.6841175 0.6957941
0.4528442 0.6921436 0.6953791
0.5114255 0.6923283 0.7021412
0.5616661 0.6924521 0.7017612
0.6026076 0.7002817 0.7016042
