Plugins/FilmEmulator/Content/LUTs/FE_Kodak_Vision2_50D_5201_64.cube
# FilmEmulator LUT (resampled to 64)
LUT_3D_SIZE 8
0.001190 0.003326 0.007111
0.071023 0.003357 0.001238
0.182151 0.004298 0.000000
0.273272 0.004918 0.000000
0.345782 0.005824 0.000000
0.408124 0.006344 0.000000
0.474814 0.008759 0.000000
0.534027 0.015137 0.000000
0.032941 0.077358 0.063123
0.097739 0.089836 0.024004
0.227304 0.083861 0.001883
0.353034 0.072526 0.000000
0.450833 0.055040 0.000000
0.522627 0.044192 0.000000
0.575938 0.048224 0.000000
0.625361 0.059640 0.000087
0.089639 0.208888 0.086966
0.162617 0.232965 0.074577
0.285192 0.235735 0.044009
0.399525 0.213930 0.016679
0.521667 0.191346 0.001464
0.615676 0.178525 0.000828
0.669041 0.177108 0.005715
0.711613 0.175537 0.022095
0.222791 0.349906 0.114559
0.290870 0.374387 0.118237
0.369651 0.365758 0.084210
0.472337 0.365773 0.064740
0.566405 0.339220 0.038139
0.661190 0.314801 0.029889
0.725964 0.306960 0.040331
0.779205 0.312753 0.070325
0.336147 0.458723 0.147976
0.379632 0.493740 0.180968
0.454803 0.470279 0.130885
0.542058 0.471276 0.109960
0.630555 0.462353 0.085574
0.693804 0.445528 0.071977
0.763767 0.431677 0.075822
0.822462 0.437853 0.108577
0.429966 0.545742 0.189924
0.459617 0.570782 0.224773
0.522175 0.558608 0.191425
0.595661 0.546586 0.159908
0.677399 0.555131 0.148232
0.742956 0.545310 0.133627
0.791702 0.532947 0.127693
0.850276 0.541277 0.178851
0.499329 0.609362 0.221336
0.472644 0.630860 0.282731
0.535069 0.639688 0.293730
0.615688 0.630512 0.266377
0.681858 0.632652 0.262694
0.749052 0.641198 0.270224
0.813111 0.638985 0.262050
0.873155 0.621822 0.238664
0.492065 0.672699 0.327850
0.514304 0.682927 0.318276
0.541600 0.696830 0.375213
0.658125 0.696616 0.315098
0.732221 0.687766 0.285557
0.806929 0.687866 0.260193
0.864511 0.695875 0.277017
0.907654 0.696991 0.301971
0.001700 0.009517 0.047224
0.021878 0.018311 0.090891
0.131553 0.007831 0.045013
0.242898 0.008329 0.010756
0.331756 0.008221 0.003465
0.417320 0.008490 0.001254
0.495186 0.011620 0.001476
0.552272 0.015316 0.001849
0.031835 0.089836 0.123801
0.083721 0.118198 0.136556
0.219427 0.104372 0.078750
0.339193 0.093083 0.044539
0.443952 0.087849 0.030002
0.533062 0.085550 0.024355
0.593062 0.086280 0.025038
0.640704 0.087353 0.032750
0.063150 0.224082 0.174932
0.150179 0.252593 0.177296
0.287271 0.253959 0.124342
0.393181 0.241783 0.090662
0.519170 0.223705 0.061356
0.613594 0.216701 0.060653
0.676877 0.216221 0.069935
0.726340 0.213606 0.083303
0.190528 0.355983 0.196892
0.269959 0.391335 0.213835
0.371178 0.392550 0.179673
0.466984 0.387134 0.147300
0.557074 0.368754 0.111227
0.655316 0.348676 0.099945
0.727635 0.350619 0.113584
0.787020 0.356035 0.138471
0.299392 0.471230 0.226946
0.345523 0.506934 0.263331
0.449577 0.499370 0.230507
0.527563 0.495535 0.199808
0.609865 0.483603 0.164518
0.685045 0.473537 0.142401
0.759701 0.466204 0.153024
0.826343 0.468687 0.179667
0.396312 0.553629 0.245352
0.428826 0.580053 0.284087
0.513082 0.577573 0.266871
0.586159 0.568754 0.233903
0.660470 0.570082 0.215366
0.733007 0.565465 0.195575
0.786775 0.556938 0.187521
0.850159 0.560078 0.228790
0.475106 0.616685 0.263673
0.444494 0.638386 0.331199
0.513026 0.650591 0.340301
0.609698 0.646908 0.317671
0.677117 0.647899 0.311741
0.745651 0.652664 0.307682
0.817254 0.648205 0.283565
0.881638 0.630700 0.253244
0.504351 0.678384 0.323063
0.494289 0.682001 0.347023
0.545101 0.701229 0.407454
0.660453 0.704325 0.354696
0.730446 0.697853 0.330259
0.800365 0.701528 0.318936
0.850888 0.709408 0.351209
0.894121 0.718214 0.395255
0.008340 0.029742 0.120580
0.018620 0.046465 0.176596
0.075633 0.036428 0.162611
0.172531 0.018202 0.120880
0.300062 0.016262 0.066116
0.383525 0.019906 0.050464
0.474246 0.028956 0.048660
0.542153 0.031834 0.048758
0.043659 0.121387 0.204856
0.060390 0.148774 0.252044
0.153774 0.151621 0.243897
0.281279 0.112900 0.176301
0.404258 0.111755 0.129578
0.506135 0.118218 0.119689
0.587354 0.129912 0.129658
0.643819 0.130438 0.134493
0.047676 0.245647 0.280599
0.105449 0.275829 0.296065
0.240459 0.288279 0.283270
0.373602 0.271673 0.231687
0.495998 0.264677 0.204094
0.596336 0.263871 0.194106
0.663491 0.263456 0.199898
0.725350 0.255551 0.200568
0.129962 0.374640 0.332038
0.156574 0.395641 0.344523
0.328413 0.418397 0.331203
0.439476 0.413943 0.296815
0.527517 0.402234 0.256694
0.622727 0.394086 0.244884
0.707129 0.398548 0.253156
0.781838 0.399745 0.258734
0.244704 0.479779 0.343210
0.277176 0.512824 0.382009
0.408790 0.521202 0.364778
0.498939 0.519351 0.346499
0.579257 0.519587 0.324129
0.647483 0.511453 0.299333
0.727007 0.508136 0.300061
0.807715 0.515345 0.314305
0.333041 0.564433 0.368943
0.367604 0.590357 0.407125
0.461719 0.595377 0.397553
0.550922 0.600011 0.388625
0.621073 0.597938 0.374099
0.690986 0.596247 0.354368
0.747803 0.589611 0.339349
0.826736 0.596773 0.361732
0.396798 0.625029 0.386889
0.381854 0.642439 0.438577
0.440749 0.652740 0.445205
0.566540 0.670105 0.441459
0.637028 0.674101 0.440698
0.706077 0.676323 0.436852
0.775067 0.673053 0.418957
0.849402 0.665448 0.388427
0.437866 0.676540 0.421941
0.425231 0.685262 0.450562
0.467072 0.701720 0.506578
0.619161 0.725739 0.468217
0.694728 0.725310 0.454011
0.759295 0.725786 0.454308
0.823248 0.735794 0.466457
0.879359 0.746421 0.498173
0.024061 0.064898 0.204315
0.028288 0.079471 0.258620
0.064378 0.067721 0.245676
0.156147 0.055669 0.220521
0.241104 0.035411 0.181159
0.350429 0.034513 0.141732
0.448528 0.046443 0.128899
0.524750 0.058607 0.130851
0.052769 0.159155 0.288847
0.054124 0.181040 0.337246
0.130782 0.193453 0.343325
0.230946 0.169464 0.307454
0.334700 0.146631 0.266910
0.459480 0.142333 0.226142
0.549515 0.153144 0.214238
0.617895 0.155250 0.213408
0.063324 0.280702 0.370962
0.083097 0.300122 0.396868
0.205156 0.327613 0.407093
0.314391 0.323254 0.389699
0.439196 0.293740 0.337098
0.553270 0.287923 0.299869
0.626118 0.286105 0.293742
0.693285 0.283917 0.293789
0.118758 0.397065 0.422184
0.155216 0.420308 0.441129
0.279070 0.440109 0.440298
0.386552 0.442342 0.434167
0.504138 0.433893 0.395285
0.593920 0.423738 0.373484
0.680439 0.432845 0.374042
0.751977 0.434685 0.378771
0.198787 0.502776 0.460124
0.214049 0.530521 0.490428
0.330857 0.532789 0.474529
0.455823 0.540847 0.467103
0.543883 0.533676 0.448534
0.615025 0.536208 0.428390
0.699669 0.536730 0.421830
0.784493 0.542595 0.424005
0.275275 0.578668 0.476884
0.286019 0.607838 0.511584
0.410172 0.604257 0.497380
0.514069 0.610751 0.496709
0.592180 0.621705 0.494786
0.657018 0.623253 0.481341
0.720638 0.622403 0.469257
0.805454 0.624668 0.470363
0.337385 0.633097 0.487828
0.327302 0.657686 0.539381
0.373126 0.660015 0.533888
0.513293 0.675349 0.535166
0.602728 0.691385 0.542798
0.679379 0.699240 0.541510
0.753506 0.700778 0.527888
0.832237 0.693750 0.495731
0.370933 0.685869 0.515429
0.361773 0.694873 0.538024
0.419506 0.707499 0.566428
0.559353 0.725311 0.546115
0.667208 0.747746 0.544670
0.741193 0.754112 0.545900
0.809486 0.762273 0.555764
0.868112 0.770543 0.585628
0.035832 0.099745 0.291155
0.039179 0.110824 0.331560
0.064704 0.104138 0.326934
0.140136 0.093222 0.301403
0.227110 0.075596 0.268500
0.294661 0.056839 0.235071
0.389726 0.062864 0.220290
0.498178 0.079891 0.206107
0.053175 0.190263 0.366512
0.051563 0.204423 0.401684
0.115583 0.228737 0.421371
0.203405 0.205008 0.385158
0.307418 0.192108 0.358193
0.391400 0.176567 0.332313
0.493721 0.179343 0.316388
0.589808 0.183656 0.298548
0.078098 0.311358 0.446477
0.081295 0.323021 0.472047
0.182528 0.350272 0.492333
0.285044 0.359114 0.484493
0.376628 0.334337 0.450040
0.480343 0.319452 0.422412
0.580985 0.314706 0.400694
0.660608 0.307536 0.382700
0.127207 0.416878 0.508315
0.142902 0.435479 0.529411
0.249870 0.461654 0.535243
0.357485 0.471622 0.525495
0.457481 0.471246 0.513978
0.546920 0.450329 0.481141
0.643715 0.450381 0.463070
0.716785 0.448505 0.456777
0.185533 0.521033 0.546608
0.212303 0.547583 0.575591
0.319813 0.547996 0.560994
0.417928 0.554276 0.551672
0.510423 0.557770 0.544964
0.597266 0.555720 0.527348
0.677957 0.552649 0.514603
0.766791 0.558160 0.510147
0.248801 0.594916 0.576617
0.260782 0.619332 0.600770
0.347423 0.618664 0.581761
0.463430 0.624698 0.572079
0.560476 0.637083 0.574357
0.638958 0.639688 0.567286
0.703692 0.638473 0.552361
0.787961 0.644864 0.552079
0.298813 0.652084 0.579571
0.299005 0.670549 0.619511
0.320623 0.672469 0.613964
0.456138 0.682797 0.600844
0.554638 0.695833 0.608142
0.645383 0.712022 0.613664
0.736467 0.719395 0.607264
0.821026 0.716387 0.583387
0.328679 0.696193 0.592547
0.326594 0.703998 0.611709
0.407173 0.721339 0.629239
0.511637 0.729174 0.603310
0.619318 0.749649 0.613259
0.718953 0.770997 0.620285
0.792930 0.781787 0.638337
0.854623 0.790148 0.663426
0.045585 0.135307 0.369206
0.045116 0.143844 0.396500
0.065866 0.141675 0.404442
0.125996 0.122518 0.374995
0.214846 0.112881 0.348990
0.293793 0.100024 0.319012
0.350861 0.081517 0.289236
0.433585 0.087808 0.282728
0.049389 0.208670 0.429616
0.046477 0.222763 0.462154
0.106375 0.254745 0.489365
0.183796 0.232360 0.460501
0.284062 0.226804 0.433838
0.371290 0.216837 0.413130
0.441289 0.203710 0.384941
0.530263 0.207900 0.382982
0.084479 0.327348 0.510073
0.085924 0.336715 0.530397
0.173674 0.374251 0.554019
0.273787 0.384314 0.550600
0.349910 0.355406 0.518254
0.447061 0.343825 0.487091
0.522839 0.332700 0.470961
0.614867 0.333029 0.467391
0.130697 0.430554 0.567914
0.136371 0.443547 0.584879
0.233724 0.480738 0.599467
0.340010 0.492870 0.590994
0.434597 0.494431 0.579140
0.508775 0.475259 0.551940
0.590159 0.465460 0.539748
0.686765 0.460419 0.525619
0.184444 0.527700 0.603906
0.196270 0.546975 0.622593
0.300518 0.567181 0.632150
0.402086 0.574120 0.616350
0.491523 0.580705 0.610282
0.570180 0.579174 0.602910
0.650295 0.566199 0.580676
0.735199 0.563386 0.570659
0.246655 0.603437 0.632644
0.264165 0.621874 0.649264
0.362252 0.631932 0.643963
0.451173 0.639049 0.634667
0.536089 0.646113 0.634492
0.615266 0.650544 0.632335
0.695472 0.661115 0.625795
0.773727 0.658572 0.626591
0.286061 0.661411 0.648858
0.294605 0.676084 0.667433
0.329480 0.681967 0.667384
0.442607 0.692108 0.656203
0.531718 0.703147 0.658467
0.619965 0.717714 0.667306
0.714904 0.730736 0.669895
0.808112 0.732690 0.657785
0.309614 0.705798 0.653046
0.315668 0.712384 0.666995
0.390969 0.729058 0.677779
0.484495 0.741400 0.666346
0.581576 0.755436 0.670832
0.676375 0.771721 0.681937
0.771410 0.793089 0.697775
0.843515 0.805163 0.728354
0.046631 0.162183 0.436498
0.047677 0.166433 0.459675
0.061081 0.174913 0.468175
0.118827 0.150564 0.436182
0.202317 0.143046 0.413850
0.285498 0.138147 0.394899
0.348701 0.123143 0.370450
0.399959 0.106951 0.341971
0.044327 0.229310 0.494064
0.044839 0.243812 0.519666
0.102947 0.275941 0.540108
0.170898 0.256672 0.521908
0.263054 0.247504 0.499313
0.352136 0.243645 0.473609
0.426058 0.232202 0.454079
0.488199 0.218754 0.428435
0.082921 0.337208 0.563196
0.088640 0.349480 0.581967
0.168493 0.387943 0.598689
0.262897 0.403029 0.603305
0.328309 0.375523 0.569353
0.419875 0.363271 0.542646
0.497016 0.350794 0.519498
0.569316 0.342991 0.505750
0.137768 0.452514 0.622601
0.140488 0.460345 0.633081
0.223084 0.487337 0.638882
0.328922 0.512970 0.645769
0.421493 0.519582 0.635764
0.486440 0.493264 0.602002
0.563268 0.479012 0.581695
0.639487 0.469952 0.573225
0.181081 0.535418 0.653579
0.189713 0.549505 0.666388
0.279978 0.569805 0.667325
0.375282 0.591558 0.669190
0.468691 0.592895 0.664611
0.559378 0.596466 0.658099
0.618085 0.582401 0.637817
0.699824 0.571765 0.623739
0.235381 0.609995 0.673103
0.248399 0.629937 0.692470
0.334703 0.638712 0.692412
0.426674 0.648886 0.687707
0.518434 0.663372 0.688628
0.598575 0.666527 0.686743
0.680602 0.676361 0.689505
0.752681 0.664427 0.676049
0.284124 0.669366 0.695462
0.288595 0.679801 0.713468
0.367585 0.694712 0.713081
0.449135 0.704741 0.705169
0.536795 0.712849 0.705303
0.618265 0.726722 0.710829
0.706484 0.736734 0.718147
0.802850 0.747255 0.717617
0.303624 0.712577 0.702179
0.318810 0.718639 0.711813
0.386753 0.730581 0.718059
0.465732 0.747004 0.714750
0.554098 0.760210 0.720882
0.648802 0.779893 0.732315
0.750617 0.800967 0.748623
0.841448 0.817719 0.780107
0.050110 0.180511 0.491974
0.051753 0.184932 0.510655
0.058140 0.193608 0.519697
0.107082 0.174129 0.492832
0.189209 0.169809 0.480966
0.272631 0.165427 0.455291
0.343310 0.154825 0.438180
0.396484 0.137451 0.405487
0.048405 0.239802 0.544521
0.054113 0.255503 0.560398
0.105717 0.292680 0.588336
0.161772 0.276396 0.570355
0.246750 0.271668 0.555603
0.334439 0.262656 0.532543
0.407328 0.250712 0.505014
0.470110 0.231611 0.485090
0.091352 0.345376 0.605704
0.098931 0.362167 0.622108
0.159259 0.394313 0.639193
0.250339 0.418323 0.644852
0.307635 0.397910 0.617606
0.392203 0.376315 0.590985
0.471204 0.363116 0.574343
0.542442 0.340755 0.536612
0.142464 0.456552 0.661011
0.143968 0.462539 0.667736
0.210785 0.497976 0.684055
0.301363 0.526556 0.688982
0.406918 0.530321 0.679929
0.466225 0.510621 0.654875
0.544029 0.492951 0.630462
0.607648 0.469090 0.608420
0.178742 0.542781 0.689422
0.182488 0.548942 0.693826
0.256654 0.569119 0.703784
0.347866 0.593950 0.713314
0.451065 0.609563 0.713166
0.548417 0.616811 0.700605
0.604894 0.596209 0.679552
0.667999 0.579563 0.663783
0.227168 0.610613 0.715032
0.231783 0.625675 0.729049
0.305269 0.640258 0.731603
0.390340 0.652616 0.729763
0.483193 0.669491 0.729685
0.578843 0.682961 0.735373
0.666863 0.686324 0.735176
0.721832 0.672150 0.717961
0.261675 0.664455 0.731794
0.252453 0.673221 0.746839
0.317427 0.689193 0.749778
0.402385 0.706700 0.752037
0.496654 0.723368 0.755778
0.596542 0.736041 0.754662
0.699721 0.751573 0.764754
0.791194 0.751204 0.763589
0.290222 0.711456 0.740265
0.320086 0.723920 0.750078
0.371699 0.732688 0.753719
0.448870 0.749603 0.754782
0.544028 0.767761 0.763358
0.645029 0.788518 0.772762
0.749521 0.808162 0.789634
0.859924 0.825226 0.817139
