Plugins/FilmEmulator/Content/LUTs/FE_Kodak_Vision2_500T_Expression_5229_64.cube
# FilmEmulator LUT (resampled to 64)
LUT_3D_SIZE 64
0.000793 0.002380 0.003174
0.007335 0.002256 0.002290
0.013991 0.002147 0.001423
0.024190 0.002504 0.001066
0.034541 0.002839 0.000732
0.047159 0.002855 0.000732
0.059693 0.002936 0.000732
0.071411 0.003648 0.000732
0.083362 0.004227 0.000686
0.096941 0.003871 0.000314
0.110585 0.003627 0.000000
0.124583 0.003983 0.000000
0.138685 0.004342 0.000000
0.153241 0.004714 0.000000
0.167881 0.004927 0.000000
0.182824 0.004570 0.000000
0.197650 0.004303 0.000000
0.212128 0.004303 0.000000
0.226593 0.004403 0.000000
0.241024 0.004760 0.000000
0.255398 0.005116 0.000000
0.269643 0.005473 0.000000
0.283899 0.005707 0.000000
0.298175 0.005707 0.000000
0.311952 0.005980 0.000000
0.324896 0.006709 0.000000
0.337398 0.007286 0.000145
0.349257 0.007642 0.000501
0.360511 0.007850 0.000546
0.370989 0.007866 0.000189
0.380531 0.007874 0.000000
0.389010 0.007874 0.000000
0.397838 0.007874 0.000000
0.407015 0.007874 0.000000
0.415870 0.007676 0.000000
0.424442 0.007304 0.000000
0.433807 0.007141 0.000000
0.443790 0.007141 0.000000
0.453312 0.007564 0.000000
0.462520 0.008278 0.000000
0.472251 0.008555 0.000000
0.482295 0.008570 0.000000
0.492889 0.008809 0.000000
0.503771 0.009166 0.000000
0.513417 0.009277 0.000000
0.522500 0.009277 0.000000
0.532364 0.009545 0.000000
0.542532 0.009917 0.000000
0.551317 0.010277 0.000000
0.559641 0.010634 0.000000
0.568559 0.010433 0.000000
0.577643 0.010077 0.000000
0.585567 0.010892 0.000000
0.593225 0.011976 0.000000
0.601902 0.012761 0.000000
0.610769 0.013489 0.000000
0.618577 0.014530 0.000000
0.626235 0.015615 0.000000
0.634736 0.016377 0.000000
0.643323 0.017105 0.000000
0.650589 0.017820 0.000000
0.657766 0.018533 0.000000
0.665243 0.019261 0.000000
0.672729 0.019989 0.000000
0.001367 0.015355 0.003902
0.008790 0.013932 0.003806
0.016282 0.012547 0.003683
0.025891 0.012368 0.002736
0.035879 0.012254 0.001809
0.051552 0.013113 0.001171
0.066872 0.013903 0.000595
0.078779 0.014041 0.000619
0.090848 0.014098 0.000618
0.104041 0.013584 0.000451
0.117314 0.013159 0.000311
0.131020 0.013216 0.000319
0.144950 0.013314 0.000295
0.159852 0.013583 0.000129
0.174810 0.013709 0.000000
0.189965 0.013321 0.000000
0.204957 0.013107 0.000000
0.219459 0.013414 0.000000
0.233859 0.013629 0.000049
0.247999 0.013607 0.000222
0.262090 0.013697 0.000341
0.276076 0.014030 0.000341
0.290056 0.014245 0.000341
0.304025 0.014237 0.000341
0.317681 0.014361 0.000344
0.330813 0.014703 0.000352
0.343198 0.014975 0.000428
0.354489 0.015143 0.000603
0.365573 0.015240 0.000625
0.376390 0.015248 0.000450
0.386580 0.015164 0.000357
0.396059 0.014975 0.000357
0.405371 0.014786 0.000357
0.414516 0.014597 0.000357
0.423512 0.014311 0.000260
0.432375 0.013938 0.000079
0.441411 0.013776 0.000000
0.450583 0.013776 0.000000
0.459991 0.013984 0.000000
0.469561 0.014335 0.000000
0.479448 0.014579 0.000000
0.489524 0.014760 0.000000
0.499793 0.015056 0.000000
0.510163 0.015413 0.000000
0.520114 0.015649 0.000000
0.529875 0.015830 0.000000
0.539510 0.016012 0.000000
0.549095 0.016196 0.000000
0.558390 0.016509 0.000000
0.567588 0.016865 0.000000
0.576352 0.016806 0.000000
0.584995 0.016631 0.000000
0.593471 0.017179 0.000000
0.601907 0.017894 0.000000
0.610155 0.018620 0.000000
0.618368 0.019349 0.000000
0.626578 0.020224 0.000000
0.634786 0.021120 0.000000
0.642639 0.021700 0.000000
0.650455 0.022247 0.000000
0.657606 0.022780 0.000000
0.664712 0.023312 0.000000
0.671928 0.024027 0.000000
0.679147 0.024748 0.000000
0.001966 0.028368 0.004681
0.010299 0.025714 0.005325
0.018653 0.023118 0.005903
0.027646 0.022349 0.004411
0.037233 0.021728 0.002934
0.055733 0.023335 0.001677
0.073648 0.024759 0.000539
0.085899 0.024418 0.000551
0.098225 0.024037 0.000565
0.111072 0.023378 0.000588
0.124011 0.022782 0.000611
0.137441 0.022532 0.000627
0.151209 0.022358 0.000580
0.166447 0.022514 0.000259
0.181715 0.022543 0.000009
0.197092 0.022118 0.000010
0.212259 0.021950 0.000010
0.226801 0.022550 0.000010
0.241150 0.022871 0.000105
0.255004 0.022481 0.000440
0.268817 0.022305 0.000671
0.282539 0.022602 0.000671
0.296237 0.022790 0.000671
0.309886 0.022772 0.000671
0.323408 0.022747 0.000677
0.336716 0.022709 0.000692
0.348989 0.022678 0.000702
0.359751 0.022656 0.000702
0.370676 0.022640 0.000702
0.381810 0.022634 0.000702
0.392621 0.022458 0.000702
0.403066 0.022090 0.000702
0.412857 0.021721 0.000702
0.421996 0.021348 0.000702
0.431131 0.020973 0.000516
0.440263 0.020595 0.000165
0.448993 0.020420 0.000008
0.457409 0.020402 0.000002
0.466708 0.020398 0.000000
0.476611 0.020403 0.000000
0.486642 0.020614 0.000000
0.496749 0.020949 0.000000
0.506695 0.021298 0.000000
0.516555 0.021654 0.000000
0.526797 0.022010 0.000000
0.537213 0.022367 0.000000
0.546641 0.022467 0.000000
0.555683 0.022466 0.000000
0.565465 0.022729 0.000000
0.575494 0.023080 0.000000
0.584127 0.023161 0.000000
0.592370 0.023166 0.000000
0.601368 0.023457 0.000000
0.610540 0.023813 0.000000
0.618384 0.024483 0.000000
0.625981 0.025211 0.000000
0.634558 0.025921 0.000000
0.643274 0.026629 0.000000
0.650505 0.027037 0.000000
0.657583 0.027414 0.000000
0.664614 0.027772 0.000000
0.671642 0.028128 0.000000
0.678584 0.028830 0.000000
0.685522 0.029544 0.000000
0.003329 0.042582 0.007006
0.013458 0.040810 0.006958
0.023507 0.038997 0.006891
0.031075 0.035929 0.006249
0.039062 0.033017 0.005567
0.053350 0.032458 0.004270
0.067929 0.032153 0.002994
0.085313 0.034292 0.001912
0.102243 0.036112 0.000938
0.115988 0.035697 0.000726
0.129715 0.035218 0.000550
0.143341 0.034393 0.000574
0.157270 0.033666 0.000565
0.172508 0.033365 0.000418
0.187881 0.032994 0.000306
0.203737 0.032373 0.000314
0.219405 0.032017 0.000322
0.234506 0.032460 0.000330
0.249226 0.032641 0.000381
0.262970 0.032156 0.000544
0.276591 0.031783 0.000658
0.289944 0.031654 0.000666
0.303155 0.031542 0.000671
0.316096 0.031461 0.000671
0.329083 0.031314 0.000674
0.342146 0.031056 0.000681
0.354527 0.030804 0.000689
0.365911 0.030561 0.000697
0.377034 0.030329 0.000702
0.387822 0.030110 0.000702
0.398401 0.029895 0.000702
0.408743 0.029685 0.000702
0.418869 0.029382 0.000702
0.428780 0.028986 0.000702
0.438055 0.028499 0.000612
0.446770 0.027932 0.000442
0.455857 0.027355 0.000263
0.465234 0.026771 0.000076
0.474582 0.026634 0.000000
0.483910 0.026805 0.000000
0.493750 0.026960 0.000000
0.503897 0.027106 0.000000
0.513567 0.027379 0.000000
0.522986 0.027720 0.000000
0.533064 0.028066 0.000000
0.543440 0.028414 0.000000
0.553332 0.028506 0.000000
0.563036 0.028498 0.000000
0.572600 0.028611 0.000000
0.582116 0.028765 0.000000
0.591320 0.028944 0.000000
0.600437 0.029131 0.000000
0.609087 0.029449 0.000000
0.617630 0.029798 0.000000
0.625840 0.030460 0.000000
0.633988 0.031180 0.000000
0.641910 0.031724 0.000000
0.649801 0.032242 0.000000
0.657211 0.032790 0.000000
0.664571 0.033340 0.000000
0.671340 0.033709 0.000000
0.678069 0.034065 0.000000
0.684338 0.034767 0.000000
0.690591 0.035480 0.000000
0.004778 0.056807 0.009308
0.016560 0.055857 0.008597
0.028175 0.054777 0.007912
0.034596 0.049668 0.008026
0.041254 0.044704 0.008055
0.051449 0.041925 0.006792
0.062740 0.039804 0.005450
0.084628 0.044044 0.003343
0.105623 0.047746 0.001439
0.120366 0.047690 0.000947
0.134998 0.047461 0.000534
0.149033 0.046298 0.000540
0.163295 0.045207 0.000548
0.178537 0.044432 0.000564
0.194012 0.043649 0.000581
0.210317 0.042836 0.000596
0.226455 0.042294 0.000612
0.242088 0.042566 0.000628
0.257167 0.042593 0.000639
0.270828 0.041996 0.000640
0.284284 0.041415 0.000645
0.297289 0.040873 0.000660
0.310050 0.040458 0.000670
0.322348 0.040286 0.000670
0.334833 0.039999 0.000670
0.347628 0.039521 0.000671
0.360086 0.039050 0.000677
0.372051 0.038588 0.000692
0.383370 0.038144 0.000701
0.393859 0.037723 0.000701
0.404230 0.037468 0.000701
0.414467 0.037403 0.000701
0.424891 0.037155 0.000701
0.435504 0.036726 0.000701
0.444933 0.036124 0.000695
0.453318 0.035370 0.000684
0.462749 0.034413 0.000486
0.472996 0.033298 0.000140
0.482404 0.033018 0.000000
0.491237 0.033308 0.000000
0.500892 0.033410 0.000000
0.511039 0.033398 0.000000
0.520452 0.033600 0.000000
0.529480 0.033913 0.000000
0.539399 0.034244 0.000000
0.549722 0.034583 0.000000
0.560032 0.034673 0.000000
0.570338 0.034667 0.000000
0.579718 0.034642 0.000000
0.588790 0.034610 0.000000
0.598502 0.034880 0.000000
0.608393 0.035234 0.000000
0.616735 0.035576 0.000000
0.624719 0.035916 0.000000
0.633247 0.036567 0.000000
0.641876 0.037277 0.000000
0.649198 0.037672 0.000000
0.656333 0.038022 0.000000
0.663895 0.038688 0.000000
0.671501 0.039387 0.000000
0.678009 0.039763 0.000000
0.684445 0.040117 0.000000
0.690118 0.040797 0.000000
0.695767 0.041487 0.000000
0.007490 0.071192 0.011261
0.018800 0.070163 0.010338
0.030052 0.069064 0.009426
0.039513 0.065798 0.008887
0.048876 0.062370 0.008373
0.056772 0.056536 0.008236
0.065516 0.051310 0.007916
0.082451 0.051959 0.005834
0.099426 0.052780 0.003836
0.116672 0.054803 0.002431
0.133977 0.056830 0.001185
0.151595 0.058879 0.000798
0.168780 0.060258 0.000488
0.184093 0.058735 0.000512
0.199619 0.057343 0.000536
0.215910 0.056420 0.000559
0.232067 0.055705 0.000581
0.247826 0.055614 0.000597
0.263086 0.055273 0.000610
0.277070 0.054289 0.000619
0.290745 0.053370 0.000629
0.303742 0.052592 0.000645
0.316615 0.051841 0.000655
0.329252 0.051141 0.000655
0.341711 0.050447 0.000658
0.353877 0.049765 0.000666
0.365948 0.049092 0.000674
0.377882 0.048434 0.000681
0.389366 0.047858 0.000685
0.400272 0.047389 0.000685
0.410795 0.047084 0.000685
0.420882 0.046963 0.000685
0.431058 0.046602 0.000685
0.441324 0.045999 0.000685
0.451109 0.045232 0.000588
0.460471 0.044321 0.000404
0.470051 0.043304 0.000231
0.479801 0.042204 0.000067
0.489432 0.041603 0.000000
0.498983 0.041343 0.000000
0.508537 0.041430 0.000000
0.518094 0.041725 0.000000
0.527536 0.041903 0.000000
0.536919 0.042020 0.000000
0.546769 0.042262 0.000000
0.556832 0.042561 0.000000
0.566860 0.042748 0.000000
0.576874 0.042892 0.000000
0.586601 0.042898 0.000000
0.596232 0.042858 0.000000
0.605507 0.043096 0.000000
0.614682 0.043411 0.000000
0.623305 0.043726 0.000000
0.631801 0.044042 0.000000
0.639924 0.044644 0.000000
0.647978 0.045298 0.000000
0.655503 0.045803 0.000000
0.662953 0.046286 0.000000
0.670252 0.046773 0.000000
0.677535 0.047260 0.000000
0.683824 0.047585 0.000000
0.690047 0.047900 0.000000
0.696301 0.048220 0.000000
0.702557 0.048540 0.000000
0.010151 0.085562 0.013195
0.021024 0.084419 0.012070
0.031938 0.083263 0.010944
0.044155 0.081686 0.009812
0.055992 0.079694 0.008801
0.062116 0.071458 0.009588
0.068809 0.063710 0.010123
0.080993 0.060680 0.008217
0.094070 0.058489 0.006270
0.113394 0.062176 0.004029
0.132936 0.066029 0.002016
0.153661 0.070772 0.001231
0.173448 0.074308 0.000583
0.189166 0.072618 0.000529
0.205029 0.071096 0.000493
0.221407 0.070173 0.000523
0.237666 0.069366 0.000549
0.253565 0.068911 0.000565
0.269016 0.068204 0.000581
0.283322 0.066856 0.000597
0.297224 0.065608 0.000612
0.310240 0.064578 0.000628
0.323223 0.063492 0.000638
0.336144 0.062300 0.000639
0.348580 0.061216 0.000645
0.360208 0.060314 0.000659
0.371946 0.059420 0.000668
0.383844 0.058539 0.000669
0.395445 0.057794 0.000670
0.406664 0.057223 0.000670
0.417313 0.056820 0.000670
0.427317 0.056606 0.000671
0.437317 0.056102 0.000671
0.447313 0.055307 0.000671
0.457432 0.054363 0.000490
0.467660 0.053285 0.000149
0.477405 0.052191 0.000000
0.486774 0.051083 0.000000
0.496594 0.050182 0.000000
0.506722 0.049423 0.000000
0.516178 0.049474 0.000000
0.525229 0.050011 0.000000
0.534680 0.050169 0.000000
0.544339 0.050130 0.000000
0.554126 0.050285 0.000000
0.563971 0.050530 0.000000
0.573768 0.050795 0.000000
0.583546 0.051068 0.000000
0.593538 0.051109 0.000000
0.603601 0.051072 0.000000
0.612495 0.051279 0.000000
0.621060 0.051554 0.000000
0.629897 0.051841 0.000000
0.638797 0.052131 0.000000
0.646569 0.052692 0.000000
0.654133 0.053303 0.000000
0.661843 0.053903 0.000000
0.669574 0.054501 0.000000
0.676615 0.054820 0.000000
0.683585 0.055110 0.000000
0.689736 0.055387 0.000000
0.695832 0.055663 0.000000
0.702570 0.055667 0.000000
0.709329 0.055663 0.000000
0.012306 0.099776 0.014947
0.023084 0.098184 0.013719
0.033908 0.096600 0.012494
0.046148 0.095245 0.011362
0.058214 0.093703 0.010287
0.067661 0.089380 0.010051
0.077102 0.084753 0.009814
0.086484 0.077179 0.009569
0.096852 0.070721 0.009064
0.114129 0.072070 0.006738
0.131712 0.073588 0.004583
0.150949 0.076016 0.003356
0.170209 0.078694 0.002180
0.189573 0.082452 0.001221
0.208522 0.085419 0.000474
0.225987 0.085558 0.000488
0.243131 0.085451 0.000504
0.259314 0.084602 0.000529
0.275055 0.083568 0.000550
0.289667 0.082062 0.000566
0.303869 0.080580 0.000581
0.317169 0.079149 0.000597
0.330255 0.077746 0.000610
0.342931 0.076395 0.000618
0.355347 0.075077 0.000626
0.367329 0.073813 0.000633
0.379249 0.072512 0.000641
0.391076 0.071159 0.000649
0.402330 0.069872 0.000654
0.412849 0.068672 0.000654
0.423388 0.067720 0.000658
0.433951 0.067050 0.000667
0.444467 0.066128 0.000671
0.454935 0.064956 0.000671
0.465171 0.063704 0.000490
0.475202 0.062383 0.000149
0.485273 0.061044 0.000000
0.495374 0.059692 0.000000
0.505038 0.058692 0.000000
0.514402 0.057933 0.000000
0.523773 0.057743 0.000000
0.533148 0.057894 0.000000
0.542399 0.058075 0.000000
0.551586 0.058271 0.000000
0.561356 0.058360 0.000000
0.571390 0.058400 0.000000
0.581449 0.058562 0.000000
0.591518 0.058772 0.000000
0.600992 0.058880 0.000000
0.610269 0.058954 0.000000
0.619322 0.059148 0.000000
0.628313 0.059375 0.000000
0.636711 0.059615 0.000000
0.644973 0.059858 0.000000
0.652918 0.060471 0.000000
0.660805 0.061153 0.000000
0.668514 0.061700 0.000000
0.676197 0.062227 0.000000
0.683034 0.062496 0.000000
0.689784 0.062739 0.000000
0.696586 0.062984 0.000000
0.703390 0.063228 0.000000
0.709670 0.063346 0.000000
0.715932 0.063460 0.000000
0.014482 0.114052 0.016814
0.025191 0.112030 0.015438
0.035947 0.110035 0.014069
0.048133 0.108859 0.012950
0.060333 0.107699 0.011828
0.072744 0.106781 0.010672
0.084679 0.104931 0.009722
0.092021 0.094072 0.010769
0.100327 0.084390 0.011422
0.115379 0.082949 0.009306
0.130876 0.081791 0.007259
0.148785 0.082161 0.005575
0.167543 0.083958 0.003875
0.189984 0.091939 0.002109
0.211572 0.098488 0.000708
0.230108 0.099921 0.000613
0.248138 0.100818 0.000537
0.264650 0.100108 0.000522
0.280721 0.099126 0.000516
0.295666 0.097448 0.000532
0.310197 0.095728 0.000548
0.323819 0.093918 0.000565
0.337077 0.092214 0.000581
0.349640 0.090710 0.000597
0.362090 0.089157 0.000607
0.374352 0.087524 0.000608
0.386414 0.085796 0.000614
0.398184 0.083930 0.000629
0.409176 0.082101 0.000638
0.419167 0.080317 0.000639
0.429629 0.078854 0.000646
0.440626 0.077755 0.000661
0.451580 0.076454 0.000669
0.462491 0.074953 0.000669
0.472887 0.073431 0.000489
0.482828 0.071890 0.000149
0.493178 0.070333 0.000000
0.503846 0.068763 0.000000
0.513389 0.067682 0.000000
0.522162 0.066934 0.000000
0.531451 0.066525 0.000000
0.541051 0.066318 0.000000
0.550162 0.066484 0.000000
0.559016 0.066844 0.000000
0.568756 0.066828 0.000000
0.578897 0.066641 0.000000
0.589132 0.066693 0.000000
0.599403 0.066839 0.000000
0.608450 0.066997 0.000000
0.617089 0.067159 0.000000
0.626222 0.067334 0.000000
0.635493 0.067513 0.000000
0.643497 0.067715 0.000000
0.651209 0.067923 0.000000
0.659333 0.068572 0.000000
0.667532 0.069303 0.000000
0.675206 0.069793 0.000000
0.682805 0.070250 0.000000
0.689539 0.070482 0.000000
0.696183 0.070691 0.000000
0.703497 0.070890 0.000000
0.710855 0.071089 0.000000
0.716795 0.071300 0.000021
0.722690 0.071512 0.000043
0.016806 0.128762 0.019496
0.027626 0.126441 0.017647
0.038470 0.124153 0.015824
0.050058 0.122866 0.014799
0.061726 0.121594 0.013753
0.074585 0.120526 0.012400
0.087237 0.119057 0.011151
0.097886 0.113710 0.010907
0.108652 0.108107 0.010717
0.120231 0.100722 0.010901
0.132765 0.094507 0.010703
0.150461 0.094609 0.008444
0.168878 0.095372 0.006256
0.190422 0.098999 0.004371
0.211520 0.102781 0.002711
0.231025 0.107120 0.001852
0.249943 0.111164 0.001111
0.267100 0.114329 0.000726
0.283779 0.116051 0.000456
0.299236 0.114089 0.000480
0.314303 0.112106 0.000505
0.328516 0.110075 0.000529
0.342438 0.108182 0.000550
0.355804 0.106553 0.000566
0.368664 0.104765 0.000579
0.380682 0.102714 0.000588
0.392615 0.100419 0.000596
0.404424 0.097766 0.000602
0.415738 0.095380 0.000610
0.426414 0.093336 0.000619
0.437033 0.091625 0.000631
0.447590 0.090289 0.000646
0.458441 0.088879 0.000654
0.469589 0.087392 0.000654
0.480442 0.085852 0.000477
0.491036 0.084265 0.000145
0.501340 0.082670 0.000000
0.511417 0.081069 0.000000
0.521085 0.080030 0.000000
0.530472 0.079377 0.000000
0.539707 0.078900 0.000000
0.548850 0.078528 0.000000
0.558228 0.078414 0.000000
0.567728 0.078436 0.000000
0.577349 0.078049 0.000000
0.587027 0.077476 0.000000
0.596831 0.077368 0.000000
0.606685 0.077444 0.000000
0.615935 0.077537 0.000000
0.624983 0.077637 0.000000
0.633633 0.077749 0.000000
0.642172 0.077864 0.000000
0.650090 0.078099 0.000000
0.657864 0.078363 0.000000
0.666204 0.078927 0.000000
0.674647 0.079547 0.000000
0.682049 0.079962 0.000000
0.689301 0.080347 0.000000
0.696638 0.080630 0.000000
0.703983 0.080903 0.000000
0.710838 0.080965 0.000000
0.717661 0.081014 0.000000
0.724103 0.081183 0.000189
0.730534 0.081356 0.000383
0.019221 0.143787 0.022052
0.030080 0.141161 0.019879
0.040945 0.138570 0.017744
0.051996 0.137069 0.016744
0.063183 0.135585 0.015709
0.076403 0.134367 0.014160
0.089650 0.133199 0.012629
0.103147 0.132518 0.011280
0.116088 0.130492 0.010336
0.125137 0.119053 0.012231
0.135425 0.109226 0.013470
0.152400 0.108100 0.011169
0.170081 0.107156 0.008906
0.190826 0.106995 0.006806
0.211488 0.108241 0.004821
0.231850 0.114512 0.003247
0.251583 0.120768 0.001871
0.269427 0.126976 0.001091
0.286724 0.131045 0.000520
0.302623 0.129650 0.000483
0.318167 0.128105 0.000467
0.332931 0.126233 0.000494
0.347483 0.124401 0.000517
0.361631 0.122647 0.000534
0.374954 0.120630 0.000550
0.386901 0.118176 0.000566
0.398836 0.115365 0.000576
0.410752 0.112034 0.000577
0.422368 0.109138 0.000584
0.433597 0.106800 0.000600
0.444391 0.104820 0.000614
0.454691 0.103246 0.000629
0.465518 0.101693 0.000624
0.476874 0.100160 0.000601
0.488082 0.098565 0.000431
0.499161 0.096915 0.000131
0.509450 0.095287 0.000000
0.519124 0.093677 0.000000
0.528890 0.092654 0.000000
0.538719 0.092033 0.000000
0.547933 0.091457 0.000000
0.556779 0.090908 0.000000
0.566354 0.090513 0.000000
0.576311 0.090198 0.000000
0.585832 0.089482 0.000000
0.595154 0.088584 0.000000
0.604604 0.088304 0.000000
0.614105 0.088265 0.000000
0.623455 0.088271 0.000000
0.632754 0.088292 0.000000
0.640995 0.088369 0.000000
0.648941 0.088461 0.000000
0.656863 0.088731 0.000000
0.664781 0.089040 0.000000
0.673245 0.089510 0.000000
0.681809 0.090009 0.000000
0.689070 0.090357 0.000000
0.696145 0.090684 0.000000
0.703906 0.090988 0.000000
0.711738 0.091291 0.000000
0.718296 0.091219 0.000000
0.724768 0.091123 0.000000
0.731601 0.091222 0.000331
0.738445 0.091327 0.000673
0.022120 0.160513 0.023928
0.032632 0.157549 0.022235
0.043155 0.154605 0.020554
0.054001 0.152324 0.019208
0.064989 0.150100 0.017837
0.078100 0.148724 0.016090
0.091281 0.147423 0.014371
0.105148 0.146844 0.012919
0.118733 0.145678 0.011703
0.130341 0.140396 0.012134
0.142247 0.134762 0.012580
0.155757 0.127228 0.013114
0.170574 0.120938 0.013015
0.191051 0.120045 0.010175
0.211560 0.119994 0.007512
0.232182 0.122951 0.005480
0.252336 0.126360 0.003630
0.271085 0.131127 0.002322
0.289053 0.135611 0.001250
0.305023 0.139373 0.000781
0.320722 0.142063 0.000459
0.335825 0.142395 0.000463
0.350829 0.141970 0.000473
0.365647 0.140097 0.000498
0.379713 0.137883 0.000519
0.392526 0.135098 0.000535
0.405166 0.132056 0.000548
0.417555 0.128638 0.000557
0.429368 0.125483 0.000569
0.440440 0.122665 0.000584
0.451496 0.120311 0.000595
0.462536 0.118486 0.000602
0.473761 0.116613 0.000519
0.485172 0.114695 0.000346
0.496180 0.112843 0.000193
0.506834 0.111052 0.000059
0.517278 0.109424 0.000000
0.527558 0.107924 0.000000
0.537281 0.106764 0.000000
0.546622 0.105835 0.000000
0.556002 0.104997 0.000000
0.565407 0.104212 0.000000
0.574807 0.103518 0.000000
0.584205 0.102873 0.000000
0.593714 0.102059 0.000000
0.603272 0.101169 0.000000
0.612783 0.100642 0.000000
0.622276 0.100256 0.000000
0.631169 0.100052 0.000000
0.639861 0.099907 0.000000
0.648093 0.100101 0.000000
0.656196 0.100391 0.000000
0.664616 0.100697 0.000000
0.673108 0.101007 0.000000
0.681203 0.101324 0.000000
0.689225 0.101642 0.000000
0.697059 0.101974 0.000000
0.704865 0.102309 0.000000
0.712088 0.102478 0.000000
0.719251 0.102631 0.000000
0.726380 0.102440 0.000000
0.733506 0.102226 0.000000
0.740123 0.102107 0.000339
0.746723 0.101992 0.000689
0.024998 0.177707 0.026042
0.035179 0.174303 0.024658
0.045375 0.170911 0.023267
0.056044 0.167845 0.021644
0.066856 0.164872 0.020005
0.079803 0.163268 0.018114
0.092864 0.161763 0.016248
0.107025 0.161214 0.014622
0.121128 0.160696 0.013105
0.134832 0.160396 0.012345
0.148135 0.158324 0.012096
0.159280 0.146682 0.014600
0.172015 0.136744 0.016086
0.191641 0.134190 0.013157
0.211527 0.132211 0.010329
0.232336 0.132288 0.007865
0.252861 0.133169 0.005567
0.272534 0.136467 0.003769
0.291312 0.140856 0.002203
0.307807 0.148035 0.001233
0.323937 0.153865 0.000545
0.339264 0.156730 0.000481
0.354540 0.158238 0.000446
0.369720 0.157155 0.000466
0.384293 0.155332 0.000486
0.397856 0.152276 0.000503
0.411142 0.149061 0.000519
0.424024 0.145616 0.000535
0.436140 0.142243 0.000550
0.447273 0.138964 0.000566
0.458668 0.136236 0.000575
0.470359 0.134135 0.000576
0.481893 0.131939 0.000430
0.493270 0.129650 0.000137
0.504146 0.127541 0.000000
0.514578 0.125591 0.000000
0.525174 0.123917 0.000000
0.535899 0.122456 0.000000
0.545634 0.121130 0.000000
0.554693 0.119896 0.000000
0.564185 0.118787 0.000000
0.573936 0.117755 0.000000
0.583210 0.116777 0.000000
0.592233 0.115829 0.000000
0.601735 0.114877 0.000000
0.611455 0.113924 0.000000
0.620956 0.113162 0.000000
0.630372 0.112475 0.000000
0.638875 0.112063 0.000000
0.647075 0.111742 0.000000
0.655386 0.112037 0.000000
0.663728 0.112504 0.000000
0.672497 0.112861 0.000000
0.681365 0.113192 0.000000
0.689239 0.113408 0.000026
0.696928 0.113602 0.000057
0.705137 0.113888 0.000062
0.713420 0.114188 0.000064
0.720302 0.114198 0.000064
0.727039 0.114179 0.000064
0.734525 0.113821 0.000064
0.742060 0.113440 0.000064
0.748563 0.113113 0.000376
0.755032 0.112787 0.000699
0.027788 0.196928 0.029189
0.037701 0.192651 0.027372
0.047636 0.188386 0.025563
0.058250 0.184518 0.023963
0.068986 0.180758 0.022351
0.081540 0.178618 0.020547
0.094240 0.176601 0.018714
0.108361 0.175769 0.016600
0.122441 0.174989 0.014655
0.136231 0.174580 0.013895
0.149982 0.173331 0.013369
0.163520 0.167555 0.014102
0.177566 0.161317 0.014661
0.193815 0.153078 0.014463
0.211034 0.146439 0.013698
0.231718 0.145516 0.010903
0.252399 0.145250 0.008274
0.273071 0.146957 0.006145
0.293268 0.149043 0.004119
0.312251 0.152096 0.002353
0.330007 0.156325 0.001038
0.345066 0.163142 0.000713
0.359834 0.168868 0.000489
0.374045 0.172509 0.000455
0.388105 0.173633 0.000442
0.401912 0.170560 0.000467
0.415579 0.167429 0.000488
0.429044 0.164213 0.000504
0.441929 0.160803 0.000519
0.454070 0.157145 0.000535
0.466126 0.154040 0.000548
0.478084 0.151561 0.000557
0.489544 0.149023 0.000419
0.500504 0.146426 0.000134
0.511534 0.144052 0.000000
0.522628 0.141874 0.000000
0.533368 0.139949 0.000000
0.543832 0.138221 0.000000
0.553827 0.136608 0.000000
0.563500 0.135075 0.000000
0.572863 0.133667 0.000000
0.582039 0.132335 0.000000
0.591394 0.131136 0.000000
0.600843 0.130007 0.000000
0.610364 0.128744 0.000000
0.619918 0.127421 0.000000
0.629101 0.126476 0.000000
0.638139 0.125679 0.000000
0.646548 0.125074 0.000000
0.654748 0.124533 0.000000
0.663520 0.124853 0.000000
0.672452 0.125415 0.000000
0.680936 0.125878 0.000000
0.689316 0.126320 0.000000
