Plugins/FilmEmulator/Content/LUTs/FE_Kodak_Polymax_Grade_0_64.cube
TITLE "FE_Kodak_Polymax_Grade_0_33"
LUT_3D_SIZE 8
0.0021638 0.0021638 0.0021638
0.0021638 0.0021638 0.0021638
0.0021638 0.0021638 0.0021638
0.0021713 0.0021713 0.0021713
0.0021797 0.0021797 0.0021797
0.0021945 0.0021945 0.0021945
0.0022342 0.0022342 0.0022342
0.0023097 0.0023097 0.0023097
0.0023435 0.0023435 0.0023435
0.0025985 0.0025985 0.0025985
0.0030383 0.0030383 0.0030383
0.0035683 0.0035683 0.0035683
0.0041644 0.0041644 0.0041644
0.0049890 0.0049890 0.0049890
0.0060294 0.0060294 0.0060294
0.0071315 0.0071315 0.0071315
0.0075819 0.0075819 0.0075819
0.0091347 0.0091347 0.0091347
0.0108703 0.0108703 0.0108703
0.0130740 0.0130740 0.0130740
0.0158804 0.0158804 0.0158804
0.0188854 0.0188854 0.0188854
0.0218699 0.0218699 0.0218699
0.0257592 0.0257592 0.0257592
0.0263542 0.0263542 0.0263542
0.0301967 0.0301967 0.0301967
0.0345068 0.0345068 0.0345068
0.0394727 0.0394727 0.0394727
0.0441889 0.0441889 0.0441889
0.0496699 0.0496699 0.0496699
0.0560169 0.0560169 0.0560169
0.0632011 0.0632011 0.0632011
0.0647563 0.0647563 0.0647563
0.0730792 0.0730792 0.0730792
0.0801198 0.0801198 0.0801198
0.0874325 0.0874325 0.0874325
0.0972230 0.0972230 0.0972230
0.1046572 0.1046572 0.1046572
0.1125891 0.1125891 0.1125891
0.1186835 0.1186835 0.1186835
0.1206952 0.1206952 0.1206952
0.1290387 0.1290387 0.1290387
0.1356146 0.1356146 0.1356146
0.1450514 0.1450514 0.1450514
0.1525424 0.1525424 0.1525424
0.1630201 0.1630201 0.1630201
0.1714424 0.1714424 0.1714424
0.1802309 0.1802309 0.1802309
0.1832375 0.1832375 0.1832375
0.1924900 0.1924900 0.1924900
0.2023526 0.2023526 0.2023526
0.2126640 0.2126640 0.2126640
0.2233538 0.2233538 0.2233538
0.2345820 0.2345820 0.2345820
0.2425011 0.2425011 0.2425011
0.2547168 0.2547168 0.2547168
0.2588775 0.2588775 0.2588775
0.2673305 0.2673305 0.2673305
0.2804706 0.2804706 0.2804706
0.2895204 0.2895204 0.2895204
0.3034141 0.3034141 0.3034141
0.3128826 0.3128826 0.3128826
0.3273462 0.3273462 0.3273462
0.3371474 0.3371474 0.3371474
0.0462221 0.0462221 0.0462221
0.0521225 0.0521225 0.0521225
0.0587635 0.0587635 0.0587635
0.0663470 0.0663470 0.0663470
0.0748580 0.0748580 0.0748580
0.0818938 0.0818938 0.0818938
0.0893527 0.0893527 0.0893527
0.0972230 0.0972230 0.0972230
0.0990361 0.0990361 0.0990361
0.1065927 0.1065927 0.1065927
0.1146524 0.1146524 0.1146524
0.1227364 0.1227364 0.1227364
0.1312000 0.1312000 0.1312000
0.1378686 0.1378686 0.1378686
0.1475139 0.1475139 0.1475139
0.1551088 0.1551088 0.1551088
0.1577105 0.1577105 0.1577105
0.1657744 0.1657744 0.1657744
0.1743335 0.1743335 0.1743335
0.1832375 0.1832375 0.1832375
0.1924900 0.1924900 0.1924900
0.2023526 0.2023526 0.2023526
0.2126640 0.2126640 0.2126640
0.2233538 0.2233538 0.2233538
0.2270011 0.2270011 0.2270011
0.2385190 0.2385190 0.2385190
0.2465284 0.2465284 0.2465284
0.2588775 0.2588775 0.2588775
0.2716220 0.2716220 0.2716220
0.2804706 0.2804706 0.2804706
0.2941097 0.2941097 0.2941097
0.3034141 0.3034141 0.3034141
0.3081281 0.3081281 0.3081281
0.3176767 0.3176767 0.3176767
0.3322286 0.3322286 0.3322286
0.3421014 0.3421014 0.3421014
0.3521131 0.3521131 0.3521131
0.3673751 0.3673751 0.3673751
0.3776672 0.3776672 0.3776672
0.3880364 0.3880364 0.3880364
0.3932599 0.3932599 0.3932599
0.4037792 0.4037792 0.4037792
0.4143879 0.4143879 0.4143879
0.4250765 0.4250765 0.4250765
0.4358780 0.4358780 0.4358780
0.4467492 0.4467492 0.4467492
0.4576715 0.4576715 0.4576715
0.4686348 0.4686348 0.4686348
0.4686348 0.4686348 0.4686348
0.4796283 0.4796283 0.4796283
0.4907578 0.4907578 0.4907578
0.5019543 0.5019543 0.5019543
0.5131491 0.5131491 0.5131491
0.5243304 0.5243304 0.5243304
0.5354877 0.5354877 0.5354877
0.5410535 0.5410535 0.5410535
0.5467547 0.5467547 0.5467547
0.5524437 0.5524437 0.5524437
0.5637791 0.5637791 0.5637791
0.5750483 0.5750483 0.5750483
0.5862398 0.5862398 0.5862398
0.5918032 0.5918032 0.5918032
0.6029585 0.6029585 0.6029585
0.6142055 0.6142055 0.6142055
0.2760108 0.2760108 0.2760108
0.2849739 0.2849739 0.2849739
0.2987412 0.2987412 0.2987412
0.3081281 0.3081281 0.3081281
0.3225009 0.3225009 0.3225009
0.3322286 0.3322286 0.3322286
0.3470905 0.3470905 0.3470905
0.3571689 0.3571689 0.3571689
0.3571689 0.3571689 0.3571689
0.3725239 0.3725239 0.3725239
0.3828385 0.3828385 0.3828385
0.3932599 0.3932599 0.3932599
0.4037792 0.4037792 0.4037792
0.4143879 0.4143879 0.4143879
0.4250765 0.4250765 0.4250765
0.4358780 0.4358780 0.4358780
0.4413065 0.4413065 0.4413065
0.4522047 0.4522047 0.4522047
0.4631488 0.4631488 0.4631488
0.4741286 0.4741286 0.4741286
0.4851623 0.4851623 0.4851623
0.4963557 0.4963557 0.4963557
0.5019543 0.5019543 0.5019543
0.5131491 0.5131491 0.5131491
0.5187421 0.5187421 0.5187421
0.5299128 0.5299128 0.5299128
0.5354877 0.5354877 0.5354877
0.5467547 0.5467547 0.5467547
0.5581190 0.5581190 0.5581190
0.5694227 0.5694227 0.5694227
0.5750483 0.5750483 0.5750483
0.5862398 0.5862398 0.5862398
0.5862398 0.5862398 0.5862398
0.5973431 0.5973431 0.5973431
0.6085963 0.6085963 0.6085963
0.6142055 0.6142055 0.6142055
0.6253318 0.6253318 0.6253318
0.6308466 0.6308466 0.6308466
0.6417732 0.6417732 0.6417732
0.6471825 0.6471825 0.6471825
0.6525543 0.6525543 0.6525543
0.6579201 0.6579201 0.6579201
0.6686581 0.6686581 0.6686581
0.6739630 0.6739630 0.6739630
0.6844390 0.6844390 0.6844390
0.6896082 0.6896082 0.6896082
0.6998055 0.6998055 0.6998055
0.7048318 0.7048318 0.7048318
0.7048318 0.7048318 0.7048318
0.7147816 0.7147816 0.7147816
0.7197034 0.7197034 0.7197034
0.7293891 0.7293891 0.7293891
0.7341523 0.7341523 0.7341523
0.7388617 0.7388617 0.7388617
0.7481171 0.7481171 0.7481171
0.7526625 0.7526625 0.7526625
0.7526625 0.7526625 0.7526625
0.7615800 0.7615800 0.7615800
0.7659488 0.7659488 0.7659488
0.7702616 0.7702616 0.7702616
0.7745184 0.7745184 0.7745184
0.7828630 0.7828630 0.7828630
0.7869509 0.7869509 0.7869509
0.7909821 0.7909821 0.7909821
0.5637791 0.5637791 0.5637791
0.5694227 0.5694227 0.5694227
0.5806545 0.5806545 0.5806545
0.5918032 0.5918032 0.5918032
0.5973431 0.5973431 0.5973431
0.6085963 0.6085963 0.6085963
0.6197844 0.6197844 0.6197844
0.6253318 0.6253318 0.6253318
0.6253318 0.6253318 0.6253318
0.6363276 0.6363276 0.6363276
0.6471825 0.6471825 0.6471825
0.6525543 0.6525543 0.6525543
0.6633103 0.6633103 0.6633103
0.6686581 0.6686581 0.6686581
0.6792235 0.6792235 0.6792235
0.6844390 0.6844390 0.6844390
0.6844390 0.6844390 0.6844390
0.6947308 0.6947308 0.6947308
0.6998055 0.6998055 0.6998055
0.7098086 0.7098086 0.7098086
0.7147816 0.7147816 0.7147816
0.7245724 0.7245724 0.7245724
0.7293891 0.7293891 0.7293891
0.7341523 0.7341523 0.7341523
0.7388617 0.7388617 0.7388617
0.7435167 0.7435167 0.7435167
0.7481171 0.7481171 0.7481171
0.7571525 0.7571525 0.7571525
0.7615800 0.7615800 0.7615800
0.7659488 0.7659488 0.7659488
0.7702616 0.7702616 0.7702616
0.7787187 0.7787187 0.7787187
0.7787187 0.7787187 0.7787187
0.7828630 0.7828630 0.7828630
0.7869509 0.7869509 0.7869509
0.7949572 0.7949572 0.7949572
0.7988759 0.7988759 0.7988759
0.8027309 0.8027309 0.8027309
0.8065154 0.8065154 0.8065154
0.8102446 0.8102446 0.8102446
0.8139184 0.8139184 0.8139184
0.8175372 0.8175372 0.8175372
0.8211009 0.8211009 0.8211009
0.8246101 0.8246101 0.8246101
0.8280649 0.8280649 0.8280649
0.8348122 0.8348122 0.8348122
0.8381054 0.8381054 0.8381054
0.8414072 0.8414072 0.8414072
0.8414072 0.8414072 0.8414072
0.8446540 0.8446540 0.8446540
0.8478465 0.8478465 0.8478465
0.8509849 0.8509849 0.8509849
0.8540697 0.8540697 0.8540697
0.8571013 0.8571013 0.8571013
0.8630072 0.8630072 0.8630072
0.8658824 0.8658824 0.8658824
0.8658824 0.8658824 0.8658824
0.8687063 0.8687063 0.8687063
0.8715621 0.8715621 0.8715621
0.8744052 0.8744052 0.8744052
0.8771941 0.8771941 0.8771941
0.8799296 0.8799296 0.8799296
0.8826124 0.8826124 0.8826124
0.8852431 0.8852431 0.8852431
0.7615800 0.7615800 0.7615800
0.7702616 0.7702616 0.7702616
0.7745184 0.7745184 0.7745184
0.7787187 0.7787187 0.7787187
0.7828630 0.7828630 0.7828630
0.7909821 0.7909821 0.7909821
0.7949572 0.7949572 0.7949572
0.7988759 0.7988759 0.7988759
0.7988759 0.7988759 0.7988759
0.8065154 0.8065154 0.8065154
0.8102446 0.8102446 0.8102446
0.8139184 0.8139184 0.8139184
0.8175372 0.8175372 0.8175372
0.8211009 0.8211009 0.8211009
0.8246101 0.8246101 0.8246101
0.8314655 0.8314655 0.8314655
0.8314655 0.8314655 0.8314655
0.8348122 0.8348122 0.8348122
0.8381054 0.8381054 0.8381054
0.8414072 0.8414072 0.8414072
0.8446540 0.8446540 0.8446540
0.8478465 0.8478465 0.8478465
0.8540697 0.8540697 0.8540697
0.8571013 0.8571013 0.8571013
0.8571013 0.8571013 0.8571013
0.8600804 0.8600804 0.8600804
0.8630072 0.8630072 0.8630072
0.8658824 0.8658824 0.8658824
0.8687063 0.8687063 0.8687063
0.8715621 0.8715621 0.8715621
0.8744052 0.8744052 0.8744052
0.8771941 0.8771941 0.8771941
0.8771941 0.8771941 0.8771941
0.8799296 0.8799296 0.8799296
0.8826124 0.8826124 0.8826124
0.8852431 0.8852431 0.8852431
0.8878222 0.8878222 0.8878222
0.8903506 0.8903506 0.8903506
0.8928289 0.8928289 0.8928289
0.8952577 0.8952577 0.8952577
0.8952577 0.8952577 0.8952577
0.8977107 0.8977107 0.8977107
0.9002553 0.9002553 0.9002553
0.9027436 0.9027436 0.9027436
0.9051762 0.9051762 0.9051762
0.9075541 0.9075541 0.9075541
0.9098785 0.9098785 0.9098785
0.9121501 0.9121501 0.9121501
0.9121501 0.9121501 0.9121501
0.9143698 0.9143698 0.9143698
0.9165385 0.9165385 0.9165385
0.9186572 0.9186572 0.9186572
0.9207267 0.9207267 0.9207267
0.9228639 0.9228639 0.9228639
0.9249480 0.9249480 0.9249480
0.9269802 0.9269802 0.9269802
0.9269802 0.9269802 0.9269802
0.9289618 0.9289618 0.9289618
0.9289618 0.9289618 0.9289618
0.9308935 0.9308935 0.9308935
0.9327764 0.9327764 0.9327764
0.9346118 0.9346118 0.9346118
0.9364004 0.9364004 0.9364004
0.9381432 0.9381432 0.9381432
0.8687063 0.8687063 0.8687063
0.8744052 0.8744052 0.8744052
0.8771941 0.8771941 0.8771941
0.8799296 0.8799296 0.8799296
0.8826124 0.8826124 0.8826124
0.8852431 0.8852431 0.8852431
0.8878222 0.8878222 0.8878222
0.8903506 0.8903506 0.8903506
0.8903506 0.8903506 0.8903506
0.8928289 0.8928289 0.8928289
0.8952577 0.8952577 0.8952577
0.8977107 0.8977107 0.8977107
0.9002553 0.9002553 0.9002553
0.9027436 0.9027436 0.9027436
0.9051762 0.9051762 0.9051762
0.9051762 0.9051762 0.9051762
0.9075541 0.9075541 0.9075541
0.9098785 0.9098785 0.9098785
0.9121501 0.9121501 0.9121501
0.9121501 0.9121501 0.9121501
0.9143698 0.9143698 0.9143698
0.9165385 0.9165385 0.9165385
0.9186572 0.9186572 0.9186572
0.9207267 0.9207267 0.9207267
0.9207267 0.9207267 0.9207267
0.9228639 0.9228639 0.9228639
0.9249480 0.9249480 0.9249480
0.9269802 0.9269802 0.9269802
0.9289618 0.9289618 0.9289618
0.9308935 0.9308935 0.9308935
0.9308935 0.9308935 0.9308935
0.9327764 0.9327764 0.9327764
0.9327764 0.9327764 0.9327764
0.9346118 0.9346118 0.9346118
0.9364004 0.9364004 0.9364004
0.9381432 0.9381432 0.9381432
0.9398416 0.9398416 0.9398416
0.9414343 0.9414343 0.9414343
0.9414343 0.9414343 0.9414343
0.9429575 0.9429575 0.9429575
0.9429575 0.9429575 0.9429575
0.9444433 0.9444433 0.9444433
0.9458927 0.9458927 0.9458927
0.9473064 0.9473064 0.9473064
0.9486851 0.9486851 0.9486851
0.9486851 0.9486851 0.9486851
0.9500296 0.9500296 0.9500296
0.9513409 0.9513409 0.9513409
0.9513409 0.9513409 0.9513409
0.9526193 0.9526193 0.9526193
0.9538657 0.9538657 0.9538657
0.9550458 0.9550458 0.9550458
0.9550458 0.9550458 0.9550458
0.9561279 0.9561279 0.9561279
0.9571854 0.9571854 0.9571854
0.9582183 0.9582183 0.9582183
0.9582183 0.9582183 0.9582183
0.9582183 0.9582183 0.9582183
0.9592274 0.9592274 0.9592274
0.9602133 0.9602133 0.9602133
0.9611762 0.9611762 0.9611762
0.9611762 0.9611762 0.9611762
0.9621167 0.9621167 0.9621167
0.9630354 0.9630354 0.9630354
0.9289618 0.9289618 0.9289618
0.9308935 0.9308935 0.9308935
0.9327764 0.9327764 0.9327764
0.9346118 0.9346118 0.9346118
0.9364004 0.9364004 0.9364004
0.9364004 0.9364004 0.9364004
0.9381432 0.9381432 0.9381432
0.9398416 0.9398416 0.9398416
0.9398416 0.9398416 0.9398416
0.9414343 0.9414343 0.9414343
0.9429575 0.9429575 0.9429575
0.9444433 0.9444433 0.9444433
0.9444433 0.9444433 0.9444433
0.9458927 0.9458927 0.9458927
0.9473064 0.9473064 0.9473064
0.9486851 0.9486851 0.9486851
0.9486851 0.9486851 0.9486851
0.9500296 0.9500296 0.9500296
0.9513409 0.9513409 0.9513409
0.9513409 0.9513409 0.9513409
0.9526193 0.9526193 0.9526193
0.9538657 0.9538657 0.9538657
0.9550458 0.9550458 0.9550458
0.9550458 0.9550458 0.9550458
0.9561279 0.9561279 0.9561279
0.9561279 0.9561279 0.9561279
0.9571854 0.9571854 0.9571854
0.9582183 0.9582183 0.9582183
0.9592274 0.9592274 0.9592274
0.9592274 0.9592274 0.9592274
0.9602133 0.9602133 0.9602133
0.9611762 0.9611762 0.9611762
0.9611762 0.9611762 0.9611762
0.9621167 0.9621167 0.9621167
0.9621167 0.9621167 0.9621167
0.9630354 0.9630354 0.9630354
0.9639325 0.9639325 0.9639325
0.9648088 0.9648088 0.9648088
0.9648088 0.9648088 0.9648088
0.9654567 0.9654567 0.9654567
0.9654567 0.9654567 0.9654567
0.9660931 0.9660931 0.9660931
0.9667182 0.9667182 0.9667182
0.9667182 0.9667182 0.9667182
0.9673322 0.9673322 0.9673322
0.9679351 0.9679351 0.9679351
0.9679351 0.9679351 0.9679351
0.9685274 0.9685274 0.9685274
0.9685274 0.9685274 0.9685274
0.9691091 0.9691091 0.9691091
0.9691091 0.9691091 0.9691091
0.9696802 0.9696802 0.9696802
0.9702413 0.9702413 0.9702413
0.9702413 0.9702413 0.9702413
0.9707923 0.9707923 0.9707923
0.9712533 0.9712533 0.9712533
0.9712533 0.9712533 0.9712533
0.9716676 0.9716676 0.9716676
0.9716676 0.9716676 0.9716676
0.9720762 0.9720762 0.9720762
0.9720762 0.9720762 0.9720762
0.9724791 0.9724791 0.9724791
0.9728763 0.9728763 0.9728763
0.9728763 0.9728763 0.9728763
0.9592274 0.9592274 0.9592274
0.9602133 0.9602133 0.9602133
0.9602133 0.9602133 0.9602133
0.9611762 0.9611762 0.9611762
0.9621167 0.9621167 0.9621167
0.9630354 0.9630354 0.9630354
0.9630354 0.9630354 0.9630354
0.9639325 0.9639325 0.9639325
0.9639325 0.9639325 0.9639325
0.9648088 0.9648088 0.9648088
0.9654567 0.9654567 0.9654567
0.9654567 0.9654567 0.9654567
0.9660931 0.9660931 0.9660931
0.9667182 0.9667182 0.9667182
0.9667182 0.9667182 0.9667182
0.9673322 0.9673322 0.9673322
0.9673322 0.9673322 0.9673322
0.9679351 0.9679351 0.9679351
0.9685274 0.9685274 0.9685274
0.9685274 0.9685274 0.9685274
0.9691091 0.9691091 0.9691091
0.9696802 0.9696802 0.9696802
0.9696802 0.9696802 0.9696802
0.9702413 0.9702413 0.9702413
0.9702413 0.9702413 0.9702413
0.9707923 0.9707923 0.9707923
0.9707923 0.9707923 0.9707923
0.9712533 0.9712533 0.9712533
0.9716676 0.9716676 0.9716676
0.9716676 0.9716676 0.9716676
0.9720762 0.9720762 0.9720762
0.9724791 0.9724791 0.9724791
0.9724791 0.9724791 0.9724791
0.9724791 0.9724791 0.9724791
0.9728763 0.9728763 0.9728763
0.9732680 0.9732680 0.9732680
0.9732680 0.9732680 0.9732680
0.9736541 0.9736541 0.9736541
0.9736541 0.9736541 0.9736541
0.9740348 0.9740348 0.9740348
0.9740348 0.9740348 0.9740348
0.9744102 0.9744102 0.9744102
0.9744102 0.9744102 0.9744102
0.9747803 0.9747803 0.9747803
0.9751207 0.9751207 0.9751207
0.9751207 0.9751207 0.9751207
0.9754083 0.9754083 0.9754083
0.9756926 0.9756926 0.9756926
0.9756926 0.9756926 0.9756926
0.9756926 0.9756926 0.9756926
0.9759737 0.9759737 0.9759737
0.9759737 0.9759737 0.9759737
0.9762517 0.9762517 0.9762517
0.9765266 0.9765266 0.9765266
0.9765266 0.9765266 0.9765266
0.9767983 0.9767983 0.9767983
0.9767983 0.9767983 0.9767983
0.9767983 0.9767983 0.9767983
0.9770669 0.9770669 0.9770669
0.9773325 0.9773325 0.9773325
0.9773325 0.9773325 0.9773325
0.9775952 0.9775952 0.9775952
0.9775952 0.9775952 0.9775952
0.9778548 0.9778548 0.9778548
