Plugins/FilmEmulator/Content/LUTs/FE_Kodachrome_25_K14_64.cube
# FilmEmulator LUT (resampled to 64)
LUT_3D_SIZE 8
0.000000 0.000000 0.000000
0.074781 0.000000 0.000000
0.182950 0.000000 0.000000
0.437231 0.000000 0.000549
0.775255 0.000000 0.000095
0.973338 0.000000 0.000686
0.974724 0.042466 0.000000
0.975129 0.223146 0.091454
0.041747 0.146439 0.075220
0.150651 0.139773 0.038013
0.329693 0.145692 0.027612
0.559607 0.150702 0.016157
0.799571 0.176760 0.018574
0.909787 0.237954 0.050903
0.971391 0.326410 0.117083
0.975102 0.392609 0.171470
0.073229 0.405814 0.227177
0.206933 0.392487 0.182693
0.404134 0.384011 0.146651
0.566166 0.386487 0.135222
0.707656 0.393763 0.135259
0.818435 0.415211 0.140581
0.914630 0.445408 0.160700
0.975357 0.485846 0.214432
0.371343 0.575472 0.251700
0.415885 0.557915 0.242082
0.490254 0.553919 0.233365
0.580504 0.540243 0.216689
0.685003 0.534369 0.205661
0.779758 0.536653 0.196702
0.882700 0.546319 0.195282
0.975783 0.564105 0.223062
0.509779 0.677841 0.291889
0.533795 0.673192 0.286265
0.570213 0.660584 0.280556
0.624892 0.652531 0.271669
0.695600 0.647430 0.265298
0.777106 0.642614 0.257897
0.877380 0.638356 0.248838
0.976501 0.648528 0.243914
0.586384 0.774882 0.329152
0.606540 0.763762 0.325482
0.633346 0.759138 0.318863
0.669199 0.746223 0.316457
0.724050 0.742008 0.312404
0.790704 0.738279 0.304114
0.882678 0.733777 0.292811
0.977064 0.733722 0.278134
0.687050 0.890336 0.387480
0.692845 0.883016 0.383523
0.712856 0.875667 0.379459
0.743545 0.870997 0.373516
0.778595 0.866390 0.370304
0.830552 0.860009 0.360982
0.913954 0.861114 0.354207
0.977453 0.861070 0.345847
0.788148 0.980533 0.428680
0.803788 0.980523 0.424259
0.818691 0.980501 0.428681
0.843133 0.982019 0.426721
0.874100 0.980410 0.420734
0.909844 0.980334 0.420975
0.963873 0.980433 0.412504
0.977775 0.987864 0.412777
0.000000 0.006980 0.094657
0.022329 0.001494 0.126376
0.125640 0.000000 0.148111
0.346499 0.000000 0.109389
0.712058 0.000000 0.062782
0.965939 0.000000 0.041103
0.975067 0.036650 0.122169
0.975042 0.225093 0.263457
0.014557 0.129151 0.144244
0.108594 0.126439 0.147811
0.298686 0.126852 0.135997
0.525990 0.130716 0.128933
0.777014 0.150971 0.127207
0.888486 0.218855 0.169729
0.955077 0.303254 0.242685
0.974957 0.386535 0.316184
0.044819 0.386638 0.256884
0.179996 0.376951 0.244802
0.383772 0.369374 0.204801
0.551043 0.368062 0.202163
0.691670 0.381729 0.207839
0.801478 0.403511 0.226412
0.898844 0.431462 0.262764
0.975162 0.474505 0.319217
0.357763 0.567865 0.265245
0.402547 0.554741 0.258168
0.477170 0.541536 0.247276
0.570914 0.534894 0.239795
0.675517 0.526558 0.234164
0.772072 0.529301 0.236000
0.872485 0.537438 0.251374
0.975645 0.557722 0.286880
0.506268 0.675755 0.307348
0.527649 0.667918 0.300740
0.564079 0.657650 0.294427
0.620429 0.649772 0.284764
0.689176 0.642242 0.275705
0.773077 0.634818 0.266117
0.870292 0.636380 0.259788
0.976387 0.637839 0.258185
0.585350 0.767451 0.347403
0.600213 0.759595 0.338598
0.628079 0.752015 0.333831
0.664438 0.742788 0.327223
0.718390 0.739217 0.320406
0.785417 0.734049 0.313132
0.879464 0.729994 0.301768
0.977070 0.736441 0.287912
0.677347 0.883840 0.398507
0.688396 0.879514 0.393527
0.708381 0.872701 0.389756
0.737757 0.869186 0.385907
0.773598 0.861001 0.379179
0.831031 0.860995 0.373587
0.911155 0.857246 0.365280
0.977458 0.861030 0.357843
0.782092 0.980525 0.441872
0.797748 0.980512 0.439649
0.816084 0.979909 0.439120
0.842997 0.978128 0.437537
0.868728 0.976729 0.434851
0.913237 0.980315 0.432220
0.967440 0.983790 0.427640
0.977774 0.983953 0.420353
0.000000 0.023929 0.199192
0.014775 0.019812 0.200476
0.059832 0.000466 0.269277
0.312772 0.000000 0.227390
0.686008 0.000000 0.160442
0.963549 0.000000 0.120191
0.974836 0.007223 0.180956
0.974994 0.226424 0.327469
0.000000 0.115550 0.276719
0.037452 0.115035 0.288737
0.232105 0.095064 0.312876
0.476443 0.108666 0.270238
0.751265 0.123455 0.255005
0.877095 0.194121 0.288461
0.949521 0.288299 0.345137
0.974995 0.378708 0.404337
0.012611 0.361541 0.392863
0.108890 0.357647 0.381134
0.305780 0.348714 0.372388
0.507609 0.347642 0.357591
0.662040 0.365585 0.362616
0.772345 0.389060 0.370815
0.874265 0.422857 0.394423
0.974968 0.462942 0.429213
0.308792 0.560378 0.392826
0.337396 0.541234 0.387171
0.439026 0.531166 0.362525
0.536021 0.520128 0.353494
0.643516 0.516167 0.357568
0.743818 0.516973 0.369302
0.848725 0.527665 0.389752
0.968594 0.544121 0.424699
0.492860 0.669456 0.329786
0.513252 0.658707 0.325248
0.552204 0.652221 0.320133
0.607094 0.640082 0.309369
0.676388 0.634043 0.307339
0.758748 0.628093 0.312754
0.859501 0.627088 0.322688
0.976261 0.636291 0.351659
0.584918 0.766674 0.359207
0.599567 0.755641 0.352407
0.623198 0.750060 0.345256
0.663546 0.741506 0.339553
0.715983 0.737324 0.330070
0.783658 0.729098 0.322726
0.876520 0.727627 0.312296
0.977037 0.732924 0.305928
0.673799 0.883141 0.413057
0.687005 0.877570 0.405846
0.707114 0.872024 0.400826
0.733070 0.868222 0.399095
0.771173 0.862616 0.389779
0.829777 0.860199 0.384775
0.912860 0.857212 0.376302
0.977458 0.857147 0.366945
0.788078 0.984271 0.455364
0.803803 0.984259 0.451819
0.819654 0.980534 0.447602
0.844680 0.981775 0.445551
0.871117 0.980390 0.446270
0.916040 0.981022 0.443317
0.967681 0.980746 0.435622
0.977790 0.984324 0.428374
0.000000 0.040451 0.258685
0.014776 0.035047 0.244437
0.036362 0.014510 0.292211
0.245661 0.000000 0.306643
0.633544 0.000000 0.226941
0.958901 0.000000 0.169378
0.974735 0.003278 0.233413
0.975033 0.199178 0.367670
0.000000 0.105933 0.336648
0.015912 0.105491 0.337911
0.148281 0.059373 0.429788
0.438350 0.076125 0.340225
0.735908 0.092321 0.314145
0.879929 0.155095 0.337301
0.949296 0.270146 0.401557
0.975071 0.366488 0.451091
0.000059 0.339339 0.502207
0.048599 0.325285 0.484468
0.226178 0.332069 0.477960
0.470389 0.313886 0.447741
0.636536 0.341729 0.447494
0.755378 0.367915 0.453096
0.869578 0.404643 0.469540
0.974520 0.460858 0.497611
0.198717 0.540530 0.570149
0.250715 0.527915 0.554744
0.337711 0.516949 0.546765
0.469512 0.503533 0.522553
0.601433 0.498343 0.506927
0.711993 0.499434 0.504294
0.823782 0.513475 0.504234
0.956683 0.534882 0.517522
0.403214 0.658823 0.546830
0.429584 0.646979 0.532567
0.473605 0.635350 0.525549
0.550381 0.628613 0.498765
0.625825 0.619138 0.490430
0.713514 0.616606 0.493342
0.818119 0.613515 0.501972
0.956424 0.627005 0.518512
0.563103 0.760032 0.406840
0.582572 0.752342 0.395584
0.605936 0.744000 0.391813
0.649537 0.735878 0.387506
0.698837 0.728839 0.383225
0.765532 0.723691 0.385838
0.857125 0.719568 0.396867
0.976743 0.720366 0.437436
0.672103 0.885278 0.426115
0.682397 0.875163 0.417934
0.699154 0.869681 0.412069
0.731743 0.864400 0.408022
0.770216 0.860039 0.401707
0.827339 0.859623 0.395930
0.911954 0.854044 0.385534
0.977462 0.855447 0.378194
0.789689 0.985864 0.464350
0.805473 0.985796 0.467085
0.823073 0.982171 0.464164
0.843205 0.983524 0.458379
0.871671 0.980689 0.457792
0.911421 0.985660 0.456726
0.969408 0.987842 0.452237
0.977832 0.987830 0.444000
0.000000 0.055231 0.307009
0.014646 0.048099 0.303312
0.031289 0.041071 0.304669
0.175236 0.000000 0.381809
0.585321 0.000000 0.280413
0.949889 0.000000 0.212741
0.974588 0.000000 0.255810
0.975076 0.181159 0.407187
0.000000 0.099674 0.368481
0.013728 0.094225 0.360272
0.082026 0.052773 0.445304
0.384303 0.041923 0.400707
0.697811 0.048852 0.357170
0.890634 0.103107 0.362997
0.957255 0.227424 0.431030
0.975268 0.354090 0.504737
0.000000 0.288031 0.535189
0.016656 0.285251 0.529977
0.176658 0.287985 0.521866
0.429589 0.274683 0.511505
0.640230 0.285248 0.483521
0.758274 0.332815 0.496051
0.870132 0.382342 0.515680
0.971996 0.441386 0.545901
0.118816 0.525938 0.644946
0.179596 0.509561 0.631590
0.287517 0.497465 0.615976
0.401465 0.493392 0.601663
0.571473 0.476038 0.582035
0.693497 0.480395 0.570486
0.812368 0.497218 0.572695
0.947103 0.524326 0.580387
0.338631 0.647850 0.675675
0.362573 0.636271 0.665723
0.402579 0.626571 0.658002
0.470602 0.619221 0.646142
0.576415 0.607319 0.627062
0.680409 0.603118 0.612828
0.793818 0.603246 0.606397
0.940611 0.612900 0.607393
0.465454 0.749113 0.668762
0.485226 0.739203 0.655890
0.512107 0.729909 0.645356
0.561191 0.723126 0.634940
0.633574 0.717306 0.612778
0.708785 0.710849 0.606765
0.815429 0.710102 0.611835
0.955484 0.712414 0.612343
0.654375 0.878594 0.477331
0.667475 0.870379 0.466939
0.687305 0.865903 0.461872
0.713575 0.860423 0.455325
0.754742 0.858115 0.457924
0.813102 0.848229 0.449875
0.899587 0.851268 0.452743
0.977672 0.855522 0.476538
0.794560 0.988160 0.483473
0.806789 0.988146 0.480213
0.825471 0.988124 0.475387
0.843525 0.988096 0.474270
0.870412 0.988043 0.469581
0.913690 0.987951 0.469031
0.969450 0.987832 0.468422
0.977872 0.987816 0.461364
0.000000 0.058919 0.349305
0.011757 0.056298 0.349680
0.031450 0.056002 0.334174
0.100061 0.004325 0.420234
0.491616 0.000000 0.340527
0.915932 0.000000 0.254448
0.974559 0.000000 0.272904
0.975124 0.129294 0.423874
0.000000 0.091973 0.388538
0.011848 0.088277 0.383445
0.035148 0.067888 0.419733
0.293795 0.019245 0.464155
0.643078 0.025999 0.388266
0.901963 0.044950 0.384377
0.966047 0.172061 0.450610
0.975509 0.325450 0.541629
0.000000 0.251271 0.558155
0.010560 0.241207 0.548401
0.100040 0.232867 0.549043
0.357296 0.206236 0.588811
0.634107 0.228308 0.509783
0.769433 0.280229 0.525384
0.873982 0.348918 0.558613
0.974901 0.423664 0.597169
0.040412 0.499660 0.699312
0.077509 0.479896 0.684616
0.222761 0.468177 0.668745
0.358675 0.463589 0.648151
0.531731 0.451876 0.650447
0.684570 0.450849 0.617069
0.808884 0.472065 0.621875
0.945831 0.510412 0.630746
0.290173 0.635944 0.744620
0.311351 0.621992 0.732500
0.361139 0.613050 0.723647
0.428587 0.603323 0.713678
0.516807 0.599494 0.696411
0.647750 0.587090 0.686947
0.776278 0.588699 0.675891
0.930175 0.600290 0.675242
0.420602 0.740510 0.768481
0.432831 0.727683 0.758130
0.459393 0.721637 0.753198
0.501759 0.716918 0.748632
0.570275 0.709099 0.734369
0.666509 0.701634 0.719018
0.784001 0.697767 0.711085
0.942497 0.705132 0.709636
0.556221 0.870092 0.744008
0.569205 0.863060 0.725198
0.592112 0.856122 0.723826
0.621859 0.851716 0.720044
0.670346 0.843952 0.720216
0.744048 0.841108 0.711519
0.835879 0.838558 0.709321
0.968392 0.843016 0.719421
0.796142 0.988178 0.501184
0.803927 0.988162 0.496390
0.824331 0.988140 0.497273
0.846738 0.988100 0.492405
0.874348 0.988041 0.491669
0.914877 0.987958 0.492531
0.971126 0.987831 0.485922
0.977928 0.987812 0.478907
0.000000 0.066750 0.392678
0.015767 0.065041 0.396605
0.031030 0.062608 0.382294
0.055242 0.036476 0.406688
0.388579 0.000000 0.400852
0.852026 0.000000 0.301888
0.974538 0.000000 0.274046
0.975034 0.049837 0.419328
0.000000 0.092034 0.410765
0.015265 0.092245 0.410914
0.027346 0.087420 0.409250
0.154608 0.026684 0.499215
0.544863 0.009928 0.422232
0.894504 0.012865 0.386828
0.974388 0.080471 0.442040
0.975646 0.278306 0.562494
0.000000 0.195148 0.542940
0.012441 0.181711 0.529683
0.040285 0.175032 0.539950
0.257425 0.097625 0.645355
0.603837 0.134282 0.517205
0.800687 0.184949 0.527862
0.895224 0.286709 0.575637
0.976054 0.390804 0.627380
0.000260 0.459187 0.741631
0.014107 0.433655 0.721321
0.108648 0.420837 0.705777
0.299808 0.407162 0.689168
0.494185 0.399602 0.704500
0.675488 0.403903 0.658985
0.811334 0.435827 0.664338
0.944965 0.483464 0.685325
0.197444 0.609274 0.801657
0.225955 0.594213 0.789655
0.290685 0.585971 0.780944
0.378857 0.577095 0.768171
0.470557 0.573776 0.752972
0.601181 0.565267 0.761676
0.764094 0.559993 0.736196
0.927403 0.581764 0.739985
0.367266 0.721061 0.841877
0.386076 0.711555 0.834494
0.411573 0.704280 0.829897
0.457982 0.698023 0.822594
0.517630 0.693376 0.815002
0.606921 0.690753 0.803145
0.751228 0.680020 0.791007
0.931411 0.687252 0.783459
0.490915 0.854423 0.886851
0.507374 0.848487 0.876091
0.527425 0.842791 0.874185
0.555304 0.839389 0.868691
0.602942 0.835524 0.867344
0.675349 0.829241 0.859906
0.790097 0.828554 0.854153
0.945698 0.823536 0.846455
0.694814 0.982744 0.851103
0.715525 0.982996 0.821338
0.732180 0.984550 0.820766
0.758062 0.982801 0.802639
0.791605 0.986763 0.801624
0.840408 0.988358 0.797062
0.896264 0.988631 0.800912
0.980121 0.988445 0.833917
0.000000 0.070568 0.406600
0.015680 0.070714 0.410273
0.034945 0.070441 0.403771
0.049373 0.048903 0.404238
0.330815 0.000000 0.435607
0.804464 0.000000 0.325296
0.974522 0.000000 0.283266
0.974934 0.019870 0.423237
0.000000 0.093952 0.427021
0.012297 0.092307 0.421738
0.026721 0.092004 0.422046
0.113012 0.034699 0.502097
0.506165 0.012044 0.441428
0.881254 0.007803 0.389847
0.975010 0.040251 0.434282
0.975696 0.248497 0.568451
0.000000 0.180246 0.538910
0.008999 0.169563 0.528283
0.028395 0.157828 0.529738
0.213527 0.063113 0.650902
0.577255 0.101667 0.529983
0.815026 0.128758 0.517670
0.917718 0.246940 0.576468
0.976265 0.368027 0.643932
0.000000 0.439617 0.753999
0.010763 0.412900 0.734231
0.061262 0.387844 0.713791
0.268425 0.378181 0.704303
0.486222 0.361549 0.721044
0.675408 0.374033 0.672142
0.812388 0.408815 0.679497
0.955455 0.469394 0.710878
0.148434 0.597705 0.819727
0.174493 0.583716 0.812749
0.253120 0.573277 0.806730
0.346733 0.560458 0.792524
0.446214 0.554565 0.777697
0.578285 0.548577 0.795935
0.753133 0.542771 0.763266
0.921425 0.569045 0.768184
0.339425 0.714105 0.870116
0.357046 0.703538 0.867136
0.382969 0.693897 0.860562
0.433775 0.685544 0.854005
0.499744 0.678376 0.850267
0.576381 0.674139 0.841285
0.725087 0.669415 0.836052
0.924344 0.669944 0.825651
0.469597 0.851787 0.929612
0.477649 0.840391 0.926817
0.497733 0.836294 0.923811
0.530171 0.830361 0.921323
0.580149 0.825859 0.921153
0.653329 0.821035 0.919140
0.761551 0.821532 0.914487
0.935941 0.815876 0.903111
0.655089 0.976961 0.958757
0.669884 0.980896 0.963842
0.689108 0.977049 0.963831
0.706893 0.977112 0.968726
0.744022 0.979492 0.968612
0.787278 0.981422 0.972426
0.851944 0.984790 0.979129
0.980701 0.988483 0.984547
