Plugins/FilmEmulator/Content/LUTs/FE_Kodak_Supra_Endura_64.cube
TITLE "FE_Kodak_Supra_Endura_33"
LUT_3D_SIZE 64
0.0048897 0.0000000 0.0237039
0.0048873 0.0000000 0.0237038
0.0048784 0.0000000 0.0237038
0.0089424 0.0005270 0.0237864
0.0255391 0.0031534 0.0241306
0.0451524 0.0062963 0.0245491
0.0799089 0.0119715 0.0253247
0.1247635 0.0195067 0.0263939
0.1835284 0.0297640 0.0279205
0.2433673 0.0406969 0.0296382
0.3111193 0.0537339 0.0318072
0.3798909 0.0677711 0.0341319
0.4502000 0.0830783 0.0361768
0.5242978 0.1004109 0.0390570
0.5917219 0.1174393 0.0422370
0.6533853 0.1342519 0.0457016
0.7095644 0.1507886 0.0493964
0.7666878 0.1690261 0.0538458
0.8216506 0.1882121 0.0588676
0.8727832 0.2078351 0.0643593
0.9220327 0.2287605 0.0706326
0.9646496 0.2488998 0.0770411
1.0000000 0.2694592 0.0839874
1.0000000 0.2896591 0.0912144
1.0000000 0.3071001 0.0977776
1.0000000 0.3241744 0.1045009
1.0000000 0.3404489 0.1111911
1.0000000 0.3600183 0.1196218
1.0000000 0.3772391 0.1273912
1.0000000 0.3907096 0.1337022
1.0000000 0.4052069 0.1407433
1.0000000 0.4168289 0.1466119
1.0000000 0.4274491 0.1521462
1.0000000 0.4376173 0.1577092
1.0000000 0.4470490 0.1630437
1.0000000 0.4545692 0.1675025
1.0000000 0.4630669 0.1726047
1.0000000 0.4697807 0.1768080
1.0000000 0.4761788 0.1809295
1.0000000 0.4823663 0.1850306
1.0000000 0.4883425 0.1890916
1.0000000 0.4928395 0.1923401
1.0000000 0.4975618 0.1956723
1.0000000 0.5020989 0.1990879
1.0000000 0.5050015 0.2013776
1.0000000 0.5078999 0.2038572
1.0000000 0.5108826 0.2062843
1.0000000 0.5130347 0.2082152
1.0000000 0.5150661 0.2101029
1.0000000 0.5167456 0.2117649
1.0000000 0.5180213 0.2132174
1.0000000 0.5196465 0.2149045
1.0000000 0.5211815 0.2163841
1.0000000 0.5227302 0.2180781
1.0000000 0.5237474 0.2192541
1.0000000 0.5250463 0.2208060
1.0000000 0.5260184 0.2220169
1.0000000 0.5271472 0.2235199
1.0000000 0.5279766 0.2247356
1.0000000 0.5288955 0.2263591
1.0000000 0.5297765 0.2282911
1.0000000 0.5305647 0.2298619
1.0000000 0.5318646 0.2320840
1.0000000 0.5328988 0.2341250
0.0048881 0.0001344 0.0237173
0.0048835 0.0001301 0.0237170
0.0048603 0.0001225 0.0237162
0.0127915 0.0013657 0.0238783
0.0291353 0.0039529 0.0242186
0.0504518 0.0073724 0.0246765
0.0881023 0.0135421 0.0255264
0.1342815 0.0213411 0.0266428
0.1938971 0.0318139 0.0282174
0.2558605 0.0432259 0.0300301
0.3219888 0.0560626 0.0321903
0.3878965 0.0695819 0.0340821
0.4637731 0.0862123 0.0366127
0.5338548 0.1027518 0.0394726
0.6013808 0.1199895 0.0427403
0.6626405 0.1368906 0.0462767
0.7187098 0.1536049 0.0500779
0.7761312 0.1721991 0.0546499
0.8264211 0.1899644 0.0593302
0.8826830 0.2118667 0.0655448
0.9266343 0.2308354 0.0712676
0.9734834 0.2533581 0.0785198
1.0000000 0.2740027 0.0855826
1.0000000 0.2918606 0.0920257
1.0000000 0.3092684 0.0986148
1.0000000 0.3265351 0.1054544
1.0000000 0.3427267 0.1121501
1.0000000 0.3625524 0.1207442
1.0000000 0.3772466 0.1273910
1.0000000 0.3929015 0.1347542
1.0000000 0.4071665 0.1417139
1.0000000 0.4186530 0.1475505
1.0000000 0.4291863 0.1530864
1.0000000 0.4392067 0.1585927
1.0000000 0.4470614 0.1630960
1.0000000 0.4559906 0.1683032
1.0000000 0.4630761 0.1726735
1.0000000 0.4710708 0.1776252
1.0000000 0.4774437 0.1817617
1.0000000 0.4835699 0.1858367
1.0000000 0.4883500 0.1891934
1.0000000 0.4937831 0.1929239
1.0000000 0.4985011 0.1963730
1.0000000 0.5021080 0.1992061
1.0000000 0.5057242 0.2019554
1.0000000 0.5086063 0.2043099
1.0000000 0.5108826 0.2062843
1.0000000 0.5130347 0.2082152
1.0000000 0.5150661 0.2101029
1.0000000 0.5167456 0.2117649
1.0000000 0.5184232 0.2134807
1.0000000 0.5200182 0.2151489
1.0000000 0.5211994 0.2165639
1.0000000 0.5227302 0.2180781
1.0000000 0.5240726 0.2196370
1.0000000 0.5250463 0.2208060
1.0000000 0.5263417 0.2224199
1.0000000 0.5271472 0.2235199
1.0000000 0.5280341 0.2251111
1.0000000 0.5292013 0.2268996
1.0000000 0.5299689 0.2284194
1.0000000 0.5307564 0.2299900
1.0000000 0.5318646 0.2320840
1.0000000 0.5328988 0.2341250
0.0048807 0.0014374 0.0237883
0.0048756 0.0014135 0.0237868
0.0048251 0.0013882 0.0237849
0.0174209 0.0033535 0.0240428
0.0341725 0.0059949 0.0243940
0.0585821 0.0099178 0.0249243
0.0998276 0.0167028 0.0258707
0.1497112 0.0251874 0.0271046
0.2095030 0.0357821 0.0287255
0.2712243 0.0472307 0.0301021
0.3362724 0.0599474 0.0316271
0.4101327 0.0753088 0.0338767
0.4816139 0.0912488 0.0365784
0.5484992 0.1072726 0.0395586
0.6155161 0.1245690 0.0431123
0.6761622 0.1415144 0.0468804
0.7329900 0.1587089 0.0509746
0.7865827 0.1763077 0.0554627
0.8424191 0.1964303 0.0609403
0.8928843 0.2165225 0.0667691
0.9362763 0.2356007 0.0726482
0.9777352 0.2558268 0.0792471
1.0000000 0.2764682 0.0863838
1.0000000 0.2942147 0.0928442
1.0000000 0.3115481 0.0994592
1.0000000 0.3289499 0.1064144
1.0000000 0.3450024 0.1131109
1.0000000 0.3625600 0.1207440
1.0000000 0.3795204 0.1284422
1.0000000 0.3950910 0.1358065
1.0000000 0.4071776 0.1417208
1.0000000 0.4204285 0.1484686
1.0000000 0.4309153 0.1540262
1.0000000 0.4407893 0.1594759
1.0000000 0.4485963 0.1639445
1.0000000 0.4574187 0.1691552
1.0000000 0.4644637 0.1734716
1.0000000 0.4710798 0.1776935
1.0000000 0.4774513 0.1818469
1.0000000 0.4835776 0.1859215
1.0000000 0.4895251 0.1899126
1.0000000 0.4947316 0.1936088
1.0000000 0.4985101 0.1964917
1.0000000 0.5028270 0.1996607
1.0000000 0.5057242 0.2019554
1.0000000 0.5086181 0.2044452
1.0000000 0.5114202 0.2067587
1.0000000 0.5135722 0.2087059
1.0000000 0.5154867 0.2105187
1.0000000 0.5171654 0.2121903
1.0000000 0.5184402 0.2136472
1.0000000 0.5200349 0.2153150
1.0000000 0.5215694 0.2168078
1.0000000 0.5230963 0.2184880
1.0000000 0.5240726 0.2196370
1.0000000 0.5253708 0.2212099
1.0000000 0.5263417 0.2224199
1.0000000 0.5271654 0.2237198
1.0000000 0.5282834 0.2252771
1.0000000 0.5292013 0.2268996
1.0000000 0.5299689 0.2284194
1.0000000 0.5309345 0.2305606
1.0000000 0.5320424 0.2326531
1.0000000 0.5330761 0.2346926
0.0048671 0.0046510 0.0239108
0.0048618 0.0040063 0.0239288
0.0059388 0.0035273 0.0239152
0.0216620 0.0057548 0.0242264
0.0389700 0.0083432 0.0245845
0.0684623 0.0129505 0.0252256
0.1107593 0.0198083 0.0262057
0.1660866 0.0291418 0.0271721
0.2262932 0.0398548 0.0281771
0.2877181 0.0513866 0.0295144
0.3553553 0.0648170 0.0314481
0.4274594 0.0800788 0.0339352
0.5007871 0.0967639 0.0369738
0.5675277 0.1131008 0.0402213
0.6293786 0.1294028 0.0437049
0.6905555 0.1468312 0.0477043
0.7475249 0.1644481 0.0520339
0.8017500 0.1826980 0.0568195
0.8525938 0.2014399 0.0620275
0.9026532 0.2217875 0.0680484
0.9505500 0.2434764 0.0748729
0.9907618 0.2638372 0.0816733
1.0000000 0.2819645 0.0880542
1.0000000 0.2995601 0.0945548
1.0000000 0.3168017 0.1012292
1.0000000 0.3345581 0.1084196
1.0000000 0.3506657 0.1152356
1.0000000 0.3684285 0.1230862
1.0000000 0.3847755 0.1306329
1.0000000 0.3979364 0.1369640
1.0000000 0.4116313 0.1438081
1.0000000 0.4226712 0.1495793
1.0000000 0.4330211 0.1551757
1.0000000 0.4426574 0.1605836
1.0000000 0.4503663 0.1650794
1.0000000 0.4589926 0.1701585
1.0000000 0.4659630 0.1744887
1.0000000 0.4724272 0.1786101
1.0000000 0.4787420 0.1826832
1.0000000 0.4847790 0.1866441
1.0000000 0.4907036 0.1907333
1.0000000 0.4947392 0.1937100
1.0000000 0.4994376 0.1970735
1.0000000 0.5028360 0.1997790
1.0000000 0.5064470 0.2025445
1.0000000 0.5092643 0.2048603
1.0000000 0.5114202 0.2067587
1.0000000 0.5135874 0.2088581
1.0000000 0.5155018 0.2106703
1.0000000 0.5171654 0.2121903
1.0000000 0.5188416 0.2139105
1.0000000 0.5204064 0.2155591
1.0000000 0.5215874 0.2169877
1.0000000 0.5230963 0.2184880
1.0000000 0.5243974 0.2200196
1.0000000 0.5253708 0.2212099
1.0000000 0.5263600 0.2226202
1.0000000 0.5274153 0.2238864
1.0000000 0.5282834 0.2252771
1.0000000 0.5292585 0.2272740
1.0000000 0.5302181 0.2289211
1.0000000 0.5311261 0.2306887
1.0000000 0.5322332 0.2327808
1.0000000 0.5332135 0.2347844
0.0048752 0.0299409 0.0230478
0.0048580 0.0294329 0.0231974
0.0093691 0.0291027 0.0234311
0.0257739 0.0306176 0.0239356
0.0449364 0.0331135 0.0245522
0.0782217 0.0374323 0.0255046
0.1223021 0.0442326 0.0267214
0.1803204 0.0532188 0.0276695
0.2395024 0.0633254 0.0289134
0.3031471 0.0748265 0.0306204
0.3704309 0.0873320 0.0327280
0.4439623 0.1025048 0.0354969
0.5131809 0.1174411 0.0385220
0.5847369 0.1346299 0.0422345
0.6464661 0.1502448 0.0459012
0.7025423 0.1659689 0.0497595
0.7594953 0.1833348 0.0542910
0.8142285 0.2012022 0.0593091
0.8652031 0.2199097 0.0648018
0.9146482 0.2396330 0.0710194
0.9573567 0.2589087 0.0773773
0.9968268 0.2783481 0.0842458
1.0000000 0.2957655 0.0906445
1.0000000 0.3123032 0.0971069
1.0000000 0.3285954 0.1037599
1.0000000 0.3461947 0.1111561
1.0000000 0.3620555 0.1182289
1.0000000 0.3791601 0.1260827
1.0000000 0.3943036 0.1334658
1.0000000 0.4063349 0.1396403
1.0000000 0.4176376 0.1456174
1.0000000 0.4279066 0.1513503
1.0000000 0.4376228 0.1569167
1.0000000 0.4469011 0.1623107
1.0000000 0.4556228 0.1676410
1.0000000 0.4623334 0.1718642
1.0000000 0.4690386 0.1762215
1.0000000 0.4750944 0.1802495
1.0000000 0.4810305 0.1843107
1.0000000 0.4868896 0.1883014
1.0000000 0.4927363 0.1924232
1.0000000 0.4964361 0.1952153
1.0000000 0.5010126 0.1984633
1.0000000 0.5040947 0.2009463
1.0000000 0.5076076 0.2037404
1.0000000 0.5102019 0.2059342
1.0000000 0.5123088 0.2077411
1.0000000 0.5144096 0.2096954
1.0000000 0.5161588 0.2112750
1.0000000 0.5177863 0.2129827
1.0000000 0.5193788 0.2145146
1.0000000 0.5204983 0.2157381
1.0000000 0.5219850 0.2172362
1.0000000 0.5234220 0.2188711
1.0000000 0.5243974 0.2200196
1.0000000 0.5256947 0.2216135
1.0000000 0.5266105 0.2227868
1.0000000 0.5274335 0.2240860
1.0000000 0.5285897 0.2258182
1.0000000 0.5294697 0.2274147
1.0000000 0.5302181 0.2289211
1.0000000 0.5311261 0.2306887
1.0000000 0.5324109 0.2333495
1.0000000 0.5333906 0.2353515
0.0050195 0.0789235 0.0251645
0.0049767 0.0771402 0.0251061
0.0140169 0.0749069 0.0251596
0.0301592 0.0755261 0.0254754
0.0517290 0.0770032 0.0259531
0.0886844 0.0809355 0.0268310
0.1348125 0.0847535 0.0278946
0.1945512 0.0929434 0.0295675
0.2563906 0.1022571 0.0312519
0.3188402 0.1124054 0.0330819
0.3885979 0.1247128 0.0354851
0.4593325 0.1382016 0.0383206
0.5289474 0.1512610 0.0414659
0.5959538 0.1663005 0.0450953
0.6567855 0.1810679 0.0488777
0.7125034 0.1957078 0.0528544
0.7648017 0.2106358 0.0571362
0.8196050 0.2280794 0.0623522
0.8704671 0.2462763 0.0680376
0.9193653 0.2649937 0.0743805
0.9616298 0.2837331 0.0809261
1.0000000 0.3027976 0.0879521
1.0000000 0.3193280 0.0943764
1.0000000 0.3375022 0.1017653
1.0000000 0.3505753 0.1075416
1.0000000 0.3677835 0.1151726
1.0000000 0.3839695 0.1226736
1.0000000 0.4000914 0.1305124
1.0000000 0.4126153 0.1369451
1.0000000 0.4257568 0.1440877
1.0000000 0.4365344 0.1501203
1.0000000 0.4463574 0.1558228
1.0000000 0.4557471 0.1614779
1.0000000 0.4625803 0.1658959
1.0000000 0.4709979 0.1712726
1.0000000 0.4775702 0.1755677
1.0000000 0.4848590 0.1805299
1.0000000 0.4907777 0.1846322
1.0000000 0.4965028 0.1886789
1.0000000 0.5006195 0.1919472
1.0000000 0.5058645 0.1958324
1.0000000 0.5101948 0.1992128
1.0000000 0.5133584 0.2019960
1.0000000 0.5160210 0.2042195
1.0000000 0.5192958 0.2070340
1.0000000 0.5212356 0.2091066
1.0000000 0.5230913 0.2108752
1.0000000 0.5249371 0.2126811
1.0000000 0.5261191 0.2143204
1.0000000 0.5275044 0.2158296
1.0000000 0.5286149 0.2172989
1.0000000 0.5295125 0.2185262
1.0000000 0.5305587 0.2201346
1.0000000 0.5313734 0.2213485
1.0000000 0.5321723 0.2226815
1.0000000 0.5328856 0.2238476
1.0000000 0.5335630 0.2252149
1.0000000 0.5340969 0.2264077
1.0000000 0.5344079 0.2279241
1.0000000 0.5349206 0.2294542
1.0000000 0.5352666 0.2312188
1.0000000 0.5356752 0.2331896
1.0000000 0.5358016 0.2345608
1.0000000 0.5358375 0.2363794
0.0061818 0.1651725 0.0309242
0.0060688 0.1624260 0.0307320
0.0194771 0.1615034 0.0308661
0.0359095 0.1610178 0.0310845
0.0601099 0.1619472 0.0315340
0.0998725 0.1652012 0.0324190
0.1492394 0.1676683 0.0334622
0.2078702 0.1743793 0.0350973
0.2685503 0.1819271 0.0369825
0.3325370 0.1906476 0.0392010
0.4012446 0.2009863 0.0417458
0.4711368 0.2125193 0.0447413
0.5410916 0.2275167 0.0484433
0.6019759 0.2393208 0.0519122
0.6614097 0.2519115 0.0557948
0.7171645 0.2647879 0.0599720
0.7698051 0.2781132 0.0644983
0.8246856 0.2937254 0.0700055
0.8743651 0.3094068 0.0758348
0.9171760 0.3242937 0.0816733
0.9625431 0.3423607 0.0890239
0.9956062 0.3567239 0.0952719
1.0000000 0.3726285 0.1024485
1.0000000 0.3862691 0.1089723
1.0000000 0.3982597 0.1150007
1.0000000 0.4132519 0.1226503
1.0000000 0.4278420 0.1304812
1.0000000 0.4394351 0.1371051
1.0000000 0.4521043 0.1445710
1.0000000 0.4616631 0.1505911
1.0000000 0.4723277 0.1573777
1.0000000 0.4805260 0.1629822
1.0000000 0.4867674 0.1675336
1.0000000 0.4940447 0.1728613
1.0000000 0.4995435 0.1771535
1.0000000 0.5063310 0.1821997
1.0000000 0.5114416 0.1862697
1.0000000 0.5163654 0.1903223
1.0000000 0.5210843 0.1942829
1.0000000 0.5256664 0.1982320
1.0000000 0.5287000 0.2012130
1.0000000 0.5321603 0.2043653
1.0000000 0.5346037 0.2070299
1.0000000 0.5370694 0.2095891
1.0000000 0.5380919 0.2117026
1.0000000 0.5395052 0.2134983
1.0000000 0.5408087 0.2153853
1.0000000 0.5419897 0.2170298
1.0000000 0.5428454 0.2184825
1.0000000 0.5436975 0.2199420
1.0000000 0.5441225 0.2211055
1.0000000 0.5448628 0.2225078
1.0000000 0.5449115 0.2238265
1.0000000 0.5452548 0.2249483
1.0000000 0.5460292 0.2262772
1.0000000 0.5465301 0.2278543
1.0000000 0.5471677 0.2295781
1.0000000 0.5475132 0.2310967
1.0000000 0.5474485 0.2327736
1.0000000 0.5477036 0.2342152
1.0000000 0.5479120 0.2361447
1.0000000 0.5481203 0.2380695
1.0000000 0.5484253 0.2396640
1.0000000 0.5483046 0.2418358
0.0090337 0.2587578 0.0387862
0.0106862 0.2551325 0.0384797
0.0259994 0.2535579 0.0385613
0.0433815 0.2557173 0.0390245
0.0715942 0.2558454 0.0394771
0.1127871 0.2577843 0.0403412
0.1650516 0.2614663 0.0416263
0.2229685 0.2663337 0.0432451
0.2822766 0.2718939 0.0450956
0.3478907 0.2790509 0.0474408
0.4131471 0.2869032 0.0500759
0.4836057 0.2966089 0.0533105
0.5475346 0.3093799 0.0570024
0.6117208 0.3200248 0.0608685
0.6660280 0.3298506 0.0646053
0.7209769 0.3411111 0.0689722
0.7733479 0.3529895 0.0737599
0.8269446 0.3694774 0.0798668
0.8705288 0.3816088 0.0852578
0.9169631 0.3964994 0.0920391
0.9560846 0.4104441 0.0987526
0.9875721 0.4227012 0.1050183
1.0000000 0.4386475 0.1125780
1.0000000 0.4503245 0.1192150
1.0000000 0.4608097 0.1255273
1.0000000 0.4717684 0.1323358
1.0000000 0.4842997 0.1402546
1.0000000 0.4960179 0.1478463
1.0000000 0.5084398 0.1555479
1.0000000 0.5164504 0.1614949
1.0000000 0.5239678 0.1672570
1.0000000 0.5309583 0.1727945
1.0000000 0.5374094 0.1782139
1.0000000 0.5422984 0.1826047
1.0000000 0.5494727 0.1878820
1.0000000 0.5538059 0.1920799
1.0000000 0.5577443 0.1960412
1.0000000 0.5615926 0.2000130
1.0000000 0.5652306 0.2037637
1.0000000 0.5689409 0.2076474
1.0000000 0.5710748 0.2104520
1.0000000 0.5737853 0.2135625
1.0000000 0.5754073 0.2160240
1.0000000 0.5784598 0.2187743
1.0000000 0.5796039 0.2207900
1.0000000 0.5801995 0.2225528
1.0000000 0.5807859 0.2241817
1.0000000 0.5811730 0.2256684
1.0000000 0.5813622 0.2270051
1.0000000 0.5815502 0.2283608
1.0000000 0.5813109 0.2294431
1.0000000 0.5813771 0.2307589
1.0000000 0.5814246 0.2320591
1.0000000 0.5810275 0.2334588
1.0000000 0.5809008 0.2351139
1.0000000 0.5805049 0.2365633
1.0000000 0.5812200 0.2383810
1.0000000 0.5809001 0.2398731
1.0000000 0.5803815 0.2417326
1.0000000 0.5797302 0.2434893
1.0000000 0.5790446 0.2448279
1.0000000 0.5784636 0.2469727
1.0000000 0.5779341 0.2484305
1.0000000 0.5773526 0.2504869
0.0145296 0.3619522 0.0495346
0.0197750 0.3584167 0.0492117
0.0349665 0.3559408 0.0491660
0.0532279 0.3538189 0.0492178
0.0863214 0.3575373 0.0501969
0.1273772 0.3581948 0.0510059
0.1804167 0.3605363 0.0523064
0.2392709 0.3639992 0.0539744
0.2964108 0.3717529 0.0562652
0.3603091 0.3771693 0.0586360
0.4299395 0.3843199 0.0616454
0.4951184 0.3916413 0.0648502
0.5581933 0.3995352 0.0683957
0.6160523 0.4109610 0.0725586
0.6690036 0.4187742 0.0763791
0.7228426 0.4278524 0.0808644
0.7740857 0.4409680 0.0863265
0.8223855 0.4511781 0.0917314
0.8692494 0.4624895 0.0978822
0.9092551 0.4764615 0.1046017
0.9468225 0.4877958 0.1114025
0.9801406 0.4991024 0.1185106
1.0000000 0.5086721 0.1250144
1.0000000 0.5193448 0.1312801
1.0000000 0.5297949 0.1386765
1.0000000 0.5393152 0.1458188
1.0000000 0.5519026 0.1541749
1.0000000 0.5609806 0.1615346
1.0000000 0.5678712 0.1677417
1.0000000 0.5754647 0.1745048
1.0000000 0.5832304 0.1804509
1.0000000 0.5885121 0.1859734
1.0000000 0.5921102 0.1902207
1.0000000 0.5966853 0.1953133
1.0000000 0.6018908 0.1997897
1.0000000 0.6049061 0.2036877
1.0000000 0.6076103 0.2075287
1.0000000 0.6104602 0.2113898
1.0000000 0.6149193 0.2154196
1.0000000 0.6175287 0.2192084
1.0000000 0.6192882 0.2221687
1.0000000 0.6203330 0.2247270
1.0000000 0.6227180 0.2271907
1.0000000 0.6236730 0.2295444
1.0000000 0.6239114 0.2314844
1.0000000 0.6237862 0.2329702
1.0000000 0.6254005 0.2348394
1.0000000 0.6250089 0.2361189
1.0000000 0.6245297 0.2373649
1.0000000 0.6240340 0.2385962
1.0000000 0.6233271 0.2395549
1.0000000 0.6245131 0.2415492
1.0000000 0.6241239 0.2432079
1.0000000 0.6233676 0.2445560
1.0000000 0.6228409 0.2458040
1.0000000 0.6220567 0.2476334
1.0000000 0.6227050 0.2497172
1.0000000 0.6220144 0.2511018
1.0000000 0.6211176 0.2529522
1.0000000 0.6201243 0.2549718
1.0000000 0.6191057 0.2563325
1.0000000 0.6196390 0.2586687
1.0000000 0.6185213 0.2599972
1.0000000 0.6174988 0.2621678
0.0220202 0.4537082 0.0615922
0.0317932 0.4546062 0.0617722
0.0463995 0.4518688 0.0615789
0.0669474 0.4497108 0.0616035
0.1025629 0.4532028 0.0627229
0.1469108 0.4536202 0.0636178
0.2003879 0.4552575 0.0649706
0.2552839 0.4574050 0.0665663
0.3132738 0.4643816 0.0690954
0.3782848 0.4687232 0.0716391
0.4434527 0.4737872 0.0745661
0.5077722 0.4834619 0.0785079
0.5650279 0.4889941 0.0818603
0.6211388 0.4953766 0.0856541
0.6722170 0.5052086 0.0901579
0.7249086 0.5128043 0.0948355
0.7761239 0.5212463 0.1001266
0.8223984 0.5331394 0.1063337
0.8629870 0.5413216 0.1120147
0.9056278 0.5548810 0.1198403
0.9374781 0.5629222 0.1260565
0.9688895 0.5721490 0.1332558
0.9926991 0.5827460 0.1403860
1.0000000 0.5889633 0.1461691
1.0000000 0.5975081 0.1538107
1.0000000 0.6081215 0.1617419
1.0000000 0.6160096 0.1694935
1.0000000 0.6256415 0.1773111
1.0000000 0.6306391 0.1831546
1.0000000 0.6354539 0.1888862
1.0000000 0.6420325 0.1947918
1.0000000 0.6460341 0.2000946
1.0000000 0.6496370 0.2051235
1.0000000 0.6543325 0.2097589
1.0000000 0.6565660 0.2137383
1.0000000 0.6594841 0.2183687
1.0000000 0.6635365 0.2225215
1.0000000 0.6653060 0.2262244
1.0000000 0.6662137 0.2289878
1.0000000 0.6698556 0.2330475
1.0000000 0.6707686 0.2358807
1.0000000 0.6710651 0.2381269
1.0000000 0.6734599 0.2410887
1.0000000 0.6732253 0.2428639
1.0000000 0.6728354 0.2444044
1.0000000 0.6742339 0.2462829
1.0000000 0.6737085 0.2477084
1.0000000 0.6728780 0.2488381
1.0000000 0.6739682 0.2504548
1.0000000 0.6731150 0.2519861
1.0000000 0.6719659 0.2532841
1.0000000 0.6729824 0.2549543
1.0000000 0.6717795 0.2562519
1.0000000 0.6707259 0.2581393
1.0000000 0.6713945 0.2603049
1.0000000 0.6702512 0.2615907
1.0000000 0.6688743 0.2632863
1.0000000 0.6674997 0.2652332
1.0000000 0.6681628 0.2671117
1.0000000 0.6667473 0.2689580
1.0000000 0.6654663 0.2702530
1.0000000 0.6659209 0.2727861
1.0000000 0.6645278 0.2740812
1.0000000 0.6631299 0.2753742
0.0319697 0.5376991 0.0758811
0.0450555 0.5387312 0.0761353
0.0597798 0.5358605 0.0757647
0.0837215 0.5378228 0.0763792
0.1207753 0.5369101 0.0768437
0.1652780 0.5368042 0.0776569
0.2197868 0.5418947 0.0796349
0.2758272 0.5434430 0.0812728
0.3310814 0.5453007 0.0830986
0.3943655 0.5524808 0.0863022
0.4582993 0.5564092 0.0892594
0.5219160 0.5648998 0.0934225
0.5771290 0.5690885 0.0968037
0.6313561 0.5741370 0.1006634
0.6773930 0.5820705 0.1050416
0.7298172 0.5884845 0.1099935
0.7751352 0.5944929 0.1149361
0.8198037 0.6047913 0.1214372
0.8631145 0.6125853 0.1280730
0.8994204 0.6230584 0.1353925
0.9330055 0.6306356 0.1425291
0.9584363 0.6398233 0.1496124
0.9816695 0.6458979 0.1561198
0.9996264 0.6538643 0.1628048
1.0000000 0.6606137 0.1703272
1.0000000 0.6671975 0.1780329
1.0000000 0.6759604 0.1861671
1.0000000 0.6803085 0.1922668
1.0000000 0.6876874 0.1996069
1.0000000 0.6910889 0.2051205
1.0000000 0.6966215 0.2110412
1.0000000 0.6986417 0.2152666
1.0000000 0.7036173 0.2208774
1.0000000 0.7060607 0.2255075
1.0000000 0.7076086 0.2293932
1.0000000 0.7111598 0.2337576
1.0000000 0.7124085 0.2372610
1.0000000 0.7157221 0.2413301
1.0000000 0.7168037 0.2448884
1.0000000 0.7169848 0.2473012
1.0000000 0.7195668 0.2506645
1.0000000 0.7194204 0.2529228
1.0000000 0.7214115 0.2556673
1.0000000 0.7208869 0.2573514
1.0000000 0.7200315 0.2587032
1.0000000 0.7212205 0.2606031
1.0000000 0.7202320 0.2618013
1.0000000 0.7211657 0.2638319
1.0000000 0.7200471 0.2653056
1.0000000 0.7189904 0.2664145
1.0000000 0.7196487 0.2682291
1.0000000 0.7185829 0.2701588
1.0000000 0.7191682 0.2723209
1.0000000 0.7179524 0.2735740
1.0000000 0.7165648 0.2752616
1.0000000 0.7172086 0.2772167
1.0000000 0.7157273 0.2790402
1.0000000 0.7161937 0.2807879
1.0000000 0.7146546 0.2825964
1.0000000 0.7130538 0.2838345
1.0000000 0.7135580 0.2864580
1.0000000 0.7119098 0.2876430
1.0000000 0.7102150 0.2894881
1.0000000 0.7104988 0.2912497
0.0464238 0.6163518 0.0926000
0.0599787 0.6131767 0.0919924
0.0760272 0.6142665 0.0923439
0.1029702 0.6120534 0.0922472
0.1392370 0.6105819 0.0925354
0.1883006 0.6143217 0.0942624
0.2409194 0.6145018 0.0954579
0.2954435 0.6191908 0.0978267
0.3522558 0.6204048 0.0996953
0.4151768 0.6266533 0.1030239
0.4749831 0.6294081 0.1058392
0.5326633 0.6326509 0.1090167
0.5903426 0.6400662 0.1135559
0.6390915 0.6434455 0.1170081
0.6882241 0.6509795 0.1219622
0.7311104 0.6547889 0.1260093
0.7792123 0.6636970 0.1323507
0.8225408 0.6693496 0.1383576
0.8594840 0.6778628 0.1453028
0.8946220 0.6836817 0.1519585
0.9254949 0.6926042 0.1599071
0.9500527 0.6973671 0.1662540
0.9712144 0.7049570 0.1735547
0.9893982 0.7090440 0.1796375
1.0000000 0.7173237 0.1882385
1.0000000 0.7224574 0.1958324
1.0000000 0.7259972 0.2019329
1.0000000 0.7327765 0.2097333
1.0000000 0.7355292 0.2152501
1.0000000 0.7404945 0.2213839
1.0000000 0.7428564 0.2265849
1.0000000 0.7472060 0.2321343
1.0000000 0.7484496 0.2361488
1.0000000 0.7523644 0.2413775
1.0000000 0.7533379 0.2451552
1.0000000 0.7562844 0.2493126
1.0000000 0.7570130 0.2528794
1.0000000 0.7597829 0.2569048
1.0000000 0.7603726 0.2601860
1.0000000 0.7626572 0.2636774
1.0000000 0.7622843 0.2658963
1.0000000 0.7638496 0.2684810
1.0000000 0.7634298 0.2705330
1.0000000 0.7647344 0.2728209
1.0000000 0.7636464 0.2739798
1.0000000 0.7646431 0.2759354
1.0000000 0.7634472 0.2774175
1.0000000 0.7621366 0.2787520
1.0000000 0.7629213 0.2808540
1.0000000 0.7617035 0.2826590
1.0000000 0.7622529 0.2843775
1.0000000 0.7610179 0.2861537
1.0000000 0.7614866 0.2883720
1.0000000 0.7601381 0.2897443
1.0000000 0.7606111 0.2921964
1.0000000 0.7590266 0.2932605
1.0000000 0.7595459 0.2958096
1.0000000 0.7579585 0.2970291
1.0000000 0.7562960 0.2988458
1.0000000 0.7566057 0.3006027
1.0000000 0.7549180 0.3017069
1.0000000 0.7552042 0.3042009
1.0000000 0.7534285 0.3052828
1.0000000 0.7536616 0.3070068
0.0636199 0.6829190 0.1102293
0.0772945 0.6836727 0.1104395
0.0938481 0.6803908 0.1097102
0.1243023 0.6821616 0.1105701
0.1633867 0.6806530 0.1108614
0.2108526 0.6836954 0.1126165
0.2617196 0.6833144 0.1138213
0.3166072 0.6873225 0.1163033
0.3744259 0.6880804 0.1182344
0.4339932 0.6931697 0.1216193
0.4922161 0.6948723 0.1243666
0.5487678 0.7006350 0.1285119
0.6004469 0.7027606 0.1317692
0.6474491 0.7084960 0.1361595
0.6953977 0.7113549 0.1401230
0.7375914 0.7140611 0.1441886
0.7842876 0.7217391 0.1507708
0.8219333 0.7251891 0.1558045
0.8575574 0.7324657 0.1626710
0.8910134 0.7367432 0.1692888
0.9199958 0.7442039 0.1773026
0.9423932 0.7506217 0.1844758
0.9630352 0.7539144 0.1908664
0.9798394 0.7598563 0.1980257
0.9963887 0.7634871 0.2048119
1.0000000 0.7700254 0.2132272
1.0000000 0.7734774 0.2202447
1.0000000 0.7782195 0.2268721
1.0000000 0.7809196 0.2331362
1.0000000 0.7849357 0.2391300
