Plugins/FilmEmulator/Content/LUTs/FE_Kodak_8mm_64.cube
# FilmEmulator LUT (resampled to 64)
LUT_3D_SIZE 64
0.000610 0.000610 0.000000
0.011321 0.001292 0.000496
0.022004 0.001968 0.001008
0.031785 0.002449 0.001984
0.041536 0.003008 0.002930
0.050837 0.004744 0.003426
0.060182 0.006433 0.003992
0.069963 0.007674 0.005232
0.079886 0.008881 0.006563
0.090799 0.009857 0.008532
0.101498 0.010875 0.010348
0.111047 0.012115 0.011340
0.120863 0.013262 0.012378
0.131837 0.014006 0.013618
0.142924 0.014858 0.014913
0.154410 0.016099 0.016401
0.165846 0.017397 0.018195
0.177131 0.018870 0.020908
0.188494 0.020002 0.023202
0.200058 0.020266 0.024427
0.211656 0.020602 0.025564
0.223328 0.021098 0.026510
0.234894 0.021503 0.027444
0.246256 0.021736 0.028359
0.257908 0.021974 0.029175
0.270046 0.022222 0.029826
0.282038 0.022268 0.030124
0.293819 0.022020 0.029907
0.305905 0.021881 0.029690
0.318383 0.021881 0.029473
0.330890 0.021997 0.030056
0.343431 0.022245 0.031544
0.356529 0.023229 0.033559
0.370186 0.024950 0.036101
0.383875 0.026844 0.038429
0.397593 0.028890 0.040568
0.411486 0.030613 0.042359
0.425514 0.032086 0.043878
0.438871 0.033733 0.045967
0.451768 0.035500 0.048447
0.464025 0.037752 0.050298
0.475898 0.040294 0.051771
0.487935 0.042053 0.053101
0.500057 0.043402 0.054357
0.513404 0.045347 0.056816
0.527308 0.047564 0.059823
0.540711 0.049881 0.061984
0.553918 0.052237 0.063813
0.567172 0.054058 0.065735
0.580441 0.055702 0.067688
0.594642 0.057890 0.070404
0.609104 0.060230 0.073334
0.621627 0.062243 0.075130
0.633703 0.064181 0.076664
0.645700 0.065373 0.078631
0.657682 0.066427 0.080677
0.668769 0.067251 0.083279
0.679729 0.068041 0.085961
0.690589 0.069028 0.087715
0.701440 0.070036 0.089374
0.710910 0.071596 0.090524
0.720288 0.073192 0.091640
0.730147 0.074444 0.092636
0.740021 0.075684 0.093628
0.001897 0.007105 0.001194
0.011954 0.009330 0.001210
0.022004 0.011497 0.001255
0.031785 0.011860 0.002232
0.041544 0.012293 0.003225
0.050970 0.013777 0.004477
0.060438 0.015225 0.005739
0.070306 0.016332 0.007097
0.080344 0.017502 0.008454
0.091572 0.019116 0.009801
0.102587 0.020710 0.011092
0.112459 0.022194 0.012084
0.122621 0.023563 0.013123
0.134044 0.024433 0.014362
0.145513 0.025356 0.015765
0.157141 0.026470 0.017750
0.168734 0.027607 0.019792
0.180224 0.028812 0.022009
0.191765 0.029746 0.023975
0.203439 0.029986 0.025302
0.215166 0.030079 0.026505
0.227012 0.029851 0.027435
0.238710 0.029824 0.028351
0.250127 0.030183 0.029242
0.261894 0.030175 0.029878
0.274244 0.029557 0.030087
0.286360 0.029089 0.030124
0.298133 0.028841 0.029907
0.310266 0.028591 0.029928
0.322862 0.028339 0.030254
0.335691 0.028499 0.031295
0.348782 0.029125 0.033145
0.362180 0.030510 0.035302
0.375883 0.032657 0.037765
0.389436 0.034545 0.039847
0.402855 0.036205 0.041593
0.416776 0.037852 0.043592
0.431088 0.039490 0.045788
0.444480 0.041551 0.047891
0.457243 0.043901 0.049930
0.469642 0.045992 0.051591
0.481823 0.047928 0.053024
0.494069 0.049618 0.054801
0.506348 0.051179 0.056757
0.519809 0.053347 0.059111
0.533808 0.055792 0.061646
0.547198 0.057919 0.063645
0.560350 0.059921 0.065435
0.573914 0.061819 0.067766
0.587616 0.063683 0.070278
0.601574 0.065962 0.072686
0.615603 0.068358 0.075064
0.627994 0.070010 0.077007
0.640006 0.071491 0.078849
0.651993 0.072599 0.081428
0.663976 0.073637 0.084143
0.675001 0.074693 0.086216
0.685889 0.075751 0.088197
0.696786 0.077213 0.089700
0.707684 0.078717 0.091154
0.716899 0.079887 0.092343
0.726001 0.081034 0.093514
0.735958 0.082050 0.095000
0.745942 0.083062 0.096496
0.003218 0.013547 0.002400
0.012587 0.017242 0.001953
0.021969 0.020831 0.001550
0.031768 0.021161 0.002502
0.041552 0.021548 0.003519
0.051100 0.022795 0.005507
0.060686 0.024019 0.007448
0.070642 0.025011 0.008929
0.080795 0.026158 0.010318
0.092329 0.028377 0.011066
0.103655 0.030521 0.011851
0.113852 0.032252 0.012835
0.124361 0.033845 0.013867
0.136222 0.034838 0.015111
0.148063 0.035832 0.016622
0.159834 0.036825 0.019087
0.171585 0.037804 0.021369
0.183278 0.038741 0.023101
0.194998 0.039474 0.024746
0.206788 0.039684 0.026167
0.218646 0.039539 0.027431
0.230651 0.038614 0.028349
0.242482 0.038166 0.029247
0.253977 0.038629 0.030108
0.265871 0.038374 0.030564
0.278427 0.036923 0.030343
0.290668 0.035950 0.030127
0.302446 0.035676 0.029917
0.314633 0.035312 0.030181
0.327348 0.034831 0.031056
0.340486 0.035044 0.032550
0.354104 0.036042 0.034746
0.367795 0.037810 0.037033
0.381557 0.040348 0.039413
0.394991 0.042226 0.041262
0.408135 0.043521 0.042643
0.422081 0.045105 0.044843
0.436653 0.046913 0.047682
0.450080 0.049370 0.049792
0.462723 0.052271 0.051405
0.475263 0.054205 0.052893
0.487741 0.055560 0.054306
0.500194 0.057194 0.056515
0.512636 0.058973 0.059139
0.526210 0.061351 0.061385
0.540300 0.064002 0.063459
0.553679 0.065942 0.065317
0.566780 0.067604 0.067089
0.580650 0.069585 0.069809
0.594777 0.071672 0.072843
0.608495 0.074029 0.074957
0.622097 0.076461 0.076812
0.634358 0.077760 0.078913
0.646310 0.078798 0.081070
0.658290 0.079839 0.084224
0.670277 0.080881 0.087563
0.681238 0.082164 0.089118
0.692054 0.083482 0.090418
0.702983 0.085390 0.091692
0.713925 0.087358 0.092963
0.722909 0.088151 0.094189
0.731762 0.088865 0.095413
0.741794 0.089663 0.097358
0.751864 0.090463 0.099327
0.005621 0.018353 0.004013
0.013203 0.021228 0.003644
0.020871 0.024106 0.003293
0.031237 0.027033 0.003474
0.041552 0.029871 0.003775
0.051100 0.031363 0.005889
0.060697 0.032856 0.007968
0.070762 0.034360 0.009700
0.081019 0.035906 0.011325
0.092617 0.037740 0.012199
0.104060 0.039610 0.013051
0.114666 0.041671 0.013783
0.125525 0.043542 0.014634
0.137481 0.044582 0.015995
0.149432 0.045620 0.017600
0.161368 0.046644 0.020073
0.173285 0.047578 0.022328
0.185143 0.048240 0.023926
0.197071 0.048714 0.025436
0.209176 0.048712 0.026724
0.221172 0.048470 0.027926
0.232925 0.047703 0.028938
0.244866 0.047164 0.029819
0.257165 0.047059 0.030452
0.269563 0.046521 0.030726
0.282127 0.045258 0.030404
0.294545 0.044062 0.030216
0.306748 0.042962 0.030227
0.319220 0.042353 0.030922
0.332037 0.042376 0.032497
0.345122 0.042949 0.034286
0.358512 0.044144 0.036316
0.372305 0.045692 0.038404
0.386501 0.047592 0.040547
0.400380 0.049317 0.042570
0.413980 0.050888 0.044486
0.427861 0.052774 0.046664
0.441960 0.054905 0.049045
0.455387 0.057235 0.050994
0.468353 0.059703 0.052646
0.480994 0.061608 0.054503
0.493440 0.063176 0.056483
0.506085 0.065141 0.058669
0.518833 0.067314 0.060963
0.532487 0.069463 0.063036
0.546553 0.071602 0.065007
0.559982 0.073471 0.067317
0.573162 0.075235 0.069759
0.587194 0.077484 0.072191
0.601510 0.079894 0.074619
0.615078 0.081903 0.076871
0.628436 0.083800 0.079072
0.640658 0.084986 0.081705
0.652617 0.086009 0.084437
0.664705 0.087539 0.087010
0.676818 0.089163 0.089553
0.687678 0.090526 0.090947
0.698360 0.091852 0.092176
0.709198 0.093310 0.093900
0.720053 0.094783 0.095675
0.729578 0.095582 0.096904
0.739014 0.096335 0.098095
0.748416 0.097447 0.099552
0.757817 0.098571 0.101016
0.008024 0.023259 0.005850
0.013857 0.025312 0.005564
0.019847 0.027470 0.005270
0.030689 0.032858 0.004688
0.041456 0.038024 0.004276
0.051102 0.039867 0.006411
0.060795 0.041723 0.008530
0.070944 0.043720 0.010483
0.081283 0.045653 0.012317
0.092950 0.047133 0.013309
0.104513 0.048749 0.014223
0.115515 0.051090 0.014719
0.126722 0.053202 0.015407
0.138815 0.054319 0.016927
0.150905 0.055425 0.018648
0.162982 0.056491 0.021089
0.175057 0.057392 0.023288
0.187122 0.057798 0.024758
0.199280 0.058032 0.026138
0.211675 0.057826 0.027285
0.223809 0.057495 0.028413
0.235366 0.056890 0.029499
0.247424 0.056263 0.030354
0.260437 0.055597 0.030766
0.273305 0.054773 0.030871
0.285931 0.053686 0.030466
0.298552 0.052299 0.030335
0.311166 0.050471 0.030604
0.323918 0.049650 0.031732
0.336847 0.050124 0.033965
0.349902 0.051010 0.036029
0.363101 0.052364 0.037901
0.377001 0.053675 0.039806
0.391603 0.054942 0.041744
0.405894 0.056526 0.043932
0.419909 0.058388 0.046340
0.433727 0.060552 0.048488
0.447390 0.062950 0.050433
0.460838 0.065162 0.052253
0.474138 0.067247 0.053989
0.486900 0.069133 0.056196
0.499341 0.070899 0.058685
0.512164 0.073150 0.060836
0.525189 0.075655 0.062808
0.538925 0.077592 0.064742
0.552983 0.079272 0.066658
0.566465 0.081089 0.069375
0.579723 0.082959 0.072406
0.593882 0.085427 0.074579
0.608342 0.088094 0.076465
0.621785 0.089774 0.078878
0.634943 0.091177 0.081438
0.647134 0.092293 0.084534
0.659102 0.093342 0.087755
0.671285 0.095314 0.089796
0.683507 0.097456 0.091620
0.694274 0.098881 0.092873
0.704832 0.100203 0.094045
0.715557 0.101271 0.096162
0.726299 0.102312 0.098377
0.736323 0.103125 0.099599
0.746299 0.103922 0.100755
0.755149 0.105309 0.101755
0.763964 0.106715 0.102750
0.010427 0.029676 0.011058
0.015094 0.030856 0.010922
0.019927 0.032179 0.010753
0.029888 0.037961 0.009541
0.039926 0.043618 0.008442
0.051131 0.047405 0.009034
0.062207 0.051043 0.009731
0.072041 0.053245 0.011441
0.082125 0.055373 0.013061
0.093957 0.056988 0.014053
0.105691 0.058641 0.014967
0.116890 0.060502 0.015463
0.128403 0.062320 0.016293
0.141276 0.063949 0.018569
0.153928 0.065494 0.020743
0.165793 0.066740 0.022554
0.177914 0.067791 0.024272
0.190806 0.068252 0.025711
0.203534 0.068506 0.026999
0.215842 0.068229 0.027903
0.228118 0.067921 0.028792
0.240321 0.067544 0.029649
0.252589 0.066899 0.030319
0.264980 0.065745 0.030629
0.277787 0.064607 0.030750
0.291287 0.063497 0.030557
0.304503 0.062402 0.030888
0.317307 0.061330 0.031983
0.330282 0.060783 0.033583
0.343479 0.060910 0.035832
0.356846 0.061421 0.037875
0.370407 0.062366 0.039684
0.384488 0.063192 0.041687
0.399090 0.063900 0.043885
0.413272 0.065502 0.046112
0.427083 0.067892 0.048362
0.440877 0.069972 0.050366
0.454659 0.071811 0.052176
0.468449 0.074016 0.054382
0.482245 0.076471 0.056858
0.495430 0.078485 0.059126
0.508248 0.080236 0.061269
0.521083 0.082089 0.063182
0.533927 0.083995 0.064973
0.547762 0.085979 0.067294
0.562049 0.087997 0.069856
0.575647 0.090028 0.072308
0.588975 0.092064 0.074716
0.602751 0.094024 0.077052
0.616675 0.095958 0.079364
0.630358 0.097582 0.082288
0.643972 0.099119 0.085383
0.656262 0.100804 0.087928
0.668245 0.102523 0.090345
0.680324 0.104227 0.092600
0.692421 0.105929 0.094825
0.703206 0.107140 0.096259
0.713804 0.108280 0.097581
0.724075 0.109823 0.099234
0.734313 0.111408 0.100921
0.744210 0.112358 0.102014
0.754083 0.113266 0.103068
0.763564 0.114344 0.104111
0.773032 0.115427 0.105153
0.012717 0.036067 0.016040
0.016328 0.036471 0.016059
0.020109 0.037050 0.016023
0.029176 0.043088 0.014269
0.038463 0.049101 0.012573
0.051052 0.054750 0.011727
0.063367 0.060104 0.011091
0.073028 0.062606 0.012484
0.082980 0.065012 0.013827
0.094968 0.066748 0.014807
0.106866 0.068445 0.015719
0.118279 0.069930 0.016261
0.130100 0.071524 0.017249
0.143693 0.073588 0.020162
0.156876 0.075510 0.022712
0.168591 0.076927 0.023962
0.180784 0.078122 0.025252
0.194410 0.078645 0.026660
0.207662 0.078938 0.027858
0.219961 0.078641 0.028518
0.232413 0.078375 0.029165
0.245201 0.078178 0.029785
0.257670 0.077505 0.030266
0.269527 0.075927 0.030484
0.282306 0.074520 0.030642
0.296620 0.073396 0.030702
0.310406 0.072582 0.031493
0.323422 0.072221 0.033352
0.336637 0.071931 0.035385
0.350107 0.071731 0.037644
0.363766 0.071881 0.039677
0.377639 0.072427 0.041456
0.391858 0.072803 0.043566
0.406425 0.073010 0.046007
0.420528 0.074574 0.048261
0.434220 0.077336 0.050349
0.448037 0.079327 0.052252
0.461949 0.080719 0.054012
0.476067 0.082906 0.056568
0.490324 0.085637 0.059668
0.503890 0.087738 0.061975
0.517040 0.089462 0.063806
0.529927 0.090978 0.065540
0.542676 0.092387 0.067223
0.556588 0.094412 0.069876
0.571029 0.096718 0.072969
0.584755 0.098905 0.075213
0.598200 0.101046 0.077125
0.611631 0.102564 0.079639
0.625058 0.103873 0.082355
0.638921 0.105478 0.085691
0.652905 0.107166 0.089200
0.665287 0.109332 0.091276
0.677298 0.111608 0.093021
0.689276 0.113108 0.095441
0.701248 0.114465 0.097985
0.712052 0.115497 0.099563
0.722689 0.116483 0.101003
0.732592 0.118410 0.102259
0.742420 0.120435 0.103495
0.752184 0.121496 0.104495
0.761944 0.122492 0.105480
0.771945 0.123289 0.106553
0.781953 0.124079 0.107628
0.013926 0.042206 0.018830
0.017529 0.042774 0.019053
0.021271 0.043480 0.019225
0.029330 0.048447 0.017787
0.037653 0.053523 0.016359
0.049935 0.060235 0.015088
0.062085 0.066667 0.013973
0.072951 0.070389 0.014358
0.083965 0.073863 0.014803
0.096016 0.075599 0.015657
0.108025 0.077395 0.016540
0.119807 0.079519 0.017579
0.131957 0.081572 0.018876
0.145700 0.083320 0.021294
0.159099 0.085013 0.023479
0.171271 0.086510 0.024831
0.183767 0.087795 0.026191
0.197236 0.088444 0.027576
0.210581 0.088961 0.028690
0.223612 0.089136 0.029114
0.236567 0.089104 0.029496
0.249356 0.088615 0.029785
0.261935 0.087819 0.030049
0.274115 0.086438 0.030267
0.287184 0.085186 0.030664
0.301735 0.084149 0.031361
0.315841 0.083502 0.032595
0.329297 0.083424 0.034612
0.342905 0.083228 0.036710
0.356706 0.082878 0.038913
0.370459 0.082812 0.041054
0.384158 0.083067 0.043124
0.398102 0.083325 0.045419
0.412291 0.083587 0.047939
0.426597 0.084574 0.050116
0.441006 0.086202 0.051992
0.455282 0.088051 0.054223
0.469455 0.090073 0.056730
0.483753 0.092142 0.059300
0.498136 0.094244 0.061913
0.511680 0.096025 0.064042
0.524720 0.097615 0.065880
0.538055 0.099396 0.068009
0.551544 0.101277 0.070291
0.565303 0.103303 0.072741
0.579185 0.105396 0.075268
0.593155 0.107184 0.077862
0.607159 0.108853 0.080482
0.620630 0.110559 0.083321
0.633923 0.112278 0.086233
0.647394 0.114219 0.089022
0.660914 0.116222 0.091775
0.673323 0.118018 0.094190
0.685476 0.119766 0.096525
0.697383 0.121676 0.098638
0.709244 0.123615 0.100710
0.720069 0.124810 0.102071
0.730746 0.125898 0.103330
0.741095 0.127328 0.104832
0.751411 0.128794 0.106360
0.760999 0.129709 0.107615
0.770539 0.130588 0.108851
0.779999 0.131373 0.109833
0.789456 0.132155 0.110806
0.015234 0.048358 0.021571
0.018703 0.049120 0.021949
0.022286 0.049981 0.022280
0.029397 0.053896 0.021187
0.036818 0.058048 0.020058
0.048888 0.065751 0.018377
0.060943 0.073193 0.016804
0.072861 0.078094 0.016265
0.084823 0.082620 0.015875
0.097093 0.084522 0.016533
0.109337 0.086547 0.017319
0.121441 0.089233 0.018793
0.133875 0.091697 0.020362
0.147740 0.093201 0.022346
0.161335 0.094710 0.024208
0.173965 0.096235 0.025632
0.186777 0.097571 0.027045
0.200136 0.098341 0.028422
0.213577 0.099058 0.029469
0.227230 0.099642 0.029672
0.240639 0.099831 0.029804
0.253509 0.099151 0.029776
0.266244 0.098285 0.029842
0.278721 0.097062 0.030086
0.292075 0.095982 0.030747
0.306889 0.095140 0.032101
0.321308 0.094688 0.033772
0.335149 0.094806 0.035907
0.349133 0.094712 0.038062
0.363299 0.094344 0.040241
0.377160 0.094114 0.042493
0.390674 0.094041 0.044828
0.404396 0.094210 0.047263
0.418326 0.094620 0.049796
0.432801 0.095112 0.051932
0.447756 0.095675 0.053719
0.462453 0.097326 0.056258
0.476950 0.099821 0.059384
0.491431 0.101754 0.061960
0.505900 0.103302 0.064159
0.519470 0.104790 0.066169
0.532501 0.106241 0.068066
0.546200 0.108231 0.070519
0.560251 0.110503 0.073263
0.573912 0.112513 0.075572
0.587396 0.114404 0.077684
0.601553 0.115844 0.080599
0.615974 0.117109 0.083829
0.629469 0.118962 0.086921
0.642656 0.121012 0.089969
0.655843 0.123246 0.092309
0.669031 0.125532 0.094451
0.681460 0.126984 0.097108
0.693713 0.128244 0.099884
0.705571 0.130446 0.101748
0.717357 0.132822 0.103443
0.728186 0.134131 0.104652
0.738879 0.135288 0.105792
0.749576 0.136342 0.107478
0.760274 0.137386 0.109220
0.769690 0.138189 0.110656
0.779021 0.138975 0.112072
0.788054 0.139755 0.112977
0.797079 0.140535 0.113865
0.017234 0.054604 0.023974
0.019687 0.055760 0.024146
0.022270 0.056974 0.024297
0.028853 0.059968 0.023763
0.035808 0.063287 0.023139
0.048326 0.071487 0.021160
0.060787 0.079461 0.019283
0.072689 0.085252 0.018397
0.084801 0.090723 0.017618
0.098377 0.093956 0.017592
0.111722 0.097109 0.017801
0.123810 0.099826 0.019283
0.136218 0.102362 0.020858
0.150012 0.104118 0.022842
0.163655 0.105753 0.024675
0.176758 0.106956 0.025966
0.189979 0.108070 0.027304
0.203558 0.108918 0.028783
0.217116 0.109681 0.029872
0.230619 0.110226 0.029965
0.244129 0.110547 0.029952
0.257653 0.110379 0.029704
0.270857 0.109811 0.029701
0.283453 0.108477 0.030166
0.297052 0.107686 0.031260
0.312322 0.107797 0.033401
0.327009 0.107741 0.035475
0.340843 0.107442 0.037453
0.355087 0.107505 0.039605
0.369859 0.108035 0.041981
0.383917 0.108009 0.044375
0.397163 0.107353 0.046789
0.411039 0.107632 0.049042
0.425544 0.108846 0.051134
0.439945 0.109408 0.053474
0.454254 0.109397 0.056032
0.469103 0.110446 0.058745
0.484372 0.112319 0.061580
0.499054 0.113991 0.064102
0.513334 0.115523 0.066412
0.527266 0.116896 0.068724
0.540989 0.118174 0.071039
0.554473 0.119991 0.073309
0.567830 0.122090 0.075557
0.581778 0.123959 0.078161
0.595995 0.125724 0.080926
0.609939 0.127180 0.083963
0.623777 0.128516 0.087105
0.637192 0.130222 0.089952
0.650465 0.132051 0.092700
0.664133 0.134279 0.095289
0.677911 0.136620 0.097833
0.690296 0.137910 0.100066
0.702360 0.138957 0.102228
0.714329 0.140634 0.104241
0.726280 0.142428 0.106227
0.736999 0.143513 0.107749
0.747542 0.144496 0.109204
0.757905 0.146027 0.110627
0.768248 0.147614 0.112046
0.777517 0.148532 0.113152
0.786713 0.149404 0.114237
0.796124 0.150225 0.115170
0.805542 0.151044 0.116097
0.019296 0.060967 0.026565
0.020989 0.062419 0.026597
0.022810 0.063892 0.026628
0.028620 0.066052 0.026602
0.034868 0.068614 0.026438
0.047691 0.077194 0.024180
0.060433 0.085591 0.022017
0.072389 0.092212 0.020776
0.084680 0.098567 0.019610
0.099316 0.103057 0.018962
0.113584 0.107293 0.018619
0.125863 0.110154 0.019923
0.138428 0.112865 0.021347
0.152231 0.114925 0.023292
0.165976 0.116752 0.025073
0.179513 0.117746 0.026269
0.193130 0.118718 0.027544
0.206986 0.119622 0.029057
0.220707 0.120417 0.030139
0.234084 0.120931 0.030122
0.247687 0.121363 0.029986
0.261785 0.121615 0.029586
0.275440 0.121352 0.029593
0.288249 0.120108 0.030376
0.302107 0.119668 0.031902
0.317713 0.120569 0.034668
0.332614 0.120894 0.037069
0.346483 0.120377 0.038934
0.360970 0.120622 0.041119
0.376253 0.121846 0.043714
0.390501 0.122027 0.046229
0.403577 0.121026 0.048653
0.417622 0.121419 0.050781
0.432635 0.123207 0.052613
0.447041 0.123839 0.055162
0.460911 0.123451 0.058344
0.475905 0.123989 0.061180
0.491772 0.125247 0.063746
0.506674 0.126619 0.066254
0.520917 0.128069 0.068722
0.535124 0.129329 0.071272
0.549308 0.130474 0.073870
0.562664 0.132089 0.076017
0.575586 0.133951 0.077927
0.589747 0.135626 0.080817
0.604472 0.137216 0.084151
0.618227 0.138626 0.087270
0.631602 0.139966 0.090305
0.645001 0.141496 0.092958
0.658409 0.143090 0.095485
0.672440 0.145283 0.098244
0.686647 0.147644 0.101068
0.698970 0.148808 0.103004
0.710858 0.149696 0.104734
0.722934 0.150909 0.106838
0.735045 0.152181 0.109011
0.745650 0.153069 0.110743
0.756039 0.153901 0.112412
0.766166 0.155793 0.113627
0.776266 0.157795 0.114795
0.785472 0.158850 0.115700
0.794619 0.159843 0.116587
0.804273 0.160698 0.117556
0.813942 0.161549 0.118528
0.021699 0.067959 0.030177
0.024006 0.069174 0.030414
0.026356 0.070407 0.030650
0.030064 0.072205 0.030861
0.034312 0.074411 0.030907
0.046662 0.082748 0.028484
0.059016 0.090971 0.026134
0.071397 0.098104 0.024491
0.084025 0.105014 0.022939
0.098386 0.110362 0.022016
0.112626 0.115440 0.021256
0.126212 0.119058 0.021379
0.139922 0.122492 0.021796
0.154166 0.125135 0.023488
0.168305 0.127506 0.025099
0.182070 0.128909 0.026413
0.196004 0.130173 0.027693
0.210442 0.131015 0.028867
0.224582 0.131769 0.029675
0.237960 0.132298 0.029547
0.251609 0.132716 0.029404
0.265857 0.132889 0.029225
0.279859 0.132975 0.029666
0.293392 0.132896 0.031291
0.307584 0.133152 0.033250
0.322876 0.133967 0.035764
0.337699 0.134589 0.038069
0.351835 0.134930 0.040068
0.366470 0.135482 0.042476
0.381744 0.136304 0.045410
0.396155 0.136711 0.047935
0.409585 0.136647 0.049996
0.423882 0.137179 0.052301
0.439044 0.138305 0.054850
0.453880 0.138995 0.057644
0.468428 0.139300 0.060652
0.483527 0.139813 0.063332
0.499055 0.140488 0.065757
0.514283 0.141362 0.068455
0.529305 0.142371 0.071340
0.543312 0.143520 0.073776
0.556709 0.144751 0.075941
0.570420 0.146014 0.078280
0.584294 0.147294 0.080710
0.598272 0.148483 0.083837
0.612296 0.149632 0.087282
0.625983 0.150664 0.090274
0.639539 0.151649 0.093088
0.653279 0.152855 0.095834
0.667081 0.154133 0.098558
0.680848 0.156129 0.101064
0.694605 0.158325 0.103510
0.706761 0.159560 0.105829
0.718548 0.160574 0.108119
0.730714 0.161646 0.109991
0.742950 0.162730 0.111786
0.753419 0.163566 0.113182
0.763636 0.164367 0.114520
0.774068 0.165999 0.115825
0.784522 0.167718 0.117127
0.794126 0.169036 0.118527
0.803674 0.170327 0.119934
0.812845 0.171185 0.120989
0.822003 0.172028 0.122032
0.024325 0.074993 0.033487
0.026979 0.076024 0.033851
0.029610 0.077066 0.034216
0.031535 0.078489 0.034580
0.034084 0.080320 0.034771
0.046012 0.088287 0.032360
0.058001 0.096223 0.029991
0.070580 0.103864 0.028031
0.083363 0.111325 0.026175
0.097577 0.117530 0.025044
0.111874 0.123445 0.023944
0.126619 0.127796 0.023009
0.141362 0.131970 0.022507
0.156093 0.135377 0.023875
0.170671 0.138415 0.025238
0.184705 0.140140 0.026581
0.198948 0.141649 0.027808
0.213818 0.142512 0.028686
0.228295 0.143303 0.029256
0.241767 0.143910 0.029039
0.255504 0.144389 0.028929
0.269825 0.144582 0.029051
0.284111 0.145000 0.029929
0.298333 0.145844 0.032249
0.312879 0.146647 0.034555
0.327966 0.147379 0.036838
0.342763 0.148226 0.039085
0.357139 0.149239 0.041280
0.371921 0.150048 0.043899
0.387223 0.150594 0.047062
0.401777 0.151214 0.049579
0.415482 0.151918 0.051366
0.430009 0.152637 0.053859
0.445358 0.153370 0.057060
0.460611 0.154151 0.060052
0.475780 0.154973 0.062859
0.490967 0.155478 0.065444
0.506170 0.155735 0.067855
0.521616 0.156194 0.070683
0.537227 0.156791 0.073795
0.551157 0.157791 0.076119
0.564076 0.159034 0.077971
0.578055 0.159973 0.080515
0.592588 0.160752 0.083422
0.606386 0.161619 0.086711
0.619851 0.162525 0.090174
0.633551 0.163287 0.093073
0.647343 0.163994 0.095751
0.661331 0.164934 0.098538
0.675383 0.165953 0.101361
0.688939 0.167695 0.103712
0.702355 0.169640 0.105930
0.714447 0.170894 0.108491
0.726233 0.171987 0.111130
0.738443 0.172917 0.112816
0.750731 0.173816 0.114326
0.761113 0.174646 0.115521
0.771223 0.175467 0.116670
0.781841 0.176866 0.118099
0.792513 0.178325 0.119557
0.802431 0.179791 0.121291
0.812299 0.181258 0.123043
0.821121 0.182106 0.124161
0.829909 0.182934 0.125259
0.027921 0.082217 0.035486
0.029764 0.083287 0.035646
0.031597 0.084354 0.035806
0.033120 0.085343 0.035966
0.035280 0.086712 0.036013
0.047004 0.093765 0.034382
0.058734 0.100919 0.032723
0.070525 0.109048 0.030811
0.082670 0.117042 0.029007
0.097293 0.124097 0.027963
0.112017 0.130830 0.026854
0.127282 0.135819 0.025400
0.142576 0.140802 0.024356
0.157991 0.145760 0.025087
0.173201 0.149996 0.025872
0.187676 0.151657 0.026853
0.202194 0.153216 0.027780
0.216844 0.154465 0.028548
0.231305 0.155631 0.029039
0.245280 0.156584 0.028822
0.259283 0.157444 0.028915
0.273344 0.158094 0.029691
0.287644 0.158768 0.031017
0.302401 0.159487 0.033392
0.317382 0.160187 0.035680
0.332736 0.160856 0.037821
0.347740 0.161611 0.040173
0.362235 0.162491 0.042833
0.377162 0.163341 0.045606
0.392645 0.164155 0.048525
0.407262 0.164932 0.050961
0.420896 0.165667 0.052849
0.435561 0.166787 0.055579
0.451256 0.168292 0.059150
0.466872 0.169305 0.062143
0.482419 0.169884 0.064628
0.497622 0.170450 0.067377
0.512557 0.171006 0.070331
0.527753 0.171414 0.073024
0.543129 0.171719 0.075538
0.557511 0.172413 0.077766
0.571297 0.173341 0.079822
0.585170 0.174079 0.082628
0.599089 0.174717 0.085827
0.612728 0.175961 0.088947
0.626239 0.177481 0.092033
0.640298 0.178450 0.094989
0.654571 0.179204 0.097896
0.668401 0.180138 0.100497
0.682083 0.181133 0.102997
0.695656 0.182385 0.105609
0.709198 0.183708 0.108253
0.721672 0.184748 0.110439
0.733899 0.185724 0.112519
