Plugins/FilmEmulator/Content/LUTs/FE_Kodak_5222_Dev12_64.cube
TITLE "FE_Kodak_5222_Dev12_33"
LUT_3D_SIZE 64
0.0002598 0.0002598 0.0002598
0.0002598 0.0002598 0.0002598
0.0002671 0.0002671 0.0002671
0.0003539 0.0003539 0.0003539
0.0004816 0.0004816 0.0004816
0.0006447 0.0006447 0.0006447
0.0008525 0.0008525 0.0008525
0.0011134 0.0011134 0.0011134
0.0014601 0.0014601 0.0014601
0.0018448 0.0018448 0.0018448
0.0022886 0.0022886 0.0022886
0.0027758 0.0027758 0.0027758
0.0033794 0.0033794 0.0033794
0.0041170 0.0041170 0.0041170
0.0047389 0.0047389 0.0047389
0.0056023 0.0056023 0.0056023
0.0064411 0.0064411 0.0064411
0.0072032 0.0072032 0.0072032
0.0082823 0.0082823 0.0082823
0.0092537 0.0092537 0.0092537
0.0103379 0.0103379 0.0103379
0.0115304 0.0115304 0.0115304
0.0128396 0.0128396 0.0128396
0.0139167 0.0139167 0.0139167
0.0150566 0.0150566 0.0150566
0.0166895 0.0166895 0.0166895
0.0180273 0.0180273 0.0180273
0.0194602 0.0194602 0.0194602
0.0204680 0.0204680 0.0204680
0.0220763 0.0220763 0.0220763
0.0238078 0.0238078 0.0238078
0.0250392 0.0250392 0.0250392
0.0270098 0.0270098 0.0270098
0.0284066 0.0284066 0.0284066
0.0306339 0.0306339 0.0306339
0.0322279 0.0322279 0.0322279
0.0339354 0.0339354 0.0339354
0.0357300 0.0357300 0.0357300
0.0376159 0.0376159 0.0376159
0.0395973 0.0395973 0.0395973
0.0416686 0.0416686 0.0416686
0.0437918 0.0437918 0.0437918
0.0460180 0.0460180 0.0460180
0.0483516 0.0483516 0.0483516
0.0507973 0.0507973 0.0507973
0.0520636 0.0520636 0.0520636
0.0547020 0.0547020 0.0547020
0.0574824 0.0574824 0.0574824
0.0589219 0.0589219 0.0589219
0.0619029 0.0619029 0.0619029
0.0650242 0.0650242 0.0650242
0.0666393 0.0666393 0.0666393
0.0700002 0.0700002 0.0700002
0.0717578 0.0717578 0.0717578
0.0753958 0.0753958 0.0753958
0.0772776 0.0772776 0.0772776
0.0792024 0.0792024 0.0792024
0.0831840 0.0831840 0.0831840
0.0852423 0.0852423 0.0852423
0.0894832 0.0894832 0.0894832
0.0916364 0.0916364 0.0916364
0.0938360 0.0938360 0.0938360
0.0960829 0.0960829 0.0960829
0.1007212 0.1007212 0.1007212
0.0002689 0.0002689 0.0002689
0.0003539 0.0003539 0.0003539
0.0004816 0.0004816 0.0004816
0.0006447 0.0006447 0.0006447
0.0008525 0.0008525 0.0008525
0.0011134 0.0011134 0.0011134
0.0014601 0.0014601 0.0014601
0.0018448 0.0018448 0.0018448
0.0022886 0.0022886 0.0022886
0.0027758 0.0027758 0.0027758
0.0033794 0.0033794 0.0033794
0.0041170 0.0041170 0.0041170
0.0047389 0.0047389 0.0047389
0.0056023 0.0056023 0.0056023
0.0064411 0.0064411 0.0064411
0.0072032 0.0072032 0.0072032
0.0082823 0.0082823 0.0082823
0.0092537 0.0092537 0.0092537
0.0103379 0.0103379 0.0103379
0.0115304 0.0115304 0.0115304
0.0128396 0.0128396 0.0128396
0.0139167 0.0139167 0.0139167
0.0150566 0.0150566 0.0150566
0.0166895 0.0166895 0.0166895
0.0180273 0.0180273 0.0180273
0.0194602 0.0194602 0.0194602
0.0204680 0.0204680 0.0204680
0.0220763 0.0220763 0.0220763
0.0238078 0.0238078 0.0238078
0.0250392 0.0250392 0.0250392
0.0270098 0.0270098 0.0270098
0.0284066 0.0284066 0.0284066
0.0306339 0.0306339 0.0306339
0.0322279 0.0322279 0.0322279
0.0339354 0.0339354 0.0339354
0.0357300 0.0357300 0.0357300
0.0376159 0.0376159 0.0376159
0.0395973 0.0395973 0.0395973
0.0416686 0.0416686 0.0416686
0.0437918 0.0437918 0.0437918
0.0460180 0.0460180 0.0460180
0.0483516 0.0483516 0.0483516
0.0507973 0.0507973 0.0507973
0.0520636 0.0520636 0.0520636
0.0547020 0.0547020 0.0547020
0.0574824 0.0574824 0.0574824
0.0589219 0.0589219 0.0589219
0.0619029 0.0619029 0.0619029
0.0650242 0.0650242 0.0650242
0.0666393 0.0666393 0.0666393
0.0700002 0.0700002 0.0700002
0.0717578 0.0717578 0.0717578
0.0753958 0.0753958 0.0753958
0.0772776 0.0772776 0.0772776
0.0792024 0.0792024 0.0792024
0.0831840 0.0831840 0.0831840
0.0852423 0.0852423 0.0852423
0.0894832 0.0894832 0.0894832
0.0916364 0.0916364 0.0916364
0.0938360 0.0938360 0.0938360
0.0960829 0.0960829 0.0960829
0.1007212 0.1007212 0.1007212
0.1031142 0.1031142 0.1031142
0.1055574 0.1055574 0.1055574
0.0004816 0.0004816 0.0004816
0.0006447 0.0006447 0.0006447
0.0008525 0.0008525 0.0008525
0.0011134 0.0011134 0.0011134
0.0014601 0.0014601 0.0014601
0.0018448 0.0018448 0.0018448
0.0022886 0.0022886 0.0022886
0.0028549 0.0028549 0.0028549
0.0033794 0.0033794 0.0033794
0.0041170 0.0041170 0.0041170
0.0047389 0.0047389 0.0047389
0.0056023 0.0056023 0.0056023
0.0064411 0.0064411 0.0064411
0.0072032 0.0072032 0.0072032
0.0082823 0.0082823 0.0082823
0.0092537 0.0092537 0.0092537
0.0103379 0.0103379 0.0103379
0.0115304 0.0115304 0.0115304
0.0128396 0.0128396 0.0128396
0.0139167 0.0139167 0.0139167
0.0150566 0.0150566 0.0150566
0.0166895 0.0166895 0.0166895
0.0180273 0.0180273 0.0180273
0.0194602 0.0194602 0.0194602
0.0204680 0.0204680 0.0204680
0.0220763 0.0220763 0.0220763
0.0238078 0.0238078 0.0238078
0.0250392 0.0250392 0.0250392
0.0270098 0.0270098 0.0270098
0.0284066 0.0284066 0.0284066
0.0306339 0.0306339 0.0306339
0.0322279 0.0322279 0.0322279
0.0339354 0.0339354 0.0339354
0.0357300 0.0357300 0.0357300
0.0376159 0.0376159 0.0376159
0.0395973 0.0395973 0.0395973
0.0416686 0.0416686 0.0416686
0.0437918 0.0437918 0.0437918
0.0460180 0.0460180 0.0460180
0.0483516 0.0483516 0.0483516
0.0507973 0.0507973 0.0507973
0.0520636 0.0520636 0.0520636
0.0547020 0.0547020 0.0547020
0.0574824 0.0574824 0.0574824
0.0589219 0.0589219 0.0589219
0.0619029 0.0619029 0.0619029
0.0650242 0.0650242 0.0650242
0.0666393 0.0666393 0.0666393
0.0700002 0.0700002 0.0700002
0.0717578 0.0717578 0.0717578
0.0753958 0.0753958 0.0753958
0.0772776 0.0772776 0.0772776
0.0792024 0.0792024 0.0792024
0.0831840 0.0831840 0.0831840
0.0852423 0.0852423 0.0852423
0.0894832 0.0894832 0.0894832
0.0916364 0.0916364 0.0916364
0.0938360 0.0938360 0.0938360
0.0960829 0.0960829 0.0960829
0.1007212 0.1007212 0.1007212
0.1031142 0.1031142 0.1031142
0.1055574 0.1055574 0.1055574
0.1080514 0.1080514 0.1080514
0.1105972 0.1105972 0.1105972
0.0008525 0.0008525 0.0008525
0.0011134 0.0011134 0.0011134
0.0014601 0.0014601 0.0014601
0.0018448 0.0018448 0.0018448
0.0022886 0.0022886 0.0022886
0.0028549 0.0028549 0.0028549
0.0033794 0.0033794 0.0033794
0.0041170 0.0041170 0.0041170
0.0047389 0.0047389 0.0047389
0.0056023 0.0056023 0.0056023
0.0064411 0.0064411 0.0064411
0.0072032 0.0072032 0.0072032
0.0082823 0.0082823 0.0082823
0.0092537 0.0092537 0.0092537
0.0103379 0.0103379 0.0103379
0.0115304 0.0115304 0.0115304
0.0128396 0.0128396 0.0128396
0.0139167 0.0139167 0.0139167
0.0150566 0.0150566 0.0150566
0.0166895 0.0166895 0.0166895
0.0180273 0.0180273 0.0180273
0.0194602 0.0194602 0.0194602
0.0204680 0.0204680 0.0204680
0.0220763 0.0220763 0.0220763
0.0238078 0.0238078 0.0238078
0.0250392 0.0250392 0.0250392
0.0270098 0.0270098 0.0270098
0.0284066 0.0284066 0.0284066
0.0306339 0.0306339 0.0306339
0.0322279 0.0322279 0.0322279
0.0339354 0.0339354 0.0339354
0.0357300 0.0357300 0.0357300
0.0376159 0.0376159 0.0376159
0.0395973 0.0395973 0.0395973
0.0416686 0.0416686 0.0416686
0.0437918 0.0437918 0.0437918
0.0460180 0.0460180 0.0460180
0.0483516 0.0483516 0.0483516
0.0507973 0.0507973 0.0507973
0.0520636 0.0520636 0.0520636
0.0547020 0.0547020 0.0547020
0.0574824 0.0574824 0.0574824
0.0589219 0.0589219 0.0589219
0.0619029 0.0619029 0.0619029
0.0650242 0.0650242 0.0650242
0.0666393 0.0666393 0.0666393
0.0700002 0.0700002 0.0700002
0.0717578 0.0717578 0.0717578
0.0753958 0.0753958 0.0753958
0.0772776 0.0772776 0.0772776
0.0792024 0.0792024 0.0792024
0.0831840 0.0831840 0.0831840
0.0852423 0.0852423 0.0852423
0.0894832 0.0894832 0.0894832
0.0916364 0.0916364 0.0916364
0.0938360 0.0938360 0.0938360
0.0960829 0.0960829 0.0960829
0.1007212 0.1007212 0.1007212
0.1031142 0.1031142 0.1031142
0.1055574 0.1055574 0.1055574
0.1080514 0.1080514 0.1080514
0.1105972 0.1105972 0.1105972
0.1158790 0.1158790 0.1158790
0.1186178 0.1186178 0.1186178
0.0014601 0.0014601 0.0014601
0.0018448 0.0018448 0.0018448
0.0022886 0.0022886 0.0022886
0.0028549 0.0028549 0.0028549
0.0033794 0.0033794 0.0033794
0.0041170 0.0041170 0.0041170
0.0047389 0.0047389 0.0047389
0.0056023 0.0056023 0.0056023
0.0064411 0.0064411 0.0064411
0.0072032 0.0072032 0.0072032
0.0082823 0.0082823 0.0082823
0.0092537 0.0092537 0.0092537
0.0103379 0.0103379 0.0103379
0.0115304 0.0115304 0.0115304
0.0128396 0.0128396 0.0128396
0.0139167 0.0139167 0.0139167
0.0150566 0.0150566 0.0150566
0.0166895 0.0166895 0.0166895
0.0180273 0.0180273 0.0180273
0.0194602 0.0194602 0.0194602
0.0204680 0.0204680 0.0204680
0.0220763 0.0220763 0.0220763
0.0238078 0.0238078 0.0238078
0.0250392 0.0250392 0.0250392
0.0270098 0.0270098 0.0270098
0.0284066 0.0284066 0.0284066
0.0306339 0.0306339 0.0306339
0.0322279 0.0322279 0.0322279
0.0339354 0.0339354 0.0339354
0.0357300 0.0357300 0.0357300
0.0376159 0.0376159 0.0376159
0.0395973 0.0395973 0.0395973
0.0416686 0.0416686 0.0416686
0.0437918 0.0437918 0.0437918
0.0460180 0.0460180 0.0460180
0.0483516 0.0483516 0.0483516
0.0507973 0.0507973 0.0507973
0.0520636 0.0520636 0.0520636
0.0547020 0.0547020 0.0547020
0.0574824 0.0574824 0.0574824
0.0589219 0.0589219 0.0589219
0.0619029 0.0619029 0.0619029
0.0650242 0.0650242 0.0650242
0.0666393 0.0666393 0.0666393
0.0700002 0.0700002 0.0700002
0.0717578 0.0717578 0.0717578
0.0753958 0.0753958 0.0753958
0.0772776 0.0772776 0.0772776
0.0792024 0.0792024 0.0792024
0.0831840 0.0831840 0.0831840
0.0852423 0.0852423 0.0852423
0.0894832 0.0894832 0.0894832
0.0916364 0.0916364 0.0916364
0.0938360 0.0938360 0.0938360
0.0960829 0.0960829 0.0960829
0.1007212 0.1007212 0.1007212
0.1031142 0.1031142 0.1031142
0.1055574 0.1055574 0.1055574
0.1080514 0.1080514 0.1080514
0.1105972 0.1105972 0.1105972
0.1158790 0.1158790 0.1158790
0.1186178 0.1186178 0.1186178
0.1214125 0.1214125 0.1214125
0.1242638 0.1242638 0.1242638
0.0022886 0.0022886 0.0022886
0.0028549 0.0028549 0.0028549
0.0033794 0.0033794 0.0033794
0.0041170 0.0041170 0.0041170
0.0047389 0.0047389 0.0047389
0.0056023 0.0056023 0.0056023
0.0064411 0.0064411 0.0064411
0.0074073 0.0074073 0.0074073
0.0082823 0.0082823 0.0082823
0.0092537 0.0092537 0.0092537
0.0103379 0.0103379 0.0103379
0.0115304 0.0115304 0.0115304
0.0128396 0.0128396 0.0128396
0.0139167 0.0139167 0.0139167
0.0150566 0.0150566 0.0150566
0.0166895 0.0166895 0.0166895
0.0180273 0.0180273 0.0180273
0.0194602 0.0194602 0.0194602
0.0204680 0.0204680 0.0204680
0.0220763 0.0220763 0.0220763
0.0238078 0.0238078 0.0238078
0.0250392 0.0250392 0.0250392
0.0270098 0.0270098 0.0270098
0.0284066 0.0284066 0.0284066
0.0306339 0.0306339 0.0306339
0.0322279 0.0322279 0.0322279
0.0339354 0.0339354 0.0339354
0.0357300 0.0357300 0.0357300
0.0376159 0.0376159 0.0376159
0.0395973 0.0395973 0.0395973
0.0416686 0.0416686 0.0416686
0.0437918 0.0437918 0.0437918
0.0460180 0.0460180 0.0460180
0.0483516 0.0483516 0.0483516
0.0507973 0.0507973 0.0507973
0.0520636 0.0520636 0.0520636
0.0547020 0.0547020 0.0547020
0.0574824 0.0574824 0.0574824
0.0589219 0.0589219 0.0589219
0.0619029 0.0619029 0.0619029
0.0650242 0.0650242 0.0650242
0.0666393 0.0666393 0.0666393
0.0700002 0.0700002 0.0700002
0.0717578 0.0717578 0.0717578
0.0753958 0.0753958 0.0753958
0.0772776 0.0772776 0.0772776
0.0792024 0.0792024 0.0792024
0.0831840 0.0831840 0.0831840
0.0852423 0.0852423 0.0852423
0.0894832 0.0894832 0.0894832
0.0916364 0.0916364 0.0916364
0.0938360 0.0938360 0.0938360
0.0960829 0.0960829 0.0960829
0.1007212 0.1007212 0.1007212
0.1031142 0.1031142 0.1031142
0.1055574 0.1055574 0.1055574
0.1080514 0.1080514 0.1080514
0.1105972 0.1105972 0.1105972
0.1158790 0.1158790 0.1158790
0.1186178 0.1186178 0.1186178
0.1214125 0.1214125 0.1214125
0.1242638 0.1242638 0.1242638
0.1271724 0.1271724 0.1271724
0.1301389 0.1301389 0.1301389
0.0033794 0.0033794 0.0033794
0.0041170 0.0041170 0.0041170
0.0047389 0.0047389 0.0047389
0.0056023 0.0056023 0.0056023
0.0064411 0.0064411 0.0064411
0.0074073 0.0074073 0.0074073
0.0082823 0.0082823 0.0082823
0.0092537 0.0092537 0.0092537
0.0103379 0.0103379 0.0103379
0.0115304 0.0115304 0.0115304
0.0128396 0.0128396 0.0128396
0.0139167 0.0139167 0.0139167
0.0150566 0.0150566 0.0150566
0.0166895 0.0166895 0.0166895
0.0180273 0.0180273 0.0180273
0.0194602 0.0194602 0.0194602
0.0204680 0.0204680 0.0204680
0.0220763 0.0220763 0.0220763
0.0238078 0.0238078 0.0238078
0.0250392 0.0250392 0.0250392
0.0270098 0.0270098 0.0270098
0.0284066 0.0284066 0.0284066
0.0306339 0.0306339 0.0306339
0.0322279 0.0322279 0.0322279
0.0339354 0.0339354 0.0339354
0.0357300 0.0357300 0.0357300
0.0376159 0.0376159 0.0376159
0.0395973 0.0395973 0.0395973
0.0416686 0.0416686 0.0416686
0.0437918 0.0437918 0.0437918
0.0460180 0.0460180 0.0460180
0.0483516 0.0483516 0.0483516
0.0507973 0.0507973 0.0507973
0.0520636 0.0520636 0.0520636
0.0547020 0.0547020 0.0547020
0.0574824 0.0574824 0.0574824
0.0589219 0.0589219 0.0589219
0.0619029 0.0619029 0.0619029
0.0650242 0.0650242 0.0650242
0.0666393 0.0666393 0.0666393
0.0700002 0.0700002 0.0700002
0.0717578 0.0717578 0.0717578
0.0753958 0.0753958 0.0753958
0.0772776 0.0772776 0.0772776
0.0792024 0.0792024 0.0792024
0.0831840 0.0831840 0.0831840
0.0852423 0.0852423 0.0852423
0.0894832 0.0894832 0.0894832
0.0916364 0.0916364 0.0916364
0.0938360 0.0938360 0.0938360
0.0960829 0.0960829 0.0960829
0.1007212 0.1007212 0.1007212
0.1031142 0.1031142 0.1031142
0.1055574 0.1055574 0.1055574
0.1080514 0.1080514 0.1080514
0.1105972 0.1105972 0.1105972
0.1158790 0.1158790 0.1158790
0.1186178 0.1186178 0.1186178
0.1214125 0.1214125 0.1214125
0.1242638 0.1242638 0.1242638
0.1271724 0.1271724 0.1271724
0.1301389 0.1301389 0.1301389
0.1331641 0.1331641 0.1331641
0.1362486 0.1362486 0.1362486
0.0047389 0.0047389 0.0047389
0.0056023 0.0056023 0.0056023
0.0064411 0.0064411 0.0064411
0.0074073 0.0074073 0.0074073
0.0082823 0.0082823 0.0082823
0.0092537 0.0092537 0.0092537
0.0103379 0.0103379 0.0103379
0.0115304 0.0115304 0.0115304
0.0128396 0.0128396 0.0128396
0.0139167 0.0139167 0.0139167
0.0150566 0.0150566 0.0150566
0.0166895 0.0166895 0.0166895
0.0180273 0.0180273 0.0180273
0.0194602 0.0194602 0.0194602
0.0204680 0.0204680 0.0204680
0.0220763 0.0220763 0.0220763
0.0238078 0.0238078 0.0238078
0.0250392 0.0250392 0.0250392
0.0270098 0.0270098 0.0270098
0.0284066 0.0284066 0.0284066
0.0306339 0.0306339 0.0306339
0.0322279 0.0322279 0.0322279
0.0339354 0.0339354 0.0339354
0.0357300 0.0357300 0.0357300
0.0376159 0.0376159 0.0376159
0.0395973 0.0395973 0.0395973
0.0416686 0.0416686 0.0416686
0.0437918 0.0437918 0.0437918
0.0460180 0.0460180 0.0460180
0.0483516 0.0483516 0.0483516
0.0507973 0.0507973 0.0507973
0.0520636 0.0520636 0.0520636
0.0547020 0.0547020 0.0547020
0.0574824 0.0574824 0.0574824
0.0589219 0.0589219 0.0589219
0.0619029 0.0619029 0.0619029
0.0650242 0.0650242 0.0650242
0.0666393 0.0666393 0.0666393
0.0700002 0.0700002 0.0700002
0.0717578 0.0717578 0.0717578
0.0753958 0.0753958 0.0753958
0.0772776 0.0772776 0.0772776
0.0792024 0.0792024 0.0792024
0.0831840 0.0831840 0.0831840
0.0852423 0.0852423 0.0852423
0.0894832 0.0894832 0.0894832
0.0916364 0.0916364 0.0916364
0.0938360 0.0938360 0.0938360
0.0960829 0.0960829 0.0960829
0.1007212 0.1007212 0.1007212
0.1031142 0.1031142 0.1031142
0.1055574 0.1055574 0.1055574
0.1080514 0.1080514 0.1080514
0.1105972 0.1105972 0.1105972
0.1158790 0.1158790 0.1158790
0.1186178 0.1186178 0.1186178
0.1214125 0.1214125 0.1214125
0.1242638 0.1242638 0.1242638
0.1271724 0.1271724 0.1271724
0.1301389 0.1301389 0.1301389
0.1331641 0.1331641 0.1331641
0.1362486 0.1362486 0.1362486
0.1393929 0.1393929 0.1393929
0.1425980 0.1425980 0.1425980
0.0064411 0.0064411 0.0064411
0.0074073 0.0074073 0.0074073
0.0082823 0.0082823 0.0082823
0.0092537 0.0092537 0.0092537
0.0103379 0.0103379 0.0103379
0.0115304 0.0115304 0.0115304
0.0128396 0.0128396 0.0128396
0.0139167 0.0139167 0.0139167
0.0150566 0.0150566 0.0150566
0.0166895 0.0166895 0.0166895
0.0180273 0.0180273 0.0180273
0.0194602 0.0194602 0.0194602
0.0204680 0.0204680 0.0204680
0.0220763 0.0220763 0.0220763
0.0238078 0.0238078 0.0238078
0.0250392 0.0250392 0.0250392
0.0270098 0.0270098 0.0270098
0.0284066 0.0284066 0.0284066
0.0306339 0.0306339 0.0306339
0.0322279 0.0322279 0.0322279
0.0339354 0.0339354 0.0339354
0.0357300 0.0357300 0.0357300
0.0376159 0.0376159 0.0376159
0.0395973 0.0395973 0.0395973
0.0416686 0.0416686 0.0416686
0.0437918 0.0437918 0.0437918
0.0460180 0.0460180 0.0460180
0.0483516 0.0483516 0.0483516
0.0507973 0.0507973 0.0507973
0.0520636 0.0520636 0.0520636
0.0547020 0.0547020 0.0547020
0.0574824 0.0574824 0.0574824
0.0589219 0.0589219 0.0589219
0.0619029 0.0619029 0.0619029
0.0650242 0.0650242 0.0650242
0.0666393 0.0666393 0.0666393
0.0700002 0.0700002 0.0700002
0.0717578 0.0717578 0.0717578
0.0753958 0.0753958 0.0753958
0.0772776 0.0772776 0.0772776
0.0792024 0.0792024 0.0792024
0.0831840 0.0831840 0.0831840
0.0852423 0.0852423 0.0852423
0.0894832 0.0894832 0.0894832
0.0916364 0.0916364 0.0916364
0.0938360 0.0938360 0.0938360
0.0960829 0.0960829 0.0960829
0.1007212 0.1007212 0.1007212
0.1031142 0.1031142 0.1031142
0.1055574 0.1055574 0.1055574
0.1080514 0.1080514 0.1080514
0.1105972 0.1105972 0.1105972
0.1158790 0.1158790 0.1158790
0.1186178 0.1186178 0.1186178
0.1214125 0.1214125 0.1214125
0.1242638 0.1242638 0.1242638
0.1271724 0.1271724 0.1271724
0.1301389 0.1301389 0.1301389
0.1331641 0.1331641 0.1331641
0.1362486 0.1362486 0.1362486
0.1393929 0.1393929 0.1393929
0.1425980 0.1425980 0.1425980
0.1458545 0.1458545 0.1458545
0.1491676 0.1491676 0.1491676
0.0082823 0.0082823 0.0082823
0.0092537 0.0092537 0.0092537
0.0103379 0.0103379 0.0103379
0.0115304 0.0115304 0.0115304
0.0128396 0.0128396 0.0128396
0.0139167 0.0139167 0.0139167
0.0150566 0.0150566 0.0150566
0.0166895 0.0166895 0.0166895
0.0180273 0.0180273 0.0180273
0.0194602 0.0194602 0.0194602
0.0204680 0.0204680 0.0204680
0.0220763 0.0220763 0.0220763
0.0238078 0.0238078 0.0238078
0.0250392 0.0250392 0.0250392
0.0270098 0.0270098 0.0270098
0.0284066 0.0284066 0.0284066
0.0306339 0.0306339 0.0306339
0.0322279 0.0322279 0.0322279
0.0339354 0.0339354 0.0339354
0.0357300 0.0357300 0.0357300
0.0376159 0.0376159 0.0376159
0.0395973 0.0395973 0.0395973
0.0416686 0.0416686 0.0416686
0.0437918 0.0437918 0.0437918
0.0460180 0.0460180 0.0460180
0.0483516 0.0483516 0.0483516
0.0507973 0.0507973 0.0507973
0.0520636 0.0520636 0.0520636
0.0547020 0.0547020 0.0547020
0.0574824 0.0574824 0.0574824
0.0589219 0.0589219 0.0589219
0.0619029 0.0619029 0.0619029
0.0650242 0.0650242 0.0650242
0.0666393 0.0666393 0.0666393
0.0700002 0.0700002 0.0700002
0.0717578 0.0717578 0.0717578
0.0753958 0.0753958 0.0753958
0.0772776 0.0772776 0.0772776
0.0811709 0.0811709 0.0811709
0.0831840 0.0831840 0.0831840
0.0852423 0.0852423 0.0852423
0.0894832 0.0894832 0.0894832
0.0916364 0.0916364 0.0916364
0.0938360 0.0938360 0.0938360
0.0960829 0.0960829 0.0960829
0.1007212 0.1007212 0.1007212
0.1031142 0.1031142 0.1031142
0.1055574 0.1055574 0.1055574
0.1080514 0.1080514 0.1080514
0.1105972 0.1105972 0.1105972
0.1158790 0.1158790 0.1158790
0.1186178 0.1186178 0.1186178
0.1214125 0.1214125 0.1214125
0.1242638 0.1242638 0.1242638
0.1271724 0.1271724 0.1271724
0.1301389 0.1301389 0.1301389
0.1331641 0.1331641 0.1331641
0.1362486 0.1362486 0.1362486
0.1393929 0.1393929 0.1393929
0.1425980 0.1425980 0.1425980
0.1458545 0.1458545 0.1458545
0.1491676 0.1491676 0.1491676
0.1525424 0.1525424 0.1525424
0.1559796 0.1559796 0.1559796
0.0103379 0.0103379 0.0103379
0.0115304 0.0115304 0.0115304
0.0128396 0.0128396 0.0128396
0.0139167 0.0139167 0.0139167
0.0150566 0.0150566 0.0150566
0.0166895 0.0166895 0.0166895
0.0180273 0.0180273 0.0180273
0.0194602 0.0194602 0.0194602
0.0204680 0.0204680 0.0204680
0.0220763 0.0220763 0.0220763
0.0238078 0.0238078 0.0238078
0.0250392 0.0250392 0.0250392
0.0270098 0.0270098 0.0270098
0.0284066 0.0284066 0.0284066
0.0306339 0.0306339 0.0306339
0.0322279 0.0322279 0.0322279
0.0339354 0.0339354 0.0339354
0.0357300 0.0357300 0.0357300
0.0376159 0.0376159 0.0376159
0.0395973 0.0395973 0.0395973
0.0416686 0.0416686 0.0416686
0.0437918 0.0437918 0.0437918
0.0460180 0.0460180 0.0460180
0.0483516 0.0483516 0.0483516
0.0507973 0.0507973 0.0507973
0.0520636 0.0520636 0.0520636
0.0547020 0.0547020 0.0547020
0.0574824 0.0574824 0.0574824
0.0589219 0.0589219 0.0589219
0.0619029 0.0619029 0.0619029
0.0650242 0.0650242 0.0650242
0.0666393 0.0666393 0.0666393
0.0700002 0.0700002 0.0700002
0.0717578 0.0717578 0.0717578
0.0753958 0.0753958 0.0753958
0.0772776 0.0772776 0.0772776
0.0811709 0.0811709 0.0811709
0.0831840 0.0831840 0.0831840
0.0852423 0.0852423 0.0852423
0.0894832 0.0894832 0.0894832
0.0916364 0.0916364 0.0916364
0.0938360 0.0938360 0.0938360
0.0960829 0.0960829 0.0960829
0.1007212 0.1007212 0.1007212
0.1031142 0.1031142 0.1031142
0.1055574 0.1055574 0.1055574
0.1080514 0.1080514 0.1080514
0.1105972 0.1105972 0.1105972
0.1158790 0.1158790 0.1158790
0.1186178 0.1186178 0.1186178
0.1214125 0.1214125 0.1214125
0.1242638 0.1242638 0.1242638
0.1271724 0.1271724 0.1271724
0.1301389 0.1301389 0.1301389
0.1331641 0.1331641 0.1331641
0.1362486 0.1362486 0.1362486
0.1393929 0.1393929 0.1393929
0.1425980 0.1425980 0.1425980
0.1458545 0.1458545 0.1458545
0.1491676 0.1491676 0.1491676
0.1525424 0.1525424 0.1525424
0.1559796 0.1559796 0.1559796
0.1594797 0.1594797 0.1594797
0.1630432 0.1630432 0.1630432
0.0128396 0.0128396 0.0128396
0.0139167 0.0139167 0.0139167
0.0150566 0.0150566 0.0150566
0.0166895 0.0166895 0.0166895
0.0180273 0.0180273 0.0180273
0.0194602 0.0194602 0.0194602
0.0204680 0.0204680 0.0204680
0.0220763 0.0220763 0.0220763
0.0238078 0.0238078 0.0238078
0.0250392 0.0250392 0.0250392
0.0270098 0.0270098 0.0270098
0.0284066 0.0284066 0.0284066
0.0306339 0.0306339 0.0306339
0.0322279 0.0322279 0.0322279
0.0339354 0.0339354 0.0339354
0.0357300 0.0357300 0.0357300
0.0376159 0.0376159 0.0376159
0.0395973 0.0395973 0.0395973
0.0416686 0.0416686 0.0416686
0.0437918 0.0437918 0.0437918
0.0460180 0.0460180 0.0460180
0.0483516 0.0483516 0.0483516
0.0507973 0.0507973 0.0507973
0.0520636 0.0520636 0.0520636
0.0547020 0.0547020 0.0547020
0.0574824 0.0574824 0.0574824
0.0589219 0.0589219 0.0589219
0.0619029 0.0619029 0.0619029
0.0650242 0.0650242 0.0650242
0.0666393 0.0666393 0.0666393
0.0700002 0.0700002 0.0700002
0.0717578 0.0717578 0.0717578
0.0753958 0.0753958 0.0753958
0.0772776 0.0772776 0.0772776
0.0811709 0.0811709 0.0811709
0.0831840 0.0831840 0.0831840
0.0852423 0.0852423 0.0852423
0.0894832 0.0894832 0.0894832
0.0916364 0.0916364 0.0916364
0.0938360 0.0938360 0.0938360
0.0960829 0.0960829 0.0960829
0.1007212 0.1007212 0.1007212
0.1031142 0.1031142 0.1031142
0.1055574 0.1055574 0.1055574
0.1080514 0.1080514 0.1080514
0.1105972 0.1105972 0.1105972
0.1158790 0.1158790 0.1158790
0.1186178 0.1186178 0.1186178
0.1214125 0.1214125 0.1214125
0.1242638 0.1242638 0.1242638
0.1271724 0.1271724 0.1271724
0.1301389 0.1301389 0.1301389
0.1331641 0.1331641 0.1331641
0.1362486 0.1362486 0.1362486
0.1393929 0.1393929 0.1393929
0.1425980 0.1425980 0.1425980
0.1458545 0.1458545 0.1458545
0.1491676 0.1491676 0.1491676
0.1525424 0.1525424 0.1525424
0.1559796 0.1559796 0.1559796
0.1594797 0.1594797 0.1594797
0.1630432 0.1630432 0.1630432
0.1666704 0.1666704 0.1666704
0.1703620 0.1703620 0.1703620
0.0150566 0.0150566 0.0150566
0.0166895 0.0166895 0.0166895
0.0180273 0.0180273 0.0180273
0.0194602 0.0194602 0.0194602
0.0204680 0.0204680 0.0204680
0.0220763 0.0220763 0.0220763
0.0238078 0.0238078 0.0238078
0.0250392 0.0250392 0.0250392
0.0270098 0.0270098 0.0270098
0.0284066 0.0284066 0.0284066
0.0306339 0.0306339 0.0306339
0.0322279 0.0322279 0.0322279
0.0339354 0.0339354 0.0339354
0.0357300 0.0357300 0.0357300
0.0376159 0.0376159 0.0376159
0.0395973 0.0395973 0.0395973
0.0416686 0.0416686 0.0416686
0.0437918 0.0437918 0.0437918
0.0460180 0.0460180 0.0460180
0.0483516 0.0483516 0.0483516
0.0507973 0.0507973 0.0507973
0.0520636 0.0520636 0.0520636
0.0547020 0.0547020 0.0547020
0.0574824 0.0574824 0.0574824
0.0589219 0.0589219 0.0589219
0.0619029 0.0619029 0.0619029
0.0650242 0.0650242 0.0650242
0.0666393 0.0666393 0.0666393
0.0700002 0.0700002 0.0700002
0.0717578 0.0717578 0.0717578
