Plugins/FilmEmulator/Content/LUTs/FE_Kodak_Portra_160_64.cube
TITLE "FE_Kodak_Portra_160_33"
LUT_3D_SIZE 4
0.0018049 0.0028734 0.0016632
0.2136199 0.0055750 0.0047128
0.4862844 0.0145573 0.0142204
0.6763638 0.0261805 0.0252732
0.0207669 0.2413614 0.0077110
0.2697489 0.2531401 0.0181930
0.5235044 0.2666731 0.0306295
0.7003922 0.2811625 0.0440387
0.0655199 0.4775191 0.0223255
0.3346699 0.4852613 0.0360386
0.5689734 0.4939146 0.0497524
0.7185875 0.5029134 0.0659023
0.1261736 0.6349533 0.0406176
0.3981215 0.6429446 0.0558905
0.6157836 0.6419036 0.0713044
0.7468655 0.6504754 0.0877296
0.0080084 0.0352838 0.3201142
0.2413579 0.0486433 0.3392792
0.5065882 0.0624916 0.3591269
0.6847199 0.0772828 0.3794060
0.0415097 0.2924895 0.3482354
0.3078154 0.3080961 0.3673052
0.5482397 0.3247636 0.3772156
0.7110155 0.3419002 0.3972354
0.0958681 0.5078728 0.3710403
0.3674303 0.5172483 0.3807070
0.5941454 0.5268111 0.4005926
0.7391230 0.5364535 0.4213140
0.1602168 0.6556061 0.3832884
0.4331962 0.6641518 0.4031442
0.6400071 0.6637613 0.4132048
0.7567727 0.6724891 0.4343589
0.0241434 0.0950137 0.6085446
0.2834693 0.1086587 0.6195683
0.5287398 0.1243002 0.6308643
0.7044396 0.1419156 0.6421155
0.0692253 0.3586638 0.6264693
0.3482682 0.3670056 0.6370242
0.5720502 0.3852066 0.6478416
0.7311810 0.3943269 0.6583862
0.1273493 0.5551624 0.6404436
0.4007786 0.5544496 0.6507850
0.6181976 0.5640453 0.6612635
0.7487358 0.5736988 0.6716343
0.1934388 0.6800352 0.6531291
0.4695271 0.6794857 0.6633413
0.6516387 0.6880326 0.6736602
0.7750798 0.6965821 0.6737301
0.0479006 0.1564698 0.7664850
0.3208012 0.1718863 0.7746322
0.5638393 0.1888900 0.7748918
0.7137285 0.2071844 0.7830325
0.1006382 0.4130509 0.7787346
0.3804283 0.4221427 0.7786515
0.5961871 0.4314907 0.7864259
0.7407503 0.4409737 0.7940273
0.1674418 0.5830710 0.7808173
0.4349743 0.5923727 0.7884814
0.6415364 0.6019474 0.7885095
0.7672340 0.6114060 0.7960639
0.2317834 0.6958640 0.7899526
0.4939096 0.7041142 0.7899400
0.6741871 0.7122635 0.7974407
0.7838721 0.7119841 0.8046461
