Plugins/FilmEmulator/Content/LUTs/FE_Kodak_Vision2_50D_5201_64.cube
# FilmEmulator LUT (resampled to 64)
LUT_3D_SIZE 64
0.001190 0.003326 0.007111
0.001717 0.003807 0.011544
0.002370 0.004276 0.015774
0.006928 0.004416 0.013697
0.011823 0.004533 0.011581
0.021790 0.004317 0.008900
0.032042 0.004107 0.006284
0.045047 0.003967 0.004299
0.058049 0.003791 0.002416
0.071023 0.003357 0.001238
0.083762 0.002981 0.000225
0.095233 0.002919 0.000101
0.106980 0.002936 0.000000
0.119923 0.003292 0.000000
0.132754 0.003639 0.000000
0.145186 0.003949 0.000000
0.157618 0.004185 0.000000
0.170050 0.004200 0.000000
0.182151 0.004298 0.000000
0.193404 0.004609 0.000000
0.204290 0.004778 0.000000
0.214366 0.004639 0.000000
0.224479 0.004472 0.000000
0.234663 0.004256 0.000000
0.244678 0.004114 0.000000
0.254413 0.004098 0.000000
0.263971 0.004328 0.000000
0.273272 0.004918 0.000000
0.282314 0.005371 0.000000
0.291026 0.005650 0.000000
0.299592 0.005900 0.000000
0.307994 0.006117 0.000000
0.315799 0.006117 0.000000
0.323006 0.005900 0.000000
0.330494 0.005814 0.000000
0.338230 0.005845 0.000000
0.345782 0.005824 0.000000
0.353191 0.005762 0.000000
0.360278 0.005765 0.000000
0.367145 0.005811 0.000000
0.373809 0.005645 0.000000
0.380350 0.005350 0.000000
0.387044 0.005483 0.000000
0.393818 0.005840 0.000000
0.400901 0.006111 0.000000
0.408124 0.006344 0.000000
0.415460 0.006576 0.000000
0.422838 0.006808 0.000000
0.430286 0.007006 0.000000
0.437758 0.007192 0.000000
0.445290 0.007584 0.000000
0.452839 0.008034 0.000000
0.460186 0.008345 0.000000
0.467487 0.008623 0.000000
0.474814 0.008759 0.000000
0.482146 0.008867 0.000000
0.489329 0.009111 0.000000
0.496491 0.009374 0.000000
0.503048 0.010172 0.000000
0.509543 0.011025 0.000000
0.515805 0.012052 0.000000
0.522052 0.013091 0.000000
0.528044 0.014114 0.000000
0.534027 0.015137 0.000000
0.002260 0.007186 0.013017
0.002818 0.008218 0.016167
0.003504 0.009236 0.019171
0.008116 0.009824 0.017685
0.013079 0.010371 0.016082
0.023298 0.010304 0.012739
0.033824 0.010187 0.009408
0.047317 0.009591 0.006187
0.060765 0.008988 0.003192
0.073888 0.008342 0.001778
0.086695 0.007810 0.000545
0.097788 0.007897 0.000287
0.109191 0.008046 0.000072
0.121937 0.008457 0.000040
0.134720 0.008900 0.000014
0.147632 0.009454 0.000006
0.160678 0.009779 0.000000
0.174126 0.009417 0.000000
0.187324 0.009232 0.000000
0.199884 0.009503 0.000000
0.211878 0.009537 0.000000
0.222623 0.009051 0.000000
0.233334 0.008679 0.000000
0.243983 0.008526 0.000000
0.254395 0.008421 0.000000
0.264413 0.008397 0.000000
0.274325 0.008405 0.000000
0.284082 0.008458 0.000000
0.293410 0.008483 0.000000
0.302184 0.008471 0.000000
0.310744 0.008437 0.000000
0.319059 0.008378 0.000000
0.327025 0.008351 0.000000
0.334642 0.008354 0.000000
0.342414 0.008423 0.000000
0.350322 0.008548 0.000000
0.357870 0.008519 0.000000
0.365138 0.008371 0.000000
0.372060 0.007969 0.000000
0.378746 0.007393 0.000000
0.385529 0.007057 0.000000
0.392369 0.006865 0.000000
0.399466 0.006987 0.000000
0.406696 0.007272 0.000000
0.414084 0.007586 0.000000
0.421544 0.007913 0.000000
0.429059 0.008331 0.000000
0.436595 0.008784 0.000000
0.444094 0.009054 0.000000
0.451581 0.009264 0.000000
0.459031 0.009495 0.000000
0.466469 0.009732 0.000000
0.473822 0.009843 0.000000
0.481154 0.009925 0.000000
0.488254 0.010216 0.000000
0.495310 0.010545 0.000000
0.502135 0.011064 0.000000
0.508926 0.011611 0.000000
0.515071 0.012678 0.000000
0.521148 0.013798 0.000000
0.526941 0.014967 0.000000
0.532716 0.016140 0.000000
0.538342 0.017297 0.000000
0.543963 0.018454 0.000000
0.003361 0.011142 0.018934
0.003954 0.012720 0.020836
0.004674 0.014282 0.022650
0.009332 0.015320 0.021749
0.014354 0.016299 0.020653
0.024828 0.016379 0.016627
0.035627 0.016354 0.012560
0.049578 0.015312 0.008103
0.063443 0.014295 0.003996
0.076713 0.013454 0.002343
0.089588 0.012781 0.000887
0.100336 0.013012 0.000489
0.111424 0.013285 0.000153
0.123987 0.013738 0.000086
0.136730 0.014261 0.000030
0.150121 0.015027 0.000013
0.163777 0.015419 0.000000
0.178230 0.014690 0.000000
0.192514 0.014230 0.000000
0.206368 0.014460 0.000000
0.219457 0.014360 0.000000
0.230863 0.013533 0.000000
0.242167 0.012954 0.000000
0.253276 0.012850 0.000000
0.264087 0.012767 0.000000
0.274398 0.012723 0.000000
0.284667 0.012505 0.000000
0.294875 0.012035 0.000000
0.304489 0.011637 0.000000
0.313338 0.011332 0.000000
0.321902 0.011017 0.000000
0.330140 0.010689 0.000000
0.338271 0.010633 0.000000
0.346294 0.010850 0.000000
0.354340 0.011060 0.000000
0.362406 0.011266 0.000000
0.369948 0.011217 0.000000
0.377084 0.010972 0.000000
0.383858 0.010175 0.000000
0.390386 0.009002 0.000000
0.397299 0.008508 0.000000
0.404444 0.008421 0.000000
0.411930 0.008533 0.000000
0.419596 0.008748 0.000000
0.427280 0.009106 0.000000
0.434974 0.009529 0.000000
0.442661 0.010118 0.000000
0.450346 0.010773 0.000000
0.457892 0.011104 0.000000
0.465391 0.011327 0.000000
0.472760 0.011398 0.000000
0.480092 0.011428 0.000000
0.487433 0.011358 0.000000
0.494776 0.011266 0.000000
0.501639 0.011718 0.000000
0.508414 0.012272 0.000000
0.514878 0.013066 0.000000
0.521297 0.013895 0.000000
0.527033 0.015222 0.000000
0.532698 0.016599 0.000000
0.538034 0.017905 0.000000
0.543348 0.019205 0.000000
0.548620 0.020491 0.000000
0.553891 0.021776 0.000000
0.005454 0.018071 0.025212
0.006157 0.020059 0.026964
0.006976 0.022032 0.028647
0.011415 0.023559 0.028179
0.016250 0.025001 0.027404
0.027038 0.025184 0.022015
0.038076 0.025239 0.016596
0.051531 0.024063 0.010879
0.064965 0.022977 0.005631
0.078258 0.022522 0.003663
0.091261 0.022167 0.001889
0.102694 0.022351 0.001160
0.114374 0.022519 0.000525
0.127125 0.022618 0.000292
0.140114 0.022693 0.000100
0.153954 0.022680 0.000052
0.168116 0.022478 0.000014
0.183246 0.021709 0.000006
0.198256 0.021201 0.000000
0.212960 0.021360 0.000000
0.226766 0.021155 0.000000
0.238598 0.020147 0.000000
0.250295 0.019322 0.000000
0.261735 0.018847 0.000000
0.272982 0.018368 0.000000
0.283908 0.017882 0.000000
0.294644 0.017342 0.000000
0.305104 0.016723 0.000000
0.315055 0.016093 0.000000
0.324354 0.015450 0.000000
0.333270 0.014925 0.000000
0.341753 0.014534 0.000000
0.350151 0.014431 0.000000
0.358465 0.014616 0.000000
0.366476 0.014615 0.000000
0.374219 0.014450 0.000000
0.381709 0.014010 0.000000
0.389002 0.013355 0.000000
0.396163 0.012472 0.000000
0.403234 0.011432 0.000000
0.410636 0.011121 0.000000
0.418237 0.011247 0.000000
0.425721 0.011401 0.000000
0.433142 0.011569 0.000000
0.440859 0.011999 0.000000
0.448710 0.012547 0.000000
0.456362 0.012906 0.000000
0.463937 0.013191 0.000000
0.471378 0.013193 0.000000
0.478775 0.013101 0.000000
0.486122 0.013067 0.000000
0.493454 0.013049 0.000000
0.500289 0.013399 0.000000
0.507011 0.013835 0.000000
0.513372 0.014642 0.000000
0.519666 0.015517 0.000000
0.525684 0.016573 0.000000
0.531662 0.017654 0.000000
0.537121 0.018947 0.000000
0.542526 0.020261 0.000000
0.547757 0.021511 0.000000
0.552977 0.022756 0.000000
0.558261 0.024018 0.000000
0.563548 0.025280 0.000000
0.007618 0.025117 0.031642
0.008435 0.027482 0.033192
0.009358 0.029835 0.034690
0.013596 0.031830 0.034571
0.018262 0.033721 0.034044
0.029346 0.034063 0.027386
0.040604 0.034248 0.020699
0.053535 0.032922 0.013744
0.066511 0.031750 0.007372
0.079803 0.031659 0.005078
0.092913 0.031603 0.002975
0.105046 0.031738 0.001902
0.117334 0.031802 0.000952
0.130296 0.031551 0.000537
0.143547 0.031187 0.000192
0.157825 0.030419 0.000103
0.172476 0.029641 0.000031
0.188250 0.028831 0.000014
0.203954 0.028282 0.000001
0.219478 0.028395 0.000000
0.233984 0.028105 0.000000
0.246249 0.026925 0.000000
0.258342 0.025860 0.000000
0.270107 0.025014 0.000000
0.281778 0.024145 0.000000
0.293293 0.023240 0.000000
0.304482 0.022388 0.000000
0.315196 0.021616 0.000000
0.325483 0.020756 0.000000
0.335222 0.019783 0.000000
0.344488 0.019048 0.000000
0.353220 0.018580 0.000000
0.361884 0.018409 0.000000
0.370481 0.018533 0.000000
0.378488 0.018303 0.000000
0.385974 0.017760 0.000000
0.393473 0.016933 0.000000
0.400983 0.015887 0.000000
0.408549 0.014918 0.000000
0.416154 0.014002 0.000000
0.423997 0.013852 0.000000
0.431985 0.014162 0.000000
0.439455 0.014346 0.000000
0.446654 0.014464 0.000000
0.454401 0.014958 0.000000
0.462397 0.015623 0.000000
0.470009 0.015756 0.000000
0.477470 0.015682 0.000000
0.484798 0.015377 0.000000
0.492081 0.014996 0.000000
0.499366 0.014876 0.000000
0.506651 0.014829 0.000000
0.512996 0.015580 0.000000
0.519124 0.016514 0.000000
0.525001 0.017655 0.000000
0.530831 0.018835 0.000000
0.536417 0.020135 0.000000
0.541968 0.021453 0.000000
0.547169 0.022718 0.000000
0.552334 0.023977 0.000000
0.557486 0.025186 0.000000
0.562638 0.026392 0.000000
0.567952 0.027643 0.000000
0.573272 0.028895 0.000000
0.010858 0.033922 0.040370
0.011840 0.036176 0.040920
0.012927 0.038428 0.041420
0.017267 0.040596 0.040396
0.022030 0.042712 0.039026
0.033130 0.044054 0.032478
0.044313 0.045109 0.025807
0.056299 0.043397 0.017938
0.068402 0.041891 0.010706
0.081324 0.041823 0.007924
0.094264 0.041778 0.005323
0.107301 0.041859 0.003699
0.120431 0.041821 0.002217
0.133961 0.041271 0.001353
0.147713 0.040591 0.000615
0.162259 0.039445 0.000328
0.177148 0.038370 0.000101
0.193072 0.037505 0.000052
0.208987 0.037009 0.000014
0.224881 0.037453 0.000006
0.239816 0.037380 0.000000
0.252640 0.036169 0.000000
0.265182 0.034950 0.000000
0.277182 0.033719 0.000000
0.289081 0.032571 0.000000
0.300808 0.031563 0.000000
0.312242 0.030564 0.000000
0.323248 0.029579 0.000000
0.333833 0.028520 0.000000
0.343878 0.027367 0.000000
0.353459 0.026398 0.000000
0.362514 0.025639 0.000000
0.371419 0.025082 0.000000
0.380173 0.024726 0.000000
0.388639 0.023999 0.000000
0.396849 0.022944 0.000000
0.405285 0.021823 0.000000
0.413896 0.020651 0.000000
0.422149 0.019616 0.000000
0.430156 0.018676 0.000000
0.437727 0.018360 0.000000
0.445037 0.018418 0.000000
0.452341 0.018454 0.000000
0.459643 0.018477 0.000000
0.467395 0.018926 0.000000
0.475351 0.019567 0.000000
0.482839 0.019546 0.000000
0.490143 0.019267 0.000000
0.497219 0.018988 0.000000
0.504219 0.018709 0.000000
0.510851 0.018803 0.000000
0.517379 0.019000 0.000000
0.523448 0.019854 0.000000
0.529411 0.020859 0.000000
0.535083 0.022031 0.000000
0.540701 0.023234 0.000000
0.546060 0.024537 0.000000
0.551382 0.025855 0.000000
0.556612 0.027177 0.000000
0.561833 0.028499 0.000000
0.567298 0.029897 0.000000
0.572780 0.031300 0.000000
0.578395 0.032748 0.000000
0.584015 0.034197 0.000000
0.014335 0.042952 0.048894
0.015499 0.045121 0.048455
0.016768 0.047295 0.047969
0.021242 0.049602 0.046005
0.026130 0.051904 0.043759
0.037220 0.054137 0.037298
0.048307 0.055972 0.030636
0.059362 0.053956 0.022036
0.070599 0.052183 0.014107
0.083099 0.052116 0.010873
0.095804 0.052063 0.007810
0.109618 0.052094 0.005665
0.123481 0.051966 0.003673
0.137557 0.051155 0.002344
0.151801 0.050199 0.001189
0.166645 0.048731 0.000656
0.181799 0.047399 0.000230
0.197885 0.046475 0.000127
0.214011 0.046015 0.000046
0.230241 0.046740 0.000022
0.245572 0.046852 0.000005
0.258924 0.045618 0.000002
0.271900 0.044256 0.000000
0.284157 0.042654 0.000000
0.296302 0.041243 0.000000
0.308261 0.040153 0.000000
0.319955 0.039015 0.000000
0.331262 0.037807 0.000000
0.342149 0.036535 0.000000
0.352497 0.035182 0.000000
0.362396 0.033980 0.000000
0.371788 0.032949 0.000000
0.380957 0.032024 0.000000
0.389903 0.031206 0.000000
0.398837 0.029998 0.000000
0.407760 0.028446 0.000000
0.417069 0.027013 0.000000
0.426677 0.025674 0.000000
0.435540 0.024558 0.000000
0.443891 0.023595 0.000000
0.451230 0.023121 0.000000
0.457961 0.022940 0.000000
0.465129 0.022805 0.000000
0.472526 0.022694 0.000000
0.480283 0.023064 0.000000
0.488204 0.023652 0.000000
0.495561 0.023487 0.000000
0.502698 0.023027 0.000000
0.509511 0.022785 0.000000
0.516216 0.022617 0.000000
0.522240 0.022917 0.000000
0.528074 0.023347 0.000000
0.533882 0.024304 0.000000
0.539684 0.025382 0.000000
0.545157 0.026589 0.000000
0.550569 0.027820 0.000000
0.555725 0.029117 0.000000
0.560844 0.030424 0.000000
0.566121 0.031802 0.000000
0.571414 0.033187 0.000000
0.577181 0.034760 0.000000
0.582979 0.036345 0.000000
0.588855 0.037970 0.000000
0.594734 0.039597 0.000000
0.020101 0.054159 0.055451
0.021620 0.056486 0.054138
0.023246 0.058806 0.052765
0.028161 0.060924 0.049526
0.033446 0.063040 0.046076
0.044276 0.065115 0.039472
0.055054 0.066853 0.032777
0.065322 0.065325 0.025201
0.075753 0.063951 0.018156
0.087324 0.063655 0.014828
0.099173 0.063409 0.011649
0.112522 0.063431 0.009276
0.126072 0.063318 0.006982
0.140486 0.062617 0.005031
0.155125 0.061793 0.003231
0.170567 0.060529 0.001974
0.186241 0.059326 0.000936
0.202610 0.058308 0.000557
0.218943 0.057723 0.000254
0.235181 0.058243 0.000144
0.250588 0.058232 0.000057
0.264169 0.057052 0.000023
0.277449 0.055649 0.000000
0.290155 0.053818 0.000000
0.302734 0.052306 0.000000
0.315102 0.051326 0.000000
0.327202 0.050122 0.000000
0.338910 0.048591 0.000000
0.350137 0.046972 0.000000
0.360745 0.045241 0.000000
0.371004 0.043798 0.000000
0.380868 0.042680 0.000000
0.390533 0.041567 0.000000
0.399999 0.040457 0.000000
0.409499 0.038925 0.000000
0.419028 0.037018 0.000000
0.428589 0.035112 0.000000
0.438174 0.033205 0.000000
0.446904 0.031849 0.000000
0.455051 0.030871 0.000000
0.462544 0.030322 0.000000
0.469645 0.030031 0.000000
0.476961 0.029512 0.000000
0.484390 0.028873 0.000000
0.492157 0.028851 0.000000
0.500078 0.029109 0.000000
0.507243 0.028885 0.000000
0.514111 0.028471 0.000000
0.520556 0.028383 0.000000
0.526860 0.028404 0.000000
0.532710 0.028843 0.000000
0.538433 0.029400 0.000000
0.544131 0.030457 0.000000
0.549824 0.031629 0.000000
0.555160 0.032911 0.000000
0.560430 0.034213 0.000000
0.565603 0.035416 0.000000
0.570761 0.036604 0.000000
0.576263 0.038028 0.000000
0.581801 0.039477 0.000000
0.587745 0.041090 0.000000
0.593716 0.042715 0.000000
0.599475 0.044334 0.000000
0.605228 0.045953 0.000000
0.026012 0.065453 0.061403
0.027865 0.067925 0.059331
0.029827 0.070382 0.057187
0.035149 0.072360 0.052827
0.040793 0.074337 0.048326
0.051261 0.076298 0.041698
0.061653 0.077981 0.035074
0.071298 0.076974 0.028497
0.081074 0.076031 0.022317
0.091767 0.075539 0.018923
0.102792 0.075126 0.015660
0.115609 0.075133 0.013100
0.128768 0.075028 0.010542
0.143413 0.074439 0.007995
0.158347 0.073741 0.005572
0.174313 0.072659 0.003589
0.190457 0.071569 0.001919
0.207133 0.070456 0.001188
0.223707 0.069733 0.000597
0.240021 0.070008 0.000362
0.255558 0.069833 0.000173
0.269385 0.068668 0.000080
0.282958 0.067214 0.000016
0.296045 0.065208 0.000006
0.309014 0.063628 0.000000
0.321785 0.062759 0.000000
0.334297 0.061491 0.000000
0.346428 0.059638 0.000000
0.358015 0.057676 0.000000
0.368900 0.055574 0.000000
0.379528 0.053879 0.000000
0.389863 0.052645 0.000000
0.400028 0.051336 0.000000
0.410024 0.049953 0.000000
0.420086 0.048131 0.000000
0.430208 0.045924 0.000000
0.440020 0.043624 0.000000
0.449593 0.041254 0.000000
0.458223 0.039699 0.000000
0.466207 0.038702 0.000000
0.473860 0.038074 0.000000
0.481315 0.037668 0.000000
0.488764 0.036748 0.000000
0.496210 0.035559 0.000000
0.503948 0.035123 0.000000
0.511818 0.035029 0.000000
0.518770 0.034733 0.000000
0.525363 0.034358 0.000000
0.531482 0.034409 0.000000
0.537443 0.034603 0.000000
0.543160 0.035171 0.000000
0.548809 0.035844 0.000000
0.554419 0.036973 0.000000
0.560020 0.038207 0.000000
0.565248 0.039530 0.000000
0.570408 0.040869 0.000000
0.575611 0.041973 0.000000
0.580821 0.043044 0.000000
0.586541 0.044507 0.000000
0.592313 0.046011 0.000000
0.598364 0.047643 0.000000
0.604434 0.049283 0.000000
0.610038 0.050851 0.000005
0.615627 0.052417 0.000010
0.032941 0.077358 0.063123
0.034983 0.079893 0.061090
0.037133 0.082418 0.058984
0.042620 0.084592 0.054593
0.048352 0.086765 0.050112
0.057750 0.088915 0.044279
0.067221 0.090840 0.038454
0.077393 0.090580 0.032703
0.087566 0.090296 0.027263
0.097739 0.089836 0.024004
0.108167 0.089438 0.020869
0.119968 0.089383 0.018411
0.132205 0.089249 0.015860
0.146330 0.088778 0.012903
0.160859 0.088178 0.010000
0.176825 0.087119 0.007285
0.193086 0.086022 0.004844
0.210235 0.084806 0.003223
0.227304 0.083861 0.001883
0.244169 0.083608 0.001263
0.260200 0.082987 0.000732
0.274397 0.081554 0.000395
0.288182 0.079992 0.000144
0.301183 0.078183 0.000055
0.314234 0.076771 0.000000
0.327368 0.076020 0.000000
0.340328 0.074694 0.000000
0.353034 0.072526 0.000000
0.365119 0.070246 0.000000
0.376406 0.067821 0.000000
0.387465 0.065803 0.000000
0.398265 0.064246 0.000000
0.408962 0.062697 0.000000
0.419555 0.061156 0.000000
0.430157 0.059298 0.000000
0.440767 0.057162 0.000000
0.450833 0.055040 0.000000
0.460477 0.052929 0.000000
0.469215 0.051456 0.000000
0.477333 0.050420 0.000000
0.485184 0.049684 0.000000
0.492875 0.049128 0.000000
0.500353 0.047692 0.000000
0.507720 0.045794 0.000000
0.515158 0.044790 0.000000
0.522627 0.044192 0.000000
0.529223 0.043738 0.000000
0.535476 0.043339 0.000000
0.541564 0.043432 0.000000
0.547596 0.043688 0.000000
0.553470 0.044307 0.000000
0.559301 0.045027 0.000000
0.564977 0.046031 0.000000
0.570617 0.047100 0.000000
0.575938 0.048224 0.000000
0.581199 0.049358 0.000000
0.586532 0.050341 0.000000
0.591876 0.051302 0.000000
0.597765 0.052754 0.000000
0.603711 0.054258 0.000000
0.609374 0.055749 0.000000
0.615019 0.057239 0.000000
0.620198 0.058444 0.000043
0.625361 0.059640 0.000087
0.039791 0.089211 0.064224
0.042009 0.091945 0.062485
0.044334 0.094671 0.060669
0.049987 0.097138 0.056460
0.055809 0.099594 0.052198
0.064162 0.101879 0.047131
0.072722 0.103994 0.042076
0.083277 0.104463 0.037129
0.093742 0.104829 0.032409
0.103579 0.104474 0.029271
0.113594 0.104155 0.026247
0.124572 0.104029 0.023843
0.136043 0.103854 0.021265
0.149647 0.103467 0.017940
0.163734 0.102931 0.014605
0.179546 0.101861 0.011237
0.195770 0.100721 0.008100
0.213231 0.099376 0.005658
0.230682 0.098191 0.003599
0.248106 0.097415 0.002517
0.264649 0.096347 0.001568
0.279255 0.094641 0.000914
0.293320 0.092968 0.000412
0.306356 0.091358 0.000202
0.319554 0.090117 0.000062
0.333023 0.089493 0.000041
0.346369 0.088150 0.000024
0.359534 0.085757 0.000010
0.372051 0.083202 0.000002
0.383737 0.080436 0.000001
0.395241 0.078088 0.000000
0.406539 0.076213 0.000000
0.417762 0.074419 0.000000
0.428911 0.072705 0.000000
0.440027 0.070801 0.000000
0.451113 0.068729 0.000000
0.461465 0.066776 0.000000
0.471244 0.064914 0.000000
0.480133 0.063494 0.000000
0.488410 0.062377 0.000000
0.496439 0.061492 0.000000
0.504318 0.060747 0.000000
0.511834 0.058885 0.000000
0.519159 0.056437 0.000000
0.526331 0.054944 0.000000
0.533433 0.053884 0.000000
0.539725 0.053240 0.000000
0.545699 0.052759 0.000000
0.551791 0.052906 0.000000
0.557922 0.053262 0.000000
0.563953 0.053961 0.000000
0.569956 0.054756 0.000000
0.575706 0.055672 0.000001
0.581398 0.056614 0.000002
0.586810 0.057552 0.000005
0.592170 0.058488 0.000007
0.597594 0.059334 0.000014
0.603027 0.060166 0.000021
0.609006 0.061561 0.000031
0.615041 0.063014 0.000041
0.620338 0.064369 0.000054
0.625586 0.065719 0.000067
0.630359 0.066587 0.000165
0.635118 0.067440 0.000264
0.046208 0.100791 0.061976
0.048537 0.104454 0.061907
0.050974 0.108104 0.061749
0.056792 0.111383 0.058879
0.062712 0.114589 0.055910
0.070160 0.116717 0.051449
0.077861 0.118748 0.047007
0.088015 0.119839 0.042746
0.098211 0.120812 0.038631
0.108701 0.120961 0.035549
0.119302 0.121049 0.032539
0.130501 0.120813 0.029921
0.142050 0.120531 0.027143
0.155118 0.120050 0.023668
0.168572 0.119395 0.020167
0.183400 0.118120 0.016570
0.198748 0.116758 0.013150
0.215658 0.115137 0.010259
0.232881 0.113612 0.007632
0.250903 0.112332 0.005676
0.268052 0.110823 0.003902
0.283280 0.108809 0.002531
0.297989 0.107007 0.001437
0.311709 0.105610 0.000873
0.325409 0.104565 0.000462
0.339076 0.104105 0.000307
0.352468 0.102969 0.000174
0.365459 0.100844 0.000074
0.378048 0.098246 0.000014
0.390120 0.095039 0.000005
0.402146 0.092321 0.000000
0.414121 0.090155 0.000000
0.425844 0.088089 0.000000
0.437316 0.086123 0.000000
0.448805 0.084118 0.000000
0.460309 0.082077 0.000000
0.471117 0.080244 0.000000
0.481386 0.078571 0.000000
0.490650 0.077046 0.000000
0.499226 0.075621 0.000000
0.507323 0.074370 0.000000
0.515131 0.073224 0.000000
0.522726 0.071425 0.000000
0.530209 0.069285 0.000000
0.537305 0.067724 0.000000
0.544226 0.066428 0.000000
0.550495 0.065429 0.000000
0.556509 0.064546 0.000000
0.562799 0.064818 0.000000
0.569183 0.065474 0.000000
0.575367 0.066417 0.000000
0.581496 0.067440 0.000000
0.587366 0.068462 0.000008
0.593176 0.069483 0.000017
0.598673 0.070300 0.000034
0.604112 0.071079 0.000052
0.609414 0.071705 0.000102
0.614698 0.072309 0.000156
0.620334 0.073390 0.000227
0.626007 0.074520 0.000300
0.631053 0.075767 0.000398
0.636056 0.077022 0.000498
0.640533 0.077697 0.000735
0.644992 0.078353 0.000977
0.052602 0.113033 0.060574
0.055016 0.117617 0.062057
0.057538 0.122181 0.063442
0.063420 0.126093 0.061781
0.069352 0.129883 0.059982
0.076049 0.131846 0.056131
0.083032 0.133776 0.052294
0.092774 0.135383 0.048609
0.102690 0.136867 0.044997
0.113822 0.137498 0.041904
0.125023 0.137987 0.038847
0.136602 0.137711 0.035980
0.148398 0.137390 0.032972
0.161134 0.136869 0.029352
0.174128 0.136154 0.025705
0.188038 0.134748 0.021958
0.202513 0.133223 0.018332
0.218685 0.131341 0.015073
0.235465 0.129476 0.011952
0.253804 0.127654 0.009186
0.271350 0.125684 0.006636
0.287155 0.123392 0.004565
0.302475 0.121448 0.002873
0.316873 0.120170 0.001905
0.331083 0.119265 0.001171
0.344982 0.118979 0.000827
0.358459 0.118046 0.000527
0.371320 0.116166 0.000295
0.383995 0.113551 0.000134
0.396433 0.109991 0.000066
0.408930 0.106945 0.000022
0.421496 0.104481 0.000007
0.433678 0.102157 0.000000
0.445476 0.099975 0.000000
0.457325 0.097887 0.000000
0.469219 0.095880 0.000000
0.480506 0.094112 0.000000
0.491320 0.092527 0.000000
0.500998 0.090865 0.000000
0.509897 0.089150 0.000000
0.518095 0.087596 0.000000
0.525872 0.086140 0.000000
0.533576 0.084472 0.000000
0.541242 0.082693 0.000000
0.548299 0.081104 0.000000
0.555081 0.079601 0.000000
0.561356 0.078284 0.000000
0.567434 0.077040 0.000000
0.573889 0.077414 0.000000
0.580470 0.078328 0.000000
0.586765 0.079452 0.000001
0.592980 0.080636 0.000003
0.598958 0.081721 0.000023
0.604882 0.082783 0.000047
0.610474 0.083479 0.000089
0.616005 0.084107 0.000133
0.621210 0.084539 0.000243
0.626369 0.084943 0.000363
0.631643 0.085738 0.000528
0.636929 0.086574 0.000697
0.641706 0.087720 0.000920
0.646449 0.088886 0.001146
0.650671 0.089400 0.001559
0.654875 0.089893 0.001977
0.058895 0.128146 0.062838
0.061285 0.133621 0.065368
0.063773 0.139042 0.067787
0.069277 0.142820 0.066771
0.074850 0.146473 0.065617
0.081468 0.148239 0.062387
0.088337 0.149995 0.059124
0.097622 0.151657 0.055541
0.107212 0.153238 0.051983
0.118934 0.154254 0.048599
0.130802 0.155111 0.045231
0.143451 0.155103 0.041955
0.156221 0.155036 0.038591
0.169508 0.154712 0.034845
0.182795 0.154192 0.031140
0.196075 0.152975 0.027582
0.209690 0.151542 0.024093
0.224310 0.149464 0.020810
0.239721 0.147258 0.017522
0.257154 0.144727 0.014219
0.274197 0.142221 0.011105
0.290379 0.139771 0.008404
0.306169 0.137626 0.006088
0.321212 0.136065 0.004506
0.335971 0.135062 0.003226
0.350256 0.134989 0.002448
0.363985 0.134239 0.001757
0.376901 0.132501 0.001194
0.389728 0.129980 0.000723
0.402440 0.126452 0.000371
0.415187 0.123268 0.000140
0.427974 0.120472 0.000047
0.440435 0.117952 0.000000
0.452572 0.115707 0.000000
0.464726 0.113614 0.000000
0.476896 0.111655 0.000000
0.488750 0.109712 0.000000
0.500360 0.107782 0.000000
0.510612 0.105848 0.000000
0.519937 0.103912 0.000000
0.528384 0.102330 0.000000
0.536302 0.100960 0.000000
0.544246 0.099715 0.000000
0.552203 0.098534 0.000000
0.559379 0.097078 0.000000
0.566199 0.095496 0.000000
0.572611 0.094021 0.000000
0.578862 0.092588 0.000000
0.585330 0.092974 0.000000
0.591871 0.093967 0.000000
0.598090 0.095004 0.000007
0.604219 0.096054 0.000017
0.610258 0.097011 0.000077
0.616276 0.097946 0.000148
