Plugins/FilmEmulator/Content/LUTs/FE_Kodak_16mm_Variant_64.cube
# FilmEmulator LUT (resampled to 64)
LUT_3D_SIZE 8
0.000000 0.000000 0.000031
0.110827 0.007930 0.013925
0.281852 0.002385 0.022147
0.442801 0.000235 0.039612
0.581290 0.000000 0.053423
0.696585 0.000000 0.074241
0.801811 0.000000 0.096763
0.839447 0.000000 0.105927
0.040052 0.090009 0.034646
0.108328 0.076051 0.030640
0.257329 0.058992 0.022351
0.417400 0.029883 0.035238
0.560940 0.010409 0.049428
0.680598 0.002299 0.060156
0.788820 0.000316 0.078399
0.841902 0.000053 0.090380
0.090074 0.176858 0.055651
0.121615 0.162641 0.051680
0.249267 0.176416 0.054234
0.412794 0.162140 0.042773
0.549097 0.119352 0.032504
0.679431 0.069099 0.051229
0.790860 0.032837 0.063884
0.845533 0.019815 0.059583
0.115387 0.267944 0.078919
0.140031 0.253874 0.074895
0.215626 0.251779 0.073179
0.399412 0.296320 0.080323
0.559298 0.287513 0.068021
0.678600 0.240489 0.041063
0.786264 0.190565 0.049243
0.865165 0.145481 0.057635
0.149619 0.397352 0.115936
0.183954 0.384744 0.111790
0.265021 0.383054 0.110211
0.373101 0.377267 0.106541
0.550631 0.415490 0.106278
0.711435 0.410212 0.091823
0.809969 0.362950 0.077108
0.888266 0.316655 0.052913
0.259674 0.537820 0.155674
0.305040 0.535633 0.154565
0.368573 0.544921 0.156387
0.465415 0.540718 0.154035
0.564290 0.522435 0.145346
0.718853 0.547172 0.139232
0.835000 0.525137 0.115897
0.905679 0.471771 0.088292
0.420510 0.692409 0.199646
0.441027 0.697751 0.200900
0.500323 0.719330 0.206445
0.588308 0.732272 0.209566
0.663989 0.719338 0.205258
0.765143 0.711944 0.200192
0.863785 0.697974 0.182745
0.942832 0.647151 0.143197
0.580597 0.912445 0.258545
0.614772 0.918209 0.259644
0.695766 0.936018 0.263594
0.796430 0.954119 0.268215
0.860905 0.955998 0.273049
0.941755 0.961190 0.292206
0.973829 0.935712 0.295972
0.971802 0.873688 0.269562
0.008528 0.054042 0.179971
0.109216 0.042150 0.160940
0.279385 0.025613 0.120068
0.458198 0.028247 0.114143
0.609291 0.019204 0.116641
0.739658 0.008176 0.124257
0.855252 0.002667 0.144364
0.901429 0.001513 0.157148
0.029720 0.114521 0.116816
0.123702 0.112785 0.125787
0.276840 0.104794 0.116706
0.447467 0.089847 0.101488
0.600835 0.065662 0.104680
0.733635 0.032399 0.110211
0.844925 0.014676 0.118877
0.899700 0.008210 0.128712
0.056631 0.199786 0.083005
0.121638 0.196782 0.088757
0.279605 0.219063 0.116140
0.450836 0.208733 0.110848
0.595651 0.172292 0.084110
0.729055 0.138069 0.094960
0.844107 0.092484 0.106955
0.894935 0.058946 0.094429
0.090184 0.297213 0.090440
0.139402 0.292115 0.088282
0.241004 0.288712 0.088340
0.432030 0.330488 0.115807
0.596287 0.324014 0.119860
0.723264 0.282711 0.091644
0.836281 0.239049 0.083410
0.905151 0.199889 0.089777
0.143674 0.437856 0.129474
0.184956 0.437241 0.128083
0.295567 0.432273 0.124633
0.410255 0.414347 0.117159
0.582757 0.445809 0.131110
0.741294 0.440352 0.137285
0.849759 0.396144 0.118483
0.918331 0.351516 0.083147
0.235168 0.580826 0.168952
0.295841 0.587296 0.170038
0.391558 0.596706 0.171727
0.491982 0.581950 0.166151
0.592339 0.555766 0.155921
0.755509 0.576195 0.157017
0.865684 0.554042 0.148090
0.932354 0.502203 0.121749
0.395446 0.750877 0.217148
0.449290 0.767403 0.221374
0.539501 0.793144 0.227940
0.635768 0.792347 0.227455
0.714650 0.772192 0.221461
0.823611 0.765696 0.218183
0.906407 0.746335 0.204339
0.950480 0.686323 0.178853
0.618068 0.949664 0.271977
0.671658 0.950781 0.274619
0.748052 0.952909 0.281992
0.825812 0.954682 0.292704
0.894566 0.957112 0.307609
0.960614 0.962784 0.325555
0.978755 0.962443 0.337264
0.979649 0.930782 0.326154
0.000881 0.097521 0.387892
0.045035 0.087718 0.385244
0.202767 0.064545 0.340602
0.359448 0.031437 0.243601
0.541265 0.042486 0.224325
0.734609 0.076969 0.241115
0.883068 0.093098 0.253006
0.951242 0.086356 0.259792
0.005792 0.133567 0.304900
0.068657 0.133205 0.312811
0.207368 0.121439 0.291189
0.370349 0.095274 0.244028
0.562296 0.108754 0.225387
0.739966 0.139892 0.236339
0.879839 0.137812 0.240680
0.946932 0.119758 0.227810
0.028096 0.202509 0.204092
0.099933 0.215325 0.224809
0.265235 0.251955 0.269256
0.438501 0.254682 0.266465
0.603927 0.244770 0.250764
0.755270 0.232962 0.221005
0.884119 0.211973 0.224668
0.945380 0.179761 0.199700
0.088454 0.337031 0.205341
0.124739 0.335362 0.205796
0.260442 0.346211 0.219279
0.469997 0.392106 0.271008
0.631840 0.385368 0.269193
0.765508 0.354596 0.239955
0.882657 0.320789 0.200543
0.948297 0.280125 0.181053
0.152280 0.480826 0.237234
0.182116 0.481654 0.231721
0.300725 0.476747 0.221947
0.437185 0.461780 0.210872
0.616118 0.488616 0.252862
0.764635 0.480080 0.256147
0.876940 0.438283 0.225347
0.939110 0.392868 0.174493
0.206034 0.602865 0.224787
0.243033 0.610036 0.223036
0.364501 0.618919 0.221303
0.484892 0.601282 0.209721
0.603119 0.573599 0.206274
0.761803 0.588871 0.237316
0.876272 0.568190 0.230154
0.932780 0.526692 0.199952
0.321625 0.789001 0.250421
0.405741 0.807845 0.262817
0.546967 0.835644 0.286383
0.658022 0.831262 0.289966
0.745439 0.809154 0.284058
0.859766 0.801238 0.294518
0.927220 0.783961 0.300067
0.944083 0.720887 0.270124
0.599365 0.947109 0.337324
0.666776 0.948328 0.343014
0.758930 0.949674 0.353161
0.837054 0.951865 0.361420
0.913071 0.956298 0.372932
0.959937 0.962538 0.383044
0.973776 0.964841 0.391225
0.985953 0.964770 0.395486
0.000035 0.133009 0.565211
0.018678 0.127814 0.572388
0.128432 0.122466 0.546519
0.312632 0.089928 0.472422
0.443397 0.044954 0.368890
0.558504 0.034869 0.296581
0.758096 0.053056 0.312764
0.916033 0.093127 0.342045
0.000508 0.173455 0.501845
0.035450 0.174124 0.508061
0.147062 0.169259 0.497769
0.304987 0.147389 0.448836
0.443936 0.092871 0.360542
0.582019 0.062978 0.300024
0.782450 0.102889 0.317332
0.959221 0.177585 0.338731
0.001017 0.200554 0.357327
0.041199 0.218609 0.391710
0.168110 0.239588 0.422261
0.315002 0.231406 0.402167
0.462382 0.211428 0.355761
0.649834 0.220925 0.339276
0.837984 0.242176 0.343934
0.978157 0.267010 0.329128
0.039656 0.303461 0.310040
0.076839 0.301856 0.314053
0.211205 0.337908 0.356212
0.419472 0.402046 0.423367
0.581420 0.408361 0.421088
0.746607 0.405472 0.406275
0.897234 0.393666 0.375708
0.986477 0.364698 0.328763
0.155758 0.510027 0.397598
0.192065 0.509674 0.397302
0.286633 0.511207 0.398014
0.455826 0.520477 0.409761
0.641858 0.554514 0.446751
0.789706 0.542836 0.426741
0.908800 0.504757 0.385799
0.969109 0.459458 0.333313
0.206088 0.637638 0.393792
0.239029 0.638719 0.394629
0.315509 0.638289 0.389204
0.466778 0.625088 0.376152
0.609081 0.610436 0.375761
0.765408 0.619095 0.383532
0.884512 0.588604 0.352887
0.926854 0.551797 0.319016
0.271328 0.777357 0.361954
0.308243 0.791494 0.374485
0.440801 0.814103 0.392858
0.599756 0.821830 0.401268
0.723418 0.812549 0.401590
0.847393 0.805198 0.405235
0.913606 0.785336 0.397596
0.926375 0.728039 0.357820
0.489886 0.933820 0.424386
0.589716 0.937833 0.432615
0.703382 0.942725 0.444445
0.809239 0.949092 0.454081
0.904089 0.956939 0.464299
0.947853 0.962425 0.469672
0.967521 0.965556 0.473166
0.986406 0.967756 0.475176
0.000000 0.160797 0.702414
0.009924 0.161184 0.717029
0.103768 0.163269 0.703505
0.263987 0.151126 0.646827
0.416243 0.119485 0.581942
0.538674 0.056520 0.471422
0.626055 0.045272 0.385828
0.734632 0.043884 0.368408
0.000000 0.208192 0.658586
0.016910 0.211628 0.670001
0.110145 0.213236 0.672956
0.259424 0.204241 0.631995
0.412020 0.179140 0.567638
0.535675 0.111640 0.468787
0.637431 0.054952 0.387212
0.793525 0.060765 0.371380
0.000397 0.267330 0.581508
0.035167 0.275535 0.598359
0.124694 0.281893 0.609926
0.274200 0.271523 0.587584
0.407994 0.249083 0.533741
0.531029 0.204033 0.451028
0.668143 0.162948 0.407388
0.879257 0.203977 0.395465
0.000452 0.260066 0.393177
0.011361 0.273961 0.428814
0.106937 0.310619 0.479792
0.292006 0.346561 0.523126
0.434839 0.349848 0.503256
0.583778 0.345723 0.475034
0.770298 0.352200 0.463734
0.964127 0.380916 0.468320
0.065490 0.451597 0.478139
0.117411 0.457272 0.481440
0.192018 0.466818 0.486818
0.378041 0.499239 0.522000
0.578458 0.557359 0.579046
0.735914 0.556753 0.565014
0.884340 0.540149 0.539256
0.995497 0.514167 0.501529
0.203766 0.686342 0.563424
0.243678 0.688517 0.566966
0.295639 0.693547 0.570655
0.451567 0.688432 0.567148
0.618632 0.687996 0.571375
0.788797 0.695679 0.581482
0.916710 0.663203 0.537915
0.971712 0.626390 0.497367
0.243849 0.801495 0.507765
0.285207 0.811249 0.518353
0.340249 0.828157 0.537133
0.507390 0.835744 0.542753
0.679566 0.834497 0.547506
0.818351 0.820692 0.541300
0.911111 0.798308 0.524760
0.934896 0.753525 0.491107
0.335929 0.910662 0.520774
0.392123 0.915536 0.525782
0.559175 0.921582 0.539841
0.714597 0.931305 0.551430
0.846374 0.942931 0.568440
0.916759 0.951999 0.572855
0.953205 0.957632 0.570015
0.980966 0.963327 0.566620
0.000000 0.183825 0.818403
0.009959 0.187623 0.825782
0.099614 0.193446 0.814806
0.223182 0.192206 0.781055
0.385846 0.180876 0.735336
0.526979 0.138628 0.670102
0.640458 0.081857 0.589357
0.738726 0.062147 0.517024
0.000000 0.240938 0.794607
0.009479 0.245335 0.805021
0.099503 0.251740 0.809556
0.210443 0.248607 0.786079
0.384460 0.236448 0.738710
0.524873 0.206123 0.672054
0.646272 0.156642 0.596439
0.759205 0.097871 0.515436
0.000000 0.309851 0.756928
0.023140 0.314579 0.766783
0.117114 0.322130 0.777058
0.225283 0.315721 0.766278
0.386176 0.304026 0.726608
0.529348 0.282865 0.665228
0.655678 0.252032 0.598833
0.781123 0.200190 0.519706
0.000000 0.347680 0.634608
0.018518 0.364010 0.671748
0.130400 0.390466 0.709137
0.252068 0.399385 0.725999
0.411677 0.394432 0.703127
0.549721 0.382678 0.661253
0.678981 0.353694 0.595003
0.819828 0.326749 0.544547
0.002628 0.424910 0.591952
0.032019 0.432314 0.608358
0.130269 0.447811 0.622956
0.257045 0.474809 0.654476
0.460998 0.506827 0.687911
0.604248 0.507820 0.667657
0.743125 0.491269 0.626014
0.910854 0.481518 0.596039
0.125939 0.653284 0.667166
0.181669 0.655554 0.671200
0.243482 0.664691 0.678978
0.374433 0.660567 0.676451
0.544817 0.673850 0.693543
0.732535 0.706243 0.727971
0.875046 0.684407 0.692706
0.993001 0.660511 0.652904
0.253010 0.874508 0.700303
0.295476 0.878400 0.713164
0.347922 0.887185 0.732089
0.456426 0.885237 0.729743
0.633165 0.879162 0.728424
0.800197 0.869865 0.723725
0.932327 0.846609 0.702752
0.980724 0.808984 0.665361
0.306174 0.943041 0.688812
0.348156 0.942991 0.685397
0.406588 0.949260 0.698043
0.591923 0.955032 0.704675
0.759944 0.961750 0.711700
0.897929 0.969516 0.716431
0.951227 0.972437 0.703973
0.988669 0.976423 0.696690
0.000000 0.207794 0.883990
0.002378 0.211177 0.886882
0.069650 0.221185 0.881708
0.172676 0.227870 0.857894
0.335841 0.227776 0.818863
0.484779 0.208970 0.771891
0.613996 0.175970 0.723196
0.728607 0.133636 0.680516
0.000000 0.268334 0.880712
0.001298 0.272621 0.882367
0.062272 0.281385 0.880350
0.169155 0.283818 0.867204
0.337286 0.278714 0.826055
0.485985 0.264784 0.782309
0.619828 0.245883 0.737613
0.740889 0.213457 0.692396
0.000000 0.334937 0.867980
0.005444 0.337317 0.868788
0.082020 0.347794 0.866980
0.180721 0.349965 0.862864
0.342308 0.347198 0.836930
0.495151 0.338898 0.798863
0.630334 0.321694 0.756417
0.761300 0.290987 0.700009
0.000000 0.408243 0.831442
0.014217 0.415500 0.842603
0.113855 0.431439 0.854396
0.206679 0.438431 0.859473
0.369391 0.441360 0.851072
0.522386 0.434082 0.821094
0.659204 0.414545 0.778412
0.781492 0.384904 0.719709
0.000005 0.464019 0.769229
0.016103 0.476173 0.792314
0.120297 0.500385 0.812484
0.221204 0.527481 0.836339
0.403788 0.548026 0.857019
0.562471 0.545149 0.844401
0.694370 0.522499 0.798231
0.817929 0.487728 0.731519
0.025539 0.608948 0.772474
0.090555 0.614552 0.784948
0.173372 0.628514 0.801710
0.248349 0.636751 0.809705
0.421847 0.652929 0.826796
0.615563 0.677416 0.857147
0.755217 0.654730 0.823552
0.889605 0.623415 0.762311
0.202964 0.858790 0.814212
0.246318 0.859303 0.826017
0.297718 0.865097 0.848126
0.400068 0.872773 0.860789
0.573706 0.871776 0.866778
0.728036 0.870303 0.875523
0.885310 0.859240 0.869468
0.988817 0.819153 0.817883
0.290087 0.975965 0.844936
0.329259 0.976760 0.844518
0.379731 0.978877 0.858834
0.535179 0.980612 0.874400
0.689994 0.984062 0.881175
0.835176 0.988574 0.886247
0.949526 0.991283 0.866252
0.997031 0.990683 0.835493
0.000000 0.220215 0.933655
0.001613 0.222569 0.934993
0.061864 0.230225 0.926113
0.163979 0.238874 0.904776
0.312326 0.243417 0.871285
0.459312 0.233686 0.832114
0.598035 0.211565 0.782454
0.709656 0.188324 0.751068
0.000000 0.283103 0.931693
0.000314 0.285283 0.931879
0.047857 0.292059 0.926544
0.156100 0.297847 0.915466
0.304815 0.295972 0.880348
0.458142 0.288432 0.841690
0.597491 0.277928 0.800897
0.717089 0.256888 0.766636
0.000000 0.344430 0.921570
0.001587 0.346819 0.919997
0.059464 0.356485 0.914836
0.162853 0.363368 0.910889
0.292574 0.365944 0.894658
0.463244 0.362809 0.860089
0.601152 0.352211 0.823160
0.726781 0.331259 0.785693
0.000000 0.426165 0.907667
0.003346 0.426742 0.909431
0.080804 0.436533 0.908530
0.180039 0.445649 0.908271
0.296548 0.454743 0.904808
0.475381 0.451294 0.881650
0.619096 0.439542 0.847499
0.743818 0.417620 0.810617
0.000000 0.482544 0.865980
0.003369 0.487779 0.877522
0.075546 0.503342 0.882940
0.181555 0.526711 0.892272
0.301043 0.550360 0.907312
0.499206 0.555211 0.906518
0.642081 0.543679 0.876651
0.761971 0.517582 0.840811
0.000157 0.595511 0.850874
0.008030 0.584340 0.855667
0.081418 0.597888 0.863275
0.183143 0.615675 0.868465
0.278524 0.639054 0.883771
0.507031 0.670126 0.912686
0.679932 0.662202 0.910802
0.802281 0.630968 0.875174
0.104392 0.811066 0.881657
0.145270 0.794622 0.880969
0.194330 0.790793 0.898009
0.261505 0.808219 0.921176
0.347699 0.824928 0.928669
0.563469 0.828074 0.932033
0.748179 0.823237 0.947094
0.878313 0.787192 0.928415
0.242401 0.966888 0.936829
0.274135 0.967926 0.936894
0.307704 0.969387 0.943472
0.351275 0.970407 0.955401
0.526833 0.973672 0.979296
0.698199 0.980709 0.986058
0.856467 0.990278 0.991812
0.999969 0.999969 0.999969
