Plugins/FilmEmulator/Content/LUTs/FE_Kodak_Portra_400_64.cube
TITLE "FE_Kodak_Portra_400_33"
LUT_3D_SIZE 64
0.0006557 0.0025025 0.0009060
0.0010959 0.0025009 0.0009060
0.0034162 0.0024975 0.0009060
0.0083299 0.0025250 0.0009257
0.0151738 0.0025902 0.0009505
0.0247973 0.0026469 0.0009911
0.0362737 0.0027143 0.0010710
0.0501806 0.0027874 0.0011588
0.0654456 0.0029273 0.0012828
0.0851953 0.0030324 0.0013915
0.1042756 0.0032345 0.0015592
0.1271345 0.0034497 0.0017583
0.1469442 0.0036469 0.0019953
0.1680226 0.0040162 0.0022266
0.1931080 0.0042108 0.0024838
0.2201677 0.0045279 0.0026725
0.2386729 0.0049554 0.0030002
0.2708796 0.0052717 0.0032519
0.2931571 0.0056072 0.0035243
0.3166072 0.0059639 0.0038194
0.3414539 0.0063540 0.0041392
0.3668484 0.0068276 0.0044954
0.3930675 0.0073361 0.0048873
0.4049413 0.0078811 0.0053129
0.4336353 0.0081700 0.0055399
0.4611069 0.0087775 0.0060224
0.4752789 0.0090900 0.0065446
0.5022789 0.0098204 0.0068282
0.5160073 0.0102027 0.0071216
0.5280334 0.0110113 0.0077463
0.5570383 0.0114403 0.0080793
0.5705944 0.0118850 0.0084262
0.5824022 0.0128256 0.0091645
0.5958719 0.0133236 0.0095577
0.6241075 0.0138399 0.0099679
0.6371604 0.0143745 0.0103948
0.6500236 0.0149296 0.0108398
0.6626812 0.0155058 0.0113036
0.6751184 0.0161039 0.0117871
0.6873219 0.0167247 0.0122910
0.6992787 0.0173693 0.0128163
0.7109777 0.0180383 0.0133639
0.7224563 0.0187325 0.0139345
0.7337466 0.0194532 0.0145293
0.7447510 0.0201988 0.0151492
0.7554681 0.0209674 0.0157951
0.7542162 0.0217652 0.0164676
0.7661813 0.0217463 0.0171640
0.7759894 0.0225920 0.0171691
0.7857873 0.0234500 0.0178996
0.7952741 0.0243400 0.0186609
0.7941684 0.0252639 0.0194538
0.8047132 0.0252416 0.0202745
0.8133147 0.0262205 0.0202803
0.8218707 0.0272134 0.0211411
0.8208750 0.0282441 0.0220376
0.8301680 0.0282431 0.0220378
0.8381587 0.0293108 0.0229719
0.8372379 0.0304163 0.0239447
0.8458486 0.0304150 0.0239449
0.8532414 0.0315596 0.0249659
0.8523923 0.0327476 0.0260294
0.8603408 0.0327460 0.0260296
0.8671525 0.0339759 0.0271376
0.0005963 0.0040031 0.0009091
0.0010929 0.0043075 0.0009096
0.0033786 0.0045178 0.0009230
0.0081374 0.0049146 0.0009480
0.0139430 0.0052291 0.0009850
0.0224876 0.0057418 0.0010380
0.0326814 0.0061062 0.0011173
0.0450193 0.0065013 0.0012387
0.0585357 0.0069828 0.0013714
0.0724187 0.0072286 0.0015215
0.0887781 0.0077611 0.0017158
0.1083484 0.0083379 0.0018781
0.1259872 0.0086319 0.0020815
0.1525558 0.0092696 0.0023225
0.1666003 0.0100019 0.0025911
0.1920983 0.0103775 0.0028973
0.2205612 0.0107741 0.0031398
0.2393835 0.0116310 0.0034032
0.2612046 0.0120650 0.0038378
0.2840886 0.0125252 0.0041584
0.3086434 0.0130023 0.0045153
0.3321924 0.0140439 0.0047097
0.3589499 0.0145756 0.0051191
0.3866744 0.0151270 0.0055638
0.3998537 0.0157119 0.0058012
0.4285382 0.0163057 0.0063049
0.4423835 0.0169210 0.0068540
0.4712270 0.0175745 0.0071490
0.4849136 0.0182524 0.0074562
0.5144700 0.0189400 0.0081082
0.5281971 0.0196696 0.0084563
0.5418999 0.0204244 0.0088193
0.5555650 0.0212027 0.0091977
0.5869817 0.0211666 0.0099981
0.6004886 0.0219725 0.0104264
0.6138543 0.0228084 0.0108726
0.6270610 0.0236755 0.0113379
0.6400906 0.0245749 0.0118228
0.6548246 0.0245537 0.0123249
0.6674182 0.0254857 0.0128517
0.6797854 0.0264522 0.0134007
0.6919130 0.0274547 0.0139730
0.7055882 0.0274307 0.0145653
0.7173015 0.0284692 0.0151867
0.7287351 0.0295461 0.0158342
0.7411793 0.0295452 0.0158345
0.7398844 0.0306598 0.0165088
0.7507384 0.0318143 0.0172117
0.7628180 0.0317862 0.0179391
0.7730205 0.0329820 0.0187020
0.7826294 0.0342504 0.0187074
0.7829139 0.0342214 0.0194969
0.7924966 0.0355060 0.0203250
0.8017679 0.0368373 0.0211877
0.8117636 0.0368357 0.0211880
0.8107280 0.0382170 0.0220864
0.8206746 0.0381830 0.0230162
0.8290190 0.0396113 0.0239910
0.8290190 0.0396113 0.0239910
0.8370571 0.0410911 0.0250140
0.8458958 0.0410541 0.0260725
0.8447909 0.0426240 0.0260797
0.8532869 0.0425857 0.0271824
0.8601787 0.0442134 0.0271900
0.0005005 0.0095025 0.0009149
0.0010664 0.0098691 0.0009327
0.0031673 0.0106538 0.0009556
0.0073101 0.0110587 0.0009957
0.0126003 0.0114819 0.0010430
0.0204231 0.0123909 0.0011228
0.0282650 0.0128587 0.0012196
0.0391863 0.0133390 0.0013500
0.0513588 0.0138401 0.0014833
0.0671129 0.0143599 0.0016232
0.0829059 0.0148900 0.0018300
0.0960702 0.0160595 0.0020159
0.1178218 0.0166555 0.0022487
0.1367661 0.0172742 0.0025082
0.1582670 0.0179157 0.0027977
0.1739776 0.0185926 0.0030279
0.2006162 0.0192781 0.0034150
0.2209976 0.0192459 0.0036993
0.2413600 0.0199720 0.0040085
0.2630976 0.0207223 0.0043456
0.2865490 0.0214941 0.0047234
0.3112621 0.0222941 0.0051340
0.3367950 0.0231430 0.0053534
0.3637486 0.0240031 0.0058185
0.3785577 0.0239826 0.0060650
0.4067232 0.0248732 0.0065915
0.4350023 0.0258179 0.0068752
0.4489210 0.0267750 0.0074764
0.4645866 0.0267518 0.0077954
0.4936601 0.0277659 0.0081306
0.5078251 0.0287934 0.0088409
0.5215787 0.0298833 0.0092202
0.5528297 0.0298568 0.0096135
0.5666050 0.0309829 0.0100257
0.5802904 0.0321503 0.0104552
0.5962722 0.0320950 0.0113626
0.6096892 0.0333031 0.0118487
0.6229527 0.0345552 0.0123553
0.6379771 0.0345250 0.0128798
0.6508503 0.0358216 0.0134301
0.6653828 0.0357902 0.0139997
0.6774287 0.0371641 0.0140039
0.6896574 0.0385566 0.0146016
0.7034841 0.0385226 0.0152204
0.7152506 0.0399641 0.0158693
0.7284036 0.0399289 0.0165408
0.7395616 0.0414209 0.0172450
0.7398828 0.0413862 0.0179736
0.7504246 0.0429668 0.0179789
0.7625140 0.0429288 0.0187383
0.7727220 0.0445325 0.0195347
0.7840549 0.0444931 0.0203588
0.7826201 0.0461956 0.0203644
0.7935963 0.0461547 0.0212229
0.8028268 0.0478759 0.0221232
0.8030915 0.0478359 0.0230542
0.8117988 0.0496585 0.0230608
0.8217021 0.0496144 0.0240309
0.8300067 0.0514584 0.0250556
0.8300067 0.0514584 0.0250556
0.8380038 0.0533679 0.0261231
0.8382329 0.0533231 0.0272273
0.8456975 0.0553447 0.0272350
0.8541529 0.0552952 0.0283854
0.0004677 0.0170634 0.0009387
0.0010547 0.0177121 0.0009615
0.0031717 0.0183730 0.0009994
0.0069292 0.0190583 0.0010597
0.0119631 0.0197687 0.0011404
0.0185164 0.0205007 0.0012487
0.0270873 0.0212626 0.0013544
0.0375977 0.0220428 0.0014881
0.0493479 0.0228407 0.0016778
0.0611268 0.0236830 0.0018359
0.0761115 0.0236314 0.0020212
0.0937978 0.0244931 0.0022546
0.1091747 0.0254059 0.0024252
0.1269144 0.0263326 0.0027051
0.1469509 0.0273113 0.0029170
0.1713365 0.0272413 0.0032890
0.1881474 0.0282515 0.0035639
0.2062322 0.0292983 0.0038617
0.2377159 0.0292476 0.0041835
0.2594843 0.0303293 0.0045425
0.2827336 0.0314461 0.0049373
0.2960241 0.0313922 0.0053646
0.3208605 0.0325747 0.0055939
0.3471762 0.0337719 0.0060797
0.3760668 0.0337416 0.0063376
0.3893431 0.0349812 0.0068897
0.4172324 0.0362943 0.0071862
0.4330288 0.0362319 0.0078123
0.4617725 0.0375904 0.0081482
0.4775122 0.0375576 0.0084957
0.4912421 0.0389652 0.0088604
0.5074829 0.0388982 0.0096313
0.5367469 0.0403530 0.0100448
0.5506011 0.0418614 0.0104751
0.5664351 0.0418248 0.0109205
0.5801210 0.0433861 0.0113878
0.5957062 0.0433481 0.0118716
0.6091247 0.0449679 0.0123792
0.6243559 0.0449284 0.0129048
0.6374215 0.0466068 0.0134561
0.6522033 0.0465658 0.0140269
0.6648397 0.0483027 0.0146256
0.6791386 0.0482602 0.0152454
0.6914253 0.0500573 0.0158955
0.7052080 0.0500133 0.0165680
0.7165902 0.0519160 0.0165729
0.7297056 0.0518702 0.0172738
0.7283697 0.0537979 0.0180086
0.7411448 0.0537506 0.0187693
0.7535305 0.0537031 0.0195616
0.7636972 0.0557391 0.0195673
0.7753440 0.0556900 0.0203927
0.7741610 0.0577523 0.0212581
0.7854425 0.0577014 0.0221536
0.7946667 0.0598808 0.0221600
0.8052467 0.0598280 0.0230928
0.8055089 0.0597784 0.0240640
0.8141351 0.0620319 0.0240709
0.8239453 0.0619767 0.0250903
0.8229603 0.0642562 0.0261591
0.8321685 0.0642526 0.0261593
0.8412201 0.0641955 0.0272652
0.8403144 0.0665471 0.0284245
0.8487930 0.0665433 0.0284247
0.0004446 0.0270685 0.0009669
0.0011095 0.0270150 0.0010078
0.0032675 0.0279910 0.0010757
0.0067346 0.0290167 0.0011436
0.0116411 0.0300678 0.0012522
0.0181738 0.0299901 0.0013854
0.0265837 0.0310928 0.0014917
0.0349827 0.0322060 0.0016818
0.0462477 0.0321373 0.0018397
0.0605454 0.0333031 0.0020261
0.0748776 0.0345034 0.0022600
0.0881876 0.0344215 0.0025200
0.1027376 0.0356895 0.0027107
0.1202677 0.0356297 0.0029222
0.1396124 0.0369057 0.0032957
0.1616868 0.0382570 0.0035714
0.1789208 0.0381916 0.0038688
0.2056569 0.0396206 0.0040282
0.2264205 0.0395528 0.0043658
0.2474775 0.0409973 0.0047453
0.2716259 0.0409253 0.0051563
0.2955562 0.0424181 0.0056044
0.3071196 0.0440018 0.0058435
0.3346512 0.0439249 0.0063492
0.3611495 0.0455647 0.0066203
0.3761293 0.0454864 0.0071974
0.4036630 0.0471838 0.0075070
0.4189009 0.0471424 0.0078274
0.4478171 0.0488579 0.0085118
0.4634756 0.0488151 0.0088747
0.4771508 0.0506330 0.0092556
0.5083696 0.0505867 0.0096504
0.5226420 0.0524236 0.0104921
0.5386071 0.0523778 0.0109383
0.5545100 0.0523320 0.0114032
0.5682685 0.0542743 0.0118910
0.5839671 0.0542268 0.0123961
0.5975003 0.0562359 0.0129260
0.6128863 0.0561866 0.0134745
0.6261034 0.0582645 0.0140500
0.6410770 0.0582136 0.0146456
0.6538953 0.0603622 0.0152705
0.6680509 0.0603593 0.0152709
0.6823803 0.0603065 0.0159176
0.6946006 0.0625279 0.0165957
0.7083037 0.0624731 0.0172975
0.7199537 0.0647673 0.0180336
0.7329740 0.0647107 0.0187954
0.7329740 0.0647107 0.0187954
0.7440118 0.0670774 0.0195942
0.7563068 0.0670186 0.0204208
0.7666996 0.0694643 0.0212876
0.7666996 0.0694643 0.0212876
0.7782429 0.0694035 0.0221844
0.7879730 0.0719304 0.0231246
0.7985377 0.0719264 0.0231249
0.7988070 0.0718674 0.0240973
0.8079219 0.0744774 0.0251248
0.8177323 0.0744731 0.0251250
0.8179837 0.0744117 0.0261880
0.8264267 0.0771074 0.0273027
0.8354924 0.0771029 0.0273029
0.8345605 0.0798936 0.0284638
0.8435084 0.0798234 0.0296648
0.0004365 0.0366420 0.0010157
0.0011373 0.0379609 0.0010782
0.0032321 0.0393110 0.0011602
0.0067123 0.0391982 0.0012802
0.0116033 0.0406094 0.0013885
0.0181212 0.0405033 0.0015399
0.0251068 0.0419638 0.0016850
0.0352051 0.0418465 0.0018991
0.0462118 0.0433455 0.0021048
0.0576813 0.0432713 0.0022635
0.0713793 0.0448169 0.0025247
0.0840104 0.0447436 0.0027149
0.1033331 0.0463383 0.0030470
0.1209727 0.0462562 0.0033010
0.1403024 0.0479414 0.0035770
0.1556389 0.0478595 0.0038749
0.1798102 0.0496007 0.0041988
0.1983180 0.0495555 0.0043726
0.2171599 0.0513554 0.0047527
0.2390748 0.0512651 0.0051644
0.2607815 0.0531682 0.0053851
0.2857670 0.0530751 0.0058513
0.3100936 0.0550422 0.0061013
0.3241226 0.0549487 0.0066288
0.3502042 0.0569813 0.0069142
0.3649763 0.0568840 0.0075168
0.3921834 0.0589844 0.0078401
0.4072707 0.0589328 0.0081746
0.4379999 0.0588298 0.0088867
0.4515323 0.0610008 0.0092681
0.4672147 0.0609475 0.0096631
0.4963032 0.0631893 0.0100779
0.5122455 0.0631342 0.0105067
0.5282339 0.0630793 0.0109535
0.5421136 0.0653954 0.0114223
0.5579979 0.0653384 0.0119076
0.5717409 0.0677276 0.0124168
0.5874078 0.0676687 0.0129439
0.6029140 0.0676098 0.0134932
0.6162563 0.0700766 0.0140695
0.6313839 0.0700156 0.0146660
0.6443547 0.0725643 0.0152918
0.6590627 0.0725013 0.0159394
0.6735830 0.0724383 0.0166138
0.6859856 0.0750688 0.0173212
0.6999018 0.0750035 0.0180533
0.7131281 0.0749996 0.0180536
0.7246667 0.0777163 0.0188214
0.7249991 0.0776530 0.0196157
0.7378733 0.0775854 0.0204432
0.7484663 0.0804542 0.0204491
0.7606194 0.0803843 0.0213112
0.7723708 0.0803145 0.0222090
0.7708859 0.0832809 0.0222151
0.7822837 0.0832086 0.0231503
0.7933288 0.0831363 0.0241240
0.7922200 0.0861282 0.0251524
0.8026283 0.0861233 0.0251527
0.8129005 0.0860480 0.0262170
0.8116129 0.0892086 0.0262242
0.8215258 0.0891307 0.0273329
0.8310299 0.0890530 0.0284873
0.8298400 0.0923142 0.0284952
0.8389919 0.0922339 0.0296976
0.0004325 0.0476088 0.0010934
0.0012417 0.0492878 0.0011828
0.0034676 0.0491469 0.0012825
0.0067399 0.0508791 0.0014193
0.0117473 0.0507607 0.0015425
0.0182185 0.0525424 0.0017390
0.0254522 0.0524278 0.0019022
0.0334927 0.0542944 0.0021082
0.0443284 0.0541592 0.0023509
0.0549381 0.0561218 0.0025288
0.0685304 0.0559863 0.0028197
0.0844934 0.0580050 0.0030519
0.0992284 0.0579025 0.0033062
0.1162473 0.0578004 0.0035816
0.1349251 0.0598837 0.0038811
0.1497657 0.0597820 0.0042041
0.1732059 0.0619304 0.0045651
0.1911847 0.0618727 0.0047589
0.2095115 0.0640943 0.0051726
0.2305808 0.0640349 0.0053921
0.2535968 0.0639231 0.0058589
0.2761772 0.0662659 0.0061092
0.3020726 0.0661508 0.0066377
0.3137856 0.0685685 0.0069231
0.3412763 0.0685052 0.0072191
0.3699880 0.0683857 0.0078485
0.3827911 0.0708798 0.0081856
0.4125077 0.0708147 0.0085351
0.4278496 0.0707532 0.0088991
0.4417155 0.0732675 0.0096761
0.4726366 0.0732005 0.0100887
0.4863515 0.0758576 0.0105210
0.5022822 0.0757921 0.0109684
0.5182797 0.0757264 0.0114346
0.5321880 0.0784685 0.0119238
0.5481200 0.0784007 0.0124302
0.5793012 0.0783291 0.0129583
0.5928822 0.0811581 0.0135120
0.6083249 0.0810880 0.0140851
0.6235672 0.0810180 0.0146823
0.6366490 0.0839363 0.0153088
0.6370329 0.0838683 0.0159567
0.6518739 0.0837960 0.0166320
0.6643046 0.0868763 0.0166369
0.6787151 0.0868015 0.0173405
0.6928040 0.0867266 0.0180734
0.7048084 0.0898329 0.0188421
0.7182468 0.0897555 0.0196374
0.7309875 0.0897507 0.0196377
0.7296599 0.0929607 0.0204716
0.7423964 0.0928808 0.0213346
0.7547429 0.0928009 0.0222333
0.7648927 0.0961532 0.0222397
0.7651929 0.0960762 0.0231756
0.7767886 0.0959937 0.0241505
0.7877544 0.0959881 0.0241507
0.7866359 0.0993700 0.0251802
0.7975219 0.0992842 0.0262457
0.8077317 0.0992784 0.0262459
0.8066914 0.1027648 0.0273627
0.8165497 0.1027587 0.0273629
0.8262605 0.1026701 0.0285186
0.8265027 0.1025877 0.0297218
0.8344104 0.1062569 0.0297301
0.0004422 0.0594739 0.0011846
0.0013047 0.0615191 0.0013110
0.0035147 0.0613477 0.0014214
0.0068230 0.0634708 0.0015921
0.0118992 0.0633165 0.0017415
0.0175825 0.0631753 0.0019049
0.0257930 0.0653937 0.0021112
0.0342072 0.0652319 0.0023541
0.0449291 0.0675163 0.0026257
0.0560959 0.0674026 0.0028235
0.0698829 0.0672811 0.0030551
0.0816787 0.0696768 0.0033106
0.0959674 0.0695547 0.0035863
0.1116910 0.0720264 0.0038861
0.1306440 0.0719007 0.0042097
0.1526125 0.0717725 0.0045698
0.1677207 0.0743781 0.0047652
0.1854869 0.0742488 0.0051779
0.2047122 0.0741198 0.0056262
0.2240119 0.0768047 0.0058666
0.2462696 0.0767339 0.0061154
0.2687346 0.0794422 0.0066464
0.2938670 0.0793689 0.0069306
0.3203812 0.0792958 0.0072268
0.3328462 0.0820909 0.0078588
0.3608412 0.0820157 0.0081944
0.3754322 0.0819447 0.0085439
0.4029517 0.0848905 0.0089111
0.4181807 0.0848172 0.0092910
0.4335842 0.0847442 0.0096869
0.4623344 0.0877820 0.0101028
0.4784870 0.0876357 0.0109802
0.4943998 0.0875605 0.0114469
0.5083215 0.0906950 0.0119367
0.5243160 0.0906172 0.0124437
0.5557627 0.0905349 0.0129724
0.5695193 0.0937662 0.0135267
0.5852064 0.0936860 0.0141005
0.6007374 0.0936058 0.0146983
0.6156896 0.0936009 0.0146986
0.6288924 0.0969026 0.0153258
0.6438735 0.0968199 0.0159748
0.6442539 0.0967423 0.0166504
0.6571983 0.1001439 0.0173594
0.6717575 0.1000584 0.0180931
0.6856464 0.1000529 0.0180934
0.6978185 0.1035591 0.0188629
0.7114399 0.1034710 0.0196591
0.7246984 0.1033828 0.0204885
0.7250309 0.1033006 0.0213519
0.7359636 0.1069933 0.0213581
0.7485100 0.1069023 0.0222578
0.7606612 0.1068115 0.0231947
0.7606612 0.1068115 0.0231947
0.7709393 0.1105286 0.0241770
0.7823955 0.1104341 0.0252009
0.7931623 0.1104277 0.0252012
0.7920642 0.1142623 0.0262745
0.8027458 0.1141649 0.0273852
0.8127564 0.1141581 0.0273855
0.8130130 0.1140676 0.0285419
0.8213969 0.1181002 0.0285499
0.8216445 0.1180068 0.0297544
0.8311438 0.1179065 0.0310085
0.0004541 0.0740510 0.0013130
0.0014725 0.0738306 0.0014235
0.0038023 0.0735845 0.0015939
0.0073586 0.0760847 0.0017968
0.0121481 0.0759068 0.0019654
0.0179660 0.0757108 0.0021916
0.0249175 0.0783805 0.0023574
0.0330538 0.0781888 0.0026286
0.0433716 0.0809446 0.0028274
0.0541814 0.0808000 0.0030592
0.0676243 0.0805912 0.0034492
0.0833861 0.0834192 0.0037376
0.0978121 0.0833391 0.0038903
0.1146153 0.0831948 0.0042142
0.1264966 0.0861142 0.0045758
0.1478789 0.0859604 0.0049723
0.1637005 0.0858811 0.0051833
0.1799299 0.0888852 0.0056337
0.2081901 0.0887987 0.0058729
0.2295876 0.0886462 0.0063811
0.2507007 0.0918120 0.0066536
0.2626925 0.0917329 0.0069377
0.2878000 0.0915749 0.0075428
0.3139960 0.0914910 0.0078650
0.3259674 0.0947539 0.0082029
0.3536747 0.0946677 0.0085531
0.3681345 0.0945866 0.0089179
0.3954588 0.0979154 0.0093010
0.4105906 0.0978318 0.0096973
0.4413912 0.0976649 0.0105407
0.4549687 0.1010967 0.0109920
0.4706719 0.1010107 0.0114593
0.4861481 0.1010054 0.0114597
0.5021333 0.1009196 0.0119466
0.5316464 0.1044483 0.0124578
0.5475805 0.1043598 0.0129867
0.5634334 0.1042712 0.0135379
0.5771562 0.1079103 0.0141160
0.5927714 0.1078190 0.0147145
0.6082154 0.1077278 0.0153381
0.6234591 0.1076366 0.0159877
0.6366119 0.1113801 0.0166688
0.6515646 0.1112861 0.0173737
0.6515646 0.1112861 0.0173737
0.6662369 0.1111921 0.0181080
0.6787954 0.1150449 0.0188782
0.6928821 0.1149480 0.0196751
0.7066287 0.1148511 0.0205051
0.7179980 0.1189089 0.0205111
0.7183353 0.1188157 0.0213754
0.7314012 0.1187158 0.0222759
0.7437680 0.1187090 0.0222762
0.7545278 0.1227902 0.0232203
0.7548368 0.1226944 0.0241967
0.7664829 0.1226872 0.0241970
0.7780954 0.1225834 0.0252217
0.7879016 0.1267799 0.0262962
0.7879016 0.1267799 0.0262962
0.7987403 0.1266731 0.0274078
0.8091645 0.1265664 0.0285654
0.8078685 0.1309909 0.0285732
0.8179322 0.1308809 0.0297788
0.8179322 0.1308809 0.0297788
0.8275861 0.1307709 0.0310340
0.0004932 0.0854645 0.0014590
0.0015986 0.0851491 0.0016442
0.0038874 0.0880371 0.0017990
0.0075639 0.0878164 0.0019677
0.0118233 0.0875863 0.0021940
0.0183383 0.0905642 0.0024472
0.0256523 0.0904024 0.0026315
0.0339772 0.0902467 0.0028297
0.0446522 0.0933074 0.0031874
0.0557683 0.0931402 0.0034530
0.0658299 0.0929794 0.0037405
0.0812046 0.0962025 0.0040531
0.0952872 0.0961110 0.0042186
0.1117118 0.0959425 0.0045794
0.1298845 0.0992296 0.0049776
0.1440728 0.0991389 0.0051889
0.1597688 0.0989697 0.0056381
0.1842467 0.1024317 0.0058791
0.2034382 0.1022577 0.0063878
0.2241966 0.1021649 0.0066586
0.2464698 0.1020716 0.0069433
0.2689658 0.1055524 0.0075509
0.2815245 0.1054625 0.0078732
0.3073809 0.1053669 0.0082094
0.3326023 0.1090348 0.0085623
0.3466389 0.1089423 0.0089274
0.3755571 0.1087579 0.0097047
0.3903964 0.1086659 0.0101182
0.4034902 0.1124421 0.0105517
0.4337314 0.1123414 0.0110008
0.4492820 0.1122467 0.0114684
0.4649501 0.1121522 0.0119558
0.4787629 0.1160354 0.0124671
0.5099047 0.1160230 0.0124678
0.5258968 0.1159255 0.0129972
0.5418521 0.1158282 0.0135487
0.5557005 0.1198233 0.0141274
0.5714991 0.1197229 0.0147264
0.5871684 0.1196227 0.0153505
0.6026773 0.1195225 0.0160006
0.6156461 0.1237255 0.0160054
0.6308364 0.1236222 0.0166826
0.6458899 0.1235189 0.0173881
0.6606719 0.1234157 0.0181230
0.6591808 0.1276457 0.0188935
0.6733336 0.1276385 0.0188938
0.6875455 0.1275322 0.0196914
0.7014239 0.1274259 0.0205221
0.7132507 0.1317672 0.0213931
0.7261279 0.1317597 0.0213934
0.7264593 0.1316578 0.0222943
0.7392910 0.1315484 0.0232328
0.7498655 0.1360991 0.0232394
0.7619735 0.1359863 0.0242169
0.7622783 0.1358808 0.0252422
0.7737412 0.1358729 0.0252425
0.7836916 0.1404341 0.0263178
0.7839770 0.1403257 0.0274301
0.7946872 0.1403175 0.0274303
0.8052681 0.1402006 0.0285888
0.8055323 0.1400923 0.0297949
0.8141787 0.1448854 0.0298032
0.8239870 0.1447652 0.0310594
0.8239870 0.1447652 0.0310594
0.0005242 0.0984490 0.0016462
0.0017187 0.1016790 0.0018011
0.0039970 0.1014062 0.0019700
0.0077809 0.1011181 0.0021966
0.0121615 0.1008565 0.0024492
0.0178288 0.1042884 0.0026344
0.0249789 0.1040277 0.0029447
0.0331001 0.1038360 0.0031900
0.0434519 0.1073572 0.0034567
0.0542832 0.1071673 0.0037446
0.0676546 0.1069780 0.0040564
0.0796746 0.1067948 0.0043963
0.0928508 0.1105004 0.0045843
0.1089035 0.1103067 0.0049814
0.1275605 0.1101135 0.0054129
0.1405656 0.1139283 0.0056441
0.1639254 0.1137297 0.0061327
0.1811329 0.1136274 0.0063927
0.1998177 0.1135252 0.0066637
0.2192000 0.1173513 0.0072471
0.2411196 0.1172454 0.0075567
0.2645411 0.1171398 0.0078795
0.2769663 0.1170410 0.0082157
0.3008621 0.1210665 0.0085688
0.3279311 0.1208634 0.0093151
0.3418662 0.1207620 0.0097121
0.3702200 0.1206543 0.0101263
0.3830420 0.1247955 0.0105602
0.3979971 0.1246915 0.0110093
0.4281097 0.1245808 0.0114776
0.4436105 0.1244770 0.0119653
0.4572034 0.1287323 0.0124771
0.4730275 0.1286253 0.0130069
0.5041452 0.1286115 0.0130076
0.5201423 0.1285046 0.0135596
0.5340638 0.1328787 0.0141387
0.5499876 0.1327688 0.0147382
0.5658252 0.1326589 0.0153629
0.5815446 0.1325491 0.0160135
0.5947302 0.1371304 0.0160183
0.6101500 0.1370174 0.0166961
0.6254209 0.1369044 0.0174022
0.6405645 0.1367914 0.0181377
0.6550710 0.1367838 0.0181380
0.6678421 0.1413728 0.0189094
0.6682107 0.1412645 0.0197073
0.6825363 0.1411483 0.0205387
0.6961837 0.1411403 0.0205390
0.7081375 0.1458532 0.0214107
0.7214859 0.1457337 0.0223127
0.7218207 0.1456226 0.0232516
0.7344621 0.1456143 0.0232519
0.7454823 0.1504528 0.0242366
0.7577333 0.1503291 0.0252630
0.7577333 0.1503291 0.0252630
0.7696449 0.1502054 0.0263319
0.7808588 0.1501966 0.0263322
0.7797221 0.1551705 0.0274526
0.7908633 0.1550435 0.0286120
0.8013219 0.1550343 0.0286122
0.8015901 0.1549164 0.0298192
0.8119030 0.1547892 0.0310761
0.8203319 0.1600011 0.0310848
0.8205806 0.1598800 0.0323934
0.0005888 0.1130532 0.0018574
0.0018797 0.1126987 0.0020446
0.0043502 0.1163475 0.0022804
0.0080057 0.1161082 0.0024521
0.0125148 0.1158121 0.0027341
0.0184874 0.1155974 0.0029472
0.0256949 0.1194628 0.0031936
0.0340425 0.1192459 0.0034595
0.0426047 0.1190371 0.0037476
0.0532346 0.1188289 0.0040596
0.0658769 0.1228038 0.0044011
0.0818567 0.1225831 0.0047824
0.0960473 0.1224657 0.0049854
0.1069142 0.1222608 0.0054171
0.1242310 0.1264358 0.0056486
0.1452875 0.1262177 0.0061376
0.1608789 0.1261051 0.0063977
0.1778283 0.1259928 0.0066689
0.1952389 0.1301845 0.0072527
0.2153709 0.1300681 0.0075625
0.2370152 0.1299520 0.0078855
0.2601651 0.1298362 0.0082223
0.2834713 0.1341382 0.0089411
0.2964504 0.1340269 0.0093223
0.3229397 0.1339083 0.0097199
0.3367631 0.1337974 0.0101341
0.3630370 0.1383023 0.0105686
0.3776662 0.1381884 0.0110181
0.4072358 0.1380672 0.0114868
0.4225161 0.1379535 0.0119750
0.4379634 0.1378399 0.0124836
0.4515287 0.1424600 0.0130173
0.4828372 0.1423355 0.0135701
0.4984049 0.1423278 0.0135705
0.5144030 0.1422111 0.0141462
0.5283457 0.1469551 0.0147501
0.5442925 0.1468351 0.0153752
0.5601645 0.1467153 0.0160264
0.5755260 0.1467073 0.0160267
0.5911567 0.1465874 0.0167049
0.6046525 0.1514539 0.0174162
0.6199996 0.1513308 0.0181523
0.6348454 0.1513225 0.0181527
0.6498294 0.1511993 0.0189195
0.6626912 0.1561934 0.0197236
0.6630624 0.1560756 0.0205553
0.6771356 0.1560669 0.0205556
0.6912612 0.1559404 0.0214222
0.7050483 0.1558139 0.0223246
0.7164619 0.1610550 0.0223310
0.7168002 0.1609342 0.0232708
0.7299101 0.1608042 0.0242496
0.7423200 0.1607951 0.0242499
0.7546712 0.1606642 0.0252768
0.7534431 0.1659240 0.0263533
0.7651957 0.1659144 0.0263535
0.7768527 0.1657800 0.0274676
0.7768527 0.1657800 0.0274676
0.7880982 0.1656456 0.0286277
0.7975890 0.1710283 0.0298437
0.7975890 0.1710283 0.0298437
0.8080578 0.1708904 0.0311015
0.8178630 0.1708804 0.0311017
0.8181143 0.1707525 0.0324110
0.0006426 0.1252240 0.0020465
0.0019313 0.1291877 0.0022825
0.0045092 0.1288041 0.0025449
0.0078535 0.1285504 0.0027364
0.0129617 0.1282990 0.0029497
0.0190017 0.1325246 0.0031963
0.0251866 0.1322871 0.0034624
0.0333736 0.1320500 0.0037506
0.0441440 0.1318134 0.0040629
0.0547318 0.1361626 0.0044046
0.0682048 0.1359207 0.0047863
0.0802068 0.1357918 0.0049894
0.0942711 0.1355594 0.0054215
0.1096132 0.1401070 0.0056531
0.1219985 0.1398766 0.0061423
0.1425379 0.1397450 0.0064028
0.1580963 0.1395145 0.0069590
0.1748098 0.1393909 0.0072563
0.1917452 0.1440469 0.0075684
0.2116040 0.1439198 0.0078917
0.2332619 0.1436828 0.0085794
0.2561596 0.1435562 0.0089455
0.2789163 0.1483300 0.0093298
0.2917662 0.1482086 0.0097274
0.3180152 0.1480791 0.0101422
0.3453741 0.1479499 0.0105742
0.3596738 0.1478292 0.0110238
0.3723461 0.1527310 0.0114957
0.4017560 0.1525987 0.0119845
0.4169694 0.1524748 0.0124936
