Plugins/FilmEmulator/Content/LUTs/FE_Kodachrome_25_K14_64.cube
# FilmEmulator LUT (resampled to 64)
LUT_3D_SIZE 64
0.000000 0.000000 0.000000
0.005410 0.000001 0.000000
0.010855 0.000001 0.000000
0.017379 0.000006 0.000000
0.024090 0.000010 0.000000
0.033615 0.000005 0.000000
0.043085 0.000000 0.000000
0.052033 0.000000 0.000000
0.061521 0.000000 0.000000
0.074781 0.000000 0.000000
0.087809 0.000000 0.000000
0.099584 0.000000 0.000000
0.111642 0.000000 0.000000
0.124919 0.000000 0.000000
0.137829 0.000000 0.000000
0.149429 0.000000 0.000000
0.160795 0.000000 0.000000
0.171462 0.000000 0.000000
0.182950 0.000000 0.000000
0.196534 0.000000 0.000000
0.212027 0.000000 0.000000
0.231717 0.000000 0.000000
0.254609 0.000000 0.000000
0.283616 0.000000 0.000000
0.316457 0.000000 0.000000
0.355690 0.000000 0.000000
0.395812 0.000000 0.000158
0.437231 0.000000 0.000549
0.475706 0.000000 0.001072
0.510395 0.000000 0.001765
0.545485 0.000000 0.002101
0.581030 0.000000 0.002030
0.618210 0.000000 0.001968
0.657024 0.000000 0.001917
0.695923 0.000000 0.001418
0.734898 0.000000 0.000524
0.775255 0.000000 0.000095
0.816687 0.000000 0.000027
0.854742 0.000000 0.000000
0.890485 0.000000 0.000000
0.918147 0.000000 0.000000
0.940960 0.000000 0.000000
0.954954 0.000000 0.000000
0.964328 0.000000 0.000000
0.969735 0.000000 0.000279
0.973338 0.000000 0.000686
0.974347 0.000000 0.000508
0.974342 0.000000 0.000102
0.974308 0.000000 0.000000
0.974265 0.000000 0.000000
0.974282 0.000661 0.000000
0.974317 0.001506 0.000000
0.974468 0.012522 0.000000
0.974646 0.025885 0.000000
0.974724 0.042466 0.000000
0.974783 0.059644 0.000000
0.974913 0.081819 0.007703
0.975054 0.104709 0.016507
0.975097 0.130626 0.033541
0.975131 0.156856 0.051427
0.975127 0.174671 0.060645
0.975120 0.191926 0.069285
0.975124 0.207562 0.080331
0.975129 0.223146 0.091454
0.004060 0.010353 0.002074
0.009738 0.010065 0.002075
0.015440 0.009786 0.002076
0.021887 0.009789 0.002078
0.028576 0.009791 0.002013
0.038883 0.009771 0.000957
0.049154 0.009751 0.000000
0.059088 0.009731 0.000000
0.069439 0.009710 0.000000
0.082709 0.009683 0.000000
0.095846 0.009656 0.000000
0.108265 0.009628 0.000000
0.121144 0.009599 0.000000
0.136023 0.009565 0.000000
0.150688 0.009530 0.000000
0.164596 0.009495 0.000000
0.178629 0.009313 0.000000
0.193039 0.008689 0.000000
0.207784 0.008117 0.000000
0.223388 0.007682 0.000000
0.240618 0.007366 0.000000
0.261425 0.007311 0.000000
0.284990 0.007253 0.000000
0.313822 0.007187 0.000000
0.345587 0.007120 0.000000
0.382240 0.007050 0.000000
0.419374 0.006985 0.000078
0.457211 0.006929 0.000270
0.493394 0.007134 0.000527
0.527453 0.007675 0.000869
0.562420 0.008133 0.001034
0.598414 0.008496 0.000999
0.635541 0.008659 0.000969
0.673802 0.008621 0.000943
0.711042 0.008843 0.000698
0.747383 0.009295 0.000258
0.784365 0.009855 0.000047
0.821847 0.010500 0.000014
0.856173 0.011038 0.000000
0.888338 0.011502 0.000000
0.914413 0.012735 0.000000
0.936834 0.014428 0.000000
0.951554 0.017235 0.000000
0.962240 0.020625 0.000000
0.968138 0.023617 0.000137
0.971861 0.026429 0.000337
0.972913 0.029236 0.000250
0.972920 0.032042 0.000050
0.972924 0.035111 0.000438
0.972928 0.038268 0.001023
0.973098 0.042845 0.002608
0.973315 0.047820 0.004474
0.973977 0.059508 0.005896
0.974742 0.072746 0.007216
0.974897 0.088253 0.009409
0.974938 0.104180 0.011764
0.975010 0.123256 0.020654
0.975086 0.142781 0.030479
0.975103 0.165196 0.045102
0.975115 0.187909 0.060221
0.975115 0.204487 0.070444
0.975114 0.220656 0.080340
0.975119 0.236052 0.093283
0.975124 0.251423 0.106324
0.008178 0.020737 0.004206
0.014092 0.020175 0.004181
0.020019 0.019631 0.004157
0.026378 0.019628 0.004159
0.033033 0.019624 0.004032
0.044125 0.019595 0.001950
0.055202 0.019564 0.000060
0.066127 0.019525 0.000028
0.077351 0.019483 0.000000
0.090656 0.019427 0.000000
0.103925 0.019375 0.000000
0.117000 0.019351 0.000000
0.130710 0.019320 0.000000
0.147172 0.019257 0.000000
0.163581 0.019187 0.000004
0.179801 0.019094 0.000025
0.196495 0.018714 0.000041
0.214612 0.017474 0.000045
0.232609 0.016332 0.000042
0.250298 0.015443 0.000017
0.269309 0.014796 0.000000
0.291227 0.014682 0.000000
0.315451 0.014563 0.000000
0.344076 0.014435 0.000000
0.374736 0.014304 0.000000
0.408787 0.014168 0.000000
0.442932 0.014049 0.000000
0.477214 0.013957 0.000000
0.511129 0.014384 0.000000
0.544573 0.015480 0.000000
0.579418 0.016413 0.000000
0.615851 0.017160 0.000000
0.652922 0.017502 0.000000
0.690632 0.017440 0.000000
0.726224 0.017883 0.000000
0.759946 0.018772 0.000000
0.793550 0.019873 0.000000
0.827061 0.021140 0.000000
0.857653 0.022204 0.000000
0.886248 0.023128 0.000000
0.910730 0.025569 0.000000
0.932745 0.028920 0.000000
0.948181 0.034458 0.000000
0.960170 0.041142 0.000000
0.966567 0.047125 0.000000
0.970423 0.052788 0.000000
0.971521 0.058454 0.000000
0.971540 0.064121 0.000000
0.971582 0.070281 0.000900
0.971633 0.076605 0.002099
0.971951 0.085066 0.005294
0.972344 0.094126 0.009049
0.973502 0.106469 0.011927
0.974836 0.119569 0.014604
0.975065 0.134010 0.018973
0.975089 0.148700 0.023656
0.975104 0.164703 0.033652
0.975117 0.180893 0.044408
0.975109 0.199804 0.056669
0.975099 0.218997 0.069087
0.975103 0.234344 0.080343
0.975109 0.249434 0.091521
0.975114 0.264569 0.106277
0.975120 0.279706 0.121148
0.014078 0.032103 0.008106
0.019244 0.031711 0.007222
0.024433 0.031327 0.006365
0.030330 0.031200 0.006363
0.036606 0.031088 0.006224
0.048580 0.031206 0.004044
0.060566 0.031309 0.001970
0.072667 0.031279 0.000919
0.085023 0.031231 0.000000
0.099168 0.031059 0.000000
0.113310 0.031063 0.000000
0.127438 0.032015 0.000000
0.142206 0.032807 0.000000
0.159748 0.032910 0.000000
0.177530 0.032795 0.000145
0.196170 0.031904 0.000810
0.215339 0.030837 0.001347
0.236092 0.029242 0.001498
0.257139 0.027559 0.001377
0.278934 0.025652 0.000561
0.301072 0.024238 0.000000
0.323965 0.023906 0.000000
0.348410 0.023657 0.000000
0.375821 0.023566 0.000000
0.404482 0.023480 0.000000
0.435226 0.023401 0.000000
0.466331 0.023547 0.000000
0.497966 0.024023 0.000000
0.530313 0.025212 0.000000
0.563577 0.027316 0.000000
0.598384 0.029260 0.000000
0.634943 0.031023 0.000000
0.671851 0.032067 0.000000
0.709108 0.032391 0.000000
0.743366 0.033007 0.000000
0.774978 0.033879 0.000000
0.805056 0.034924 0.000000
0.833940 0.036103 0.000000
0.860665 0.037332 0.000000
0.885912 0.038594 0.000000
0.908615 0.041492 0.000000
0.929791 0.045371 0.000000
0.945629 0.051299 0.000000
0.958670 0.058300 0.000000
0.965794 0.067209 0.000000
0.970227 0.076985 0.000000
0.971483 0.087097 0.000000
0.971496 0.097341 0.000000
0.971548 0.107270 0.002074
0.971614 0.117092 0.004840
0.971944 0.128435 0.010389
0.972349 0.140204 0.016718
0.973516 0.152631 0.022129
0.974860 0.165211 0.027329
0.975076 0.178860 0.033361
0.975084 0.192707 0.039548
0.975088 0.206484 0.048102
0.975092 0.220252 0.056994
0.975093 0.235619 0.068468
0.975093 0.251152 0.080209
0.975101 0.265455 0.093357
0.975109 0.279675 0.106600
0.975107 0.293933 0.120561
0.975104 0.308193 0.134544
0.019882 0.043926 0.012403
0.024389 0.043638 0.010627
0.028929 0.043351 0.008904
0.034500 0.043108 0.008831
0.040520 0.042895 0.008622
0.053269 0.043142 0.006370
0.066056 0.043364 0.004139
0.079207 0.043349 0.002125
0.092594 0.043301 0.000363
0.107631 0.043023 0.000361
0.122699 0.043080 0.000347
0.137936 0.044944 0.000270
0.153798 0.046508 0.000209
0.172370 0.046769 0.000213
0.191436 0.046614 0.000483
0.212268 0.044975 0.001703
0.233696 0.043287 0.002687
0.256911 0.041451 0.002962
0.280800 0.039364 0.002735
0.306410 0.036637 0.001223
0.331440 0.034604 0.000185
0.355196 0.034097 0.000188
0.379801 0.033732 0.000174
0.406030 0.033641 0.000126
0.432791 0.033567 0.000085
0.460438 0.033523 0.000057
0.488725 0.033895 0.000032
0.517945 0.034876 0.000011
0.548894 0.036723 0.000000
0.582065 0.039687 0.000000
0.616875 0.042518 0.000000
0.653543 0.045198 0.000000
0.690196 0.046902 0.000000
0.726835 0.047630 0.000000
0.759673 0.048458 0.000000
0.789156 0.049375 0.000000
0.815783 0.050465 0.000000
0.840189 0.051689 0.000000
0.863141 0.053201 0.000016
0.885099 0.054910 0.000044
0.906022 0.058301 0.000082
0.926326 0.062701 0.000125
0.942492 0.068979 0.000157
0.956490 0.076241 0.000182
0.964321 0.087859 0.000257
0.969348 0.101455 0.000356
0.970847 0.115736 0.000540
0.970967 0.130284 0.000758
0.971143 0.143759 0.004112
0.971338 0.156876 0.008512
0.971796 0.170882 0.016300
0.972328 0.185136 0.025037
0.973528 0.197573 0.032767
0.974882 0.209591 0.040265
0.975087 0.222403 0.047818
0.975079 0.235361 0.055380
0.975074 0.247035 0.062557
0.975069 0.258524 0.069680
0.975078 0.270502 0.080311
0.975089 0.282530 0.091304
0.975099 0.295746 0.106097
0.975108 0.309041 0.121144
0.975099 0.322364 0.134287
0.975090 0.335689 0.147369
0.024257 0.062608 0.022646
0.029421 0.061424 0.019487
0.034652 0.060269 0.016392
0.041953 0.060047 0.015279
0.049542 0.059845 0.014114
0.061461 0.059958 0.012162
0.073419 0.060070 0.010192
0.085760 0.060158 0.008048
0.098647 0.060204 0.006168
0.115363 0.059958 0.006131
0.132150 0.060035 0.005896
0.149325 0.061856 0.004594
0.166817 0.063398 0.003548
0.185684 0.063723 0.003617
0.204707 0.063617 0.003765
0.224285 0.061972 0.004195
0.244738 0.060645 0.004535
0.267812 0.060270 0.004605
0.291439 0.059837 0.004437
0.316480 0.059255 0.003659
0.340871 0.058842 0.003142
0.363832 0.058800 0.003204
0.387669 0.058537 0.002961
0.413179 0.057855 0.002137
0.439522 0.057308 0.001443
0.467256 0.056988 0.000966
0.496034 0.057003 0.000542
0.526339 0.057510 0.000195
0.558430 0.058494 0.000000
0.592818 0.060091 0.000000
0.628218 0.061933 0.000000
0.664766 0.064052 0.000000
0.699803 0.065799 0.000000
0.733329 0.067175 0.000000
0.763434 0.068823 0.000000
0.790520 0.070710 0.000000
0.814831 0.073366 0.000000
0.836985 0.076621 0.000000
0.857591 0.080192 0.000278
0.877138 0.083979 0.000747
0.896284 0.088407 0.001387
0.915188 0.093220 0.002130
0.930570 0.099253 0.002664
0.944108 0.105925 0.003087
0.952366 0.116982 0.004372
0.958223 0.130032 0.006048
0.961250 0.144307 0.009178
0.963171 0.159062 0.012879
0.965167 0.172756 0.019101
0.967188 0.186098 0.026164
0.969517 0.199489 0.034453
0.971932 0.212894 0.043085
0.973497 0.224206 0.049939
0.974867 0.235035 0.056382
0.975079 0.246341 0.063296
0.975078 0.257735 0.070299
0.975079 0.269114 0.077092
0.975081 0.280492 0.083856
0.975089 0.291395 0.092821
0.975098 0.302250 0.102015
0.975101 0.313741 0.114718
0.975104 0.325274 0.127655
0.975095 0.336803 0.139644
0.975087 0.348331 0.151602
0.028544 0.081372 0.032937
0.034483 0.079379 0.028501
0.040517 0.077443 0.024136
0.049494 0.077260 0.022003
0.058603 0.077083 0.019890
0.069694 0.076983 0.018076
0.080832 0.076908 0.016223
0.092432 0.077082 0.013989
0.104870 0.077217 0.012023
0.123180 0.077083 0.011930
0.141605 0.077237 0.011477
0.160650 0.078947 0.009089
0.179709 0.080406 0.007168
0.198834 0.080781 0.007274
0.217808 0.080730 0.007278
0.236245 0.079158 0.006922
0.255803 0.078235 0.006626
0.278721 0.079264 0.006511
0.302061 0.080414 0.006397
0.326482 0.081878 0.006283
0.350189 0.083010 0.006238
0.372325 0.083413 0.006343
0.395391 0.083259 0.005888
0.420232 0.082041 0.004366
0.446203 0.081071 0.003058
0.474054 0.080512 0.002109
0.503320 0.080193 0.001259
0.534654 0.080226 0.000553
0.567825 0.080382 0.000130
0.603361 0.080700 0.000069
0.639321 0.081618 0.000029
0.675764 0.083216 0.000010
0.709232 0.085022 0.000000
0.739727 0.087034 0.000000
0.767148 0.089486 0.000000
0.791857 0.092326 0.000000
0.813884 0.096463 0.000046
0.833825 0.101608 0.000127
0.852135 0.107098 0.000767
0.869329 0.112822 0.001791
0.886662 0.118211 0.003075
0.904080 0.123400 0.004515
0.918640 0.129217 0.005573
0.931702 0.135363 0.006430
0.940399 0.145921 0.008974
0.947111 0.158485 0.012286
0.951679 0.172729 0.018210
0.955408 0.187632 0.025157
0.959223 0.201445 0.033957
0.963067 0.214894 0.043375
0.967210 0.227664 0.052109
0.971438 0.240242 0.060651
0.973403 0.250486 0.066804
0.974845 0.260191 0.072405
0.975074 0.269998 0.078842
0.975078 0.279823 0.085434
0.975085 0.290850 0.091798
0.975093 0.302048 0.098130
0.975100 0.311883 0.105368
0.975106 0.321577 0.112700
0.975103 0.331407 0.123356
0.975099 0.341245 0.134233
0.975091 0.350963 0.145070
0.975084 0.360678 0.155905
0.031978 0.100927 0.043701
0.039833 0.098975 0.038998
0.047760 0.097085 0.034349
0.057895 0.097130 0.031388
0.068039 0.097103 0.028409
0.078326 0.096014 0.025162
0.088730 0.095034 0.022038
0.100257 0.095119 0.020105
0.112731 0.095288 0.018367
0.131826 0.096050 0.018006
0.151102 0.096837 0.017369
0.171359 0.097758 0.015243
0.191383 0.098562 0.013492
0.210394 0.098854 0.013368
0.229268 0.098919 0.013030
0.247652 0.098168 0.011926
0.267092 0.098074 0.011071
0.289701 0.099944 0.010958
0.312508 0.102005 0.010846
0.335821 0.104548 0.010737
0.358414 0.106504 0.010664
0.379424 0.107169 0.010672
0.401692 0.107185 0.010169
0.426359 0.105960 0.008692
0.452383 0.105037 0.007151
0.480667 0.104615 0.005502
0.510387 0.104181 0.003966
0.542206 0.103727 0.002594
0.575857 0.103413 0.001514
0.611863 0.103281 0.000811
0.648092 0.103906 0.000333
0.684575 0.105391 0.000111
0.716943 0.107398 0.000000
0.745197 0.109926 0.000000
0.770411 0.113036 0.000000
0.792943 0.116661 0.000000
0.812983 0.121444 0.000532
0.831084 0.127127 0.001477
0.847579 0.133177 0.003449
0.862977 0.139479 0.006124
0.878179 0.145095 0.008455
0.893263 0.150301 0.010578
0.906618 0.156188 0.012373
0.919067 0.162431 0.013995
0.928322 0.173082 0.018292
0.936125 0.185735 0.023804
0.942355 0.199708 0.031040
0.947971 0.214198 0.038950
0.953596 0.227146 0.047528
0.959224 0.239581 0.056328
0.964640 0.251660 0.064963
0.969996 0.263640 0.073551
0.972687 0.273363 0.080710
0.974762 0.282565 0.087538
0.975090 0.290936 0.095037
0.975094 0.299154 0.102660
0.975096 0.309256 0.108159
0.975099 0.319628 0.113354
0.975101 0.328448 0.118263
0.975102 0.337108 0.123142
0.975098 0.345891 0.132163
0.975094 0.354681 0.141460
0.975090 0.362442 0.151169
0.975086 0.370170 0.160891
0.035734 0.121194 0.055575
0.045148 0.119283 0.050461
0.054618 0.117438 0.045389
0.065799 0.117668 0.041602
0.076892 0.117762 0.037769
0.086665 0.115813 0.033226
0.096616 0.114046 0.028942
0.108279 0.114029 0.027150
0.120946 0.114197 0.025512
0.140641 0.115660 0.024956
0.160577 0.116930 0.024190
0.181807 0.117161 0.022300
0.202602 0.117387 0.020685
0.221505 0.117593 0.020265
0.240285 0.117747 0.019552
0.258625 0.117718 0.017794
0.277951 0.118330 0.016443
0.300233 0.120868 0.016314
0.322542 0.123651 0.016170
0.344924 0.127060 0.015983
0.366635 0.129685 0.015819
0.386868 0.130584 0.015703
0.408590 0.130780 0.015136
0.433154 0.129634 0.013708
0.459245 0.128812 0.011963
0.487881 0.128529 0.009690
0.517921 0.128033 0.007574
0.550014 0.127225 0.005688
0.583822 0.126610 0.004136
0.619834 0.126242 0.003014
0.655870 0.126765 0.002262
0.691936 0.128297 0.001931
0.723036 0.130570 0.001767
0.749171 0.133586 0.001768
0.772254 0.137313 0.001802
0.792644 0.141668 0.001864
0.810792 0.147020 0.002914
0.827196 0.153147 0.004733
0.842045 0.159650 0.007920
0.855832 0.166410 0.012044
0.869071 0.172199 0.015319
0.881982 0.177407 0.018085
0.894155 0.183318 0.020522
0.905942 0.189597 0.022786
0.915748 0.200185 0.028497
0.924654 0.212732 0.035774
0.932481 0.226245 0.044010
0.939887 0.240137 0.052621
0.947212 0.252189 0.060880
0.954511 0.263628 0.069021
0.961134 0.274982 0.077505
0.967567 0.286312 0.086085
0.971114 0.295486 0.094006
0.973996 0.304163 0.101774
0.974691 0.311164 0.110082
0.974982 0.317854 0.118490
0.975056 0.327108 0.123175
0.975099 0.336727 0.127329
0.975101 0.344642 0.130245
0.975099 0.352380 0.133034
0.975094 0.360209 0.140578
0.975089 0.368044 0.148440
0.975089 0.374074 0.157178
0.975089 0.380046 0.165944
0.041747 0.146439 0.075220
0.050217 0.144571 0.068689
0.058779 0.142765 0.062219
0.070224 0.142888 0.057627
0.081660 0.142884 0.053017
0.092950 0.140990 0.048141
0.104423 0.139255 0.043464
0.117675 0.139057 0.040706
0.131646 0.138982 0.038262
0.150651 0.139773 0.038013
0.169894 0.140476 0.037516
0.190426 0.140699 0.035675
0.210638 0.140897 0.033959
0.229464 0.140990 0.032784
0.248191 0.141057 0.031478
0.266563 0.141035 0.029703
0.285798 0.141512 0.028304
0.307625 0.143489 0.028038
0.329693 0.145692 0.027612
0.352378 0.148469 0.026774
0.374817 0.150671 0.026067
0.396717 0.151610 0.025646
0.419668 0.152065 0.024904
0.444627 0.151596 0.023549
0.470883 0.151253 0.021812
0.499300 0.151118 0.019438
0.528720 0.150940 0.017487
0.559607 0.150702 0.016157
0.591315 0.150965 0.015420
0.624079 0.151872 0.015447
0.656695 0.153618 0.015564
0.689145 0.156317 0.015783
0.717804 0.159321 0.015900
0.742671 0.162629 0.015915
0.764152 0.166675 0.016219
0.782645 0.171373 0.016778
0.799571 0.176760 0.018574
0.815277 0.182682 0.021333
0.829660 0.188878 0.024918
0.843137 0.195261 0.029069
0.855600 0.200844 0.032577
0.867454 0.205948 0.035699
0.878604 0.211561 0.038112
0.889385 0.217442 0.040154
0.899693 0.226888 0.044912
0.909787 0.237954 0.050903
0.918752 0.249691 0.057960
0.927274 0.261689 0.065432
0.935535 0.272624 0.072699
0.943709 0.283206 0.079898
0.951081 0.293582 0.087866
0.958228 0.303900 0.096049
0.963546 0.312328 0.103031
0.968442 0.320321 0.109736
0.971391 0.326410 0.117083
0.973978 0.332145 0.124549
0.974656 0.341075 0.128784
0.975061 0.350461 0.132559
0.975098 0.358229 0.135839
0.975096 0.365829 0.139069
0.975094 0.373361 0.146250
0.975092 0.380889 0.153693
0.975097 0.386775 0.162558
0.975102 0.392609 0.171470
0.047435 0.171923 0.094928
0.055082 0.170082 0.087202
0.062845 0.168301 0.079546
0.074253 0.168344 0.074064
0.085761 0.168268 0.068591
0.098764 0.166411 0.063233
0.111931 0.164697 0.058028
0.126677 0.164362 0.054293
0.141873 0.164096 0.051020
0.160230 0.164306 0.050984
0.178846 0.164517 0.050676
0.198868 0.164732 0.048897
0.218644 0.164879 0.047109
0.237356 0.164730 0.045286
0.256011 0.164614 0.043477
0.274464 0.164611 0.041721
0.293657 0.164983 0.040276
0.315067 0.166475 0.039760
0.336899 0.168171 0.038998
0.359807 0.170385 0.037611
0.382893 0.172177 0.036454
0.406370 0.173040 0.035804
0.430524 0.173630 0.034913
0.455972 0.173698 0.033558
0.482446 0.173749 0.031834
0.510628 0.173769 0.029494
0.539400 0.173918 0.027776
0.569035 0.174254 0.026968
0.598637 0.175371 0.026961
0.628200 0.177492 0.027985
0.657428 0.180416 0.028883
0.686277 0.184249 0.029641
0.712453 0.187982 0.030065
0.735956 0.191614 0.030155
0.755787 0.195956 0.030709
0.772378 0.200923 0.031671
0.788049 0.206294 0.034041
0.803006 0.211979 0.037506
0.816915 0.217835 0.041364
0.830105 0.223807 0.045489
0.841938 0.229215 0.049176
0.852957 0.234285 0.052598
0.863241 0.239690 0.055065
0.873142 0.245271 0.057031
0.883838 0.253642 0.060973
0.894895 0.263280 0.065815
0.904915 0.273242 0.071843
0.914529 0.283332 0.078337
0.923741 0.293073 0.084679
0.932819 0.302697 0.090971
0.940952 0.312063 0.098325
0.948820 0.321356 0.105976
0.955813 0.328932 0.111994
0.962604 0.336112 0.117637
0.967643 0.341349 0.123915
0.972356 0.346227 0.130311
0.973860 0.354775 0.134223
0.974905 0.363846 0.137779
0.975045 0.371476 0.141482
0.975092 0.378957 0.145199
0.975096 0.386268 0.152093
0.975097 0.393568 0.159199
0.975107 0.399334 0.168259
0.975117 0.405050 0.177381
0.051367 0.198691 0.114976
0.058845 0.196795 0.107252
0.066394 0.194963 0.099555
0.076139 0.195077 0.092733
0.086261 0.195065 0.085923
0.102043 0.193151 0.079284
0.117820 0.191396 0.072820
0.133544 0.191171 0.068045
0.149545 0.190989 0.063824
0.167482 0.191107 0.063483
0.185825 0.191238 0.062937
0.206358 0.191442 0.061285
0.226490 0.191406 0.059588
0.244880 0.190325 0.057692
0.263362 0.189500 0.055874
0.282172 0.189589 0.054336
0.301581 0.190011 0.052839
0.322784 0.191431 0.051466
0.344408 0.193022 0.050086
0.367107 0.195046 0.048690
0.390391 0.196488 0.047587
0.414962 0.196653 0.047127
0.440178 0.196709 0.046224
0.466627 0.196556 0.044478
0.493604 0.196543 0.042794
0.521464 0.196763 0.041217
0.549434 0.197274 0.040090
0.577566 0.198211 0.039625
0.605034 0.200056 0.039887
0.631650 0.203068 0.041083
0.657662 0.206913 0.042296
0.682990 0.211702 0.043527
0.706464 0.216161 0.044395
0.728082 0.220290 0.044900
0.746001 0.224794 0.045593
0.760656 0.229630 0.046451
0.774904 0.234714 0.048464
0.788836 0.239991 0.051375
0.802227 0.245326 0.054826
0.815247 0.250702 0.058645
0.827244 0.256103 0.062217
0.838626 0.261521 0.065640
0.848899 0.267197 0.068574
0.858593 0.273009 0.071252
0.869056 0.280665 0.075128
0.879868 0.289159 0.079547
0.890502 0.297369 0.085373
0.901065 0.305469 0.091749
0.911312 0.313591 0.097523
0.921454 0.321721 0.103097
0.930412 0.329904 0.109308
0.939038 0.338102 0.115698
0.947190 0.344245 0.120625
0.955232 0.349913 0.125213
0.961480 0.354634 0.129839
0.967395 0.359179 0.134471
0.970923 0.367029 0.138737
0.974109 0.375352 0.142951
0.974726 0.382889 0.147382
0.975077 0.390345 0.151836
0.975107 0.397846 0.158869
0.975115 0.405351 0.166073
0.975129 0.411124 0.175686
0.975143 0.416840 0.185377
0.052311 0.226590 0.134065
0.059556 0.224633 0.126649
0.066833 0.222738 0.119229
0.075134 0.222762 0.111683
0.084055 0.222673 0.104159
0.102285 0.220881 0.096971
0.120405 0.219244 0.089943
0.137456 0.219101 0.084457
0.154649 0.218983 0.079507
0.172841 0.219039 0.078317
0.191529 0.219113 0.076992
0.212895 0.219291 0.074942
0.233685 0.219092 0.072906
0.251980 0.217266 0.070936
0.270492 0.215833 0.069082
0.289777 0.215805 0.067647
0.309532 0.216157 0.066050
0.330696 0.217655 0.063968
0.352251 0.219264 0.062061
0.374807 0.221156 0.060598
0.398188 0.222327 0.059499
0.423383 0.221910 0.059201
0.449159 0.221512 0.058278
0.476040 0.221150 0.056162
0.503038 0.221064 0.054462
0.530230 0.221437 0.053456
0.557158 0.222230 0.052794
0.583701 0.223636 0.052636
0.609104 0.225996 0.053082
0.633041 0.229580 0.054306
0.656175 0.233980 0.055715
0.678397 0.239306 0.057332
0.699406 0.244203 0.058570
0.719202 0.248669 0.059431
0.735499 0.253234 0.060244
0.748710 0.257886 0.061016
0.761811 0.262668 0.062669
0.774827 0.267552 0.065007
0.787817 0.272384 0.068013
0.800790 0.277183 0.071476
0.812988 0.282419 0.074916
0.824722 0.287919 0.078343
0.835036 0.293623 0.081659
0.844606 0.299434 0.084916
0.854903 0.306361 0.088723
0.865529 0.313793 0.092780
0.876614 0.320453 0.098269
0.887878 0.326811 0.104318
0.899000 0.333426 0.109518
0.910074 0.340127 0.114433
0.919846 0.347213 0.119596
0.929253 0.354406 0.124827
0.938424 0.359385 0.128813
0.947539 0.363852 0.132512
0.954949 0.368132 0.135683
0.962043 0.372376 0.138757
0.967440 0.379531 0.143216
0.972594 0.387102 0.147873
0.974011 0.394443 0.152836
0.975042 0.401761 0.157831
0.975120 0.409261 0.165082
0.975134 0.416773 0.172484
0.975151 0.422554 0.182639
0.975168 0.428278 0.192883
0.040306 0.259388 0.149000
0.047033 0.257342 0.143222
0.053794 0.255337 0.137450
0.061602 0.254571 0.131850
0.070124 0.253797 0.126315
0.089368 0.252900 0.121751
0.108673 0.252070 0.117167
0.128559 0.251889 0.112394
0.148630 0.251747 0.107668
0.169996 0.251870 0.103270
0.191710 0.251986 0.098821
0.215300 0.252070 0.094092
0.238063 0.251807 0.089865
0.257241 0.250046 0.087813
0.276659 0.248440 0.085809
0.296933 0.247385 0.083978
0.317602 0.247149 0.082069
0.339455 0.249372 0.079924
0.361545 0.251537 0.077880
0.384241 0.253552 0.076090
0.407278 0.254782 0.074782
0.431065 0.254286 0.074531
0.455220 0.253783 0.073547
0.480075 0.253265 0.071161
0.504996 0.253064 0.069197
0.530025 0.253391 0.067934
0.554872 0.254118 0.067183
0.579454 0.255427 0.067180
0.603090 0.257376 0.067449
0.625510 0.260148 0.068067
0.647224 0.263517 0.069158
0.668140 0.267564 0.070784
0.687720 0.271647 0.072076
0.705967 0.275766 0.073033
0.721901 0.279948 0.073885
0.735796 0.284186 0.074646
0.748945 0.288602 0.075926
0.761515 0.293159 0.077610
0.774611 0.297566 0.080010
0.788068 0.301870 0.082900
0.800635 0.306255 0.086136
0.812668 0.310689 0.089579
0.823245 0.315367 0.092903
0.833059 0.320173 0.096164
0.843476 0.326303 0.099896
0.854169 0.333035 0.103842
0.865003 0.339015 0.108415
0.875892 0.344702 0.113233
0.887191 0.350296 0.117827
0.898626 0.355859 0.122347
0.909167 0.362215 0.126865
0.919457 0.368792 0.131381
0.929038 0.373773 0.135088
0.938455 0.378384 0.138608
