Plugins/FilmEmulator/Content/LUTs/FE_Kodak_Aerocolor_2460_Low_64.cube
TITLE "FE_Kodak_Aerocolor_2460_Low_33"
LUT_3D_SIZE 8
0.0012540 0.0018339 0.0009742
0.0727305 0.0041617 0.0037910
0.1770350 0.0095207 0.0105873
0.3096937 0.0159027 0.0192792
0.4187370 0.0228431 0.0291364
0.5085050 0.0300673 0.0403578
0.5854648 0.0373978 0.0521267
0.6511406 0.0451606 0.0647300
0.0024554 0.0630635 0.0072672
0.0782422 0.0764223 0.0157923
0.1884027 0.0863821 0.0252762
0.3165392 0.0940276 0.0363225
0.4254869 0.1042577 0.0494299
0.5145941 0.1122826 0.0627773
0.6001841 0.1234250 0.0750411
0.6557565 0.1319303 0.0895029
0.0063957 0.1507091 0.0207263
0.0837255 0.1696621 0.0312268
0.1965631 0.1803149 0.0437112
0.3278512 0.1938574 0.0557623
0.4374397 0.2027410 0.0704275
0.5273418 0.2108091 0.0837264
0.6031123 0.2238730 0.0997063
0.6672900 0.2318944 0.1150065
0.0119907 0.2434544 0.0367337
0.0890845 0.2613378 0.0497946
0.2041723 0.2745896 0.0632353
0.3296927 0.2863858 0.0773862
0.4395135 0.2972541 0.0919700
0.5294560 0.3074330 0.1061186
0.6050352 0.3176044 0.1223383
0.6689690 0.3213497 0.1404618
0.0192760 0.3300968 0.0577432
0.0920526 0.3474304 0.0689201
0.2115433 0.3555920 0.0840465
0.3394640 0.3687513 0.0998526
0.4498104 0.3806772 0.1150965
0.5309807 0.3921299 0.1325932
0.6063815 0.3958480 0.1479381
0.6703337 0.4066092 0.1647811
0.0267018 0.4065119 0.0789020
0.0975712 0.4234139 0.0910912
0.2189476 0.4316031 0.1078487
0.3486339 0.4450806 0.1242567
0.4509438 0.4495527 0.1387757
0.5416802 0.4611373 0.1550640
0.6167690 0.4724316 0.1724512
0.6713554 0.4753450 0.1862067
0.0343016 0.4712608 0.1007810
0.1005731 0.4869913 0.1129589
0.2196283 0.4946728 0.1297979
0.3495559 0.5089421 0.1492148
0.4519562 0.5134510 0.1659271
0.5427088 0.5250182 0.1796773
0.6176321 0.5288740 0.1988132
0.6809943 0.5399441 0.2143189
0.0420458 0.5320126 0.1245868
0.1064937 0.5475020 0.1394722
0.2270148 0.5544423 0.1554871
0.3585592 0.5678942 0.1730567
0.4617402 0.5717263 0.1868520
0.5435187 0.5756238 0.2065761
0.6185336 0.5866138 0.2223316
0.6817078 0.5895921 0.2383724
0.0065875 0.0183994 0.0781861
0.0902777 0.0257900 0.0923414
0.2035939 0.0322410 0.1052344
0.3291572 0.0391315 0.1228546
0.4388089 0.0459021 0.1348189
0.5299211 0.0537784 0.1517217
0.6058761 0.0610536 0.1656485
0.6615162 0.0675636 0.1798154
0.0092512 0.1019341 0.1073212
0.0975797 0.1133044 0.1240647
0.2140223 0.1221840 0.1390920
0.3421055 0.1310075 0.1553289
0.4441232 0.1431131 0.1690709
0.5349135 0.1523350 0.1832962
0.6102859 0.1578727 0.1976013
0.6743085 0.1676109 0.2132052
0.0131897 0.1982733 0.1346803
0.1013341 0.2114197 0.1503468
0.2227625 0.2258878 0.1676450
0.3448063 0.2342940 0.1814740
0.4556763 0.2423876 0.1958950
0.5375435 0.2501458 0.2109319
0.6129225 0.2635514 0.2272744
0.6766303 0.2711207 0.2385157
0.0204844 0.2918628 0.1597808
0.1079220 0.3074756 0.1775970
0.2308636 0.3128597 0.1916788
0.3545858 0.3233289 0.2065418
0.4575311 0.3331872 0.2221978
0.5489496 0.3429155 0.2387101
0.6145981 0.3518399 0.2503728
0.6781831 0.3614347 0.2684571
0.0274527 0.3746583 0.1865338
0.1115544 0.3834586 0.2010405
0.2319252 0.3964029 0.2163889
0.3641789 0.4083120 0.2325943
0.4590427 0.4185742 0.2440367
0.5503402 0.4219777 0.2612218
0.6252789 0.4319298 0.2737058
0.6794189 0.4421545 0.2928637
0.0351988 0.4432008 0.2098235
0.1152464 0.4587407 0.2256639
0.2397478 0.4648731 0.2418782
0.3652291 0.4764658 0.2536347
0.4690478 0.4877828 0.2718432
0.5514751 0.4905532 0.2841102
0.6263573 0.5007203 0.2972716
0.6889118 0.5032229 0.3102258
0.0431521 0.5067569 0.2342983
0.1223256 0.5222548 0.2514747
0.2476716 0.5277436 0.2630509
0.3745001 0.5404307 0.2817683
0.4699559 0.5435097 0.2943136
0.5620088 0.5544150 0.3077951
0.6272265 0.5568644 0.3210104
0.6898273 0.5672823 0.3354564
0.0511512 0.5657596 0.2604494
0.1261325 0.5718569 0.2723480
0.2557127 0.5851360 0.2852059
0.3752547 0.5895321 0.3042883
0.4797993 0.6004720 0.3180331
0.5628114 0.6031606 0.3314897
0.6372218 0.6057737 0.3458332
0.6905358 0.6160922 0.3611681
0.0191246 0.0440935 0.1928971
0.1106386 0.0517793 0.2092312
0.2317272 0.0593567 0.2213641
0.3552301 0.0676623 0.2395159
0.4584677 0.0748345 0.2524434
0.5411823 0.0806758 0.2653918
0.6168174 0.0887926 0.2792074
0.6716929 0.0958541 0.2936446
0.0229510 0.1346966 0.2312613
0.1157633 0.1464809 0.2432433
0.2420924 0.1569751 0.2556655
0.3592530 0.1674686 0.2745527
0.4626927 0.1778103 0.2880038
0.5453730 0.1883753 0.3021304
0.6205491 0.1946417 0.3163555
0.6837822 0.2050353 0.3244495
0.0263138 0.2347538 0.2593214
0.1201869 0.2468048 0.2717316
0.2440795 0.2618273 0.2850498
0.3699136 0.2706399 0.2982269
0.4651585 0.2788350 0.3120421
0.5572202 0.2871017 0.3265029
0.6227716 0.2951154 0.3413189
0.6857214 0.3032887 0.3564695
0.0300053 0.3239501 0.2852039
0.1243831 0.3383615 0.2983959
0.2526379 0.3499927 0.3119481
0.3715384 0.3604026 0.3264193
0.4757977 0.3703336 0.3412462
0.5588402 0.3729580 0.3557990
0.6335881 0.3819587 0.3638044
0.6871512 0.3912885 0.3794240
0.0371670 0.4094430 0.3110832
0.1321128 0.4173601 0.3246644
0.2610421 0.4300019 0.3394557
0.3812158 0.4407115 0.3472843
0.4770681 0.4437972 0.3619607
0.5602278 0.4540308 0.3775454
0.6347816 0.4567159 0.3927666
0.6882581 0.4659044 0.4010476
0.0442915 0.4779810 0.3299345
0.1363330 0.4854379 0.3442445
0.2619081 0.4982268 0.3594733
0.3821660 0.5022001 0.3743844
0.4871218 0.5124364 0.3825697
0.5706871 0.5152845 0.3978700
0.6358474 0.5253042 0.4138899
0.6976093 0.5272535 0.4216378
0.0524427 0.5346870 0.3558926
0.1406243 0.5493754 0.3713997
0.2699617 0.5540649 0.3789307
0.3916292 0.5659121 0.3948555
0.4880505 0.5690023 0.4102761
0.5716021 0.5712167 0.4180031
0.6458638 0.5817360 0.4342871
0.6984097 0.5834533 0.4421399
0.0603232 0.5919398 0.3753901
0.1453073 0.5979272 0.3905768
0.2780899 0.6030722 0.4059975
0.3924034 0.6141973 0.4144557
0.4888680 0.6171768 0.4300002
0.5725504 0.6274797 0.4385914
0.6466280 0.6300274 0.4543652
0.6991155 0.6316767 0.4622952
0.0348607 0.0704211 0.3086860
0.1280770 0.0790120 0.3174242
0.2542647 0.0859654 0.3328911
0.3730927 0.0953760 0.3493301
0.4776269 0.1033625 0.3582604
0.5615232 0.1093998 0.3741077
0.6273366 0.1181006 0.3832862
0.6901329 0.1283758 0.4003026
0.0386007 0.1716937 0.3428138
0.1334966 0.1805990 0.3580240
0.2645287 0.1925616 0.3666957
0.3850787 0.2041344 0.3828249
0.4812381 0.2104428 0.3909783
0.5651177 0.2219732 0.4074771
0.6305515 0.2282616 0.4158165
0.6929728 0.2402794 0.4326492
0.0424349 0.2706952 0.3694831
0.1426057 0.2827455 0.3851312
0.2663246 0.2923281 0.3933097
0.3871675 0.3016159 0.4092228
0.4834545 0.3098861 0.4175793
0.5671917 0.3186666 0.4338134
0.6417121 0.3269640 0.4423238
0.6946797 0.3350554 0.4508725
0.0464599 0.3605035 0.3933177
0.1477469 0.3675491 0.4085993
0.2750295 0.3787572 0.4169696
0.3972358 0.3895480 0.4332036
0.4940249 0.3991232 0.4417172
0.5782354 0.4085171 0.4502703
0.6431215 0.4109367 0.4661276
0.6959844 0.4199239 0.4746436
0.0493167 0.4335841 0.4151119
0.1529263 0.4484183 0.4313231
0.2836246 0.4529199 0.4391644
0.3984483 0.4640678 0.4556086
0.4952976 0.4740565 0.4642108
0.5793587 0.4763086 0.4721701
0.6442987 0.4857143 0.4806967
0.7054242 0.4956976 0.4966317
0.0537689 0.5022789 0.4365813
0.1580559 0.5095742 0.4523395
0.2845372 0.5214661 0.4609315
0.4080187 0.5248038 0.4688830
0.4963114 0.5352324 0.4853880
0.5803515 0.5374603 0.4930221
0.6452435 0.5473331 0.5013806
0.7061766 0.5492459 0.5090249
0.0618522 0.5591168 0.4572133
0.1632831 0.5651857 0.4651536
0.2930422 0.5779684 0.4818096
0.4089199 0.5810458 0.4896836
0.5061959 0.5913118 0.4980395
0.5812775 0.5933108 0.5056836
0.6551539 0.6036315 0.5216858
0.7069715 0.6052964 0.5293207
0.0711270 0.6083283 0.4774339
0.1686705 0.6218643 0.4861929
0.3016093 0.6260214 0.4940731
0.4183955 0.6294807 0.5093587
0.5070354 0.6397303 0.5177754
0.5914441 0.6418179 0.5254148
0.6559280 0.6515352 0.5338160
0.7076828 0.6531191 0.5414332
0.0505179 0.0973715 0.4102325
0.1488107 0.1069608 0.4197292
0.2773284 0.1165413 0.4292932
0.3910372 0.1240171 0.4457905
0.4877452 0.1349407 0.4553243
0.5721866 0.1429417 0.4642294
0.6376333 0.1511765 0.4731624
0.6994563 0.1598160 0.4821178
0.0540928 0.2036250 0.4372790
0.1551563 0.2177289 0.4542115
0.2876937 0.2257187 0.4624273
0.4027202 0.2329229 0.4706681
0.4998360 0.2450962 0.4795787
0.5751646 0.2523541 0.4954909
0.6494329 0.2593818 0.5037872
0.7019131 0.2719595 0.5127463
0.0575918 0.3012472 0.4645976
0.1609185 0.3129146 0.4728621
0.2893955 0.3235485 0.4887737
0.4047378 0.3327946 0.4970829
0.5018260 0.3416321 0.5053975
0.5864959 0.3503502 0.5137134
0.6512651 0.3588673 0.5220255
0.7034987 0.3673145 0.5303295
0.0629002 0.3895450 0.4885207
0.1665416 0.3953587 0.4961586
0.2984685 0.4067489 0.5044799
0.4148502 0.4170259 0.5128025
0.5033487 0.4266233 0.5211217
0.5878569 0.4288129 0.5287580
0.6525458 0.4386192 0.5446683
0.7046787 0.4477524 0.5529335
0.0667471 0.4637091 0.5029123
0.1721883 0.4702435 0.5181997
0.3075024 0.4820947 0.5265114
0.4159561 0.4850107 0.5341418
0.5134332 0.4950190 0.5424287
0.5890951 0.5045983 0.5506960
0.6535912 0.5065082 0.5582740
0.7139137 0.5159526 0.5665854
0.0707483 0.5250975 0.5235728
0.1778411 0.5309855 0.5312067
0.3083611 0.5431692 0.5395454
0.4256705 0.5462542 0.5471525
0.5144636 0.5565222 0.5554519
0.5992702 0.5587605 0.5630158
0.6634775 0.5685736 0.5713533
0.7146677 0.5702853 0.5789517
0.0749553 0.5815297 0.5362133
0.1836030 0.5871686 0.5438275
0.3172882 0.5995865 0.5597091
0.4265918 0.6023965 0.5672596
0.5152752 0.6046493 0.5748755
0.6001846 0.6145021 0.5831606
0.6642087 0.6157954 0.5831622
0.7154490 0.6250495 0.5914039
0.0793639 0.6306372 0.5558335
0.1894480 0.6359299 0.5633968
0.3262739 0.6478559 0.5716949
0.4361685 0.6505281 0.5792933
0.5252742 0.6526751 0.5868570
0.6010145 0.6624180 0.5951320
0.6649832 0.6641521 0.6026126
0.7160459 0.6657169 0.6100483
0.0667351 0.1270665 0.4926645
0.1731546 0.1398643 0.5023223
0.3015082 0.1490858 0.5113127
0.4179579 0.1582379 0.5203008
0.5066367 0.1676065 0.5294037
0.5825941 0.1772742 0.5384918
0.6567332 0.1874053 0.5475596
0.7085893 0.1930545 0.5559204
0.0713115 0.2377772 0.5177519
0.1799890 0.2472920 0.5260432
0.3119717 0.2558070 0.5343270
0.4206409 0.2635536 0.5426941
0.5093969 0.2767431 0.5516929
0.5944848 0.2843740 0.5600132
0.6589962 0.2918535 0.5683033
0.7106621 0.2993002 0.5765588
0.0758300 0.3329002 0.5435421
0.1864243 0.3446802 0.5519006
0.3136647 0.3550677 0.5602342
0.4224578 0.3577186 0.5678770
0.5203024 0.3668806 0.5761490
0.5961848 0.3752165 0.5768089
0.6605883 0.3840089 0.5850383
0.7121246 0.3927101 0.5932244
0.0783339 0.4171906 0.5592431
0.1930385 0.4228583 0.5668893
0.3230671 0.4341718 0.5751724
0.4326695 0.4444398 0.5834169
0.5217003 0.4467455 0.5909604
0.5975406 0.4562681 0.5991189
0.6618560 0.4656658 0.6072262
0.7131815 0.4668299 0.6072274
0.0830499 0.4848851 0.5728647
0.1938116 0.4979275 0.5811161
0.3240549 0.5019746 0.5886722
0.4337860 0.5123923 0.5968402
0.5228419 0.5147345 0.6043116
0.6078789 0.5245171 0.6123806
0.6716077 0.5264419 0.6197536
0.7222872 0.5356739 0.6277077
0.0879985 0.5473237 0.5933291
0.2005063 0.5521619 0.5933320
0.3333104 0.5640960 0.6015165
0.4434472 0.5669516 0.6089606
0.5334586 0.5771501 0.6170400
0.6087623 0.5791950 0.6243809
0.6725482 0.5889047 0.6323403
0.7230417 0.5905985 0.6395648
0.0906668 0.5953022 0.6049659
0.2074050 0.6083184 0.6130741
0.3425006 0.6121827 0.6204439
0.4443780 0.6218473 0.6211268
0.5342677 0.6240768 0.6284386
0.6096761 0.6339636 0.6363985
0.6732757 0.6357657 0.6435901
0.7237052 0.6374052 0.6509329
0.0959673 0.6438814 0.6166847
0.2144257 0.6567336 0.6247590
0.3432667 0.6602200 0.6320446
0.4539077 0.6628262 0.6392727
0.5351350 0.6720104 0.6399929
0.6103733 0.6738666 0.6471546
0.6739223 0.6755916 0.6544653
0.7244119 0.6847343 0.6625088
0.0833175 0.1622428 0.5601678
0.1958141 0.1736149 0.5691632
0.3266959 0.1802579 0.5774456
0.4362684 0.1909966 0.5863576
0.5262800 0.2018901 0.5952175
0.6020906 0.2125402 0.5965270
0.6663344 0.2186312 0.6046273
0.7175697 0.2297403 0.6135188
0.0888180 0.2691863 0.5821909
0.2036497 0.2792217 0.5903806
0.3289753 0.2881683 0.5985249
0.4387034 0.2965079 0.6066185
0.5286266 0.3045415 0.6146573
0.6042295 0.3124874 0.6228571
0.6683258 0.3199126 0.6234806
0.7192894 0.3277867 0.6317177
0.0918102 0.3579959 0.6062130
0.2111553 0.3694111 0.6068605
0.3389402 0.3799351 0.6149110
0.4404296 0.3895110 0.6229025
0.5303861 0.3989060 0.6310529
0.6058058 0.4009187 0.6386124
0.6697949 0.4094613 0.6392436
0.7206336 0.4184555 0.6473559
0.0973575 0.4375080 0.6206905
0.2120680 0.4495201 0.6213352
0.3482147 0.4609670 0.6292831
0.4504831 0.4636639 0.6367496
0.5412141 0.4735392 0.6448852
0.6163203 0.4831277 0.6529385
0.6709322 0.4842962 0.6529399
0.7216710 0.4935597 0.6609093
0.1003976 0.5054854 0.6336946
0.2193950 0.5182797 0.6417491
0.3491259 0.5215317 0.6417522
0.4516091 0.5317572 0.6498372
0.5422229 0.5341449 0.6572289
0.6172852 0.5437312 0.6651529
0.6805525 0.5450901 0.6651545
0.7305107 0.5543045 0.6729892
0.1063462 0.5681890 0.6462655
0.2267564 0.5732879 0.6536919
0.3582213 0.5843104 0.6543502
0.4613727 0.5869715 0.6616985
0.5432826 0.5969114 0.6696134
0.6181777 0.5989542 0.6768028
0.6813763 0.6002744 0.6768043
0.7312652 0.6096848 0.6845398
0.1097108 0.6156009 0.6576116
0.2342189 0.6205603 0.6649280
0.3589664 0.6313773 0.6656092
0.4621840 0.6339335 0.6728421
0.5536288 0.6442006 0.6806755
0.6282821 0.6461563 0.6877404
0.6821029 0.6472366 0.6877418
0.7319328 0.6567587 0.6953847
0.1131927 0.6641785 0.6690663
0.2418984 0.6688922 0.6762627
0.3678781 0.6715907 0.6762658
0.4719307 0.6816343 0.6840573
0.5543506 0.6835880 0.6910828
0.6289665 0.6849215 0.6910846
0.6828684 0.6939220 0.6986833
0.7325116 0.6954393 0.7055279
0.1009434 0.1957759 0.6180584
0.2219475 0.2038943 0.6263692
0.3438472 0.2157801 0.6351984
0.4546136 0.2222034 0.6358101
0.5365926 0.2337674 0.6445359
0.6118894 0.2404274 0.6525741
0.6757797 0.2524612 0.6611199
0.7261689 0.2587800 0.6617107
0.1045830 0.2965588 0.6374187
0.2235353 0.3069584 0.6455321
0.3539290 0.3164106 0.6535665
0.4568109 0.3245586 0.6541693
0.5482253 0.3331890 0.6621252
0.6139013 0.3415071 0.6699933
0.6775364 0.3499624 0.6777704
0.7277694 0.3578072 0.6783635
0.1113597 0.3900898 0.6535179
0.2314972 0.3948717 0.6608748
0.3554168 0.4055401 0.6687635
0.4584402 0.4148637 0.6693714
0.5498614 0.4245179 0.6771621
0.6247018 0.4265770 0.6842672
0.6788782 0.4350990 0.6848593
0.7289906 0.4442517 0.6924581
0.1150474 0.4642740 0.6669685
0.2394924 0.4767996 0.6747839
0.3647891 0.4803990 0.6819174
0.4685715 0.4900250 0.6825092
0.5509990 0.4922516 0.6895528
0.6259034 0.5018749 0.6970870
0.6886021 0.5107526 0.6976627
0.7299056 0.5123251 0.7045200
0.1187370 0.5250016 0.6789408
0.2473974 0.5376055 0.6866124
0.3740298 0.5405961 0.6866155
0.4695791 0.5505981 0.6941884
0.5615001 0.5529988 0.7010911
0.6268674 0.5628411 0.7085053
0.6893783 0.5641904 0.7085069
0.7385956 0.5738277 0.7158068
0.1260187 0.5883314 0.6909233
0.2480831 0.5929939 0.6978671
0.3749008 0.5959058 0.6978702
0.4794207 0.6062692 0.7053305
0.5624354 0.6084221 0.7120894
0.6369909 0.6175418 0.7126864
0.6901972 0.6192172 0.7193384
0.7393360 0.6284677 0.7264616
0.1299332 0.6359631 0.7016011
0.2560450 0.6404605 0.7084102
0.3840772 0.6432282 0.7084134
0.4802568 0.6535107 0.7157685
0.5632643 0.6555573 0.7223786
0.6377828 0.6647622 0.7230075
0.6909315 0.6663458 0.7295007
0.7398935 0.6674038 0.7295019
0.1339076 0.6759278 0.7116264
0.2640112 0.6796973 0.7116297
0.3848973 0.6901782 0.7189373
0.4809828 0.6923776 0.7255034
0.5639829 0.6937991 0.7255055
0.6384606 0.7029630 0.7325768
0.6999955 0.7046143 0.7389297
0.7404614 0.7054425 0.7389307
