Plugins/FilmEmulator/Content/LUTs/FE_Kodak_5219_64.cube
TITLE "FE_Kodak_5219_33"
LUT_3D_SIZE 8
0.0020791 0.0013526 0.0018791
0.0797393 0.0027930 0.0033298
0.1847802 0.0053589 0.0064151
0.2789136 0.0094687 0.0108848
0.3734257 0.0142623 0.0167425
0.4431079 0.0199606 0.0222653
0.5159704 0.0259502 0.0284539
0.5706396 0.0324660 0.0350665
0.0040831 0.0873800 0.0040925
0.0821588 0.0981579 0.0071206
0.1805693 0.1058194 0.0122704
0.2824855 0.1178202 0.0180245
0.3706450 0.1265170 0.0245730
0.4415665 0.1356754 0.0311915
0.5060922 0.1453311 0.0382212
0.5617008 0.1555209 0.0452301
0.0077516 0.2164990 0.0083139
0.0890217 0.2317512 0.0127286
0.1884888 0.2396662 0.0185990
0.2861720 0.2475282 0.0252881
0.3664968 0.2553912 0.0320344
0.4465179 0.2633513 0.0391755
0.5111513 0.2792245 0.0463374
0.5669136 0.2875489 0.0546861
0.0128874 0.3424595 0.0146613
0.0971628 0.3531147 0.0197194
0.1979547 0.3630962 0.0258276
0.2912334 0.3729533 0.0326714
0.3724694 0.3734909 0.0398893
0.4437191 0.3832285 0.0471055
0.5085123 0.3930450 0.0555686
0.5643057 0.4028794 0.0633530
0.0187610 0.4467622 0.0217330
0.1062386 0.4581553 0.0272251
0.2023869 0.4688965 0.0343495
0.2971929 0.4695100 0.0404828
0.3790600 0.4799193 0.0477713
0.4507202 0.4903052 0.0563300
0.5158588 0.4906990 0.0641205
0.5715467 0.5009972 0.0730242
0.0254681 0.5365474 0.0298382
0.1125785 0.5477807 0.0360958
0.2133196 0.5485569 0.0424277
0.3034000 0.5589536 0.0500029
0.3862796 0.5594146 0.0569185
0.4583514 0.5695926 0.0648401
0.5142497 0.5699569 0.0737528
0.5699591 0.5799782 0.0812047
0.0322534 0.6051340 0.0380654
0.1232606 0.6157832 0.0444957
0.2185513 0.6164291 0.0505489
0.3101939 0.6169405 0.0574812
0.3937459 0.6267544 0.0654353
0.4571647 0.6271261 0.0744011
0.5222095 0.6367193 0.0818883
0.5687734 0.6369897 0.0900199
0.0395242 0.6609901 0.0467980
0.1307484 0.6708094 0.0529152
0.2240179 0.6713931 0.0600519
0.3170835 0.6718721 0.0681967
0.3926143 0.6809257 0.0750765
0.4652224 0.6812441 0.0825073
0.5212134 0.6815203 0.0906674
0.5768059 0.6903727 0.0996684
0.0079981 0.0034883 0.1044363
0.0958014 0.0064179 0.1106673
0.1998250 0.0103262 0.1185396
0.2998157 0.0149717 0.1268629
0.3806678 0.0201709 0.1355691
0.4603767 0.0261999 0.1446791
0.5243353 0.0327546 0.1542296
0.5788516 0.0408964 0.1643487
0.0124041 0.0993282 0.1223609
0.1000058 0.1070938 0.1280075
0.1970612 0.1190684 0.1356063
0.2974699 0.1277147 0.1436890
0.3791570 0.1368406 0.1524001
0.4505835 0.1464689 0.1616417
0.5152576 0.1566509 0.1713898
0.5707352 0.1673717 0.1764979
0.0178498 0.2337261 0.1334304
0.1047921 0.2417881 0.1397280
0.2057694 0.2495248 0.1475508
0.3014189 0.2572899 0.1561063
0.3836392 0.2728531 0.1654356
0.4555396 0.2809601 0.1751343
0.5205162 0.2891544 0.1800924
0.5668967 0.2974996 0.1906259
0.0241273 0.3553281 0.1480519
0.1141644 0.3654701 0.1506199
0.2097789 0.3752224 0.1590432
0.3066208 0.3849529 0.1681454
0.3899029 0.3852843 0.1776868
0.4621459 0.3949305 0.1826507
0.5178643 0.4046729 0.1932478
0.5735040 0.4144451 0.1986543
0.0304695 0.4602733 0.1586189
0.1207387 0.4711556 0.1615733
0.2207180 0.4717396 0.1703201
0.3127482 0.4820561 0.1799927
0.3965976 0.4922687 0.1849032
0.4601312 0.4925489 0.1953498
0.5251966 0.5027591 0.2064497
0.5717072 0.5029365 0.2119836
0.0372375 0.5496058 0.1646117
0.1319892 0.5506114 0.1725827
0.2257909 0.5609474 0.1820979
0.3193017 0.5613659 0.1921026
0.3950603 0.5713915 0.1973198
0.4677806 0.5716913 0.2082406
0.5235750 0.5815932 0.2139636
0.5793110 0.5817903 0.2195874
0.0455578 0.6173844 0.1754481
0.1398170 0.6182579 0.1840512
0.2379190 0.6187720 0.1938675
0.3261123 0.6284537 0.1989558
0.4027747 0.6287628 0.2098885
0.4756516 0.6382571 0.2155282
0.5317188 0.6384451 0.2211830
0.5779279 0.6478057 0.2334812
0.0520264 0.6721982 0.1867663
0.1481386 0.6729740 0.1959162
0.2437161 0.6733851 0.2005653
0.3331871 0.6824291 0.2115994
0.4105593 0.6826695 0.2170016
0.4746541 0.6829160 0.2287870
0.5305173 0.6916507 0.2349184
0.5861067 0.6918257 0.2409367
0.0192005 0.0079638 0.2344917
0.1112568 0.0124490 0.2402996
0.2160155 0.0174204 0.2475122
0.3136178 0.0226267 0.2549391
0.3965777 0.0283126 0.2625494
0.4683051 0.0341010 0.2701964
0.5325521 0.0410308 0.2780575
0.5781329 0.0475400 0.2859454
0.0248623 0.1072188 0.2571882
0.1172087 0.1194137 0.2616354
0.2146728 0.1281088 0.2676893
0.3127562 0.1372786 0.2742545
0.3964007 0.1469306 0.2812046
0.4687506 0.1571243 0.2884079
0.5243002 0.1678718 0.2958705
0.5798198 0.1735249 0.3031752
0.0310576 0.2420833 0.2698238
0.1228909 0.2501165 0.2742492
0.2240980 0.2579587 0.2802293
0.3168212 0.2735615 0.2870562
0.4011550 0.2816765 0.2939383
0.4646696 0.2898836 0.3011410
0.5297608 0.2982368 0.3084462
0.5759966 0.3066918 0.3160049
0.0377803 0.3658640 0.2803072
0.1295393 0.3759439 0.2851297
0.2283676 0.3857404 0.2913297
0.3225258 0.3860871 0.2977867
0.3986213 0.3957636 0.3048966
0.4712978 0.4055072 0.3121794
0.5271077 0.4152859 0.3197131
0.5825715 0.4251399 0.3273716
0.0445218 0.4715987 0.2900551
0.1412833 0.4725360 0.3023318
0.2400044 0.4829167 0.3088284
0.3286577 0.4931779 0.3158613
0.4055668 0.4933957 0.3151780
0.4785582 0.5035759 0.3225980
0.5346295 0.5037778 0.3300120
0.5807801 0.5138897 0.3379317
0.0525385 0.5511013 0.3067319
0.1493715 0.5617077 0.3122084
0.2455360 0.5621641 0.3186257
0.3353925 0.5722561 0.3257815
0.4129700 0.5724707 0.3250862
0.4769410 0.5823919 0.3327354
0.5330105 0.5825897 0.3403239
0.5883440 0.5924266 0.3482877
0.0599035 0.6187197 0.3159779
0.1581643 0.6194497 0.3214283
0.2513101 0.6292133 0.3283074
0.3425599 0.6294857 0.3273771
0.4206180 0.6389949 0.3348987
0.4850334 0.6392055 0.3424343
0.5409374 0.6485304 0.3504227
0.5871618 0.6486946 0.3582900
0.0682731 0.6733986 0.3250973
0.1624000 0.6740183 0.3308709
0.2573319 0.6830877 0.3378818
0.3498117 0.6833422 0.3369371
0.4196429 0.6835615 0.3444173
0.4838276 0.6923083 0.3523485
0.5399356 0.6924835 0.3601549
0.5950980 0.7010757 0.3683349
0.0330105 0.0144195 0.3551497
0.1293337 0.0194863 0.3541452
0.2336876 0.0253365 0.3629074
0.3280829 0.0316983 0.3720513
0.4128886 0.0381701 0.3812412
0.4762163 0.0442390 0.3818747
0.5407211 0.0512565 0.3911087
0.5861454 0.0593207 0.4007120
0.0388563 0.1194061 0.3719607
0.1328299 0.1282754 0.3779665
0.2334078 0.1375101 0.3855465
0.3284529 0.1472119 0.3936930
0.4049463 0.1574060 0.3935517
0.4776860 0.1681971 0.4021855
0.5335106 0.1738599 0.4108578
0.5886277 0.1855237 0.4199067
0.0453679 0.2501624 0.3870727
0.1392507 0.2582546 0.3931225
0.2367721 0.2739618 0.4008988
0.3328143 0.2820972 0.4001037
0.4099367 0.2903516 0.4083884
0.4830977 0.2987339 0.4169313
0.5389627 0.3072191 0.4257024
0.5850237 0.3157735 0.4255816
0.0532503 0.3760712 0.3999071
0.1466372 0.3861359 0.4062909
0.2482515 0.3865938 0.4135321
0.3386771 0.3962904 0.4128133
0.4163666 0.4060625 0.4212995
0.4804475 0.4158703 0.4300108
0.5363106 0.4256741 0.4298024
0.5917607 0.4258721 0.4383297
0.0605741 0.4726422 0.4114086
0.1548760 0.4832817 0.4180298
0.2534528 0.4936059 0.4168760
0.3451472 0.4939517 0.4248138
0.4234315 0.5041570 0.4333709
0.4879233 0.5043275 0.4327600
0.5438177 0.5144645 0.4416194
0.5897820 0.5245720 0.4506095
0.0688797 0.5618607 0.4226958
0.1637153 0.5624946 0.4203525
0.2591967 0.5726786 0.4282747
0.3436971 0.5729951 0.4363610
0.4218515 0.5829056 0.4358896
0.4863031 0.5831278 0.4443614
0.5422034 0.5929617 0.4532744
0.5974951 0.5931042 0.4527429
0.0757463 0.6289160 0.4246174
0.1730836 0.6295509 0.4313706
0.2653424 0.6299422 0.4391225
0.3507703 0.6394386 0.4384760
0.4297466 0.6396948 0.4467849
0.4942064 0.6490366 0.4556210
0.5503073 0.6491719 0.4550890
0.5963209 0.6493367 0.4638140
0.0833663 0.6741699 0.4349445
0.1829981 0.6834230 0.4421446
0.2715834 0.6837174 0.4409193
0.3582910 0.6840002 0.4490637
0.4376871 0.6927826 0.4577323
0.5025491 0.6929303 0.4571133
0.5491077 0.7014955 0.4661624
0.6042091 0.7016686 0.4748320
0.0478267 0.0217647 0.4542037
0.1455242 0.0283362 0.4625974
0.2458328 0.0341598 0.4626186
0.3432596 0.0411305 0.4722801
0.4207374 0.0476678 0.4727782
0.4936482 0.0552132 0.4825894
0.5490586 0.0615943 0.4830300
0.5944988 0.0686832 0.4928387
0.0528671 0.1282509 0.4789140
0.1501834 0.1376000 0.4767049
0.2532774 0.1473657 0.4849856
0.3445566 0.1576067 0.4845703
0.4225686 0.1684230 0.4936647
0.4868301 0.1740741 0.4933665
0.5424802 0.1857498 0.5027715
0.5973629 0.1979712 0.5028849
0.0616159 0.2658220 0.4859368
0.1573030 0.2741402 0.4929099
0.2569920 0.2823538 0.4917201
0.3492175 0.2906718 0.5002273
0.4187827 0.2990126 0.4998383
0.4922522 0.3075434 0.5087409
0.5481216 0.3161240 0.5085276
0.5939862 0.3248662 0.5177134
0.0674993 0.3861310 0.4994460
0.1656996 0.3867573 0.4969412
0.2620037 0.3965985 0.5050941
0.3468278 0.4063644 0.5044373
0.4252562 0.4162213 0.5132514
0.4895938 0.4260510 0.5129499
0.5456844 0.4262491 0.5217202
0.6006792 0.4361219 0.5215057
0.0765799 0.4832686 0.5023171
0.1746965 0.4938605 0.5095712
0.2675552 0.4942194 0.5082343
0.3533754 0.5044726 0.5168691
0.4325599 0.5046909 0.5160666
0.4970854 0.5148520 0.5250692
0.5529685 0.5249839 0.5341476
0.5989110 0.5251059 0.5337003
0.0840942 0.5625606 0.5138814
0.1844389 0.5728964 0.5119685
0.2735096 0.5732824 0.5200121
0.3603553 0.5832376 0.5193534
0.4401071 0.5835068 0.5278530
0.5048181 0.5933619 0.5368382
0.5515565 0.5934806 0.5363913
0.6063858 0.6032429 0.5454452
0.0923479 0.6295823 0.5158592
0.1892283 0.6301503 0.5230946
0.2871468 0.6397852 0.5313776
0.3677801 0.6400102 0.5304884
0.4387177 0.6493707 0.5393801
0.5036003 0.6495278 0.5387573
0.5596386 0.6497155 0.5474864
0.6052164 0.6588190 0.5473582
0.1013730 0.6834722 0.5267961
0.1998588 0.6839811 0.5341282
0.2938744 0.6842760 0.5328841
0.3752768 0.6930747 0.5415933
0.4468940 0.6932428 0.5408826
0.5117620 0.7018445 0.5498365
0.5584389 0.7019486 0.5493913
0.6042484 0.7021010 0.5581787
0.0645700 0.0304916 0.5396837
0.1636949 0.0367840 0.5387162
0.2656237 0.0442872 0.5480912
0.3589613 0.0513295 0.5483252
0.4288432 0.0573089 0.5578228
0.5019791 0.0662776 0.5584077
0.5573616 0.0738819 0.5588480
0.6027908 0.0794184 0.5682467
0.0692642 0.1375422 0.5530527
0.1693961 0.1474195 0.5604392
0.2670491 0.1577129 0.5596746
0.3525809 0.1685309 0.5593511
0.4312845 0.1799516 0.5683965
0.4957730 0.1859106 0.5681023
0.5514194 0.1981756 0.5773672
0.6062381 0.2045528 0.5771580
0.0778770 0.2740854 0.5689828
0.1773703 0.2824667 0.5670112
0.2710586 0.2907979 0.5660127
0.3574834 0.2992473 0.5745318
0.4367918 0.3077544 0.5740620
0.5014087 0.3164074 0.5828907
0.5572485 0.3251260 0.5826820
0.6028850 0.3340018 0.5916353
0.0851355 0.3961382 0.5731806
0.1811811 0.3967348 0.5802095
0.2762500 0.4065924 0.5792174
0.3635526 0.4164419 0.5785742
0.4433406 0.4263754 0.5872050
0.4989526 0.4265177 0.5866828
0.5548199 0.4364480 0.5955243
0.6005167 0.4463570 0.5954033
0.0932812 0.4938404 0.5851991
0.1909551 0.4943870 0.5831936
0.2819959 0.5046537 0.5822895
0.3702467 0.5149100 0.5907264
0.4415362 0.5151043 0.5900323
0.5062732 0.5252596 0.5987675
0.5622768 0.5254062 0.5982473
0.6077823 0.5354987 0.6070902
0.1022404 0.5728996 0.5874490
0.2013975 0.5734144 0.5855342
0.2957250 0.5834934 0.5936926
0.3775645 0.5837299 0.5928277
0.4491211 0.5936065 0.6014580
0.5142196 0.5937721 0.6008544
0.5606741 0.6035088 0.6096774
0.6064165 0.6036267 0.6092477
0.1085843 0.6301215 0.5891508
0.2063951 0.6398870 0.5966821
0.3024013 0.6402004 0.5954739
0.3849502 0.6496025 0.6039158
0.4571348 0.6497816 0.6032282
0.5130067 0.6499686 0.6116428
0.5687212 0.6590917 0.6114337
0.6142312 0.6592029 0.6110045
0.1190081 0.6839743 0.5997811
0.2117511 0.6843712 0.5981429
0.3091743 0.6932498 0.6062242
0.3840017 0.6934382 0.6054533
0.4559399 0.7020571 0.6139870
0.5211609 0.7022026 0.6133896
0.5677254 0.7023068 0.6129614
0.6130780 0.7107238 0.6216736
0.0811959 0.0395690 0.6052228
0.1836895 0.0476514 0.6045528
0.2793382 0.0532586 0.6131121
0.3665693 0.0616477 0.6134227
0.4461417 0.0687569 0.6135922
0.5105124 0.0766488 0.6227602
0.5658354 0.0853497 0.6231809
0.6110222 0.0916539 0.6233764
0.0872602 0.1473379 0.6165403
0.1850260 0.1577532 0.6239353
0.2813026 0.1686258 0.6232891
0.3692378 0.1800471 0.6229795
0.4402469 0.1860565 0.6313651
0.5047204 0.1983093 0.6313899
0.5605257 0.2046897 0.6311901
0.6058740 0.2178394 0.6400487
0.0948339 0.2824030 0.6315224
0.1936970 0.2908857 0.6298988
0.2856152 0.2993480 0.6290312
0.3744373 0.3079446 0.6371126
0.4457841 0.3165727 0.6367497
0.5105871 0.3253147 0.6364690
0.5663379 0.3342150 0.6448911
0.6117176 0.3431691 0.6447765
0.1002636 0.3966289 0.6352973
0.1977748 0.4066428 0.6337635
0.2909814 0.4166159 0.6415541
0.3806325 0.4265412 0.6409450
0.4525612 0.4267308 0.6402822
0.5175047 0.4366861 0.6485854
0.5639149 0.4465962 0.6484706
0.6093723 0.4565789 0.6568502
0.1096618 0.4942994 0.6380591
0.2082385 0.5047873 0.6452318
0.2969164 0.5150332 0.6444598
0.3876470 0.5152993 0.6435534
0.4597766 0.5254785 0.6517416
0.5156698 0.5256246 0.6512504
0.5713461 0.5357410 0.6595185
0.6167727 0.5358628 0.6591118
0.1162517 0.5733836 0.6488696
0.2132261 0.5835445 0.6475234
0.3112447 0.5838735 0.6463743
0.3861204 0.5937718 0.6544521
0.4583673 0.5939607 0.6538002
0.5234141 0.6037424 0.6619598
0.5699463 0.6038604 0.6615548
0.6152242 0.6134642 0.6614395
0.1272281 0.6398488 0.6506869
0.2248550 0.6402705 0.6491315
0.3179552 0.6497369 0.6568568
0.3937604 0.6499376 0.6561267
0.4662147 0.6591560 0.6641799
0.5221984 0.6592892 0.6636964
0.5779562 0.6594228 0.6632115
0.6229818 0.6684589 0.6714218
0.1350015 0.6844051 0.6604436
0.2304241 0.6933142 0.6592792
0.3170912 0.6935638 0.6583091
0.4014665 0.7022208 0.6661792
0.4652114 0.7023662 0.6656178
0.5305464 0.7025115 0.6650546
0.5767716 0.7109253 0.6732432
0.6220251 0.7110279 0.6728444
0.0984536 0.0493953 0.6587139
0.1999491 0.0572692 0.6580344
0.2934885 0.0639244 0.6577907
0.3831217 0.0713165 0.6661811
0.4545558 0.0794728 0.6664227
0.5190613 0.0884764 0.6667435
0.5744743 0.0950187 0.6751291
0.6192000 0.1055889 0.6756024
0.1025811 0.1576622 0.6682833
0.2017585 0.1686198 0.6671087
0.2960256 0.1801146 0.6748599
0.3864244 0.1861357 0.6742802
0.4582610 0.1984079 0.6742252
0.5232643 0.2048427 0.6821494
0.5693942 0.2179621 0.6823261
0.6146795 0.2247942 0.6822180
0.1113781 0.2907665 0.6738448
0.2111658 0.2994099 0.6806782
0.3006473 0.3079990 0.6799453
0.3829532 0.3166689 0.6794468
0.4548129 0.3254825 0.6872281
0.5197774 0.3343564 0.6869662
0.5753785 0.3433345 0.6867805
0.6204820 0.3524535 0.6946051
0.1176436 0.4065808 0.6855617
0.2155213 0.4166346 0.6842875
0.3061790 0.4266056 0.6835584
0.3894037 0.4268965 0.6908538
0.4616182 0.4368206 0.6905167
0.5266854 0.4467794 0.6902553
0.5729722 0.4567623 0.6980315
0.6183457 0.4568833 0.6976490
0.1284655 0.5046898 0.6881360
0.2266771 0.5150768 0.6869446
0.3124728 0.5154220 0.6940455
0.3962874 0.5255917 0.6935570
0.4690571 0.5257861 0.6929430
0.5248578 0.5359014 0.7006069
0.5805634 0.5360476 0.7001503
0.6254919 0.5460597 0.7000433
0.1360209 0.5834722 0.6902113
0.2321319 0.5839475 0.6968140
0.3190176 0.5938590 0.6961748
0.4038058 0.5940943 0.6954119
0.4674460 0.6038742 0.7029658
0.5327915 0.6040388 0.7024365
0.5789720 0.6136411 0.7023290
0.6241534 0.6138116 0.7096652
0.1441483 0.6402538 0.6996717
0.2376800 0.6497539 0.6986549
0.3259976 0.6500199 0.6977440
0.4113992 0.6592798 0.7050402
0.4755150 0.6594350 0.7045142
0.5315776 0.6595683 0.7040616
0.5869449 0.6686240 0.7115647
0.6230035 0.6687118 0.7112663
0.1526843 0.6932694 0.7011490
0.2504025 0.6936204 0.6998631
0.3330686 0.7022956 0.7070560
0.4104270 0.7024813 0.7063835
0.4838073 0.7026470 0.7057837
0.5397143 0.7110785 0.7132618
0.5859599 0.7111809 0.7128906
0.6308907 0.7112834 0.7125188
