Plugins/FilmEmulator/Content/LUTs/FE_Kodak_2393_64.cube
TITLE "FE_Kodak_2393_33"
LUT_3D_SIZE 4
0.0000000 0.0314735 0.0482661
1.0000000 0.3250057 0.2215855
1.0000000 0.5493181 0.4719746
1.0000000 0.6770709 0.6174284
0.3053991 0.9611372 0.3260988
0.9068452 0.9586394 0.5106615
1.0000000 0.9674441 0.6879194
1.0000000 0.9716244 0.7764267
0.5334802 1.0000000 0.5734668
0.9097944 1.0000000 0.6831535
0.9936259 1.0000000 0.8064275
1.0000000 1.0000000 0.8646607
0.6577520 1.0000000 0.7125766
0.9132311 1.0000000 0.7760733
0.9916345 1.0000000 0.8660594
0.9978762 1.0000000 0.9096467
0.3115789 0.4115556 1.0000000
1.0000000 0.6682221 0.9991234
1.0000000 0.8040156 0.9940127
1.0000000 0.8709408 0.9933598
0.5481900 0.9688322 0.9903589
0.9739702 0.9786915 0.9890285
1.0000000 0.9864157 0.9919015
1.0000000 0.9892089 0.9935857
0.6387284 1.0000000 0.9928016
0.9781305 0.9966863 0.9926657
0.9983405 0.9978146 0.9948347
1.0000000 0.9982904 0.9961564
0.7467242 1.0000000 0.9948202
0.9792020 0.9993432 0.9946407
0.9983114 0.9994068 0.9964686
0.9997399 0.9995182 0.9973568
0.7675619 0.7691668 1.0000000
1.0000000 0.8756056 1.0000000
1.0000000 0.9122698 1.0000000
1.0000000 0.9396148 1.0000000
0.8497515 0.9843932 1.0000000
0.9904946 0.9917923 0.9999049
0.9991117 0.9944942 0.9996646
1.0000000 0.9955852 0.9996472
0.8709076 0.9997603 1.0000000
0.9927495 0.9984033 0.9996753
0.9988766 0.9989870 0.9996489
0.9997432 0.9992173 0.9996890
0.8713050 1.0000000 1.0000000
0.9937131 0.9994644 0.9997203
0.9990619 0.9996572 0.9997255
0.9997223 0.9997421 0.9997660
0.9309667 0.9102066 1.0000000
0.9994553 0.9485406 1.0000000
1.0000000 0.9616334 1.0000000
1.0000000 0.9681594 1.0000000
0.9563504 0.9921449 1.0000000
0.9959674 0.9959152 1.0000000
0.9992616 0.9971295 1.0000000
1.0000000 0.9976398 0.9999774
0.9637756 0.9986435 1.0000000
0.9971339 0.9991395 0.9999707
0.9993107 0.9994261 0.9999288
0.9997628 0.9995350 0.9999248
0.9636649 1.0000000 1.0000000
0.9975399 0.9996603 0.9999554
0.9994328 0.9997821 0.9999332
0.9997842 0.9998292 0.9999352
