Plugins/FilmEmulator/Content/LUTs/FE_Kodak_5247_II_Alt_64.cube
TITLE "FE_Kodak_5247_II_Alt_33"
LUT_3D_SIZE 64
0.0016054 0.0011107 0.0016805
0.0034852 0.0011075 0.0016795
0.0089668 0.0013459 0.0016857
0.0162599 0.0017980 0.0017763
0.0245467 0.0024663 0.0020457
0.0341302 0.0030405 0.0023170
0.0451182 0.0039910 0.0025499
0.0550543 0.0050611 0.0029960
0.0669704 0.0060856 0.0035024
0.0787759 0.0074031 0.0039432
0.0907475 0.0086995 0.0046833
0.1046320 0.0102171 0.0052802
0.1170294 0.0115724 0.0060810
0.1306558 0.0130432 0.0067970
0.1456292 0.0147018 0.0074005
0.1579462 0.0161592 0.0083631
0.1710201 0.0183751 0.0091774
0.1850501 0.0202262 0.0100633
0.1999137 0.0215634 0.0110456
0.2154427 0.0237619 0.0121317
0.2261803 0.0261886 0.0129232
0.2432779 0.0279305 0.0137558
0.2552729 0.0297747 0.0149841
0.2676218 0.0327597 0.0158714
0.2804799 0.0349021 0.0167986
0.2937233 0.0371802 0.0177793
0.3073413 0.0396018 0.0188326
0.3209890 0.0421680 0.0200333
0.3347586 0.0434946 0.0212944
0.3486945 0.0463000 0.0226493
0.3556303 0.0492949 0.0233745
0.3701172 0.0508358 0.0248417
0.3847013 0.0541050 0.0256354
0.3921379 0.0557963 0.0271146
0.4071777 0.0593204 0.0279133
0.4147912 0.0611410 0.0295206
0.4222907 0.0649895 0.0303890
0.4378490 0.0669670 0.0321345
0.4456086 0.0690223 0.0330549
0.4532502 0.0733341 0.0340242
0.4691263 0.0755639 0.0349782
0.4772465 0.0778489 0.0369218
0.4853705 0.0802142 0.0379451
0.4933558 0.0851715 0.0390226
0.5014994 0.0877411 0.0401021
0.5096470 0.0903816 0.0412105
0.5260718 0.0930848 0.0423477
0.5342033 0.0958714 0.0435158
0.5423205 0.0987334 0.0447149
0.5504337 0.1016514 0.0472356
0.5579327 0.1047014 0.0485777
0.5654062 0.1079008 0.0499571
0.5728394 0.1112100 0.0499912
0.5802570 0.1145859 0.0514089
0.5876417 0.1180524 0.0528649
0.5875035 0.1216226 0.0543612
0.5948531 0.1252752 0.0558967
0.6021634 0.1290232 0.0574735
0.6095807 0.1289850 0.0590513
0.6168025 0.1328290 0.0607121
0.6239770 0.1367701 0.0624999
0.6314574 0.1408399 0.0625420
0.6313335 0.1447441 0.0643791
0.6389612 0.1487246 0.0662657
0.0015794 0.0028032 0.0017148
0.0031997 0.0034709 0.0017220
0.0085158 0.0044067 0.0017300
0.0154952 0.0055801 0.0018452
0.0241210 0.0067666 0.0021379
0.0335689 0.0079605 0.0023901
0.0432310 0.0093483 0.0026414
0.0543379 0.0109715 0.0031086
0.0643646 0.0123710 0.0035574
0.0758415 0.0139369 0.0040908
0.0898648 0.0157448 0.0047447
0.1007929 0.0173253 0.0054997
0.1160926 0.0190656 0.0061482
0.1296723 0.0209802 0.0068685
0.1406931 0.0231167 0.0077029
0.1569162 0.0246503 0.0084413
0.1700008 0.0271570 0.0092569
0.1840511 0.0289553 0.0101434
0.1988529 0.0308479 0.0111334
0.2143238 0.0339250 0.0122277
0.2251290 0.0361401 0.0130158
0.2421830 0.0384826 0.0142568
0.2541324 0.0409851 0.0150908
0.2666802 0.0422772 0.0159617
0.2795100 0.0450086 0.0168940
0.2927259 0.0479093 0.0178801
0.3064454 0.0494099 0.0189258
0.3200709 0.0525794 0.0201324
0.3336853 0.0559425 0.0214146
0.3477376 0.0576570 0.0227608
0.3546677 0.0612976 0.0234892
0.3691385 0.0631671 0.0249632
0.3764137 0.0650977 0.0264661
0.3911414 0.0691733 0.0272462
0.3986478 0.0712770 0.0288159
0.4139196 0.0734485 0.0296431
0.4214141 0.0780175 0.0305150
0.4369636 0.0803626 0.0322675
0.4447194 0.0827983 0.0331916
0.4525066 0.0853019 0.0341414
0.4683911 0.0878486 0.0360488
0.4764965 0.0904921 0.0370486
0.4846190 0.0932081 0.0380754
0.4926032 0.0988939 0.0391564
0.5007466 0.1018375 0.0402396
0.5088922 0.1048927 0.0413519
0.5253265 0.1080647 0.0436368
0.5334539 0.1113557 0.0448401
0.5417230 0.1113219 0.0460570
0.5498195 0.1147001 0.0473677
0.5573173 0.1181697 0.0487141
0.5647926 0.1217315 0.0500972
0.5722416 0.1253870 0.0515177
0.5796618 0.1291381 0.0529767
0.5795096 0.1330253 0.0530137
0.5868976 0.1369729 0.0545131
0.5942502 0.1410207 0.0560527
0.6017138 0.1409793 0.0575935
0.6089936 0.1448746 0.0592131
0.6162282 0.1488607 0.0608757
0.6234155 0.1529373 0.0626655
0.6310461 0.1529220 0.0626642
0.6309224 0.1571061 0.0645048
0.6385534 0.1613689 0.0663947
0.0015519 0.0075594 0.0017525
0.0029346 0.0088782 0.0017579
0.0078868 0.0104031 0.0017630
0.0148657 0.0117658 0.0019056
0.0231255 0.0132419 0.0021938
0.0322199 0.0149099 0.0024723
0.0428174 0.0163790 0.0027281
0.0523423 0.0180149 0.0032060
0.0638558 0.0198154 0.0036777
0.0752778 0.0218040 0.0042536
0.0866715 0.0240120 0.0049308
0.1001535 0.0255898 0.0057039
0.1121505 0.0281831 0.0063726
0.1253905 0.0300318 0.0071141
0.1399703 0.0319867 0.0077586
0.1561332 0.0340559 0.0087615
0.1691676 0.0374436 0.0096075
0.1832545 0.0386173 0.0105257
0.1980070 0.0411127 0.0115527
0.2081905 0.0437702 0.0122976
0.2243057 0.0465768 0.0134956
0.2354746 0.0495732 0.0143381
0.2533391 0.0511187 0.0151658
0.2657539 0.0543831 0.0165030
0.2786756 0.0560769 0.0174542
0.2918702 0.0596053 0.0184722
0.3055687 0.0614262 0.0196024
0.3191628 0.0652841 0.0202310
0.3328922 0.0672678 0.0215041
0.3398191 0.0693149 0.0228561
0.3538630 0.0736189 0.0243081
0.3683052 0.0758555 0.0250672
0.3755734 0.0781468 0.0265762
0.3904299 0.0805124 0.0273405
0.3977880 0.0854692 0.0289356
0.4130484 0.0880381 0.0297661
0.4206972 0.0906679 0.0314773
0.4362260 0.0933791 0.0323789
0.4439787 0.0961737 0.0333060
0.4517761 0.0990240 0.0351964
0.4595883 0.1019715 0.0361734
0.4757449 0.1050197 0.0371762
0.4838613 0.1082279 0.0382072
0.4919902 0.1115235 0.0392658
0.5001281 0.1149080 0.0403528
0.5082838 0.1183600 0.0425852
0.5164257 0.1219270 0.0437606
0.5328340 0.1255747 0.0449664
0.5409494 0.1293303 0.0462190
0.5492023 0.1292912 0.0475008
0.5567015 0.1331431 0.0488509
0.5641789 0.1370939 0.0502377
0.5716302 0.1411448 0.0516620
0.5714998 0.1450577 0.0531236
0.5790753 0.1450153 0.0545878
0.5864612 0.1490340 0.0546227
0.5938249 0.1531162 0.0561629
0.6011498 0.1572916 0.0577443
0.6084331 0.1615612 0.0593679
0.6158106 0.1615148 0.0609949
0.6230006 0.1658771 0.0627880
0.6228758 0.1703515 0.0646319
0.6305106 0.1703347 0.0646306
0.6381453 0.1748891 0.0665241
0.0015346 0.0142381 0.0017771
0.0027722 0.0155638 0.0017799
0.0075769 0.0176440 0.0018684
0.0143241 0.0193804 0.0020741
0.0222458 0.0213036 0.0022664
0.0319853 0.0226952 0.0025204
0.0413232 0.0249885 0.0028092
0.0519941 0.0266175 0.0033022
0.0634340 0.0292970 0.0037956
0.0748237 0.0311952 0.0042876
0.0862024 0.0332047 0.0049665
0.0996197 0.0353397 0.0057451
0.1116206 0.0376223 0.0064138
0.1248069 0.0400474 0.0071600
0.1393356 0.0426147 0.0080468
0.1512220 0.0453505 0.0088180
0.1685005 0.0482493 0.0096624
0.1825433 0.0497416 0.0105858
0.1972518 0.0529134 0.0116184
0.2075037 0.0545616 0.0123588
0.2235808 0.0580015 0.0135626
0.2348325 0.0597762 0.0143989
0.2525631 0.0635042 0.0156688
0.2650605 0.0654389 0.0165724
0.2778432 0.0695197 0.0175396
0.2911357 0.0716258 0.0185495
0.3048135 0.0737894 0.0196844
0.3185302 0.0760131 0.0209237
0.3321000 0.0807212 0.0215939
0.3390183 0.0831469 0.0229515
0.3531821 0.0856311 0.0243925
0.3676114 0.0882031 0.0251542
0.3748735 0.0908360 0.0266683
0.3897189 0.0935519 0.0274352
0.3972152 0.0963315 0.0290157
0.4124680 0.0991961 0.0298484
0.4201133 0.1021267 0.0315643
0.4356346 0.1051790 0.0324684
0.4433801 0.1083914 0.0333988
0.4511703 0.1116689 0.0352951
0.4589758 0.1150578 0.0362755
0.4751259 0.1185251 0.0372816
0.4832410 0.1220964 0.0383155
0.4913692 0.1257617 0.0393770
0.4995201 0.1294975 0.0415574
0.5076621 0.1333550 0.0427055
0.5158041 0.1373111 0.0438841
0.5240974 0.1372706 0.0450622
0.5404852 0.1413113 0.0463166
0.5485939 0.1452135 0.0476323
0.5561041 0.1492076 0.0489839
0.5635926 0.1532939 0.0503722
0.5636059 0.1532639 0.0517649
0.5710685 0.1574425 0.0532284
0.5785026 0.1617158 0.0547312
0.5859043 0.1660842 0.0562743
0.5933995 0.1660687 0.0562733
0.6007267 0.1705332 0.0578577
0.6080126 0.1750947 0.0594843
0.6153927 0.1750451 0.0611143
0.6225856 0.1797017 0.0629107
0.6224608 0.1844741 0.0647580
0.6300987 0.1844563 0.0647567
0.6377311 0.1895231 0.0666555
0.0015224 0.0222819 0.0017948
0.0025627 0.0245234 0.0018586
0.0072971 0.0260542 0.0020451
0.0142267 0.0286387 0.0022322
0.0221078 0.0304841 0.0024381
0.0308401 0.0324474 0.0025920
0.0410920 0.0345270 0.0028866
0.0517047 0.0367341 0.0033262
0.0613900 0.0390802 0.0039085
0.0724379 0.0415808 0.0044430
0.0857901 0.0442199 0.0051463
0.0991494 0.0470251 0.0059415
0.1111585 0.0484690 0.0066282
0.1242974 0.0515510 0.0073992
0.1387692 0.0548281 0.0080928
0.1506907 0.0565139 0.0088620
0.1679215 0.0600397 0.0097104
0.1819268 0.0618515 0.0106383
0.1915980 0.0657042 0.0116759
0.2068357 0.0676764 0.0128047
0.2229679 0.0697201 0.0136196
0.2341011 0.0740329 0.0148764
0.2457654 0.0762663 0.0157348
0.2643697 0.0785537 0.0166419
0.2772495 0.0809133 0.0176009
0.2905243 0.0833384 0.0186143
0.3040594 0.0884433 0.0197668
0.3177567 0.0910716 0.0210112
0.3314533 0.0937714 0.0223325
0.3383516 0.0965753 0.0230314
0.3525016 0.0994227 0.0244772
0.3669317 0.1023458 0.0260119
0.3741729 0.1054147 0.0267610
0.3890152 0.1086007 0.0283036
0.3964888 0.1119062 0.0291176
0.4117406 0.1152661 0.0307926
0.4193637 0.1187507 0.0316763
0.4270298 0.1223279 0.0325846
0.4426295 0.1259612 0.0344534
0.4505569 0.1259239 0.0353953
0.4583603 0.1296894 0.0363785
0.4745069 0.1335385 0.0373874
0.4826210 0.1374995 0.0384240
0.4907616 0.1415336 0.0405535
0.4989078 0.1454420 0.0416730
0.5072051 0.1453995 0.0427940
0.5153565 0.1493979 0.0439731
0.5235043 0.1534886 0.0451835
0.5316437 0.1576721 0.0464400
0.5399167 0.1576255 0.0477276
0.5480267 0.1619017 0.0490817
0.5555384 0.1662744 0.0504727
0.5630288 0.1707433 0.0519013
0.5706370 0.1706948 0.0533333
0.5780730 0.1752599 0.0548390
0.5854767 0.1799229 0.0563850
0.5929871 0.1798721 0.0579345
0.6003035 0.1846680 0.0579713
0.6075857 0.1897426 0.0596026
0.6149687 0.1896895 0.0612357
0.6221557 0.1949791 0.0630381
0.6220218 0.2004012 0.0648917
0.6296766 0.2003431 0.0667490
0.6372960 0.2058991 0.0667938
0.0015929 0.0328935 0.0019217
0.0023770 0.0338997 0.0020158
0.0068263 0.0359672 0.0022200
0.0137580 0.0382138 0.0024002
0.0213358 0.0406381 0.0025797
0.0306872 0.0432146 0.0027882
0.0397493 0.0459546 0.0030843
0.0500038 0.0473488 0.0034227
0.0611208 0.0503357 0.0039310
0.0721272 0.0535016 0.0046005
0.0854726 0.0551078 0.0053249
0.0959623 0.0585639 0.0059713
0.1107531 0.0603117 0.0066613
0.1238517 0.0640520 0.0074359
0.1383504 0.0659717 0.0081271
0.1502497 0.0679363 0.0091708
0.1629622 0.0721363 0.0100486
0.1766336 0.0742882 0.0110149
0.1911525 0.0764995 0.0120804
0.2062574 0.0812079 0.0128586
0.2223661 0.0836101 0.0141005
0.2335729 0.0861091 0.0149285
0.2452186 0.0886771 0.0157899
0.2637951 0.0913050 0.0167001
0.2766566 0.0940138 0.0176624
0.2899137 0.0967955 0.0186793
0.3035572 0.0996490 0.0198220
0.3172415 0.1025777 0.0210697
0.3239906 0.1056277 0.0223951
0.3378263 0.1088158 0.0238023
0.3519477 0.1121142 0.0245465
0.3663628 0.1154758 0.0260860
0.3735962 0.1189662 0.0268376
0.3884290 0.1225124 0.0283845
0.3958983 0.1261884 0.0292008
0.4111422 0.1299213 0.0308805
0.4187618 0.1337895 0.0317666
0.4264247 0.1377566 0.0326774
0.4421713 0.1376748 0.0345269
0.4499437 0.1417408 0.0354959
0.4577540 0.1456545 0.0364802
0.4739067 0.1496441 0.0374902
0.4820419 0.1537114 0.0395680
0.4903238 0.1536668 0.0406343
0.4984695 0.1578549 0.0417561
0.5066206 0.1621374 0.0429076
0.5147722 0.1665152 0.0440897
0.5230663 0.1664675 0.0452732
0.5312064 0.1709404 0.0465321
0.5393345 0.1755097 0.0478538
0.5475912 0.1754587 0.0491789
0.5551041 0.1801261 0.0505725
0.5625956 0.1848924 0.0520037
0.5702056 0.1848405 0.0534385
0.5776370 0.1899189 0.0549485
0.5850335 0.1952155 0.0564999
0.5925462 0.1951612 0.0580523
0.5998693 0.2005708 0.0596867
0.6071376 0.2061335 0.0597271
0.6145235 0.2060767 0.0613634
0.6217135 0.2117139 0.0631693
0.6217270 0.2116732 0.0649815
0.6292379 0.2174239 0.0668874
0.6368607 0.2233322 0.0669323
0.0016844 0.0437866 0.0021152
0.0021783 0.0451381 0.0021845
0.0065918 0.0478461 0.0023871
0.0133124 0.0492194 0.0025659
0.0206027 0.0523012 0.0027456
0.0296432 0.0555676 0.0030370
0.0395996 0.0572272 0.0033602
0.0497891 0.0607691 0.0036867
0.0608900 0.0625745 0.0040420
0.0718943 0.0644185 0.0046202
0.0826930 0.0683724 0.0053514
0.0956650 0.0703772 0.0061619
0.1104149 0.0724543 0.0068738
0.1234729 0.0769107 0.0074674
0.1341820 0.0791789 0.0084105
0.1498024 0.0815171 0.0092095
0.1625633 0.0839279 0.0100840
0.1762078 0.0864037 0.0110537
0.1906084 0.0916485 0.0121313
0.2057763 0.0943530 0.0129038
0.2163726 0.0971184 0.0141502
0.2330454 0.0999723 0.0149808
0.2446727 0.1029131 0.0158452
0.2569136 0.1059430 0.0172293
0.2760701 0.1091310 0.0182217
0.2893060 0.1124154 0.0192874
0.3029169 0.1158094 0.0198926
0.3165807 0.1192682 0.0211452
0.3233190 0.1228304 0.0224756
0.3372767 0.1227522 0.0238706
0.3513869 0.1264200 0.0246169
0.3584978 0.1301677 0.0261612
0.3730322 0.1340025 0.0276700
0.3878433 0.1379616 0.0284657
0.3953084 0.1420342 0.0292842
0.4105530 0.1459111 0.0309672
0.4183196 0.1458681 0.0318331
0.4260023 0.1498480 0.0336591
0.4415880 0.1539337 0.0346206
0.4493671 0.1581280 0.0355907
0.4573201 0.1580827 0.0365532
0.4652492 0.1623404 0.0385807
0.4816047 0.1667061 0.0396470
0.4897399 0.1711846 0.0407424
0.4980313 0.1711359 0.0418392
0.5061822 0.1757106 0.0429930
0.5143338 0.1803833 0.0441774
0.5226281 0.1803324 0.0453631
0.5307689 0.1851026 0.0466244
0.5388916 0.1901854 0.0479499
0.5471491 0.1901310 0.0492776
0.5546540 0.1954323 0.0506760
0.5621378 0.2008478 0.0521123
0.5697492 0.2007924 0.0535499
0.5771794 0.2063216 0.0550637
0.5847297 0.2062650 0.0565787
0.5920929 0.2119081 0.0581737
0.5994182 0.2176665 0.0598112
0.6068521 0.2176076 0.0614497
0.6140782 0.2235210 0.0614912
0.6140918 0.2234787 0.0632580
0.6212846 0.2294651 0.0651165
0.6287989 0.2355659 0.0670261
0.6365840 0.2354997 0.0689407
0.0018144 0.0545350 0.0023184
0.0020400 0.0562357 0.0023715
0.0063727 0.0595501 0.0025526
0.0128795 0.0612217 0.0027109
0.0205244 0.0649373 0.0029883
0.0295483 0.0668147 0.0033029
0.0383713 0.0687746 0.0036141
0.0496338 0.0729640 0.0040567
0.0590300 0.0751240 0.0043746
0.0716703 0.0773130 0.0049181
0.0824776 0.0795771 0.0055289
0.0953642 0.0844096 0.0061881
0.1069904 0.0868773 0.0069030
0.1197585 0.0894109 0.0077076
0.1338435 0.0920250 0.0084402
0.1494378 0.0946876 0.0095236
0.1621730 0.0974521 0.0104277
0.1757826 0.1003107 0.0110926
0.1902464 0.1032218 0.0121654
0.2054007 0.1062424 0.0133411
0.2159694 0.1094462 0.0141903
0.2326162 0.1127276 0.0150235
0.2442347 0.1160859 0.0163370
0.2564482 0.1195557 0.0172790
0.2755819 0.1231035 0.0182743
0.2888032 0.1267557 0.0193429
0.3024121 0.1304977 0.0205615
0.3093044 0.1343492 0.0218558
0.3229164 0.1342936 0.0225240
0.3367279 0.1382281 0.0239391
0.3508399 0.1422609 0.0254414
0.3579404 0.1461839 0.0262350
0.3724735 0.1501565 0.0277468
0.3874217 0.1500977 0.0285242
0.3949053 0.1541742 0.0301652
0.4024294 0.1583735 0.0310300
0.4177542 0.1626515 0.0319184
0.4255758 0.1625731 0.0337267
0.4411573 0.1669441 0.0346901
0.4489349 0.1714281 0.0356620
0.4567547 0.1759774 0.0376417
0.4648140 0.1759277 0.0386578
0.4811676 0.1805873 0.0397261
0.4893020 0.1853633 0.0408236
0.4975932 0.1853112 0.0419226
0.5057374 0.1903999 0.0430798
0.5138799 0.1957069 0.0442684
0.5221746 0.1956526 0.0454564
0.5303063 0.2010723 0.0467222
0.5385816 0.2010155 0.0480174
0.5466853 0.2065479 0.0493815
0.5541913 0.2121971 0.0507827
0.5618300 0.2121391 0.0521853
0.5692897 0.2179024 0.0536623
0.5767217 0.2237815 0.0551791
0.5842740 0.2237212 0.0566971
0.5916396 0.2297145 0.0582953
0.5991176 0.2296532 0.0598944
0.6064038 0.2357606 0.0615778
0.6137813 0.2357402 0.0615766
0.6136465 0.2419813 0.0633896
0.6209898 0.2419155 0.0652066
0.6285070 0.2482091 0.0671185
0.6362946 0.2481405 0.0690355
0.0019918 0.0676292 0.0025114
0.0020321 0.0697161 0.0025384
0.0059829 0.0715551 0.0026949
0.0124513 0.0735186 0.0029387
0.0198430 0.0779257 0.0032501
0.0285760 0.0801455 0.0036275
0.0382504 0.0824565 0.0039769
0.0480847 0.0848444 0.0043875
0.0588789 0.0873103 0.0047909
0.0695406 0.0898343 0.0053860
0.0822230 0.0952438 0.0058777
0.0951185 0.0980073 0.0063810
0.1067179 0.1008343 0.0071182
0.1194519 0.1037549 0.0077348
0.1335116 0.1067555 0.0087283
0.1490636 0.1099258 0.0095575
0.1617698 0.1131918 0.0104650
0.1753578 0.1165423 0.0114779
0.1897821 0.1200067 0.0122094
0.2050048 0.1198898 0.0133798
0.2155581 0.1234548 0.0142314
0.2321914 0.1270781 0.0154905
0.2437852 0.1308337 0.0163843
0.2559833 0.1346846 0.0173289
0.2685896 0.1386327 0.0183273
0.2815975 0.1426785 0.0193990
0.2951265 0.1425879 0.0206062
0.3089196 0.1464715 0.0219020
0.3223963 0.1504776 0.0225868
0.3362040 0.1545428 0.0240048
0.3503133 0.1586993 0.0255099
0.3575416 0.1586505 0.0262880
0.3720674 0.1629037 0.0278027
0.3793580 0.1672984 0.0286014
0.3944895 0.1672018 0.0302259
0.4020107 0.1716909 0.0310924
0.4173434 0.1762269 0.0328766
0.4250073 0.1809103 0.0338170
0.4407270 0.1808414 0.0347596
0.4485027 0.1856231 0.0357335
0.4563148 0.1906845 0.0377180
0.4643727 0.1906316 0.0387361
0.4807148 0.1959247 0.0398083
0.4888392 0.2013507 0.0409097
0.4971299 0.2012951 0.0420109
0.5052707 0.2068349 0.0431711
0.5135689 0.2067780 0.0443308
0.5217082 0.2124318 0.0455526
0.5298542 0.2181607 0.0481196
0.5381300 0.2181004 0.0494517
0.5462213 0.2240223 0.0494855
0.5538828 0.2239620 0.0508539
0.5613688 0.2299600 0.0522949
0.5689831 0.2298988 0.0537374
0.5764166 0.2360110 0.0552562
0.5838185 0.2422384 0.0568158
0.5913373 0.2421747 0.0583765
0.5986675 0.2484763 0.0600192
0.6061059 0.2484113 0.0616630
0.6133528 0.2547424 0.0634765
0.6133528 0.2547424 0.0634765
0.6205532 0.2611825 0.0653401
0.6282195 0.2611117 0.0672095
0.6358668 0.2676576 0.0691757
0.0022002 0.0810950 0.0026512
0.0022447 0.0835659 0.0026796
0.0057875 0.0857728 0.0028925
0.0120372 0.0880865 0.0031961
0.0191948 0.0905400 0.0035565
0.0285000 0.0930896 0.0038988
0.0381494 0.0957400 0.0042742
0.0479604 0.0984629 0.0048051
0.0587281 0.1012865 0.0052468
0.0693607 0.1041962 0.0057290
0.0796760 0.1072287 0.0062238
0.0922052 0.1104059 0.0067568
0.1064923 0.1136890 0.0071387
0.1192065 0.1170227 0.0079940
0.1332332 0.1204619 0.0087538
0.1447022 0.1240026 0.0095855
0.1614425 0.1276200 0.0104954
0.1750082 0.1313412 0.0115112
0.1895117 0.1312140 0.0126153
0.1994510 0.1350697 0.0134188
0.2151567 0.1389801 0.0146875
0.2317578 0.1430213 0.0155353
0.2433429 0.1469207 0.0164309
0.2555328 0.1509092 0.0173775
0.2682443 0.1508195 0.0183654
0.2812489 0.1548956 0.0194384
0.2946478 0.1590583 0.0206620
0.3084279 0.1633136 0.0219612
0.3220311 0.1632137 0.0233249
0.3358174 0.1675963 0.0240534
0.3499187 0.1720393 0.0255615
0.3570229 0.1765972 0.0270991
0.3716618 0.1765298 0.0278588
0.3789615 0.1811856 0.0294624
0.3939353 0.1859562 0.0303071
0.4015921 0.1859035 0.0311550
0.4169134 0.1909508 0.0329436
0.4245660 0.1962695 0.0338873
0.4324109 0.1962145 0.0348324
0.4480591 0.2015919 0.0367780
0.4560071 0.2015369 0.0377716
0.4639095 0.2070822 0.0388185
0.4719988 0.2127422 0.0398936
0.4885285 0.2126639 0.0409676
0.4966635 0.2184377 0.0421000
0.5049596 0.2183785 0.0432321
0.5131150 0.2242278 0.0456176
0.5212551 0.2302305 0.0468877
0.5295435 0.2301676 0.0481872
0.5376651 0.2362835 0.0495559
0.5459257 0.2362193 0.0509261
0.5534337 0.2424507 0.0523691
0.5610747 0.2423869 0.0538135
0.5685245 0.2487361 0.0538499
0.5761122 0.2486711 0.0553332
0.5835183 0.2550088 0.0568941
0.5910385 0.2549427 0.0584569
0.5983722 0.2613885 0.0601012
0.6058121 0.2613213 0.0617471
0.6130613 0.2678721 0.0635629
0.6130613 0.2678721 0.0635629
0.6202635 0.2745301 0.0654289
0.6279320 0.2744571 0.0673007
0.6355816 0.2812184 0.0692694
0.0025020 0.0941222 0.0029005
0.0025005 0.0969680 0.0029026
0.0054367 0.0995541 0.0031438
0.0116435 0.1021897 0.0034873
0.0191434 0.1049962 0.0038225
0.0275756 0.1079561 0.0041904
0.0369855 0.1110725 0.0046813
0.0464581 0.1143138 0.0051116
0.0585714 0.1176364 0.0055814
0.0692143 0.1174934 0.0060706
0.0795083 0.1209422 0.0065906
0.0920135 0.1244755 0.0071549
0.1062739 0.1281236 0.0075591
0.1189603 0.1318472 0.0082619
0.1329620 0.1356623 0.0090470
0.1444111 0.1395864 0.0099063
0.1611235 0.1435912 0.0108527
0.1747463 0.1434842 0.0115363
0.1891452 0.1473414 0.0126514
0.1990846 0.1513020 0.0138734
0.2147651 0.1553705 0.0147281
0.2257940 0.1552790 0.0155672
0.2430267 0.1594406 0.0164644
0.2552157 0.1636787 0.0179013
0.2678041 0.1680412 0.0189314
0.2809120 0.1679391 0.0200753
0.2942892 0.1724234 0.0207039
0.3080593 0.1769679 0.0220057
0.3215276 0.1816099 0.0233879
0.3354442 0.1815008 0.0248384
0.3423890 0.1862930 0.0256136
0.3566188 0.1913459 0.0271546
0.3712503 0.1912740 0.0279159
0.3785379 0.1965634 0.0295239
0.3936435 0.1964897 0.0303500
0.4011629 0.2018903 0.0320946
0.4164624 0.2074229 0.0330140
0.4242634 0.2073654 0.0339355
0.4319552 0.2130308 0.0349068
0.4475990 0.2187539 0.0368564
0.4555456 0.2186952 0.0378520
0.4634466 0.2245903 0.0389011
0.4716894 0.2245299 0.0399501
0.4880625 0.2305173 0.0410546
0.4963655 0.2304158 0.0432939
0.5045062 0.2365380 0.0444882
0.5126486 0.2427753 0.0457141
0.5209443 0.2427107 0.0469537
0.5290787 0.2490206 0.0482887
0.5373561 0.2489540 0.0496253
0.5454655 0.2552950 0.0510324
0.5531288 0.2552290 0.0524416
0.5606198 0.2616796 0.0539249
0.5682370 0.2616123 0.0554101
0.5756626 0.2682163 0.0554470
0.5832198 0.2681479 0.0569720
0.5905931 0.2748125 0.0585768
0.5980768 0.2747431 0.0601832
0.6053717 0.2815130 0.0618735
0.6053853 0.2814634 0.0636506
0.6126370 0.2883345 0.0655190
0.6199737 0.2883108 0.0655178
0.6275005 0.2952836 0.0674377
0.6352963 0.2952067 0.0693632
0.0027411 0.1090794 0.0031522
0.0028064 0.1090546 0.0032155
0.0051099 0.1121187 0.0034179
0.0112681 0.1151548 0.0037457
0.0185265 0.1183859 0.0041058
0.0275162 0.1217288 0.0045578
0.0369068 0.1251878 0.0051236
0.0463601 0.1287881 0.0055944
0.0567851 0.1324922 0.0060891
0.0671839 0.1323353 0.0066057
0.0793409 0.1361722 0.0069790
0.0918221 0.1400871 0.0075763
0.1030577 0.1441367 0.0080354
0.1187242 0.1479793 0.0087986
0.1290651 0.1519715 0.0093492
0.1441967 0.1518449 0.0099270
0.1565619 0.1558909 0.0108752
0.1697976 0.1600250 0.0119269
0.1839223 0.1642840 0.0126862
0.1988120 0.1641307 0.0139018
0.2144762 0.1684823 0.0147582
0.2254037 0.1729167 0.0160481
0.2427204 0.1727994 0.0169611
0.2548889 0.1773581 0.0179378
0.2674665 0.1820129 0.0189699
0.2805638 0.1819040 0.0201161
0.2939428 0.1866470 0.0213815
0.3076857 0.1917413 0.0220510
0.3212705 0.1916274 0.0234201
0.3350444 0.1968998 0.0248905
0.3419766 0.2023434 0.0256684
0.3563364 0.2022278 0.0271935
0.3708186 0.2077677 0.0279758
0.3781027 0.2134027 0.0295873
0.3932014 0.2133242 0.0304150
0.4007177 0.2190715 0.0321632
0.4161619 0.2189913 0.0330611
0.4238100 0.2248915 0.0340080
0.4315123 0.2308668 0.0359378
0.4472925 0.2307846 0.0369087
0.4550840 0.2369147 0.0379326
0.4631381 0.2368522 0.0389563
0.4712253 0.2430952 0.0400350
0.4877653 0.2429673 0.0422199
0.4959001 0.2492833 0.0433855
0.5041960 0.2492180 0.0445507
0.5123413 0.2555653 0.0457777
0.5206370 0.2554984 0.0470190
0.5287738 0.2619522 0.0483553
0.5370515 0.2618832 0.0496937
0.5451618 0.2684441 0.0511027
0.5528259 0.2683757 0.0525137
0.5603177 0.2750441 0.0539989
0.5679360 0.2749746 0.0554861
0.5753761 0.2817480 0.0570511
0.5829213 0.2817248 0.0570500
0.5902959 0.2886023 0.0586569
0.5977814 0.2885306 0.0602654
0.6050779 0.2955104 0.0619578
0.6050917 0.2954592 0.0637372
0.6123452 0.3025372 0.0656080
0.6196838 0.3025129 0.0656068
0.6272126 0.3096887 0.0675291
0.6350108 0.3096094 0.0694571
0.0030692 0.1229088 0.0035060
0.0030674 0.1266344 0.0035086
0.0049512 0.1263601 0.0037562
0.0109048 0.1297324 0.0041164
0.0179292 0.1333333 0.0044380
0.0266371 0.1370277 0.0049886
0.0357959 0.1408868 0.0054468
0.0462597 0.1448585 0.0059395
0.0566949 0.1446717 0.0064433
0.0670431 0.1485246 0.0069946
0.0791827 0.1524636 0.0075928
0.0916405 0.1565253 0.0080525
0.1029119 0.1563945 0.0085507
0.1152660 0.1605252 0.0093626
0.1288871 0.1647799 0.0099480
0.1439311 0.1691266 0.0105698
0.1563447 0.1690037 0.0112357
0.1695573 0.1734570 0.0119513
0.1836747 0.1779678 0.0131062
0.1985397 0.1778409 0.0139302
0.2141967 0.1824496 0.0152040
0.2251043 0.1872112 0.0160808
0.2424047 0.1870860 0.0169957
0.2545576 0.1921575 0.0179748
0.2671172 0.1974462 0.0190099
0.2802036 0.1973300 0.0201584
0.2935643 0.2027213 0.0214274
0.3073062 0.2082250 0.0227749
0.3208691 0.2081448 0.0234707
0.3346336 0.2137613 0.0249441
