Plugins/FilmEmulator/Content/LUTs/FE_Kodak_Ektachrome_100D_64.cube
TITLE "FE_Kodak_Ektachrome_100D_33"
LUT_3D_SIZE 64
0.0011610 0.0005464 0.0003700
0.0018807 0.0005535 0.0003693
0.0037571 0.0005447 0.0003607
0.0063122 0.0005555 0.0003872
0.0092603 0.0005801 0.0004279
0.0124784 0.0006083 0.0004787
0.0161137 0.0006405 0.0005662
0.0203772 0.0007183 0.0006751
0.0250985 0.0008383 0.0007914
0.0301403 0.0009927 0.0009456
0.0356558 0.0011600 0.0011206
0.0414617 0.0014163 0.0013615
0.0475080 0.0016748 0.0015995
0.0540806 0.0020365 0.0018923
0.0608848 0.0024597 0.0022138
0.0677069 0.0029181 0.0025728
0.0744196 0.0034038 0.0029657
0.0811225 0.0039872 0.0034403
0.0880030 0.0045818 0.0039341
0.0950552 0.0051714 0.0044277
0.1023196 0.0059680 0.0050730
0.1093548 0.0066417 0.0056230
0.1165488 0.0075505 0.0063435
0.1237841 0.0084447 0.0070557
0.1310151 0.0092877 0.0077244
0.1391217 0.0104110 0.0086019
0.1464553 0.0114945 0.0094315
0.1541672 0.0126819 0.0103373
0.1622409 0.0139871 0.0113188
0.1697307 0.0154119 0.0122047
0.1780760 0.0166872 0.0133272
0.1857036 0.0180449 0.0143281
0.1936035 0.0194909 0.0153864
0.2017668 0.0210133 0.0165025
0.2091859 0.0226346 0.0176878
0.2171470 0.0239695 0.0186706
0.2260614 0.0257311 0.0199855
0.2334630 0.0272277 0.0211033
0.2410041 0.0287709 0.0222726
0.2496075 0.0308325 0.0238384
0.2576037 0.0325401 0.0251426
0.2648858 0.0338545 0.0261451
0.2732707 0.0357080 0.0275648
0.2817796 0.0376187 0.0290302
0.2892133 0.0396321 0.0305781
0.2971994 0.0411855 0.0317648
0.3048871 0.0433397 0.0334013
0.3130724 0.0450045 0.0346518
0.3211242 0.0473402 0.0364237
0.3282118 0.0491274 0.0377408
0.3367867 0.0509704 0.0390898
0.3441710 0.0528907 0.0405040
0.3516075 0.0548416 0.0419139
0.3591296 0.0568502 0.0433449
0.3668180 0.0589296 0.0448246
0.3746426 0.0610612 0.0463367
0.3824392 0.0632220 0.0478372
0.3888794 0.0654615 0.0494040
0.3969842 0.0677722 0.0510034
0.4039683 0.0693127 0.0520477
0.4121367 0.0716803 0.0536592
0.4188845 0.0741278 0.0553389
0.4261325 0.0758018 0.0564566
0.4330311 0.0783367 0.0581800
0.0013699 0.0013173 0.0004095
0.0024157 0.0015616 0.0004011
0.0050228 0.0019002 0.0003866
0.0084838 0.0022824 0.0003808
0.0124630 0.0026976 0.0003796
0.0167831 0.0031426 0.0004054
0.0215978 0.0036159 0.0004717
0.0268692 0.0041526 0.0005635
0.0326791 0.0046974 0.0006578
0.0391148 0.0053187 0.0007881
0.0458095 0.0059536 0.0009658
0.0525895 0.0066695 0.0011781
0.0594360 0.0074859 0.0014364
0.0668757 0.0082980 0.0017269
0.0744931 0.0091974 0.0020036
0.0820367 0.0100820 0.0023573
0.0896163 0.0110759 0.0028015
0.0975364 0.0121515 0.0032119
0.1053112 0.0133486 0.0037027
0.1129271 0.0146683 0.0042793
0.1205109 0.0158596 0.0048546
0.1288507 0.0173855 0.0054941
0.1370970 0.0187466 0.0061114
0.1449739 0.0202059 0.0068253
0.1520037 0.0214555 0.0076459
0.1605648 0.0230831 0.0085437
0.1684904 0.0247661 0.0093874
0.1762973 0.0262237 0.0103159
0.1843607 0.0277395 0.0113206
0.1916828 0.0293075 0.0122153
0.2003617 0.0309787 0.0133672
0.2081946 0.0326823 0.0143832
0.2162928 0.0344753 0.0154562
0.2246428 0.0363371 0.0165872
0.2332355 0.0382759 0.0177747
0.2402165 0.0398035 0.0187832
0.2492977 0.0418967 0.0201146
0.2566701 0.0435387 0.0212467
0.2648931 0.0457786 0.0224276
0.2726189 0.0475401 0.0236761
0.2805461 0.0493637 0.0249844
0.2886088 0.0512539 0.0263469
0.2968822 0.0531959 0.0277822
0.3052663 0.0551820 0.0292626
0.3124629 0.0572381 0.0308283
0.3210087 0.0593290 0.0320232
0.3297737 0.0614730 0.0336573
0.3370901 0.0636470 0.0349341
0.3445733 0.0658961 0.0362590
0.3528939 0.0675138 0.0380263
0.3604844 0.0698224 0.0394006
0.3682429 0.0722080 0.0408244
0.3751966 0.0738885 0.0422388
0.3831095 0.0763778 0.0436772
0.3902332 0.0781134 0.0451596
0.3984255 0.0807086 0.0466789
0.4056772 0.0825335 0.0481799
0.4140151 0.0852398 0.0497349
0.4196307 0.0870559 0.0507991
0.4271658 0.0889637 0.0523991
0.4357150 0.0918128 0.0540157
0.4415123 0.0937617 0.0551210
0.4492407 0.0957473 0.0568134
0.4553395 0.0977441 0.0585354
0.0017269 0.0038005 0.0003663
0.0032811 0.0044494 0.0003437
0.0068615 0.0053185 0.0003015
0.0114509 0.0062173 0.0002506
0.0164453 0.0071299 0.0002002
0.0217764 0.0080219 0.0001728
0.0275294 0.0090960 0.0001722
0.0340243 0.0101513 0.0001711
0.0409902 0.0113000 0.0001984
0.0480793 0.0123921 0.0002861
0.0559831 0.0137504 0.0004176
0.0637359 0.0150296 0.0006283
0.0718319 0.0163482 0.0008266
0.0797619 0.0177618 0.0010991
0.0882973 0.0192321 0.0013920
0.0968322 0.0207919 0.0017240
0.1048895 0.0221413 0.0021127
0.1137180 0.0238626 0.0025683
0.1218377 0.0253543 0.0030689
0.1296465 0.0269140 0.0036637
0.1384606 0.0285431 0.0042310
0.1461473 0.0302206 0.0049018
0.1548270 0.0319655 0.0055221
0.1630401 0.0337920 0.0062461
0.1707565 0.0356880 0.0070756
0.1790132 0.0372286 0.0078474
0.1873205 0.0392985 0.0088657
0.1952811 0.0409563 0.0098204
0.2040732 0.0431648 0.0108325
0.2114691 0.0449069 0.0117462
0.2201123 0.0467114 0.0126979
0.2281554 0.0486184 0.0139658
0.2362773 0.0505456 0.0150597
0.2452682 0.0530806 0.0161935
0.2536953 0.0550873 0.0171238
0.2606689 0.0565868 0.0184362
0.2695025 0.0586852 0.0194830
0.2775272 0.0608786 0.0209335
0.2855450 0.0630980 0.0221277
0.2937617 0.0653830 0.0233871
0.3013770 0.0670087 0.0247249
0.3098705 0.0693766 0.0261007
0.3186055 0.0718268 0.0275504
0.3266526 0.0735937 0.0290607
0.3354231 0.0760726 0.0301928
0.3423172 0.0778909 0.0318531
0.3513443 0.0805061 0.0330515
0.3583868 0.0824171 0.0347937
0.3652973 0.0842622 0.0361336
0.3748618 0.0870562 0.0379193
0.3819184 0.0889935 0.0393067
0.3891092 0.0909730 0.0407433
0.3972574 0.0938342 0.0421624
0.4045176 0.0958342 0.0436120
0.4119118 0.0978762 0.0451101
0.4194351 0.0999590 0.0466396
0.4269394 0.1020765 0.0481544
0.4345135 0.1041752 0.0497178
0.4402639 0.1062016 0.0507829
0.4479966 0.1083473 0.0523973
0.4557312 0.1105296 0.0540203
0.4616431 0.1126718 0.0551255
0.4695705 0.1148962 0.0568322
0.4755461 0.1170297 0.0579734
0.0020185 0.0080062 0.0001995
0.0042132 0.0091501 0.0001485
0.0088952 0.0109472 0.0000253
0.0146021 0.0124828 0.0000000
0.0207795 0.0141130 0.0000000
0.0273224 0.0157687 0.0000000
0.0340049 0.0172442 0.0000000
0.0413793 0.0189492 0.0000000
0.0492437 0.0205214 0.0000000
0.0576638 0.0221477 0.0000000
0.0658052 0.0237850 0.0000000
0.0742391 0.0254868 0.0000000
0.0831125 0.0272946 0.0000000
0.0923052 0.0291937 0.0001867
0.1009258 0.0311030 0.0004745
0.1097153 0.0327387 0.0008210
0.1186354 0.0347759 0.0011796
0.1275858 0.0365137 0.0016598
0.1364998 0.0386887 0.0021370
0.1453110 0.0404941 0.0026331
0.1537733 0.0423730 0.0033238
0.1615725 0.0442222 0.0038948
0.1711178 0.0467103 0.0046097
0.1794901 0.0487049 0.0053527
0.1882080 0.0507827 0.0061886
0.1962041 0.0528709 0.0069727
0.2044206 0.0550072 0.0078356
0.2123423 0.0566253 0.0088162
0.2211104 0.0588841 0.0098391
0.2302154 0.0612278 0.0109486
0.2383286 0.0635190 0.0119196
0.2461767 0.0652878 0.0132365
0.2547638 0.0677091 0.0143353
0.2627516 0.0694552 0.0152513
0.2717806 0.0719770 0.0164501
0.2798195 0.0745480 0.0177547
0.2884081 0.0764196 0.0188291
0.2960986 0.0783719 0.0203241
0.3044967 0.0810439 0.0215204
0.3136949 0.0830188 0.0227902
0.3216821 0.0850061 0.0241449
0.3291860 0.0878349 0.0255483
0.3374684 0.0899071 0.0270335
0.3458088 0.0919718 0.0285649
0.3540822 0.0940088 0.0297181
0.3620933 0.0970111 0.0313757
0.3705847 0.0991480 0.0325947
0.3778090 0.1013057 0.0343638
0.3849308 0.1034057 0.0357162
0.3936593 0.1055733 0.0370407
0.4011173 0.1078173 0.0389367
0.4084994 0.1100356 0.0403856
0.4159045 0.1122470 0.0418267
0.4233290 0.1144534 0.0432878
0.4308872 0.1167024 0.0447979
0.4385743 0.1189924 0.0463395
0.4452590 0.1203059 0.0478856
0.4528204 0.1225848 0.0488897
0.4589179 0.1248777 0.0505244
0.4668228 0.1272357 0.0521501
0.4747257 0.1296297 0.0537840
0.4807493 0.1319586 0.0548885
0.4878535 0.1333587 0.0566245
0.4957871 0.1357816 0.0577382
0.0023034 0.0135260 0.0000000
0.0051172 0.0154044 0.0000000
0.0108483 0.0179488 0.0000000
0.0177220 0.0202379 0.0000000
0.0248477 0.0225625 0.0000000
0.0324141 0.0248444 0.0000000
0.0400377 0.0267999 0.0000000
0.0483866 0.0290742 0.0000000
0.0571811 0.0310872 0.0000000
0.0660474 0.0331227 0.0000000
0.0756906 0.0355191 0.0000000
0.0848535 0.0375783 0.0000000
0.0937401 0.0396277 0.0000000
0.1033977 0.0417472 0.0000000
0.1130286 0.0438705 0.0000000
0.1217537 0.0459659 0.0000000
0.1318280 0.0483057 0.0000415
0.1406785 0.0505519 0.0004354
0.1493584 0.0523593 0.0009566
0.1588895 0.0547668 0.0015219
0.1678500 0.0571500 0.0020893
0.1771454 0.0596014 0.0027382
0.1853446 0.0615040 0.0035426
0.1942493 0.0640295 0.0042747
0.2027844 0.0659222 0.0049846
0.2113299 0.0685372 0.0059281
0.2193964 0.0705019 0.0068310
0.2283944 0.0732184 0.0077720
0.2369866 0.0752797 0.0088396
0.2458607 0.0773688 0.0099972
0.2543890 0.0801355 0.0109628
0.2624723 0.0822237 0.0120369
0.2707627 0.0843545 0.0131614
0.2799596 0.0872596 0.0143132
0.2886447 0.0894334 0.0155575
0.2962507 0.0916135 0.0169116
0.3051904 0.0938073 0.0179904
0.3131562 0.0960709 0.0195062
0.3210229 0.0982299 0.0207461
0.3305301 0.1004807 0.0220260
0.3387643 0.1027303 0.0233945
0.3471254 0.1050224 0.0248183
0.3541534 0.1073161 0.0263452
0.3625203 0.1095330 0.0274552
0.3712121 0.1118735 0.0290518
0.3785067 0.1142133 0.0307583
0.3871986 0.1165510 0.0319827
0.3946185 0.1189678 0.0337712
0.4035741 0.1213405 0.0351043
0.4099695 0.1227031 0.0364982
0.4175732 0.1251516 0.0384152
0.4251054 0.1275635 0.0398734
0.4327008 0.1300101 0.0413221
0.4403485 0.1324862 0.0427898
0.4471311 0.1339153 0.0443407
0.4549828 0.1364100 0.0458908
0.4628075 0.1389365 0.0474240
0.4695502 0.1403345 0.0484549
0.4776279 0.1429323 0.0500703
0.4839520 0.1455179 0.0517318
0.4910219 0.1470248 0.0534026
0.4971759 0.1495520 0.0545051
0.5044418 0.1510986 0.0562596
0.5125673 0.1537454 0.0573688
0.0026115 0.0200353 0.0000000
0.0059181 0.0222533 0.0000000
0.0127784 0.0259513 0.0000000
0.0205641 0.0291937 0.0000000
0.0286913 0.0321285 0.0000000
0.0369348 0.0348860 0.0000000
0.0456547 0.0372833 0.0000000
0.0548341 0.0399559 0.0000000
0.0641933 0.0426441 0.0000000
0.0744791 0.0453729 0.0000000
0.0839861 0.0475849 0.0000000
0.0939449 0.0502161 0.0000000
0.1042383 0.0528682 0.0000000
0.1136322 0.0549882 0.0000000
0.1240428 0.0577094 0.0000000
0.1337927 0.0598464 0.0000000
0.1435735 0.0625148 0.0000000
0.1524945 0.0646681 0.0000000
0.1615833 0.0668122 0.0000000
0.1715013 0.0696061 0.0002737
0.1804362 0.0718455 0.0008768
0.1896893 0.0741412 0.0015633
0.1987948 0.0770807 0.0021677
0.2075277 0.0793481 0.0029300
0.2165724 0.0816680 0.0037918
0.2248778 0.0839973 0.0047880
0.2343840 0.0863585 0.0056687
0.2437812 0.0895024 0.0066036
0.2515665 0.0918067 0.0077063
0.2606440 0.0941356 0.0086315
0.2689113 0.0965396 0.0098925
0.2772692 0.0989085 0.0109743
0.2858367 0.1013218 0.0121073
0.2945777 0.1037095 0.0133149
0.3035196 0.1061369 0.0145703
0.3127152 0.1086165 0.0159117
0.3197540 0.1100970 0.0170766
0.3277501 0.1125058 0.0182504
0.3375157 0.1150915 0.0198266
0.3458142 0.1175329 0.0211426
0.3542646 0.1200198 0.0225218
0.3628417 0.1225497 0.0239569
0.3691767 0.1240866 0.0255491
0.3778206 0.1265918 0.0266576
0.3867542 0.1291985 0.0282656
0.3933440 0.1307667 0.0300358
0.4022466 0.1333214 0.0312627
0.4098203 0.1359545 0.0330674
0.4181136 0.1375432 0.0344484
0.4256189 0.1401429 0.0358100
0.4332178 0.1427668 0.0372056
0.4401918 0.1444184 0.0392509
0.4479612 0.1470858 0.0407046
0.4548083 0.1486656 0.0422204
0.4627598 0.1514015 0.0437426
0.4708446 0.1541836 0.0452963
0.4776641 0.1557266 0.0462984
0.4858255 0.1585537 0.0478675
0.4930717 0.1602194 0.0495291
0.4995512 0.1630490 0.0511970
0.5065975 0.1646531 0.0522703
0.5150567 0.1676171 0.0539475
0.5206258 0.1692868 0.0557485
0.5278819 0.1709435 0.0568898
0.0030374 0.0272248 0.0000000
0.0066532 0.0300264 0.0000000
0.0143901 0.0343049 0.0000000
0.0232703 0.0384529 0.0000000
0.0322181 0.0421736 0.0000000
0.0412403 0.0452695 0.0000000
0.0505238 0.0482756 0.0000000
0.0605800 0.0516739 0.0000000
0.0710363 0.0546278 0.0000000
0.0816598 0.0579017 0.0000000
0.0925251 0.0606925 0.0000000
0.1029760 0.0633998 0.0000000
0.1129902 0.0659995 0.0000000
0.1241651 0.0692134 0.0000000
0.1340341 0.0717419 0.0000000
0.1444093 0.0743355 0.0000000
0.1543181 0.0768490 0.0000000
0.1645605 0.0794141 0.0000000
0.1741738 0.0819131 0.0000000
0.1830606 0.0842959 0.0000000
0.1922397 0.0867292 0.0001041
0.2017192 0.0892150 0.0005591
0.2104920 0.0916868 0.0010933
0.2194594 0.0941856 0.0017076
0.2288164 0.0967971 0.0025710
0.2385063 0.0994761 0.0035469
0.2472144 0.1020541 0.0044553
0.2562261 0.1046937 0.0054524
0.2642699 0.1072971 0.0065602
0.2729517 0.1090410 0.0075496
0.2814352 0.1116895 0.0088215
0.2900160 0.1142933 0.0099087
0.3001608 0.1170146 0.0110176
0.3078424 0.1196434 0.0122574
0.3163025 0.1214284 0.0135798
0.3255831 0.1240549 0.0145976
0.3337470 0.1267557 0.0160438
0.3411565 0.1284306 0.0172837
0.3510161 0.1311864 0.0184882
0.3597402 0.1340255 0.0201882
0.3675959 0.1357735 0.0216320
0.3763841 0.1385445 0.0230734
0.3843289 0.1402096 0.0242020
0.3917287 0.1429787 0.0257916
0.4009099 0.1458699 0.0274059
0.4074804 0.1475218 0.0287010
0.4168500 0.1504824 0.0304196
0.4234902 0.1521566 0.0317769
0.4331516 0.1551786 0.0336255
0.4398922 0.1568798 0.0350450
0.4477059 0.1597795 0.0364409
0.4546538 0.1615237 0.0379437
0.4628672 0.1646001 0.0399612
0.4699016 0.1663699 0.0414884
0.4770479 0.1681583 0.0430651
0.4851669 0.1711425 0.0440383
0.4923767 0.1729626 0.0456217
0.5007940 0.1761149 0.0471894
0.5082372 0.1779828 0.0488624
0.5138038 0.1797812 0.0505851
0.5221828 0.1829358 0.0516058
0.5297489 0.1848510 0.0533354
0.5354617 0.1867044 0.0551501
0.5441021 0.1899720 0.0562402
0.0033924 0.0347474 0.0000000
0.0072354 0.0380708 0.0000000
0.0159559 0.0433270 0.0000000
0.0255989 0.0479698 0.0000000
0.0354506 0.0524842 0.0000000
0.0453219 0.0563302 0.0000000
0.0554697 0.0599532 0.0000000
0.0661781 0.0634879 0.0000000
0.0769158 0.0668808 0.0000000
0.0885884 0.0702563 0.0000000
0.0995277 0.0733942 0.0000000
0.1105981 0.0765081 0.0000000
0.1219778 0.0796432 0.0000000
0.1325985 0.0825982 0.0000000
0.1437986 0.0855260 0.0000000
0.1537936 0.0883340 0.0000000
0.1650875 0.0912857 0.0000000
0.1743901 0.0933670 0.0000000
0.1843727 0.0961379 0.0000000
0.1937051 0.0989148 0.0000000
0.2042089 0.1016499 0.0000000
0.2130474 0.1043578 0.0001396
0.2226334 0.1063915 0.0007893
0.2318833 0.1091063 0.0012931
0.2402978 0.1117930 0.0018852
0.2500935 0.1145808 0.0025057
0.2582996 0.1164584 0.0032867
0.2675620 0.1193611 0.0042846
0.2769637 0.1222133 0.0051222
0.2847902 0.1242091 0.0063880
0.2934079 0.1270675 0.0073912
0.3029892 0.1291817 0.0087902
0.3120567 0.1320885 0.0099297
0.3199297 0.1349631 0.0111740
0.3286200 0.1369502 0.0125069
0.3381928 0.1398849 0.0135178
0.3457776 0.1418383 0.0150399
0.3557824 0.1448581 0.0161814
0.3635178 0.1467422 0.0174890
0.3722966 0.1497474 0.0187895
0.3805203 0.1517995 0.0206517
0.3893971 0.1547701 0.0216544
0.3977438 0.1567535 0.0232245
0.4053662 0.1598333 0.0248175
0.4138701 0.1618547 0.0265036
0.4223740 0.1637818 0.0277697
0.4302522 0.1669748 0.0295259
0.4370741 0.1688433 0.0308904
0.4470260 0.1722166 0.0327411
0.4539543 0.1741195 0.0341682
0.4609691 0.1760369 0.0356284
0.4691617 0.1793051 0.0370709
0.4763524 0.1812670 0.0386031
0.4835655 0.1832317 0.0401216
0.4920039 0.1866035 0.0416224
0.4994594 0.1886230 0.0432427
0.5068529 0.1906393 0.0448345
0.5143558 0.1926734 0.0464653
0.5231494 0.1961888 0.0480808
0.5288590 0.1981767 0.0498153
0.5362755 0.2001403 0.0508895
0.5440000 0.2022229 0.0526290
0.5508327 0.2056333 0.0537316
0.5586748 0.2077627 0.0555362
0.0037269 0.0428472 0.0000000
0.0077624 0.0462043 0.0000000
0.0173675 0.0524228 0.0000000
0.0279794 0.0579208 0.0000000
0.0383207 0.0626698 0.0000000
0.0489699 0.0671497 0.0000000
0.0596816 0.0707729 0.0000000
0.0711384 0.0748539 0.0000000
0.0826104 0.0787285 0.0000000
0.0943696 0.0824427 0.0000000
0.1066027 0.0861396 0.0000000
0.1175562 0.0895294 0.0000000
0.1291031 0.0923266 0.0000000
0.1402319 0.0956921 0.0000000
0.1519776 0.0990447 0.0000000
0.1628913 0.1015593 0.0000000
0.1736787 0.1046702 0.0000000
0.1838664 0.1078171 0.0000000
0.1937245 0.1100937 0.0000000
0.2044120 0.1132258 0.0000000
0.2143037 0.1162182 0.0000000
0.2228841 0.1183749 0.0000000
0.2333382 0.1214382 0.0003783
0.2422927 0.1235515 0.0010120
0.2509856 0.1265198 0.0016540
0.2604681 0.1286963 0.0024022
0.2696327 0.1317641 0.0031672
0.2782727 0.1337862 0.0038266
0.2879658 0.1369391 0.0047008
0.2957599 0.1389108 0.0054844
0.3058675 0.1420364 0.0061882
0.3143464 0.1442998 0.0076285
0.3236935 0.1475362 0.0087617
0.3324586 0.1497305 0.0100513
0.3406041 0.1528344 0.0110144
0.3497687 0.1550848 0.0124260
0.3575496 0.1572525 0.0139582
0.3678552 0.1606078 0.0150902
0.3758048 0.1627109 0.0164028
0.3848584 0.1660599 0.0176967
0.3931327 0.1682229 0.0191470
0.4015028 0.1703975 0.0206469
0.4110385 0.1738791 0.0221413
0.4179093 0.1760008 0.0238166
0.4266277 0.1782413 0.0255119
0.4363800 0.1817186 0.0266975
0.4434550 0.1838959 0.0285374
0.4504539 0.1859620 0.0299072
0.4596067 0.1882834 0.0318391
0.4677927 0.1917906 0.0331905
0.4749781 0.1938966 0.0346577
0.4822725 0.1960162 0.0361766
0.4896170 0.1981468 0.0377163
0.4981216 0.2017522 0.0391630
0.5056188 0.2039234 0.0407395
0.5132332 0.2061159 0.0423679
0.5207846 0.2083045 0.0439674
0.5284471 0.2105125 0.0456061
0.5362265 0.2127418 0.0472961
0.5430214 0.2162765 0.0483435
0.5507732 0.2184886 0.0500423
0.5586396 0.2207211 0.0517918
0.5643593 0.2227489 0.0529623
0.5723283 0.2250128 0.0547768
0.0041011 0.0504127 0.0000000
0.0082084 0.0539409 0.0000000
0.0185683 0.0610818 0.0000000
0.0298160 0.0673486 0.0000000
0.0412239 0.0728977 0.0000000
0.0521351 0.0773255 0.0000000
0.0637662 0.0820141 0.0000000
0.0754381 0.0864891 0.0000000
0.0878851 0.0902634 0.0000000
0.1003086 0.0944842 0.0000000
0.1121089 0.0978489 0.0000000
0.1243561 0.1017888 0.0000000
0.1360086 0.1055110 0.0000000
0.1480769 0.1085323 0.0000000
0.1594071 0.1121533 0.0000000
0.1707743 0.1149983 0.0000000
0.1820115 0.1184973 0.0000000
0.1930363 0.1211536 0.0000000
0.2038464 0.1245980 0.0000000
0.2133107 0.1270581 0.0000000
0.2235639 0.1303843 0.0000000
0.2335758 0.1329174 0.0000000
0.2432988 0.1362434 0.0002703
0.2525720 0.1386157 0.0009677
0.2620122 0.1408905 0.0015045
0.2713024 0.1442587 0.0022577
0.2800598 0.1466091 0.0031580
0.2897328 0.1499590 0.0037770
0.2988902 0.1522484 0.0045234
0.3069302 0.1544469 0.0053422
0.3175105 0.1580696 0.0063713
0.3259811 0.1603223 0.0072708
0.3345298 0.1624706 0.0079107
0.3442613 0.1659840 0.0087965
0.3517865 0.1681952 0.0098431
0.3611857 0.1706808 0.0112587
0.3690174 0.1729389 0.0124324
0.3797662 0.1767745 0.0139184
0.3879224 0.1790973 0.0152343
0.3962624 0.1814460 0.0166162
0.4047333 0.1838177 0.0180711
0.4142869 0.1875467 0.0194828
0.4230489 0.1899553 0.0210685
0.4300633 0.1922561 0.0227542
0.4387931 0.1945514 0.0239606
0.4489544 0.1984521 0.0256350
0.4561755 0.2008126 0.0274872
0.4651862 0.2031705 0.0288216
0.4724854 0.2054344 0.0302467
0.4799105 0.2078228 0.0322441
0.4872125 0.2100556 0.0337187
0.4957531 0.2138168 0.0351562
0.5051566 0.2162166 0.0366639
0.5126927 0.2185023 0.0381969
0.5203451 0.2208105 0.0397806
0.5261043 0.2230214 0.0414578
0.5337805 0.2253457 0.0430648
0.5415687 0.2276902 0.0447113
0.5494751 0.2300569 0.0464096
0.5583184 0.2337980 0.0474152
0.5641571 0.2359967 0.0491639
0.5721260 0.2383338 0.0509236
0.5779114 0.2404435 0.0520986
0.5859820 0.2428114 0.0539236
0.0045343 0.0584809 0.0000000
0.0084742 0.0620903 0.0000000
0.0196142 0.0696913 0.0000000
0.0316939 0.0767534 0.0000000
0.0435990 0.0828740 0.0000000
0.0552025 0.0878369 0.0000000
0.0670572 0.0930234 0.0000000
0.0796582 0.0974150 0.0000000
0.0924132 0.1022591 0.0000000
0.1051090 0.1061669 0.0000000
0.1177892 0.1106548 0.0000000
0.1301936 0.1141815 0.0000000
0.1428270 0.1177418 0.0000000
0.1549234 0.1218549 0.0000000
0.1671979 0.1250376 0.0000000
0.1784889 0.1288966 0.0000000
0.1896660 0.1319647 0.0000000
0.2010516 0.1348140 0.0000000
0.2122653 0.1386608 0.0000000
0.2220691 0.1414231 0.0000000
0.2320644 0.1440875 0.0000000
0.2430018 0.1478556 0.0000000
0.2523890 0.1504674 0.0000983
0.2619570 0.1530987 0.0008504
0.2724372 0.1567681 0.0013320
0.2812965 0.1593463 0.0022280
0.2902244 0.1618111 0.0029341
0.3003118 0.1656463 0.0038454
0.3097521 0.1681778 0.0046377
0.3194600 0.1707368 0.0054756
0.3279734 0.1731843 0.0063729
0.3366714 0.1756462 0.0073265
0.3463270 0.1792734 0.0078862
0.3554286 0.1817821 0.0088946
0.3647392 0.1843183 0.0099621
0.3725036 0.1866072 0.0107613
0.3821747 0.1891911 0.0119284
0.3912434 0.1929230 0.0127033
0.3995818 0.1954425 0.0140222
0.4080964 0.1979751 0.0154091
0.4167219 0.2005016 0.0168721
0.4254452 0.2030408 0.0183856
0.4343629 0.2056091 0.0199788
0.4443588 0.2096569 0.0215301
0.4514454 0.2119880 0.0227809
0.4607174 0.2146294 0.0245586
0.4678792 0.2169892 0.0258975
0.4772262 0.2196467 0.0277602
0.4846485 0.2220495 0.0291912
0.4921455 0.2245242 0.0312058
0.4995479 0.2268643 0.0326886
0.5090375 0.2293578 0.0341808
0.5165936 0.2317288 0.0357374
0.5253636 0.2356813 0.0371831
0.5331171 0.2380954 0.0387756
0.5389369 0.2403989 0.0404641
0.5467118 0.2428275 0.0420797
0.5545999 0.2452762 0.0437352
0.5625528 0.2476740 0.0454468
0.5702935 0.2499071 0.0465389
0.5761584 0.2521489 0.0483002
0.5841895 0.2545401 0.0500707
0.5900037 0.2566835 0.0512515
0.5981345 0.2591037 0.0530878
0.0050756 0.0666516 0.0000000
0.0087457 0.0702223 0.0000000
0.0205994 0.0786856 0.0000000
0.0332709 0.0864812 0.0000000
0.0457644 0.0926279 0.0000000
0.0582391 0.0988027 0.0000000
0.0705593 0.1037910 0.0000000
0.0832278 0.1085562 0.0000000
0.0972421 0.1141334 0.0000000
0.1105720 0.1184151 0.0000000
0.1234391 0.1225493 0.0000000
0.1368242 0.1273896 0.0000000
0.1490874 0.1311072 0.0000000
0.1611836 0.1347209 0.0000000
0.1744313 0.1392583 0.0000000
0.1866798 0.1426740 0.0000000
0.1982366 0.1459461 0.0000000
0.2089399 0.1489568 0.0000000
0.2205528 0.1532282 0.0000000
0.2306323 0.1561566 0.0000000
0.2409604 0.1591120 0.0000000
0.2515608 0.1620803 0.0000000
0.2619334 0.1661206 0.0000000
0.2717951 0.1690130 0.0006944
0.2818440 0.1717841 0.0013104
0.2909465 0.1745936 0.0022773
0.3014845 0.1774101 0.0029846
0.3103903 0.1812813 0.0037026
0.3200856 0.1840357 0.0045380
0.3300362 0.1867928 0.0053955
0.3387464 0.1894123 0.0063505
0.3476441 0.1920483 0.0073371
0.3566346 0.1945572 0.0080209
0.3659377 0.1972415 0.0090905
0.3762594 0.2012048 0.0097355
0.3843338 0.2038160 0.0109474
0.3940982 0.2064440 0.0117862
0.4023759 0.2089527 0.0127000
0.4108773 0.2116364 0.0140734
0.4193703 0.2141184 0.0150848
0.4279823 0.2166182 0.0161296
0.4366874 0.2191327 0.0172063
0.4457401 0.2218344 0.0188083
0.4548208 0.2245446 0.0204717
0.4619924 0.2269672 0.0217282
0.4713821 0.2297225 0.0235159
0.4786271 0.2321726 0.0248613
0.4880894 0.2349418 0.0267346
0.4955958 0.2374350 0.0281727
0.5030022 0.2398603 0.0296372
0.5106437 0.2424144 0.0316928
0.5202332 0.2449800 0.0331925
0.5278516 0.2474089 0.0347590
0.5355356 0.2498399 0.0363095
0.5433365 0.2522931 0.0379114
0.5512027 0.2547641 0.0395676
0.5569906 0.2570876 0.0412367
0.5649229 0.2595709 0.0429018
0.5727822 0.2619288 0.0439635
0.5808198 0.2644152 0.0457108
0.5867112 0.2666979 0.0474829
0.5946069 0.2689976 0.0485887
0.6006439 0.2713171 0.0504484
0.6088310 0.2737873 0.0522942
0.0057482 0.0754735 0.0000000
0.0089216 0.0786774 0.0000000
0.0215542 0.0881526 0.0000000
0.0346863 0.0959910 0.0000000
0.0480287 0.1035570 0.0000000
0.0610267 0.1095682 0.0000000
0.0739757 0.1151099 0.0000000
0.0873211 0.1203197 0.0000000
0.1013186 0.1262463 0.0000000
0.1151923 0.1310020 0.0000000
0.1285831 0.1354718 0.0000000
0.1420392 0.1398016 0.0000000
0.1552019 0.1449044 0.0000000
0.1687552 0.1489298 0.0000000
0.1809155 0.1526437 0.0000000
0.1935619 0.1563746 0.0000000
0.2054863 0.1599525 0.0000000
0.2165317 0.1632525 0.0000000
0.2284664 0.1677626 0.0000000
0.2401070 0.1712530 0.0000000
0.2506900 0.1742877 0.0000000
0.2603497 0.1773389 0.0000000
0.2715384 0.1805732 0.0000000
0.2816200 0.1835179 0.0004417
0.2906732 0.1864908 0.0014099
0.3020599 0.1908108 0.0019973
0.3115126 0.1936954 0.0027843
0.3212249 0.1966107 0.0036178
0.3297030 0.1993867 0.0045149
0.3398483 0.2022807 0.0054313
