Plugins/FilmEmulator/Content/LUTs/FE_Kodak_5248_64.cube
TITLE "FE_Kodak_5248_33"
LUT_3D_SIZE 8
0.0007104 0.0015219 0.0003690
0.0708894 0.0017560 0.0016050
0.2431281 0.0034303 0.0058191
0.4185386 0.0060324 0.0130419
0.5656800 0.0096422 0.0224675
0.6719247 0.0138709 0.0328712
0.7403015 0.0184776 0.0437294
0.7954625 0.0236918 0.0558875
0.0008776 0.0918887 0.0012009
0.0572127 0.0903354 0.0027570
0.2088775 0.0896576 0.0054854
0.3769380 0.0891752 0.0106751
0.5277069 0.0914039 0.0190112
0.6423777 0.0911057 0.0291329
0.7168455 0.0908838 0.0401470
0.7775651 0.0906991 0.0512094
0.0020040 0.2695525 0.0039707
0.0520866 0.2668036 0.0062941
0.1984908 0.2652768 0.0105647
0.3620832 0.2643677 0.0153335
0.5122699 0.2636431 0.0214133
0.6281111 0.2630800 0.0278782
0.7041220 0.2625327 0.0386879
0.7666461 0.2620817 0.0493717
0.0037870 0.4450034 0.0086128
0.0485655 0.4423380 0.0115655
0.1872237 0.4405696 0.0166853
0.3445518 0.4394948 0.0224799
0.5026680 0.4386198 0.0291927
0.6190878 0.4379661 0.0358554
0.6961369 0.4374301 0.0436346
0.7598384 0.4369922 0.0499030
0.0066148 0.5576547 0.0150225
0.0459503 0.5556558 0.0181585
0.1838280 0.5539350 0.0243169
0.3394625 0.5529056 0.0313166
0.4970415 0.5521342 0.0372812
0.6056086 0.5515146 0.0452306
0.6913678 0.5510268 0.0517000
0.7490011 0.5506132 0.0590238
0.0109277 0.6477598 0.0233408
0.0420935 0.6394081 0.0255422
0.1759542 0.6378175 0.0326035
0.3356178 0.6368832 0.0399155
0.4830653 0.6362045 0.0468442
0.6014952 0.6356680 0.0534915
0.6876706 0.6352106 0.0610164
0.7457532 0.6348560 0.0677526
0.0152465 0.7145517 0.0323635
0.0400226 0.7072335 0.0341026
0.1735787 0.7123761 0.0414475
0.3234887 0.7116200 0.0485622
0.4789228 0.7110215 0.0553671
0.5974822 0.7105455 0.0631002
0.6762810 0.7101936 0.0700061
0.7425716 0.7098584 0.0773621
0.0209551 0.7685032 0.0422494
0.0380991 0.7626046 0.0432218
0.1667365 0.7614107 0.0503521
0.3207963 0.7607453 0.0573029
0.4758115 0.7602156 0.0652170
0.5944869 0.7598221 0.0722098
0.6735428 0.7595134 0.0797707
0.7401701 0.7592158 0.0880691
0.0027883 0.0022979 0.1140480
0.0965166 0.0043274 0.1260684
0.2728291 0.0073963 0.1380879
0.4461353 0.0111523 0.1528410
0.5845193 0.0154999 0.1689294
0.6807405 0.0205098 0.1822005
0.7493420 0.0255920 0.2017183
0.7979298 0.0314523 0.2174634
0.0021358 0.1036059 0.1174768
0.0783610 0.1023928 0.1286986
0.2411406 0.1019574 0.1397734
0.4087018 0.1046464 0.1536325
0.5513008 0.1044318 0.1690677
0.6542809 0.1042715 0.1814590
0.7281790 0.1041322 0.1954026
0.7872691 0.1071088 0.2102744
0.0038636 0.2780763 0.1188392
0.0719432 0.2758914 0.1277955
0.2248282 0.2749024 0.1388009
0.3856912 0.2806287 0.1521581
0.5368822 0.2801142 0.1674341
0.6409343 0.2797489 0.1797293
0.7164015 0.2794349 0.1933218
0.7710724 0.2791258 0.2132311
0.0064372 0.4487216 0.1168335
0.0651052 0.4465262 0.1261630
0.2130147 0.4452463 0.1370139
0.3777527 0.4444463 0.1497196
0.5192992 0.4438336 0.1648282
0.6329968 0.4433119 0.1812817
0.7090408 0.4505984 0.1950370
0.7646694 0.4502510 0.2098469
0.0102898 0.5613109 0.1171378
0.0617688 0.5596038 0.1240446
0.2095466 0.5582527 0.1377888
0.3638480 0.5574792 0.1505890
0.5140048 0.5568680 0.1616895
0.6200004 0.5563695 0.1779246
0.6973889 0.5559783 0.1911664
0.7610495 0.5556006 0.2057112
0.0137879 0.6455446 0.1147194
0.0588485 0.6442336 0.1218000
0.2013189 0.6429693 0.1353277
0.3601014 0.6422230 0.1474930
0.5098774 0.6416170 0.1623792
0.6161045 0.6411858 0.1743712
0.6938533 0.6407847 0.1919554
0.7579890 0.6404311 0.2065463
0.0188981 0.7129653 0.1122667
0.0542955 0.7120851 0.1195521
0.1936543 0.7109231 0.1328323
0.3480632 0.7102572 0.1446752
0.4969874 0.7097149 0.1590316
0.6126553 0.7092716 0.1750133
0.6907662 0.7089447 0.1878420
0.7553117 0.7086273 0.2021919
0.0242982 0.7674176 0.1124749
0.0518682 0.7668679 0.1172640
0.1864065 0.7658511 0.1303325
0.3451344 0.7652493 0.1419556
0.4937232 0.7647793 0.1556563
0.6013699 0.7644126 0.1713947
0.6879371 0.7641073 0.1839768
0.7460067 0.7638531 0.1978853
0.0102613 0.0056555 0.2913392
0.1227698 0.0086777 0.3016008
0.2952178 0.0129301 0.3208983
0.4683454 0.0173125 0.3342277
0.5968369 0.0222216 0.3480670
0.6913096 0.0277296 0.3622600
0.7524598 0.0345193 0.3778770
0.8066586 0.0418231 0.3936566
0.0075039 0.1189392 0.3017176
0.1054624 0.1179401 0.3105392
0.2724670 0.1175254 0.3219758
0.4343747 0.1172668 0.3343631
0.5753725 0.1205662 0.3473605
0.6669407 0.1204105 0.3607799
0.7398731 0.1202661 0.3749954
0.7916749 0.1201397 0.3900490
0.0074315 0.2958479 0.2986324
0.0968750 0.2938693 0.3077104
0.2549121 0.2929713 0.3257692
0.4210707 0.2924020 0.3381744
0.5532783 0.2919880 0.3511882
0.6549492 0.2916454 0.3646176
0.7293997 0.2913512 0.3788989
0.7823891 0.2976731 0.3941281
0.0111525 0.4621657 0.3001680
0.0906834 0.4601908 0.3100342
0.2419969 0.4591310 0.3214430
0.4035690 0.4584369 0.3337639
0.5448783 0.4578990 0.3466304
0.6471949 0.4574798 0.3599775
0.7153270 0.4571514 0.3737442
0.7767485 0.4568091 0.3887184
0.0155078 0.5666323 0.3009143
0.0861925 0.5650058 0.3114109
0.2384669 0.5639179 0.3227894
0.3988596 0.5632257 0.3351377
0.5399659 0.5626889 0.3480310
0.6426352 0.5622705 0.3614034
0.7112393 0.5619426 0.3751945
0.7667437 0.5616302 0.3902528
0.0204797 0.6509013 0.2949671
0.0794214 0.6496889 0.3059824
0.2293971 0.6486447 0.3173071
0.3857440 0.6479679 0.3363550
0.5267226 0.6474669 0.3492680
0.6308526 0.6470756 0.3626588
0.7077789 0.6467448 0.3764148
0.7637430 0.6464917 0.3836868
0.0263733 0.7179208 0.2954888
0.0758011 0.7170601 0.3069998
0.2209112 0.7161247 0.3183414
0.3823743 0.7155282 0.3305488
0.5231352 0.7150808 0.3433484
0.6274753 0.7147313 0.3566302
0.7047628 0.7144359 0.3702840
0.7610787 0.7141778 0.3847625
0.0325828 0.7710708 0.2959801
0.0725219 0.7655492 0.3011816
0.2189461 0.7646689 0.3191357
0.3796348 0.7641413 0.3313594
0.5202084 0.7637457 0.3441752
0.6247116 0.7634370 0.3574724
0.7022902 0.7631752 0.3711407
0.7586708 0.7679520 0.3857290
0.0222158 0.0108130 0.4625802
0.1598307 0.0145513 0.4683301
0.3299872 0.0193207 0.4847645
0.4919983 0.0247940 0.4930820
0.6186440 0.0303384 0.5100785
0.7021703 0.0367236 0.5187349
0.7627195 0.0445724 0.5361643
0.8101085 0.0524312 0.5451776
0.0182952 0.1329631 0.4729022
0.1355379 0.1321232 0.4774849
0.3007097 0.1317171 0.4927317
0.4698093 0.1353236 0.5001171
0.5909699 0.1351310 0.5078083
0.6799726 0.1349562 0.5242395
0.7517573 0.1348115 0.5321627
0.8021066 0.1346883 0.5402973
0.0156236 0.3078897 0.4686236
0.1298387 0.3061777 0.4815170
0.2902552 0.3054310 0.4882241
0.4476157 0.3116517 0.5042208
0.5785165 0.3112544 0.5118439
0.6686822 0.3109558 0.5197208
0.7350305 0.3106675 0.5362502
0.7876528 0.3104332 0.5443780
0.0169003 0.4763780 0.4710782
0.1216311 0.4745196 0.4757351
0.2760155 0.4735806 0.4909658
0.4396966 0.4729441 0.4982232
0.5705727 0.4724323 0.5144030
0.6614051 0.4720790 0.5222783
0.7285961 0.4717384 0.5388004
0.7821020 0.4714614 0.5469226
0.0215099 0.5725863 0.4720188
0.1154062 0.5710146 0.4772445
0.2652233 0.5700809 0.4924686
0.4254864 0.5765887 0.4998372
0.5567319 0.5760825 0.5160134
0.6569738 0.5757049 0.5238227
0.7246916 0.5754105 0.5318095
0.7786998 0.5750958 0.5484587
0.0276397 0.6567898 0.4728232
0.1096073 0.6555871 0.4786351
0.2620733 0.6547284 0.4852397
0.4217702 0.6541078 0.5010474
0.5529743 0.6536761 0.5086665
0.6456898 0.6533118 0.5250921
0.7215881 0.6530128 0.5330172
0.7760344 0.6527591 0.5410390
0.0340498 0.7233799 0.4651241
0.1004106 0.7224971 0.4799341
0.2523256 0.7216995 0.4864528
0.4089401 0.7211481 0.5022644
0.5493709 0.7207389 0.5098153
0.6423641 0.7204493 0.5176882
0.7186239 0.7201487 0.5341628
0.7734604 0.7199231 0.5421825
0.0418676 0.7702496 0.4656118
0.0957332 0.7696664 0.4723968
0.2433686 0.7689266 0.4874298
0.4062071 0.7684480 0.4946212
0.5374174 0.7680770 0.5107921
0.6396881 0.7678002 0.5185999
0.7089031 0.7675552 0.5351352
0.7648576 0.7673560 0.5431543
0.0408456 0.0173495 0.6014066
0.1878649 0.0215884 0.6077970
0.3593006 0.0269234 0.6156064
0.5166314 0.0333623 0.6237653
0.6319044 0.0403780 0.6396645
0.7131371 0.0475203 0.6475451
0.7730550 0.0558731 0.6554400
0.8191054 0.0656438 0.6633038
0.0342629 0.1489632 0.6100799
0.1681794 0.1482081 0.6155043
0.3303923 0.1523799 0.6225446
0.4964954 0.1520815 0.6297688
0.6152172 0.1518700 0.6369410
0.6928427 0.1517136 0.6442863
0.7567830 0.1515658 0.6516052
0.8065009 0.1514291 0.6589042
0.0303815 0.3289182 0.6139506
0.1567353 0.3275350 0.6192819
0.3200724 0.3268188 0.6261054
0.4749715 0.3263156 0.6333672
0.5949817 0.3259384 0.6405073
0.6824983 0.3256351 0.6477622
0.7477769 0.3253736 0.6550494
0.7988263 0.3251325 0.6623150
0.0273844 0.4830254 0.6078836
0.1482651 0.4814009 0.6131682
0.3056706 0.4805328 0.6284388
0.4673970 0.4799220 0.6356204
0.5875790 0.4794866 0.6427422
0.6757898 0.4791368 0.6499776
0.7416474 0.4858997 0.6573398
0.7935814 0.4856211 0.6645828
0.0301347 0.5858314 0.6091490
0.1458994 0.5843424 0.6146361
0.3016503 0.5835351 0.6214904
0.4530480 0.5829673 0.6287886
0.5828360 0.5824667 0.6441655
0.6714724 0.5821239 0.6513883
0.7381136 0.5818282 0.6586415
0.7843941 0.5815846 0.6659292
0.0369695 0.6628787 0.6099105
0.1396593 0.6617090 0.6158590
0.2907997 0.6609625 0.6227058
0.4492529 0.6604098 0.6299325
0.5701402 0.6600118 0.6374496
0.6604235 0.6596931 0.6447264
0.7280589 0.6594204 0.6520439
0.7817636 0.6591688 0.6593399
0.0436782 0.7289249 0.6106783
0.1337416 0.7280441 0.6170183
0.2803568 0.7273827 0.6238577
0.4456682 0.7268690 0.6310135
0.5665549 0.7265171 0.6385217
0.6571212 0.7262349 0.6457895
0.7251300 0.7259934 0.6530973
0.7792303 0.7257703 0.6603831
0.0512567 0.7744951 0.6112190
0.1283878 0.7738485 0.6179352
0.2781110 0.7732422 0.6247060
0.4334084 0.7728109 0.6319198
0.5637553 0.7724782 0.6393569
0.6545362 0.7722289 0.6466173
0.7228326 0.7720157 0.6539176
0.7772409 0.7718183 0.6611954
0.0611591 0.0248670 0.6965187
0.2197949 0.0293910 0.7020459
0.3917094 0.0355486 0.7088548
0.5418397 0.0430924 0.7160482
0.6527989 0.0506838 0.7232554
0.7249131 0.0595734 0.7305311
0.7769625 0.0699532 0.7377701
0.8227875 0.0792320 0.7447659
0.0521770 0.1675128 0.7034132
0.1991853 0.1667934 0.7082361
0.3634576 0.1664027 0.7143286
0.5136695 0.1711264 0.7209126
0.6296632 0.1708939 0.7275030
0.7057797 0.1707192 0.7341839
0.7682383 0.1705534 0.7407914
0.8108652 0.1704407 0.7404416
0.0483690 0.3446292 0.7065306
0.1868535 0.3434308 0.7113209
0.3529958 0.3427485 0.7173241
0.5026053 0.3422602 0.7237565
0.6192081 0.3418777 0.7303057
0.6963971 0.3415910 0.7369437
0.7601705 0.3413589 0.7364984
0.8035815 0.3495117 0.7432676
0.0439239 0.4958270 0.7086010
0.1825204 0.4944194 0.7132597
0.3377083 0.4936836 0.7192956
0.4952229 0.4931019 0.7256449
0.6040288 0.4926985 0.7322146
0.6900760 0.4923922 0.7316860
0.7546637 0.4920860 0.7383328
0.7990841 0.4918336 0.7449647
0.0416676 0.5920683 0.7098622
0.1746070 0.5906970 0.7145059
0.3336961 0.5899514 0.7204721
0.4810705 0.5894591 0.7195747
0.5996735 0.5890359 0.7261773
0.6861242 0.5886944 0.7328309
0.7444440 0.5884246 0.7395089
0.7960949 0.5881500 0.7460732
0.0456606 0.6690994 0.7107098
0.1673647 0.6679894 0.7085001
0.3219110 0.6673056 0.7142837
0.4772191 0.6667849 0.7205730
0.5959350 0.6663957 0.7271614
0.6749364 0.6661074 0.7338499
0.7414503 0.6658330 0.7404628
0.7935320 0.6655800 0.7470117
0.0534177 0.7346065 0.7042646
0.1604661 0.7337414 0.7095188
0.3187782 0.7331141 0.7152361
0.4735881 0.7326558 0.7215129
0.5837131 0.7323357 0.7281386
0.6716955 0.7320585 0.7347623
0.7386059 0.7318163 0.7413608
0.7910923 0.7315931 0.7478952
0.0605327 0.7788606 0.7047845
0.1542367 0.7782046 0.7103102
0.3081621 0.7776514 0.7160207
0.4612207 0.7772470 0.7222867
0.5809842 0.7769427 0.7288464
0.6692039 0.7766980 0.7354594
0.7364148 0.7764843 0.7420468
0.7830522 0.7763393 0.7416992
0.0842954 0.0334688 0.7740020
0.2478374 0.0391319 0.7727905
0.4160478 0.0460034 0.7785900
0.5658842 0.0540662 0.7844414
0.6651851 0.0635168 0.7904047
0.7367387 0.0721760 0.7962546
0.7877980 0.0815338 0.7962602
0.8267758 0.0915289 0.8020664
0.0750827 0.1879518 0.7792102
0.2327346 0.1872883 0.7775175
0.3978178 0.1868854 0.7827721
0.5400668 0.1865871 0.7881357
0.6439464 0.1863583 0.7935768
0.7191439 0.1861952 0.7931706
0.7795970 0.1915039 0.7987323
0.8206570 0.1913531 0.8041711
0.0698807 0.3608484 0.7753090
0.2194143 0.3597765 0.7799195
0.3786293 0.3591496 0.7851379
0.5294484 0.3586536 0.7904130
0.6340728 0.3583353 0.7899001
0.7103518 0.3580400 0.7954085
0.7655368 0.3663580 0.8009691
0.8141823 0.3660986 0.8063219
0.0636903 0.5017644 0.7769282
0.2091299 0.5005536 0.7814643
0.3722892 0.4998353 0.7866139
0.5135090 0.4993188 0.7919061
0.6273726 0.5056645 0.7914195
0.7043715 0.5053393 0.7968987
0.7606217 0.5050618 0.8023397
0.8100462 0.5048234 0.8020083
0.0605783 0.5983403 0.7779930
0.2006147 0.5971669 0.7825112
0.3591573 0.5964743 0.7876471
0.5089667 0.5959864 0.7869024
0.6152890 0.5956025 0.7923633
0.6931908 0.5952888 0.7978261
0.7574570 0.5949921 0.8032081
0.8015729 0.5947899 0.8029191
0.0577550 0.6753436 0.7789007
0.1981947 0.6742414 0.7833597
0.3556589 0.6736467 0.7823583
0.5050828 0.6731608 0.7877388
0.6115797 0.6728095 0.7931841
0.6898397 0.6725221 0.7986310
0.7545764 0.6722894 0.7982602
0.7990479 0.6720649 0.8037090
0.0653870 0.7340744 0.7794397
0.1908034 0.7332141 0.7841189
0.3439609 0.7326864 0.7831241
0.4924940 0.7322525 0.7884891
0.6084322 0.7319155 0.7938767
0.6866689 0.7378570 0.7993860
0.7449543 0.7376758 0.7990580
0.7966510 0.7374555 0.8044498
0.0741895 0.7783880 0.7798668
0.1839404 0.7777677 0.7785391
0.3414744 0.7772505 0.7837331
0.4897058 0.7768679 0.7890872
0.5975674 0.7765899 0.7945035
0.6845881 0.7763757 0.7940605
0.7430822 0.7761824 0.7995581
0.7950499 0.7759848 0.8049400
0.1135940 0.0432352 0.8206952
0.2796157 0.0491285 0.8250598
0.4507653 0.0576965 0.8298073
0.5806407 0.0677422 0.8296515
0.6777935 0.0769237 0.8345678
0.7415670 0.0863870 0.8397831
0.7981251 0.0969208 0.8397402
0.8356907 0.1056423 0.8448172
0.1017600 0.2032493 0.8246946
0.2645411 0.2026072 0.8286300
0.4243912 0.2022111 0.8329617
0.5657581 0.2019242 0.8323900
0.6577944 0.2068985 0.8370473
0.7319418 0.2067191 0.8367054
0.7848623 0.2065408 0.8416259
0.8251687 0.2063787 0.8464561
0.0945278 0.3775074 0.8266548
0.2497743 0.3765470 0.8305492
0.4144241 0.3759661 0.8297728
0.5464824 0.3755219 0.8342750
0.6487035 0.3751598 0.8387878
0.7236053 0.3836432 0.8385259
0.7776521 0.3833794 0.8434019
0.8189849 0.3831400 0.8481883
0.0890690 0.5145036 0.8279081
0.2383800 0.5134664 0.8317753
0.3988104 0.5128421 0.8310052
0.5399424 0.5123317 0.8354430
0.6426367 0.5119412 0.8399304
0.7112911 0.5116861 0.8396280
0.7733141 0.5113755 0.8444438
0.8152775 0.5111665 0.8442033
0.0820378 0.6046864 0.8287721
0.2353692 0.6036692 0.8274606
0.3947360 0.6030262 0.8317798
0.5356703 0.6025346 0.8362013
0.6386889 0.6022009 0.8357819
0.7077135 0.6019132 0.8403711
0.7634304 0.6086258 0.8452604
0.8124236 0.6083972 0.8449868
0.0782278 0.6815109 0.8295238
0.2265296 0.6805816 0.8282136
0.3819015 0.6799985 0.8325216
0.5226594 0.6795491 0.8369251
0.6270843 0.6792436 0.8365048
0.7044344 0.6789568 0.8410451
0.7608082 0.6787100 0.8458604
0.8102040 0.6785002 0.8455876
0.0773196 0.7398028 0.8301231
0.2183408 0.7390003 0.8288527
0.3788230 0.7384602 0.8331125
0.5193673 0.7380619 0.8375040
0.6239748 0.7377909 0.8370846
0.7016510 0.7375365 0.8416119
0.7583948 0.7373540 0.8413378
0.8023614 0.7371543 0.8461754
0.0847334 0.7828318 0.8253698
0.2165144 0.7821583 0.8293539
0.3672733 0.7817037 0.8336427
0.5166590 0.7813611 0.8330288
0.6213758 0.7810919 0.8375666
0.6917237 0.7808873 0.8421173
0.7563471 0.7807067 0.8418096
0.8005843 0.7805302 0.8466355
