Plugins/FilmEmulator/Content/LUTs/FE_Kodak_Portra_400_64.cube
TITLE "FE_Kodak_Portra_400_33"
LUT_3D_SIZE 4
0.0006557 0.0025025 0.0009060
0.3668484 0.0068276 0.0044954
0.7224563 0.0187325 0.0139345
0.8671525 0.0339759 0.0271376
0.0015976 0.2515272 0.0048118
0.2518112 0.2691670 0.0136416
0.6118698 0.2906577 0.0254077
0.8047807 0.3053660 0.0400145
0.0060881 0.4944600 0.0149199
0.2514983 0.5101582 0.0266447
0.5994361 0.5172798 0.0419349
0.7864604 0.5252682 0.0580770
0.0134113 0.6488189 0.0290519
0.2669718 0.6549962 0.0438451
0.5885558 0.6621156 0.0606893
0.7781851 0.6697049 0.0771701
0.0091542 0.0220233 0.3368695
0.4070163 0.0372950 0.3580147
0.7395738 0.0540999 0.3902203
0.8748453 0.0725092 0.4124053
0.0140913 0.2868523 0.3620250
0.3341635 0.3024648 0.3831233
0.6747352 0.3191870 0.4047358
0.8329329 0.3455054 0.4268291
0.0230817 0.5046124 0.3740141
0.3336719 0.5233911 0.3954142
0.6485857 0.5326372 0.4171970
0.8184649 0.5420344 0.4393413
0.0360536 0.6521223 0.3856253
0.3496969 0.6601283 0.4072082
0.6515922 0.6684741 0.4291982
0.8109426 0.6768249 0.4515052
0.0343209 0.0595934 0.6349756
0.4523355 0.0767807 0.6460005
0.7565113 0.0985357 0.6568839
0.8803120 0.1172405 0.6674753
0.0406034 0.3246541 0.6490138
0.4053144 0.3416127 0.6595123
0.7018697 0.3594249 0.6698691
0.8509647 0.3777497 0.6800672
0.0535083 0.5389017 0.6505018
0.3941273 0.5477864 0.6711169
0.6941876 0.5572719 0.6812325
0.8390056 0.5668395 0.6911839
0.0711471 0.6649025 0.6617163
0.4133547 0.6731138 0.6719698
0.6848140 0.6815376 0.6820714
0.8331348 0.6899198 0.6920087
0.0709377 0.1049029 0.7846888
0.4916833 0.1244631 0.7926220
0.7677302 0.1424520 0.7928207
0.8869554 0.1679565 0.8005455
0.0769695 0.3668742 0.7867203
0.4619466 0.3849367 0.7944521
0.7372313 0.4037009 0.8019925
0.8649457 0.4228495 0.8093228
0.0924014 0.5551698 0.7952811
0.4547361 0.5743582 0.8027970
0.7204350 0.5839906 0.8028470
0.8557825 0.5934159 0.8101074
0.1157393 0.6795844 0.7959133
0.4768135 0.6876962 0.8033649
0.7265944 0.6959354 0.8106124
0.8514841 0.7043228 0.8106586
