Plugins/FilmEmulator/Content/LUTs/FE_Kodak_5247_64.cube
TITLE "FE_Kodak_5247_33"
LUT_3D_SIZE 64
0.0016041 0.0004935 0.0006585
0.0027712 0.0004942 0.0006605
0.0059303 0.0004856 0.0006995
0.0112245 0.0005283 0.0008270
0.0182500 0.0005915 0.0009895
0.0277063 0.0006704 0.0011799
0.0395784 0.0007613 0.0014117
0.0522337 0.0008558 0.0016644
0.0659252 0.0009582 0.0020088
0.0827871 0.0010859 0.0023282
0.0971375 0.0011913 0.0027162
0.1172645 0.0013420 0.0030896
0.1325827 0.0014532 0.0034315
0.1538325 0.0016137 0.0039386
0.1728175 0.0017560 0.0043990
0.1876406 0.0018815 0.0047854
0.2087047 0.0020945 0.0053612
0.2256471 0.0022700 0.0058379
0.2431452 0.0024690 0.0063677
0.2613280 0.0027198 0.0069640
0.2804005 0.0029960 0.0076158
0.2935679 0.0031952 0.0083644
0.3138744 0.0035308 0.0088661
0.3277957 0.0037834 0.0094429
0.3492838 0.0041965 0.0103786
0.3639853 0.0044966 0.0110529
0.3788228 0.0048180 0.0117713
0.3938311 0.0051826 0.0125330
0.4090596 0.0055748 0.0133434
0.4244820 0.0059965 0.0142056
0.4400708 0.0064500 0.0151229
0.4477954 0.0066887 0.0161786
0.4630952 0.0071926 0.0166194
0.4784526 0.0077283 0.0177125
0.4861166 0.0080099 0.0189689
0.5015853 0.0086072 0.0194864
0.5092700 0.0089206 0.0208665
0.5247464 0.0095854 0.0214349
0.5321451 0.0099342 0.0229562
0.5470239 0.0106701 0.0235902
0.5544209 0.0110565 0.0243595
0.5617600 0.0114554 0.0260986
0.5764755 0.0123009 0.0268181
0.5837706 0.0127458 0.0276904
0.5910324 0.0132067 0.0285904
0.5982212 0.0136824 0.0306240
0.6120846 0.0146906 0.0314744
0.6188942 0.0152104 0.0325279
0.6256603 0.0157485 0.0336157
0.6323797 0.0163053 0.0347388
0.6390509 0.0168817 0.0358984
0.6456712 0.0174781 0.0370954
0.6522388 0.0180954 0.0383311
0.6587514 0.0187341 0.0396065
0.6652069 0.0193951 0.0409229
0.6714798 0.0200791 0.0422813
0.6774496 0.0207867 0.0436825
0.6833718 0.0215028 0.0451688
0.6892413 0.0222348 0.0467061
0.6950527 0.0229913 0.0482936
0.7008039 0.0237732 0.0499327
0.7064945 0.0245811 0.0516249
0.7121229 0.0254160 0.0533718
0.7176879 0.0262786 0.0551750
0.0015048 0.0018536 0.0005418
0.0025640 0.0018561 0.0005271
0.0054189 0.0018592 0.0005647
0.0102477 0.0018617 0.0006385
0.0166962 0.0018633 0.0007800
0.0263671 0.0019159 0.0009260
0.0365562 0.0019172 0.0011296
0.0503211 0.0019191 0.0013471
0.0638697 0.0019204 0.0016388
0.0780598 0.0019219 0.0019169
0.0949967 0.0019756 0.0022560
0.1116805 0.0019773 0.0025995
0.1308581 0.0019792 0.0030075
0.1479807 0.0019809 0.0033830
0.1667678 0.0020362 0.0038107
0.1870850 0.0020382 0.0043091
0.2033167 0.0020395 0.0048889
0.2259481 0.0022112 0.0053261
0.2434985 0.0023963 0.0057995
0.2617207 0.0026349 0.0063155
0.2739997 0.0029016 0.0069040
0.2936526 0.0031962 0.0075502
0.3143138 0.0034123 0.0082948
0.3278594 0.0037843 0.0087836
0.3420757 0.0040545 0.0096996
0.3644601 0.0043456 0.0103345
0.3793061 0.0046562 0.0110059
0.3943464 0.0049988 0.0117178
0.4095818 0.0053770 0.0124760
0.4250106 0.0057838 0.0132828
0.4322935 0.0062199 0.0141353
0.4478680 0.0066902 0.0150481
0.4631324 0.0071934 0.0160195
0.4789891 0.0074579 0.0165448
0.4861914 0.0080118 0.0176262
0.5016228 0.0086082 0.0187845
0.5093447 0.0089227 0.0193915
0.5247838 0.0095865 0.0206640
0.5322201 0.0099365 0.0213304
0.5475184 0.0102986 0.0228532
0.5544586 0.0110577 0.0234763
0.5618348 0.0114580 0.0242420
0.5769639 0.0118729 0.0259824
0.5838076 0.0127473 0.0266889
0.5910692 0.0132082 0.0275571
0.5982945 0.0136857 0.0284528
0.6125605 0.0141802 0.0304874
0.6193593 0.0146923 0.0314856
0.6256968 0.0157504 0.0323747
0.6324160 0.0163074 0.0334574
0.6390869 0.0168837 0.0345754
0.6457070 0.0174802 0.0357297
0.6522744 0.0180975 0.0369212
0.6587867 0.0187364 0.0381513
0.6652418 0.0193975 0.0394209
0.6715144 0.0200815 0.0407311
0.6774839 0.0207893 0.0420828
0.6834067 0.0215054 0.0434824
0.6892757 0.0222376 0.0449646
0.6950865 0.0229942 0.0464952
0.7008377 0.0237761 0.0480759
0.7065278 0.0245841 0.0497078
0.7125179 0.0245832 0.0516418
0.7180785 0.0254181 0.0533893
0.0014729 0.0061558 0.0004467
0.0023893 0.0061614 0.0004759
0.0049829 0.0061701 0.0005249
0.0093755 0.0061770 0.0005942
0.0157619 0.0061824 0.0006794
0.0240459 0.0061872 0.0007562
0.0345947 0.0061898 0.0009167
0.0476485 0.0061921 0.0011090
0.0604199 0.0064245 0.0013037
0.0738889 0.0064254 0.0015603
0.0901056 0.0064268 0.0018437
0.1060189 0.0064282 0.0021217
0.1243447 0.0064298 0.0024548
0.1407388 0.0064311 0.0027584
0.1589394 0.0064326 0.0031179
0.1784885 0.0064341 0.0035259
0.1938516 0.0066740 0.0039725
0.2163738 0.0066763 0.0043796
0.2341105 0.0066776 0.0048259
0.2527514 0.0066790 0.0053175
0.2657014 0.0066792 0.0058969
0.2859751 0.0066806 0.0065420
0.3070480 0.0066828 0.0070135
0.3215374 0.0066831 0.0077874
0.3360108 0.0069320 0.0083343
0.3512400 0.0069330 0.0089676
0.3745517 0.0069346 0.0100080
0.3903797 0.0069356 0.0107674
0.4064604 0.0069367 0.0115869
0.4145509 0.0069365 0.0124648
0.4309891 0.0069384 0.0129362
0.4474777 0.0069395 0.0139209
0.4636672 0.0069406 0.0149794
0.4708395 0.0074574 0.0159414
0.4862662 0.0080136 0.0163773
0.5021610 0.0083071 0.0175471
0.5093822 0.0089238 0.0186930
0.5253214 0.0092513 0.0193046
0.5322576 0.0099377 0.0205632
0.5396841 0.0102996 0.0212267
0.5549519 0.0106729 0.0227428
0.5618722 0.0114594 0.0233629
0.5692246 0.0118741 0.0241249
0.5842940 0.0123040 0.0258572
0.5911061 0.0132097 0.0265603
0.5983312 0.0136873 0.0274244
0.6053144 0.0141819 0.0283157
0.6193956 0.0146941 0.0303405
0.6261591 0.0152140 0.0313371
0.6324526 0.0163093 0.0322221
0.6391229 0.0168858 0.0332999
0.6457429 0.0174823 0.0344128
0.6523097 0.0180998 0.0355618
0.6588218 0.0187387 0.0367479
0.6652768 0.0193998 0.0379723
0.6715490 0.0200840 0.0392360
0.6775183 0.0207918 0.0405397
0.6834405 0.0215080 0.0418898
0.6893101 0.0222403 0.0432856
0.6951206 0.0229970 0.0447613
0.7008712 0.0237790 0.0462853
0.7069272 0.0237782 0.0480916
0.7125509 0.0245862 0.0497241
0.7121558 0.0254191 0.0513928
0.0014733 0.0135930 0.0004416
0.0022720 0.0136036 0.0004721
0.0047927 0.0136212 0.0005376
0.0090186 0.0136359 0.0006089
0.0151652 0.0136474 0.0006884
0.0231410 0.0136567 0.0007689
0.0333131 0.0136643 0.0008632
0.0443541 0.0136688 0.0009857
0.0583455 0.0136730 0.0011367
0.0713820 0.0136732 0.0013595
0.0870935 0.0136743 0.0016041
0.1025276 0.0136755 0.0018435
0.1203216 0.0136765 0.0021329
0.1360361 0.0141722 0.0024536
0.1537262 0.0141730 0.0027734
0.1727534 0.0141739 0.0031363
0.1880243 0.0141746 0.0034412
0.2043172 0.0141738 0.0039152
0.2273652 0.0141761 0.0043163
0.2456287 0.0141768 0.0047562
0.2583312 0.0141756 0.0052746
0.2782689 0.0141777 0.0056552
0.2919388 0.0141766 0.0062712
0.3132698 0.0141788 0.0067232
0.3279183 0.0141776 0.0074964
0.3429600 0.0141780 0.0080663
0.3578698 0.0146914 0.0086336
0.3812977 0.0146937 0.0092932
0.3892010 0.0146922 0.0099952
0.4052639 0.0146926 0.0107579
0.4215523 0.0146930 0.0115782
0.4379467 0.0146934 0.0124605
0.4540641 0.0146938 0.0134091
0.4621680 0.0146939 0.0139099
0.4784449 0.0146943 0.0149760
0.4948222 0.0146963 0.0155494
0.5029678 0.0146948 0.0167424
0.5193375 0.0146951 0.0180327
0.5267923 0.0152156 0.0186181
0.5346881 0.0152157 0.0193211
0.5504358 0.0152158 0.0208065
0.5582791 0.0152158 0.0215963
0.5660973 0.0152159 0.0224185
0.5816426 0.0152159 0.0241560
0.5893621 0.0152160 0.0250737
0.5970414 0.0152160 0.0260255
0.6044746 0.0152160 0.0270124
0.6117260 0.0152141 0.0290866
0.6261950 0.0152158 0.0301973
0.6329115 0.0157541 0.0311893
0.6395788 0.0163110 0.0322335
0.6461948 0.0168876 0.0333117
0.6523454 0.0181019 0.0342509
0.6588572 0.0187409 0.0353946
0.6653117 0.0194021 0.0365753
0.6715838 0.0200863 0.0377940
0.6775183 0.0207918 0.0405397
0.6834405 0.0215080 0.0418898
0.6896880 0.0215074 0.0434968
0.6955286 0.0222423 0.0432999
0.7012751 0.0229990 0.0447760
0.7069603 0.0237811 0.0463005
0.7065610 0.0245872 0.0478590
0.7121888 0.0254222 0.0494840
0.0015178 0.0236652 0.0004700
0.0021886 0.0228976 0.0005053
0.0045521 0.0229273 0.0005669
0.0087885 0.0229527 0.0006427
0.0147796 0.0229708 0.0007333
0.0225567 0.0229864 0.0008121
0.0324766 0.0229970 0.0009283
0.0431875 0.0237919 0.0010166
0.0549214 0.0237969 0.0011568
0.0695699 0.0238039 0.0012845
0.0849298 0.0238086 0.0014371
0.1000170 0.0238093 0.0016515
0.1174261 0.0238098 0.0019083
0.1330185 0.0238081 0.0022068
0.1503783 0.0238084 0.0024905
0.1690658 0.0238085 0.0028165
0.1840771 0.0238086 0.0030885
0.2001058 0.0238061 0.0035102
0.2228013 0.0238083 0.0038699
0.2346685 0.0238058 0.0042626
0.2533366 0.0238054 0.0047186
0.2729943 0.0238050 0.0052351
0.2865292 0.0238047 0.0056104
0.3075974 0.0238044 0.0062241
0.3221296 0.0238040 0.0066931
0.3369994 0.0238008 0.0074679
0.3518029 0.0246114 0.0079955
0.3672062 0.0246109 0.0086031
0.3829047 0.0246104 0.0092571
0.3988698 0.0246100 0.0099639
0.4150728 0.0246095 0.0107241
0.4314315 0.0246119 0.0111301
0.4474926 0.0246113 0.0119783
0.4555369 0.0246083 0.0128854
0.4717778 0.0246076 0.0138737
0.4799292 0.0246073 0.0143997
0.4962731 0.0246067 0.0155116
0.5044568 0.0246064 0.0160990
0.5205527 0.0246057 0.0173401
0.5284564 0.0246053 0.0179955
0.5442289 0.0246045 0.0193805
0.5520894 0.0246041 0.0201170
0.5599278 0.0246037 0.0208837
0.5751313 0.0254428 0.0215802
0.5828449 0.0254394 0.0232453
0.5905585 0.0254389 0.0241290
0.5980279 0.0254383 0.0250454
0.6053540 0.0254377 0.0259958
0.6198717 0.0254365 0.0280036
0.6270568 0.0254359 0.0290728
0.6341885 0.0254352 0.0302011
0.6412646 0.0254345 0.0313721
0.6482826 0.0254338 0.0325872
0.6552400 0.0254331 0.0338481
0.6621342 0.0254324 0.0351564
0.6688386 0.0254316 0.0365134
0.6752324 0.0254308 0.0379207
0.6815632 0.0254299 0.0393805
0.6878300 0.0254291 0.0408945
0.6940312 0.0254281 0.0424647
0.6997930 0.0262913 0.0439134
0.6997594 0.0262880 0.0456158
0.7058614 0.0262903 0.0456308
0.7118594 0.0262893 0.0474126
0.0015798 0.0352395 0.0005169
0.0021205 0.0341201 0.0005446
0.0044613 0.0341646 0.0006112
0.0083516 0.0341987 0.0006982
0.0139971 0.0342275 0.0007768
0.0221114 0.0342493 0.0008889
0.0318444 0.0342679 0.0009830
0.0424166 0.0342778 0.0011192
0.0538712 0.0354291 0.0012393
0.0682614 0.0354409 0.0013497
0.0806390 0.0354439 0.0015093
0.0982065 0.0354530 0.0016452
0.1117636 0.0354560 0.0017966
0.1307249 0.0354588 0.0020199
0.1478318 0.0354586 0.0022759
0.1662589 0.0354577 0.0025738
0.1810526 0.0354538 0.0029092
0.1968959 0.0354528 0.0032025
0.2135679 0.0354482 0.0036437
0.2310296 0.0354471 0.0040152
0.2494956 0.0354456 0.0044448
0.2689822 0.0354477 0.0047657
0.2823630 0.0354429 0.0052850
0.3032759 0.0354451 0.0056662
0.3176625 0.0354399 0.0063051
0.3324539 0.0354385 0.0067849
0.3475480 0.0354371 0.0073009
0.3628641 0.0354357 0.0078560
0.3784827 0.0354344 0.0084529
0.3943761 0.0354330 0.0090974
0.4105158 0.0354316 0.0097921
0.4267845 0.0354303 0.0105392
0.4423795 0.0366067 0.0112871
0.4504039 0.0366018 0.0121422
0.4666501 0.0366043 0.0126011
0.4747524 0.0365993 0.0135701
0.4911182 0.0366017 0.0140903
0.4992611 0.0365967 0.0151726
0.5153954 0.0365990 0.0157532
0.5232663 0.0365939 0.0169613
0.5390930 0.0365961 0.0176093
0.5469288 0.0365909 0.0189626
0.5547822 0.0365899 0.0196861
0.5704519 0.0365921 0.0204443
0.5782228 0.0365911 0.0212233
0.5859222 0.0365858 0.0228614
0.5934159 0.0365847 0.0237305
0.6007678 0.0365835 0.0246320
0.6080779 0.0365823 0.0255669
0.6225959 0.0365842 0.0265461
0.6297250 0.0365786 0.0286217
0.6368363 0.0365773 0.0297329
0.6438911 0.0365760 0.0308862
0.6504923 0.0377889 0.0319280
0.6574298 0.0377876 0.0331641
0.6641786 0.0377861 0.0344464
0.6706163 0.0377846 0.0357764
0.6769927 0.0377829 0.0371562
0.6833060 0.0377814 0.0385875
0.6895548 0.0377798 0.0400720
0.6957366 0.0377781 0.0416445
0.6957366 0.0377781 0.0416445
0.7018507 0.0377764 0.0432764
0.7078955 0.0377746 0.0449699
0.0016414 0.0486275 0.0005620
0.0020619 0.0471284 0.0005869
0.0042770 0.0471849 0.0006713
0.0082151 0.0472370 0.0007508
0.0137688 0.0472751 0.0008414
0.0209714 0.0473018 0.0009548
0.0302109 0.0473262 0.0010610
0.0417442 0.0473463 0.0011820
0.0531072 0.0473572 0.0013229
0.0673055 0.0473722 0.0014408
0.0795216 0.0473754 0.0016155
0.0968671 0.0473864 0.0017658
0.1102591 0.0473898 0.0019282
0.1290232 0.0474013 0.0020469
0.1459541 0.0474042 0.0022448
0.1595246 0.0474030 0.0024617
0.1788680 0.0474055 0.0027008
0.1945430 0.0473993 0.0030646
0.2108113 0.0489224 0.0033609
0.2281079 0.0489202 0.0037036
0.2464117 0.0489177 0.0040905
0.2657103 0.0489148 0.0045385
0.2790138 0.0489127 0.0048640
0.2997472 0.0489098 0.0053963
0.3140688 0.0489077 0.0057910
0.3287370 0.0488998 0.0064618
0.3437446 0.0488973 0.0069534
0.3589806 0.0488948 0.0074821
0.3745255 0.0488923 0.0080508
0.3903522 0.0488898 0.0086648
0.4064330 0.0488873 0.0093266
0.4226511 0.0488848 0.0100385
0.4386275 0.0488821 0.0108041
0.4466726 0.0488808 0.0112084
0.4628568 0.0488781 0.0120624
0.4709493 0.0488712 0.0129903
0.4873015 0.0488739 0.0134885
0.4954406 0.0488669 0.0145250
0.5115736 0.0488695 0.0150812
0.5194467 0.0488624 0.0162384
0.5352839 0.0488648 0.0168591
0.5431651 0.0488632 0.0174965
0.5505736 0.0504250 0.0187587
0.5662715 0.0504273 0.0194817
0.5740598 0.0504257 0.0202246
0.5818152 0.0504240 0.0209954
0.5892926 0.0504164 0.0226159
0.5966666 0.0504145 0.0234758
0.6040004 0.0504126 0.0243677
0.6185713 0.0504147 0.0253019
0.6257656 0.0504127 0.0262702
0.6329071 0.0504106 0.0272920
0.6399934 0.0504087 0.0283528
0.6469866 0.0504006 0.0305856
0.6539553 0.0503986 0.0317710
0.6607359 0.0503964 0.0330010
0.6672053 0.0503942 0.0342767
0.6736141 0.0503919 0.0356004
0.6799955 0.0503955 0.0356122
0.6862786 0.0503932 0.0369859
0.6924961 0.0503909 0.0384107
0.6924620 0.0503849 0.0399070
0.6986120 0.0503825 0.0414732
0.7046938 0.0503800 0.0430988
0.0017290 0.0624188 0.0006359
0.0019890 0.0605515 0.0006515
0.0042148 0.0625140 0.0007287
0.0080958 0.0625813 0.0008180
0.0135689 0.0626276 0.0009327
0.0206702 0.0626661 0.0010371
0.0297795 0.0626966 0.0011584
0.0411529 0.0627214 0.0012979
0.0523675 0.0627405 0.0014135
0.0663790 0.0627591 0.0015436
0.0784464 0.0627677 0.0016863
0.0924994 0.0627766 0.0018423
0.1088105 0.0627854 0.0020149
0.1273448 0.0627934 0.0022118
0.1441025 0.0628023 0.0023544
0.1575453 0.0628060 0.0025049
0.1766940 0.0628085 0.0027497
0.1922565 0.0628115 0.0029351
0.2086708 0.0628144 0.0031328
0.2258380 0.0628111 0.0034523
0.2440148 0.0628079 0.0038043
0.2631867 0.0628035 0.0042210
0.2763810 0.0627941 0.0046811
0.2970230 0.0627962 0.0050189
0.3112397 0.0627867 0.0055734
0.3258666 0.0627831 0.0059976
0.3408061 0.0627795 0.0064540
0.3559457 0.0627690 0.0072011
0.3714316 0.0627654 0.0077486
0.3872048 0.0627618 0.0083396
0.4032378 0.0627582 0.0089767
0.4194504 0.0627615 0.0093170
0.4273646 0.0627526 0.0100239
0.4433879 0.0627488 0.0107884
0.4595482 0.0627449 0.0116107
0.4676687 0.0627429 0.0120516
0.4839700 0.0627388 0.0129839
0.4921427 0.0627368 0.0134765
0.5082355 0.0627325 0.0145176
0.5161473 0.0627304 0.0150675
0.5319546 0.0627260 0.0162298
0.5394328 0.0646680 0.0167650
0.5473049 0.0646657 0.0174035
0.5551197 0.0646560 0.0187509
0.5707867 0.0646586 0.0194737
0.5785567 0.0646563 0.0202163
0.5860861 0.0646537 0.0209865
0.5934399 0.0646438 0.0226062
0.6007918 0.0646412 0.0234657
0.6154030 0.0646434 0.0243659
0.6226193 0.0646407 0.0252991
0.6297839 0.0646379 0.0262840
0.6368948 0.0646352 0.0273064
0.6439492 0.0646323 0.0283677
0.6509445 0.0646295 0.0294692
0.6577520 0.0646267 0.0306122
0.6642482 0.0646236 0.0317981
0.6706850 0.0646205 0.0330286
0.6770607 0.0646174 0.0343054
0.6833736 0.0646143 0.0356301
0.6833395 0.0646068 0.0369920
0.6895874 0.0646037 0.0384476
0.6957689 0.0646004 0.0399585
0.7018825 0.0645971 0.0415266
0.0018136 0.0771904 0.0007130
0.0019412 0.0772014 0.0007136
0.0040620 0.0772963 0.0008038
0.0077608 0.0773731 0.0009190
0.0134171 0.0774400 0.0010235
0.0204396 0.0774851 0.0011464
0.0294524 0.0775276 0.0012503
0.0407051 0.0775577 0.0014009
0.0518023 0.0775796 0.0015318
0.0634943 0.0775957 0.0016743
0.0776189 0.0776120 0.0018300
0.0915453 0.0776288 0.0019447
0.1077042 0.0776383 0.0021349
0.1260868 0.0776546 0.0022736
0.1426884 0.0776581 0.0024946
0.1560207 0.0776620 0.0026555
0.1750346 0.0776712 0.0028358
0.1904818 0.0776743 0.0030269
0.2067801 0.0776775 0.0032309
0.2238543 0.0776805 0.0034485
0.2419407 0.0776836 0.0036807
0.2610019 0.0776777 0.0040838
0.2741518 0.0776738 0.0043768
0.2946627 0.0776680 0.0048559
0.3088431 0.0776643 0.0052040
0.3233765 0.0776513 0.0058029
0.3382560 0.0776466 0.0062445
0.3533731 0.0776418 0.0067196
0.3688079 0.0776370 0.0072306
0.3845348 0.0776323 0.0077807
0.4005261 0.0776276 0.0083753
0.4166672 0.0776227 0.0090150
0.4245657 0.0776117 0.0096992
0.4405616 0.0776066 0.0104391
0.4567366 0.0776100 0.0108341
0.4648120 0.0775989 0.0116617
0.4811381 0.0776021 0.0121094
0.4892693 0.0775909 0.0130408
0.5053586 0.0775854 0.0140486
0.5132709 0.0775825 0.0145810
0.5287119 0.0799507 0.0150684
0.5365673 0.0799389 0.0162246
0.5444458 0.0799358 0.0168427
0.5523056 0.0799328 0.0174863
0.5679547 0.0799266 0.0188471
0.5757365 0.0799236 0.0195661
0.5832787 0.0799204 0.0203120
0.5906830 0.0799171 0.0210857
0.5980132 0.0799049 0.0227129
0.6126581 0.0799072 0.0235848
0.6198930 0.0799038 0.0244886
0.6270773 0.0799002 0.0254426
0.6342087 0.0798966 0.0264329
0.6412849 0.0798931 0.0274610
0.6483029 0.0798895 0.0285281
0.6551336 0.0798859 0.0296355
0.6616532 0.0798820 0.0307844
0.6681140 0.0798780 0.0319768
0.6745144 0.0798741 0.0332140
0.6808527 0.0798702 0.0344977
0.6808184 0.0798611 0.0358177
0.6870925 0.0798569 0.0372285
0.6933006 0.0798529 0.0386930
0.6994416 0.0798488 0.0402132
0.0019005 0.0922513 0.0007941
0.0019005 0.0922513 0.0007941
0.0040227 0.0923676 0.0008864
0.0076867 0.0924649 0.0009883
0.0128387 0.0925350 0.0011081
0.0202457 0.0925943 0.0012435
0.0291750 0.0926442 0.0013562
0.0389543 0.0926787 0.0014839
0.0513278 0.0927113 0.0016233
0.0629188 0.0927300 0.0017743
0.0769235 0.0927481 0.0019444
0.0907350 0.0927671 0.0020708
0.1067657 0.0927780 0.0022732
0.1211488 0.0927898 0.0024197
0.1372053 0.0928016 0.0025771
0.1547238 0.0928037 0.0028415
0.1736091 0.0928140 0.0030344
0.1889567 0.0928175 0.0032389
0.2051549 0.0928209 0.0034571
0.2221513 0.0928328 0.0035739
0.2401361 0.0928348 0.0038321
0.2591265 0.0928369 0.0041088
0.2722144 0.0928320 0.0044035
0.2857525 0.0928366 0.0045607
0.3067868 0.0928294 0.0050598
0.3212973 0.0928238 0.0054413
0.3360938 0.0928080 0.0060716
0.3511629 0.0928022 0.0065336
0.3665532 0.0927963 0.0070304
0.3822394 0.0927904 0.0075655
0.3981943 0.0927845 0.0081437
0.4143033 0.0927785 0.0087658
0.4218285 0.0955474 0.0090519
0.4377966 0.0955409 0.0097427
0.4539128 0.0955344 0.0104859
0.4619791 0.0955208 0.0112871
0.4782916 0.0955243 0.0117205
0.4864181 0.0955106 0.0126223
0.5025405 0.0955139 0.0131063
0.5104153 0.0954998 0.0141135
0.5262694 0.0955031 0.0146538
0.5341286 0.0954890 0.0157785
0.5420119 0.0954853 0.0163798
0.5498779 0.0954816 0.0170059
0.5655801 0.0954846 0.0176623
0.5733341 0.0954703 0.0190295
0.5808868 0.0954663 0.0197552
0.5883028 0.0954624 0.0205080
0.5956821 0.0954583 0.0212890
0.6029854 0.0954438 0.0229316
0.6175686 0.0954461 0.0238194
0.6247692 0.0954418 0.0247478
0.6319180 0.0954375 0.0257116
0.6390123 0.0954331 0.0267122
0.6460492 0.0954289 0.0277509
0.6528996 0.0954244 0.0288288
0.6594386 0.0954196 0.0299472
0.6659195 0.0954149 0.0311079
0.6723407 0.0954102 0.0323124
0.6787004 0.0954056 0.0335623
0.6786661 0.0953948 0.0348475
0.6849619 0.0953899 0.0362212
0.6911928 0.0953849 0.0376473
0.6973907 0.0953909 0.0376598
0.0020155 0.1098994 0.0008989
0.0020155 0.1098994 0.0008989
0.0038833 0.1100222 0.0009780
0.0076125 0.1101391 0.0011003
0.0127165 0.1102293 0.0012021
0.0200540 0.1102981 0.0013508
0.0289001 0.1103551 0.0014793
0.0385903 0.1103952 0.0016185
0.0508532 0.1104333 0.0017705
0.0623489 0.1104631 0.0018854
0.0762349 0.1104835 0.0020706
0.0899332 0.1105054 0.0022052
0.1058366 0.1105179 0.0024207
0.1201084 0.1105307 0.0025823
0.1360448 0.1105434 0.0027579
0.1534550 0.1105557 0.0029452
0.1722140 0.1105674 0.0031451
0.1874638 0.1105711 0.0033570
0.2035620 0.1105741 0.0035913
0.2204585 0.1105870 0.0037212
0.2383451 0.1105890 0.0039900
0.2508126 0.1105831 0.0042762
0.2702634 0.1105852 0.0045849
0.2837399 0.1105902 0.0047485
0.3047132 0.1105920 0.0050982
0.3191990 0.1105965 0.0052910
0.3339761 0.1105894 0.0056938
0.3489973 0.1105822 0.0061270
0.3643433 0.1105750 0.0065931
0.3799892 0.1105679 0.0070945
0.3959077 0.1105607 0.0076359
0.4119849 0.1105534 0.0082194
0.4198559 0.1105379 0.0088434
0.4358033 0.1105303 0.0095184
0.4519029 0.1105226 0.0102446
0.4599997 0.1105187 0.0106280
0.4762643 0.1105108 0.0114510
0.4844248 0.1105068 0.0118859
0.5005059 0.1104985 0.0128052
0.5084177 0.1104943 0.0132908
0.5162920 0.1104782 0.0143120
0.5321361 0.1104815 0.0148599
0.5399859 0.1104653 0.0160044
0.5478567 0.1104609 0.0166163
0.5635714 0.1104642 0.0172579
0.5713705 0.1104597 0.0179171
0.5788944 0.1104431 0.0193034
0.5863197 0.1104385 0.0200393
0.5937090 0.1104337 0.0208028
0.6006697 0.1136432 0.0214960
0.6152820 0.1136457 0.0223220
0.6224622 0.1136282 0.0240735
0.6296282 0.1136231 0.0250116
0.6367401 0.1136178 0.0259855
0.6437960 0.1136126 0.0269965
0.6506652 0.1136073 0.0280458
0.6572232 0.1136018 0.0291345
0.6637242 0.1135961 0.0302645
0.6701658 0.1135904 0.0314371
0.6765468 0.1135848 0.0326541
0.6765125 0.1135722 0.0339054
0.6828300 0.1135664 0.0352430
0.6891176 0.1135733 0.0352548
0.6953041 0.1135674 0.0366440
0.0021293 0.1267188 0.0010020
0.0021293 0.1267188 0.0010020
0.0037545 0.1268336 0.0010953
0.0073220 0.1269744 0.0011989
0.0126152 0.1270840 0.0013122
0.0191806 0.1271613 0.0014379
0.0286755 0.1272352 0.0015754
0.0382928 0.1272806 0.0017236
0.0504645 0.1273219 0.0018936
0.0618769 0.1273555 0.0020176
0.0756651 0.1273783 0.0022157
0.0892696 0.1274029 0.0023596
0.1050777 0.1274270 0.0025185
0.1192588 0.1274409 0.0026896
0.1350979 0.1274550 0.0028724
0.1524061 0.1274687 0.0030675
0.1710604 0.1274817 0.0032756
0.1862275 0.1274851 0.0035043
0.2022422 0.1274873 0.0037575
0.2190337 0.1274892 0.0040289
0.2368618 0.1275036 0.0041745
0.2492753 0.1274968 0.0044740
0.2686734 0.1275112 0.0046356
0.2820706 0.1275039 0.0049749
0.3029976 0.1275177 0.0051653
0.3174058 0.1275095 0.0055585
0.3321700 0.1275144 0.0057687
0.3471503 0.1275059 0.0062076
0.3624915 0.1275107 0.0064421
0.3781028 0.1275024 0.0069321
0.3939903 0.1274941 0.0074611
0.4100402 0.1274855 0.0080313
0.4178993 0.1274679 0.0086411
0.4338258 0.1274589 0.0093008
0.4499446 0.1274633 0.0096530
0.4579980 0.1274455 0.0103851
0.4742520 0.1274363 0.0111894
0.4824084 0.1274317 0.0116144
0.4984853 0.1274220 0.0125129
0.5063964 0.1274171 0.0129876
0.5142711 0.1273988 0.0139857
0.5301192 0.1274023 0.0145212
0.5380100 0.1273973 0.0150712
0.5458477 0.1273787 0.0162380
0.5615744 0.1273821 0.0168652
0.5693809 0.1273770 0.0175096
0.5769502 0.1273717 0.0181781
0.5843473 0.1273528 0.0195842
0.5913536 0.1309899 0.0202374
0.5987173 0.1309844 0.0210083
0.6133532 0.1309870 0.0218159
0.6205834 0.1309813 0.0226531
0.6277630 0.1309753 0.0235368
0.6348891 0.1309693 0.0244544
0.6419239 0.1309491 0.0263866
0.6488090 0.1309429 0.0274127
0.6553828 0.1309366 0.0284774
0.6619000 0.1309301 0.0295825
0.6683584 0.1309237 0.0307294
0.6683584 0.1309237 0.0307294
0.6747566 0.1309172 0.0319196
0.6810925 0.1309108 0.0331546
0.6873636 0.1309040 0.0344635
0.6935689 0.1308972 0.0358224
0.0022651 0.1455395 0.0011238
0.0022339 0.1455466 0.0010933
0.0037247 0.1456597 0.0011943
0.0072640 0.1458171 0.0013108
0.0125155 0.1459393 0.0014386
0.0190298 0.1460263 0.0015763
0.0274307 0.1460982 0.0017280
0.0379997 0.1461703 0.0018439
0.0483891 0.1462061 0.0020259
0.0614127 0.1462541 0.0021595
0.0751127 0.1462919 0.0023008
0.0886153 0.1463056 0.0025353
0.1043188 0.1463320 0.0027089
0.1184094 0.1463475 0.0028929
0.1341509 0.1463632 0.0030894
0.1513569 0.1463784 0.0032992
0.1699225 0.1464048 0.0034202
0.1850078 0.1464074 0.0036674
0.2009413 0.1464097 0.0039323
0.2176751 0.1464256 0.0040745
0.2353990 0.1464276 0.0043686
0.2477588 0.1464199 0.0046819
0.2670771 0.1464353 0.0048578
0.2804209 0.1464257 0.0052277
0.3012739 0.1464410 0.0054278
0.3156660 0.1464463 0.0056330
0.3303545 0.1464366 0.0060617
0.3453256 0.1464419 0.0062907
0.3606287 0.1464471 0.0065283
0.3762047 0.1464375 0.0070252
