Plugins/FilmEmulator/Content/LUTs/FE_Kodak_5247_II_Alt_64.cube
TITLE "FE_Kodak_5247_II_Alt_33"
LUT_3D_SIZE 8
0.0016054 0.0011107 0.0016805
0.0787759 0.0074031 0.0039432
0.1999137 0.0215634 0.0110456
0.3209890 0.0421680 0.0200333
0.4222907 0.0649895 0.0303890
0.5096470 0.0903816 0.0412105
0.5876417 0.1180524 0.0528649
0.6389612 0.1487246 0.0662657
0.0022002 0.0810950 0.0026512
0.0693607 0.1041962 0.0057290
0.1895117 0.1312140 0.0126153
0.3084279 0.1633136 0.0219612
0.4169134 0.1909508 0.0329436
0.5049596 0.2183785 0.0432321
0.5761122 0.2486711 0.0553332
0.6355816 0.2812184 0.0692694
0.0050482 0.2129950 0.0060075
0.0628416 0.2407377 0.0097549
0.1774961 0.2716732 0.0158022
0.2985657 0.2982225 0.0237069
0.4060802 0.3263974 0.0343688
0.4936487 0.3558479 0.0462223
0.5734441 0.3786919 0.0575561
0.6255392 0.4019592 0.0720111
0.0091714 0.3474642 0.0108039
0.0588942 0.3683223 0.0150994
0.1714506 0.3985188 0.0212142
0.2898521 0.4208099 0.0293743
0.3963226 0.4437565 0.0366633
0.4917613 0.4588932 0.0478861
0.5640132 0.4825636 0.0596387
0.6239101 0.4989052 0.0746301
0.0138708 0.4572832 0.0165492
0.0536801 0.4797197 0.0201216
0.1660214 0.4945488 0.0279723
0.2884997 0.5190090 0.0349400
0.3948566 0.5351539 0.0433305
0.4818839 0.5514735 0.0509510
0.5625389 0.5676642 0.0616872
0.6224979 0.5830135 0.0751228
0.0190249 0.5570218 0.0228625
0.0489574 0.5641651 0.0265744
0.1565074 0.5787898 0.0341710
0.2807953 0.5935800 0.0412946
0.3860812 0.6084775 0.0498192
0.4806485 0.6233202 0.0587128
0.5536759 0.6380828 0.0674470
0.6137188 0.6451382 0.0776469
0.0249211 0.6280774 0.0299278
0.0433745 0.6350074 0.0325194
0.1516674 0.6484097 0.0404149
0.2733569 0.6555034 0.0486836
0.3774981 0.6714393 0.0573913
0.4712191 0.6871341 0.0658613
0.5526264 0.6945848 0.0758409
0.6125202 0.7098265 0.0848919
0.0316061 0.6830087 0.0374646
0.0396486 0.6907411 0.0395383
0.1470308 0.7049416 0.0476328
0.2660557 0.7117655 0.0560767
0.3764865 0.7262518 0.0642736
0.4703110 0.7327563 0.0740239
0.5440756 0.7386017 0.0828051
0.6117112 0.7504236 0.0947998
0.0094919 0.0025451 0.1023373
0.1059146 0.0065195 0.1191856
0.2277347 0.0204384 0.1355111
0.3501147 0.0401710 0.1523034
0.4468709 0.0621521 0.1658217
0.5354056 0.0866406 0.1844988
0.5959578 0.1133418 0.1995982
0.6549646 0.1433439 0.2155202
0.0054964 0.0739319 0.1125980
0.0927714 0.1017037 0.1259763
0.2161122 0.1288331 0.1406627
0.3369167 0.1566440 0.1565953
0.4333747 0.1886644 0.1740091
0.5222930 0.2161033 0.1880518
0.5918284 0.2464270 0.2029064
0.6438656 0.2790430 0.2186404
0.0093206 0.2027702 0.1182449
0.0861719 0.2302757 0.1317776
0.2081943 0.2611094 0.1467270
0.3267460 0.2945905 0.1630399
0.4302183 0.3231195 0.1762609
0.5193888 0.3451546 0.1902041
0.5816703 0.3758548 0.2100465
0.6416298 0.3993725 0.2206448
0.0140262 0.3423957 0.1198292
0.0804315 0.3636240 0.1333816
0.2013449 0.3861863 0.1482873
0.3179299 0.4091012 0.1645287
0.4204002 0.4321178 0.1822167
0.5090668 0.4556161 0.1964813
0.5798264 0.4795564 0.2115641
0.6400285 0.4961946 0.2273946
0.0192091 0.4525869 0.1241213
0.0733221 0.4670555 0.1380360
0.1901303 0.4905957 0.1533423
0.3096868 0.5067981 0.1699396
0.4186886 0.5317762 0.1834916
0.5074288 0.5482716 0.1977347
0.5783508 0.5647478 0.2127833
0.6308869 0.5803923 0.2286730
0.0243696 0.5445065 0.1283236
0.0670918 0.5602041 0.1389873
0.1843789 0.5752832 0.1542847
0.3017728 0.5903550 0.1709555
0.4096625 0.6055043 0.1844525
0.4978520 0.6205192 0.2036173
0.5695265 0.6354399 0.2189896
0.6298199 0.6426315 0.2350852
0.0309092 0.6170172 0.1324740
0.0631749 0.6315283 0.1434532
0.1789452 0.6378164 0.1590325
0.2939269 0.6527878 0.1717549
0.4008304 0.6688851 0.1899771
0.4884989 0.6766438 0.2044671
0.5684281 0.6923630 0.2199151
0.6209172 0.6999426 0.2360809
0.0365202 0.6803375 0.1366933
0.0578758 0.6878768 0.1441101
0.1688952 0.7024850 0.1598638
0.2930067 0.7094592 0.1769286
0.3998982 0.7165884 0.1907052
0.4873675 0.7307945 0.2053605
0.5598878 0.7367214 0.2207074
0.6199076 0.7487098 0.2370137
0.0258377 0.0067209 0.2509979
0.1317904 0.0108747 0.2640649
0.2579166 0.0190209 0.2780793
0.3724577 0.0386608 0.2932613
0.4713398 0.0599007 0.3075546
0.5522255 0.0861674 0.3219143
0.6111041 0.1127662 0.3361741
0.6627704 0.1426822 0.3506058
0.0194066 0.0730416 0.2615544
0.1202541 0.0979647 0.2741973
0.2448658 0.1279738 0.2872900
0.3587192 0.1557286 0.3003739
0.4575990 0.1825949 0.3135491
0.5391651 0.2150718 0.3271191
0.6070237 0.2453451 0.3408398
0.6594835 0.2711346 0.3546707
0.0150474 0.2011795 0.2665900
0.1119042 0.2287613 0.2786484
0.2361486 0.2596099 0.2973504
0.3483542 0.2861143 0.3101481
0.4464836 0.3143620 0.3232806
0.5362825 0.3437087 0.3367114
0.5969761 0.3744748 0.3504457
0.6495702 0.3980460 0.3575616
0.0199965 0.3327332 0.2694761
0.1046787 0.3615661 0.2874827
0.2286242 0.3843221 0.2999885
0.3461984 0.4073568 0.3126670
0.4442946 0.4305013 0.3256649
0.5259670 0.4540755 0.3389656
0.5951510 0.4780761 0.3525508
0.6479834 0.4948054 0.3662537
0.0260905 0.4502703 0.2774006
0.0981691 0.4648554 0.2893901
0.2162592 0.4886755 0.3019340
0.3375526 0.5050428 0.3145085
0.4346763 0.5301543 0.3275715
0.5243309 0.5467232 0.3407654
0.5861968 0.5633104 0.3542435
0.6466086 0.5789999 0.3679555
0.0320212 0.5422670 0.2789617
0.0921006 0.5579858 0.2910532
0.2099049 0.5733947 0.3034844
0.3292471 0.5886470 0.3160811
0.4333846 0.6039111 0.3289968
0.5147440 0.6190984 0.3422106
0.5849348 0.6341091 0.3556954
0.6378552 0.6413996 0.3692745
0.0377940 0.6149476 0.2861860
0.0839828 0.6295164 0.2923792
0.2039228 0.6360268 0.3108522
0.3213415 0.6511258 0.3236342
0.4243923 0.6674055 0.3367572
0.5136806 0.6752397 0.3499843
0.5838457 0.6911352 0.3569496
0.6367977 0.6987851 0.3705725
0.0446886 0.6784781 0.2873740
0.0788816 0.6859401 0.2996315
0.1980854 0.6929285 0.3120260
0.3135495 0.7080201 0.3248620
0.4156590 0.7152529 0.3378327
0.5042624 0.7295531 0.3512543
0.5753877 0.7355543 0.3647398
0.6359349 0.7415419 0.3716314
0.0458985 0.0126447 0.3796964
0.1587510 0.0172265 0.3883722
0.2833232 0.0230215 0.4044674
0.3954486 0.0361193 0.4143251
0.4880961 0.0596563 0.4321938
0.5678388 0.0832972 0.4419242
0.6260992 0.1090194 0.4513666
0.6779069 0.1383149 0.4685834
0.0375783 0.0703788 0.3892732
0.1462439 0.0946479 0.3980438
0.2702593 0.1236879 0.4142750
0.3811642 0.1509650 0.4228902
0.4741248 0.1819334 0.4391436
0.5554357 0.2086076 0.4478348
0.6146052 0.2446201 0.4567720
0.6671631 0.2703499 0.4732442
0.0328938 0.1944747 0.3954870
0.1400322 0.2278099 0.4036140
0.2607181 0.2587080 0.4191834
0.3777594 0.2852032 0.4272814
0.4709069 0.3134168 0.4430773
0.5524003 0.3427933 0.4515747
0.6121545 0.3656373 0.4678156
0.6648573 0.3970538 0.4764088
0.0279721 0.3313884 0.3993175
0.1312288 0.3603033 0.4144548
0.2525300 0.3831995 0.4222820
0.3681535 0.4062388 0.4377065
0.4604745 0.4294466 0.4457935
0.5427064 0.4530584 0.4540922
0.6102077 0.4770457 0.4703205
0.6632906 0.4938209 0.4785547
0.0331890 0.4409013 0.4017236
0.1233202 0.4634827 0.4167345
0.2450206 0.4874498 0.4245553
0.3592455 0.5038767 0.4398333
0.4588730 0.5205073 0.4477658
0.5410898 0.5456374 0.4639663
0.6013552 0.5622885 0.4721820
0.6544088 0.5780654 0.4804037
0.0402229 0.5408481 0.4111583
0.1159311 0.5566153 0.4187177
0.2379516 0.5721282 0.4338663
0.3506739 0.5875111 0.4416460
0.4493945 0.6028700 0.4495691
0.5315286 0.6180602 0.4655795
0.6002457 0.6254738 0.4735992
0.6533585 0.6404850 0.4818236
0.0462562 0.6136693 0.4126968
0.1091195 0.6204774 0.4201175
0.2313390 0.6348785 0.4352656
0.3496274 0.6500815 0.4430610
0.4403189 0.6664315 0.4588943
0.5304540 0.6743227 0.4669036
0.5915643 0.6902668 0.4751571
0.6523334 0.6978918 0.4911528
0.0532610 0.6773202 0.4141245
0.1026376 0.6847556 0.4216183
0.2249208 0.6918695 0.4366243
0.3414757 0.7070667 0.4444565
0.4393594 0.7143315 0.4600942
0.5210478 0.7287257 0.4683044
0.5906433 0.7347843 0.4763255
0.6438493 0.7407511 0.4923029
0.0699913 0.0196058 0.4889934
0.1905396 0.0253588 0.4982354
0.3096696 0.0317294 0.5073867
0.4184450 0.0383725 0.5159260
0.5049741 0.0576794 0.5257964
0.5832711 0.0805950 0.5352600
0.6338766 0.1087085 0.5519953
0.6853286 0.1379619 0.5608982
0.0579252 0.0679401 0.4964124
0.1770503 0.0942881 0.5061551
0.2971299 0.1232953 0.5156816
0.4041330 0.1505171 0.5243912
0.4992552 0.1766675 0.5403492
0.5708296 0.2080521 0.5488810
0.6298844 0.2377134 0.5572212
0.6820239 0.2697324 0.5655211
0.0520710 0.1936462 0.5031578
0.1652369 0.2270777 0.5120010
0.2871125 0.2515458 0.5205690
0.4006626 0.2844318 0.5363749
0.4876004 0.3126784 0.5445220
0.5678148 0.3420251 0.5526446
0.6273110 0.3649046 0.5605730
0.6725584 0.3884975 0.5684830
0.0471618 0.3301432 0.5071731
0.1593738 0.3516192 0.5154071
0.2782767 0.3822617 0.5314323
0.3907510 0.4053749 0.5393484
0.4853804 0.4285667 0.5472611
0.5581783 0.4522062 0.5551717
0.6178566 0.4680475 0.5628912
0.6708792 0.4930555 0.5707817
0.0416707 0.4398106 0.5097576
0.1498673 0.4623926 0.5258889
0.2702600 0.4864505 0.5337672
0.3815516 0.5029753 0.5415078
0.4755096 0.5196366 0.5492567
0.5565565 0.5448417 0.5571818
0.6162843 0.5615014 0.5649120
0.6695464 0.5772836 0.5726002
0.0479100 0.5312743 0.5196781
0.1449926 0.5554950 0.5279303
0.2626884 0.5712036 0.5356255
0.3727036 0.5866323 0.5433453
0.4740446 0.6020006 0.5510665
0.5476168 0.6172972 0.5587903
0.6078202 0.6247496 0.5663227
0.6610525 0.6397737 0.5740058
0.0551051 0.6126575 0.5214608
0.1366189 0.6194048 0.5293730
0.2555207 0.6339997 0.5370512
0.3716271 0.6492537 0.5447778
0.4647779 0.6573166 0.5523487
0.5465468 0.6736105 0.5601096
0.6066114 0.6895779 0.5678600
0.6600251 0.6972919 0.5753859
0.0614454 0.6681828 0.5227457
0.1287124 0.6837686 0.5309182
0.2485128 0.6910592 0.5384341
0.3632347 0.7063106 0.5461890
0.4554397 0.7136649 0.5537565
0.5377522 0.7280810 0.5615032
0.6057010 0.7341549 0.5690161
0.6591871 0.7401786 0.5765093
0.0951368 0.0279765 0.5739498
0.2155614 0.0349030 0.5824090
0.3364668 0.0421562 0.5912865
0.4409102 0.0492834 0.6002458
0.5216919 0.0575278 0.6091601
0.5909133 0.0804128 0.6110733
0.6495212 0.1052301 0.6206259
0.6927606 0.1336817 0.6299629
0.0809742 0.0676931 0.5791609
0.2019542 0.0912550 0.5880979
0.3249824 0.1193399 0.5974908
0.4275589 0.1501430 0.6069462
0.5159618 0.1762858 0.6159434
0.5860618 0.2076162 0.6249309
0.6454573 0.2372712 0.6257958
0.6893630 0.2692689 0.6345300
0.0750826 0.1930043 0.5857503
0.1939608 0.2205039 0.5937682
0.3146194 0.2509673 0.6023977
0.4162246 0.2838983 0.6112803
0.5042970 0.3121060 0.6199306
0.5756762 0.3339047 0.6283354
0.6352263 0.3643002 0.6368480
0.6872629 0.3879027 0.6373288
0.0683595 0.3218198 0.5894804
0.1872849 0.3508530 0.5972555
0.3055913 0.3815812 0.6056564
0.4139038 0.4047070 0.6141260
0.5020730 0.4279081 0.6225421
0.5735123 0.4515361 0.6309007
0.6334600 0.4673620 0.6390271
0.6783500 0.4924566 0.6395077
0.0623966 0.4387376 0.5921678
0.1764799 0.4616119 0.5997178
0.2972154 0.4772029 0.6077252
0.4045055 0.5022774 0.6161937
0.4921764 0.5189610 0.6244420
0.5720500 0.5356545 0.6326284
0.6241016 0.5608509 0.6409346
0.6770457 0.5766304 0.6489708
0.0570488 0.5304911 0.5941373
0.1709800 0.5462298 0.6015108
0.2890471 0.5704880 0.6096911
0.3954299 0.5859520 0.6179507
0.4907064 0.6013486 0.6261631
0.5631623 0.6088600 0.6341577
0.6230142 0.6241000 0.6422554
0.6760287 0.6391248 0.6502787
0.0634847 0.6040611 0.6029393
0.1612815 0.6186565 0.6030839
0.2814170 0.6333193 0.6110604
0.3943272 0.6486124 0.6193192
0.4814016 0.6567019 0.6273811
0.5619566 0.6730074 0.6355705
0.6218221 0.6889825 0.6436993
0.6676291 0.6967229 0.6515728
0.0706277 0.6674590 0.6043490
0.1563117 0.6829959 0.6123260
0.2805426 0.6903460 0.6203688
0.3856629 0.7057248 0.6206661
0.4802639 0.7130792 0.6287116
0.5532085 0.7275363 0.6368857
0.6132173 0.7336351 0.6447896
0.6668001 0.7396590 0.6526211
0.1224757 0.0372163 0.6465099
0.2431403 0.0448858 0.6550927
0.3643375 0.0524300 0.6634548
0.4639360 0.0592701 0.6640593
0.5456940 0.0689988 0.6720469
0.6060802 0.0778408 0.6791902
0.6572107 0.1050298 0.6808006
0.7069329 0.1334243 0.6885364
0.1083853 0.0654410 0.6496497
0.2291038 0.0910164 0.6590182
0.3461719 0.1190610 0.6680210
0.4514692 0.1457843 0.6691313
0.5326315 0.1759519 0.6773551
0.6011233 0.2072445 0.6847779
0.6531987 0.2368384 0.6919671
0.6967313 0.2622122 0.6925890
0.0975651 0.1871812 0.6558163
0.2203089 0.2199984 0.6642907
0.3425129 0.2504372 0.6725520
0.4399756 0.2765311 0.6731558
0.5294106 0.3042987 0.6808755
0.5908424 0.3333955 0.6879207
0.6506940 0.3637719 0.6948797
0.6945271 0.3873897 0.6953270
0.0910226 0.3210426 0.6594663
0.2129462 0.3501741 0.6675242
0.3331839 0.3729615 0.6753919
0.4296247 0.4040783 0.6830533
0.5187602 0.4273310 0.6834612
0.5888382 0.4429439 0.6901314
0.6412983 0.4668213 0.6968879
0.6929073 0.4918809 0.6973240
0.0851869 0.4378268 0.6619636
0.2063155 0.4608321 0.6697977
0.3245907 0.4764836 0.6774614
0.4279230 0.5015897 0.6849430
0.5171442 0.5183371 0.6852100
0.5797244 0.5351057 0.6918808
0.6399040 0.5518135 0.6984750
0.6844324 0.5761037 0.7051413
0.0775430 0.5295704 0.6637957
0.1951153 0.5454785 0.6714605
0.3164423 0.5617318 0.6791122
0.4188151 0.5773044 0.6863965
0.5075321 0.5928836 0.6866482
0.5784371 0.6083038 0.6932825
0.6386948 0.6235549 0.6998457
0.6834276 0.6386254 0.7063383
0.0729454 0.6034060 0.6652799
0.1893594 0.6179069 0.6729077
0.3085896 0.6326401 0.6805269
0.4098022 0.6480080 0.6878082
0.5063636 0.6560806 0.6942803
0.5772406 0.6724914 0.6945813
0.6299123 0.6804349 0.7010033
0.6824344 0.6962368 0.7075166
0.0791584 0.6668127 0.6740866
0.1837777 0.6823611 0.6742770
0.3009988 0.6898030 0.6817447
0.4087060 0.7051465 0.6890339
0.4969394 0.7125399 0.6954975
0.5687081 0.7199270 0.6956245
0.6288681 0.7331791 0.7021685
0.6743044 0.7392399 0.7084799
0.1481336 0.0478334 0.7024077
0.2737625 0.0557887 0.7092642
0.3858043 0.0629963 0.7098055
0.4794585 0.0710897 0.7164653
0.5608929 0.0801775 0.7170284
0.6203063 0.0876684 0.7234596
0.6723632 0.1017110 0.7241818
0.7138430 0.1332276 0.7314553
0.1320499 0.0633048 0.7038546
0.2591794 0.0881531 0.7054456
0.3755141 0.1153233 0.7129321
0.4675765 0.1455272 0.7201791
0.5493648 0.1710635 0.7210146
0.6087712 0.2013659 0.7278478
0.6684356 0.2303218 0.7344452
0.7107046 0.2618541 0.7351677
0.1260319 0.1867216 0.7096549
0.2493458 0.2196096 0.7104831
0.3642228 0.2500657 0.7172823
0.4639627 0.2760875 0.7238438
0.5460123 0.3039052 0.7244065
0.6058270 0.3329853 0.7308857
0.6583492 0.3633681 0.7372706
0.7016530 0.3869752 0.7376802
0.1178596 0.3203734 0.7129931
0.2411728 0.3496521 0.7134707
0.3546047 0.3724931 0.7199021
0.4535330 0.3958409 0.7262631
0.5355395 0.4189667 0.7266433
0.6038454 0.4424843 0.7329147
0.6566319 0.4663522 0.7391037
0.7001820 0.4829091 0.7393619
0.1105430 0.4370630 0.7152734
0.2339763 0.4521451 0.7214576
0.3457305 0.4759799 0.7218090
0.4437483 0.5011196 0.7281490
0.5337977 0.5178068 0.7342603
0.5948269 0.5346395 0.7345190
0.6476626 0.5513764 0.7405601
0.6989066 0.5676773 0.7408104
0.1038465 0.5287592 0.7169397
0.2271453 0.5448120 0.7231113
0.3443842 0.5612017 0.7233243
0.4424292 0.5768132 0.7294802
0.5242018 0.5923687 0.7355641
0.5935523 0.6078553 0.7358037
0.6464646 0.6231381 0.7418128
0.6907192 0.6382153 0.7477373
0.0975777 0.6026257 0.7182930
0.2152196 0.6172993 0.7244326
0.3361604 0.6321377 0.7246262
0.4332715 0.6475470 0.7307770
0.5230213 0.6556506 0.7367169
0.5848674 0.6721014 0.7369977
0.6454536 0.6800198 0.7428657
0.6897384 0.6958598 0.7488108
0.0916838 0.6662884 0.7195209
0.2091612 0.6736379 0.7255149
0.3281955 0.6893389 0.7257462
0.4321566 0.7047251 0.7319023
0.5135995 0.7121487 0.7378312
0.5839126 0.7195451 0.7379483
0.6367249 0.7328298 0.7439343
0.6889376 0.7388708 0.7496834
