Plugins/FilmEmulator/Content/LUTs/FE_Kodak_Vision_250D_5246_64.cube
# FilmEmulator LUT (resampled to 64)
LUT_3D_SIZE 64
0.000000 0.001617 0.001038
0.012757 0.000796 0.000511
0.025647 0.000000 0.000000
0.042652 0.000000 0.000000
0.059657 0.000000 0.000000
0.076661 0.000000 0.000000
0.093666 0.000000 0.000000
0.110670 0.000000 0.000000
0.127675 0.000000 0.000000
0.144679 0.000000 0.000000
0.161684 0.000000 0.000000
0.178689 0.000000 0.000000
0.195696 0.000000 0.000000
0.212716 0.000000 0.000000
0.229729 0.000000 0.000000
0.246718 0.000000 0.000000
0.263711 0.000000 0.000000
0.280716 0.000000 0.000000
0.297721 0.000000 0.000000
0.314725 0.000000 0.000000
0.331730 0.000000 0.000000
0.348735 0.000000 0.000000
0.365739 0.000000 0.000000
0.382744 0.000000 0.000000
0.399749 0.000000 0.000000
0.416753 0.000000 0.000000
0.433757 0.000000 0.000000
0.450762 0.000000 0.000000
0.467773 0.000000 0.000000
0.484793 0.000000 0.000000
0.501813 0.000000 0.000000
0.518834 0.000000 0.000000
0.535846 0.000000 0.000000
0.552851 0.000000 0.000000
0.569855 0.000000 0.000000
0.586860 0.000000 0.000000
0.603864 0.000000 0.000000
0.620869 0.000000 0.000000
0.637874 0.000000 0.000000
0.654878 0.000000 0.000000
0.671883 0.000000 0.000000
0.688888 0.000000 0.000000
0.705882 0.000000 0.000000
0.722871 0.000000 0.000000
0.739881 0.000000 0.000000
0.756901 0.000000 0.000000
0.773910 0.000000 0.000000
0.790915 0.000000 0.000000
0.807920 0.000000 0.000000
0.824924 0.000000 0.000000
0.841929 0.000000 0.000000
0.858934 0.000000 0.000000
0.875938 0.000000 0.000000
0.892942 0.000000 0.000000
0.909947 0.000000 0.000000
0.926951 0.000000 0.000000
0.943956 0.000000 0.000000
0.960961 0.000000 0.000000
0.977966 0.000000 0.000000
0.994970 0.000000 0.000000
0.997922 0.000000 0.000000
0.999937 0.000000 0.000000
1.000000 0.000000 0.000000
1.000000 0.000000 0.000000
0.000000 0.011988 0.004061
0.011789 0.008772 0.001998
0.023771 0.005603 0.000000
0.041744 0.003855 0.000000
0.059657 0.002217 0.000000
0.076661 0.002217 0.000000
0.093666 0.002217 0.000000
0.110670 0.002217 0.000000
0.127675 0.002217 0.000000
0.144679 0.002217 0.000000
0.161684 0.002217 0.000000
0.178689 0.002217 0.000000
0.195696 0.002217 0.000000
0.212716 0.002217 0.000000
0.229729 0.002217 0.000000
0.246718 0.002217 0.000000
0.263711 0.002217 0.000000
0.280716 0.002217 0.000000
0.297721 0.002217 0.000000
0.314725 0.002217 0.000000
0.331730 0.002217 0.000000
0.348735 0.002217 0.000000
0.365739 0.002217 0.000000
0.382744 0.002217 0.000000
0.399749 0.002217 0.000000
0.416753 0.002217 0.000000
0.433757 0.002217 0.000000
0.450762 0.002217 0.000000
0.467773 0.002217 0.000000
0.484793 0.002217 0.000000
0.501813 0.002217 0.000000
0.518834 0.002217 0.000000
0.535846 0.002217 0.000000
0.552851 0.002217 0.000000
0.569855 0.002217 0.000000
0.586860 0.002217 0.000000
0.603864 0.002217 0.000000
0.620869 0.002217 0.000000
0.637874 0.002217 0.000000
0.654878 0.002217 0.000000
0.671883 0.002217 0.000000
0.688888 0.002217 0.000000
0.705887 0.002217 0.000000
0.722884 0.002217 0.000000
0.739891 0.002217 0.000000
0.756903 0.002217 0.000000
0.773910 0.002217 0.000000
0.790915 0.002217 0.000000
0.807920 0.002217 0.000000
0.824924 0.002217 0.000000
0.841929 0.002217 0.000000
0.858934 0.002217 0.000000
0.875938 0.002217 0.000000
0.892942 0.002217 0.000000
0.909947 0.002217 0.000000
0.926951 0.002217 0.000000
0.943956 0.002217 0.000000
0.960961 0.002217 0.000000
0.977966 0.002217 0.000000
0.994970 0.002217 0.000000
0.997922 0.002217 0.000000
0.999937 0.002217 0.000000
1.000000 0.002217 0.000000
1.000000 0.002217 0.000000
0.000000 0.022291 0.007004
0.010767 0.016859 0.003514
0.021789 0.011490 0.000130
0.040696 0.008108 0.000063
0.059489 0.004937 0.000000
0.076582 0.004927 0.000000
0.093666 0.004919 0.000000
0.110670 0.004919 0.000000
0.127675 0.004919 0.000000
0.144679 0.004919 0.000000
0.161684 0.004919 0.000000
0.178689 0.004919 0.000000
0.195696 0.004919 0.000000
0.212716 0.004919 0.000000
0.229729 0.004919 0.000000
0.246718 0.004919 0.000000
0.263711 0.004919 0.000000
0.280716 0.004919 0.000000
0.297721 0.004919 0.000000
0.314725 0.004919 0.000000
0.331730 0.004919 0.000000
0.348735 0.004919 0.000000
0.365739 0.004919 0.000000
0.382744 0.004919 0.000000
0.399749 0.004919 0.000000
0.416753 0.004919 0.000000
0.433757 0.004919 0.000000
0.450762 0.004919 0.000000
0.467773 0.004919 0.000000
0.484793 0.004919 0.000000
0.501813 0.004919 0.000000
0.518834 0.004919 0.000000
0.535846 0.004919 0.000000
0.552851 0.004919 0.000000
0.569855 0.004919 0.000000
0.586860 0.004919 0.000000
0.603864 0.004919 0.000000
0.620869 0.004919 0.000000
0.637874 0.004919 0.000000
0.654878 0.004919 0.000000
0.671883 0.004919 0.000000
0.688888 0.004919 0.000000
0.705892 0.004919 0.000000
0.722896 0.004919 0.000000
0.739901 0.004919 0.000000
0.756906 0.004919 0.000000
0.773910 0.004919 0.000000
0.790915 0.004919 0.000000
0.807920 0.004919 0.000000
0.824924 0.004919 0.000000
0.841929 0.004919 0.000000
0.858934 0.004919 0.000000
0.875938 0.004919 0.000000
0.892942 0.004919 0.000000
0.909947 0.004919 0.000000
0.926951 0.004919 0.000000
0.943956 0.004919 0.000000
0.960961 0.004919 0.000000
0.977966 0.004919 0.000000
0.994970 0.004919 0.000000
0.997922 0.004919 0.000000
0.999937 0.004919 0.000000
1.000000 0.004919 0.000000
1.000000 0.004919 0.000000
0.000000 0.030522 0.007485
0.008106 0.028334 0.005899
0.016545 0.026167 0.004295
0.035294 0.024682 0.002078
0.054115 0.023271 0.000000
0.074027 0.022954 0.000000
0.093666 0.022667 0.000000
0.110670 0.022667 0.000000
0.127675 0.022667 0.000000
0.144679 0.022667 0.000000
0.161684 0.022667 0.000000
0.178689 0.022667 0.000000
0.195696 0.022667 0.000000
0.212716 0.022667 0.000000
0.229729 0.022667 0.000000
0.246718 0.022667 0.000000
0.263711 0.022667 0.000000
0.280716 0.022667 0.000000
0.297721 0.022667 0.000000
0.314725 0.022667 0.000000
0.331730 0.022667 0.000000
0.348735 0.022667 0.000000
0.365739 0.022667 0.000000
0.382744 0.022667 0.000000
0.399749 0.022667 0.000000
0.416753 0.022667 0.000000
0.433757 0.022667 0.000000
0.450762 0.022667 0.000000
0.467773 0.022667 0.000000
0.484793 0.022667 0.000000
0.501813 0.022667 0.000000
0.518834 0.022667 0.000000
0.535846 0.022667 0.000000
0.552851 0.022667 0.000000
0.569855 0.022667 0.000000
0.586860 0.022667 0.000000
0.603864 0.022667 0.000000
0.620869 0.022667 0.000000
0.637874 0.022667 0.000000
0.654878 0.022667 0.000000
0.671883 0.022667 0.000000
0.688888 0.022667 0.000000
0.705892 0.022667 0.000000
0.722896 0.022667 0.000000
0.739906 0.022667 0.000000
0.756919 0.022667 0.000000
0.773920 0.022667 0.000000
0.790917 0.022667 0.000000
0.807920 0.022667 0.000000
0.824924 0.022667 0.000000
0.841929 0.022667 0.000000
0.858934 0.022667 0.000000
0.875938 0.022667 0.000000
0.892942 0.022667 0.000000
0.909947 0.022667 0.000000
0.926951 0.022667 0.000000
0.943956 0.022667 0.000000
0.960961 0.022667 0.000000
0.977966 0.022667 0.000000
0.994970 0.022667 0.000000
0.997922 0.022667 0.000000
0.999937 0.022667 0.000000
1.000000 0.022667 0.000000
1.000000 0.022667 0.000000
0.000000 0.038811 0.008015
0.005575 0.039666 0.008218
0.011548 0.040506 0.008284
0.029837 0.040856 0.004157
0.048401 0.041156 0.000279
0.071082 0.040717 0.000132
0.093250 0.040323 0.000000
0.110453 0.040367 0.000000
0.127634 0.040407 0.000000
0.144661 0.040412 0.000000
0.161684 0.040416 0.000000
0.178689 0.040416 0.000000
0.195696 0.040416 0.000000
0.212716 0.040416 0.000000
0.229729 0.040416 0.000000
0.246719 0.040416 0.000000
0.263712 0.040416 0.000000
0.280716 0.040416 0.000000
0.297721 0.040416 0.000000
0.314725 0.040416 0.000000
0.331730 0.040416 0.000000
0.348735 0.040416 0.000000
0.365739 0.040416 0.000000
0.382744 0.040416 0.000000
0.399749 0.040416 0.000000
0.416753 0.040416 0.000000
0.433757 0.040416 0.000000
0.450762 0.040416 0.000000
0.467773 0.040416 0.000000
0.484793 0.040416 0.000000
0.501813 0.040416 0.000000
0.518834 0.040416 0.000000
0.535846 0.040416 0.000000
0.552851 0.040416 0.000000
0.569855 0.040416 0.000000
0.586860 0.040416 0.000000
0.603864 0.040416 0.000000
0.620869 0.040416 0.000000
0.637874 0.040416 0.000000
0.654878 0.040416 0.000000
0.671883 0.040416 0.000000
0.688888 0.040416 0.000000
0.705892 0.040416 0.000000
0.722896 0.040416 0.000000
0.739912 0.040416 0.000000
0.756932 0.040416 0.000000
0.773930 0.040416 0.000000
0.790919 0.040416 0.000000
0.807920 0.040416 0.000000
0.824924 0.040416 0.000000
0.841929 0.040416 0.000000
0.858934 0.040416 0.000000
0.875938 0.040416 0.000000
0.892942 0.040416 0.000000
0.909947 0.040416 0.000000
0.926951 0.040416 0.000000
0.943956 0.040416 0.000000
0.960961 0.040416 0.000000
0.977966 0.040416 0.000000
0.994970 0.040416 0.000000
0.997922 0.040416 0.000000
0.999937 0.040416 0.000000
1.000000 0.040416 0.000000
1.000000 0.040416 0.000000
0.000000 0.047956 0.009302
0.005001 0.048867 0.009520
0.010261 0.049788 0.009654
0.023558 0.051020 0.007196
0.037569 0.052311 0.004736
0.062281 0.054509 0.002252
0.086588 0.056573 0.000000
0.106972 0.057334 0.000000
0.126981 0.058010 0.000000
0.144362 0.058094 0.000000
0.161684 0.058165 0.000000
0.178689 0.058165 0.000000
0.195696 0.058165 0.000000
0.212716 0.058165 0.000000
0.229731 0.058165 0.000000
0.246729 0.058165 0.000000
0.263726 0.058165 0.000000
0.280722 0.058165 0.000000
0.297721 0.058165 0.000000
0.314725 0.058165 0.000000
0.331730 0.058165 0.000000
0.348735 0.058165 0.000000
0.365739 0.058165 0.000000
0.382744 0.058165 0.000000
0.399749 0.058165 0.000000
0.416753 0.058165 0.000000
0.433757 0.058165 0.000000
0.450762 0.058165 0.000000
0.467773 0.058165 0.000000
0.484793 0.058165 0.000000
0.501813 0.058165 0.000000
0.518834 0.058165 0.000000
0.535846 0.058165 0.000000
0.552851 0.058165 0.000000
0.569855 0.058165 0.000000
0.586860 0.058165 0.000000
0.603864 0.058165 0.000000
0.620869 0.058165 0.000000
0.637874 0.058165 0.000000
0.654878 0.058165 0.000000
0.671883 0.058165 0.000000
0.688888 0.058165 0.000000
0.705892 0.058165 0.000000
0.722896 0.058165 0.000000
0.739912 0.058165 0.000000
0.756932 0.058165 0.000000
0.773930 0.058165 0.000000
0.790919 0.058165 0.000000
0.807920 0.058165 0.000000
0.824924 0.058165 0.000000
0.841929 0.058165 0.000000
0.858934 0.058165 0.000000
0.875938 0.058165 0.000000
0.892942 0.058165 0.000000
0.909947 0.058165 0.000000
0.926951 0.058165 0.000000
0.943956 0.058165 0.000000
0.960961 0.058165 0.000000
0.977966 0.058165 0.000000
0.994970 0.058165 0.000000
0.997922 0.058165 0.000000
0.999937 0.058165 0.000000
1.000000 0.058165 0.000000
1.000000 0.058165 0.000000
0.000000 0.057110 0.010625
0.004467 0.058076 0.010856
0.009068 0.059076 0.011053
0.017800 0.061108 0.010182
0.027621 0.063303 0.009075
0.053761 0.067936 0.004442
0.079655 0.072284 0.000231
0.103165 0.073879 0.000108
0.125965 0.075310 0.000000
0.143802 0.075601 0.000000
0.161522 0.075851 0.000000
0.178616 0.075885 0.000000
0.195696 0.075913 0.000000
0.212716 0.075913 0.000000
0.229733 0.075913 0.000000
0.246737 0.075913 0.000000
0.263738 0.075913 0.000000
0.280728 0.075913 0.000000
0.297722 0.075913 0.000000
0.314726 0.075913 0.000000
0.331730 0.075913 0.000000
0.348735 0.075913 0.000000
0.365739 0.075913 0.000000
0.382744 0.075913 0.000000
0.399749 0.075913 0.000000
0.416753 0.075913 0.000000
0.433757 0.075913 0.000000
0.450762 0.075913 0.000000
0.467773 0.075913 0.000000
0.484793 0.075913 0.000000
0.501813 0.075913 0.000000
0.518834 0.075913 0.000000
0.535846 0.075913 0.000000
0.552851 0.075913 0.000000
0.569855 0.075913 0.000000
0.586860 0.075913 0.000000
0.603864 0.075913 0.000000
0.620869 0.075913 0.000000
0.637874 0.075913 0.000000
0.654878 0.075913 0.000000
0.671883 0.075913 0.000000
0.688888 0.075913 0.000000
0.705892 0.075913 0.000000
0.722896 0.075913 0.000000
0.739912 0.075913 0.000000
0.756932 0.075913 0.000000
0.773930 0.075913 0.000000
0.790920 0.075913 0.000000
0.807920 0.075913 0.000000
0.824924 0.075913 0.000000
0.841929 0.075913 0.000000
0.858934 0.075913 0.000000
0.875938 0.075913 0.000000
0.892942 0.075913 0.000000
0.909947 0.075913 0.000000
0.926951 0.075913 0.000000
0.943956 0.075913 0.000000
0.960961 0.075913 0.000000
0.977966 0.075913 0.000000
0.994970 0.075913 0.000000
0.997922 0.075913 0.000000
0.999937 0.075913 0.000000
1.000000 0.075913 0.000000
1.000000 0.075913 0.000000
0.000000 0.066348 0.012299
0.004334 0.067370 0.012522
0.008791 0.068423 0.012737
0.017082 0.070471 0.012652
0.026214 0.072711 0.012264
0.047953 0.077824 0.007316
0.070101 0.082792 0.002696
0.096201 0.086347 0.001258
0.121447 0.089675 0.000000
0.140717 0.091414 0.000000
0.159795 0.092944 0.000000
0.177842 0.093340 0.000000
0.195696 0.093662 0.000000
0.212716 0.093662 0.000000
0.229733 0.093662 0.000000
0.246737 0.093662 0.000000
0.263740 0.093662 0.000000
0.280738 0.093662 0.000000
0.297735 0.093662 0.000000
0.314731 0.093662 0.000000
0.331730 0.093662 0.000000
0.348735 0.093662 0.000000
0.365739 0.093662 0.000000
0.382744 0.093662 0.000000
0.399749 0.093662 0.000000
0.416753 0.093662 0.000000
0.433757 0.093662 0.000000
0.450762 0.093662 0.000000
0.467773 0.093662 0.000000
0.484793 0.093662 0.000000
0.501813 0.093662 0.000000
0.518834 0.093662 0.000000
0.535846 0.093662 0.000000
0.552851 0.093662 0.000000
0.569855 0.093662 0.000000
0.586860 0.093662 0.000000
0.603864 0.093662 0.000000
0.620869 0.093662 0.000000
0.637874 0.093662 0.000000
0.654878 0.093662 0.000000
0.671883 0.093662 0.000000
0.688888 0.093662 0.000000
0.705892 0.093662 0.000000
0.722896 0.093662 0.000000
0.739912 0.093662 0.000000
0.756932 0.093662 0.000000
0.773936 0.093662 0.000000
0.790934 0.093662 0.000000
0.807930 0.093662 0.000000
0.824926 0.093662 0.000000
0.841929 0.093662 0.000000
0.858934 0.093662 0.000000
0.875938 0.093662 0.000000
0.892942 0.093662 0.000000
0.909947 0.093662 0.000000
0.926951 0.093662 0.000000
0.943956 0.093662 0.000000
0.960961 0.093662 0.000000
0.977966 0.093662 0.000000
0.994970 0.093662 0.000000
0.997922 0.093662 0.000000
0.999937 0.093662 0.000000
1.000000 0.093662 0.000000
1.000000 0.093662 0.000000
0.000000 0.075643 0.014036
0.004199 0.076727 0.014252
0.008514 0.077840 0.014479
0.016455 0.079889 0.015093
0.024994 0.082145 0.015370
0.042496 0.087514 0.010604
0.061028 0.092891 0.006011
0.089516 0.098348 0.003084
0.117015 0.103528 0.000490
0.137593 0.106768 0.000224
0.157910 0.109640 0.000000
0.176814 0.110531 0.000000
0.195396 0.111270 0.000000
0.212585 0.111349 0.000000
0.229733 0.111411 0.000000
0.246737 0.111411 0.000000
0.263742 0.111411 0.000000
0.280747 0.111411 0.000000
0.297747 0.111411 0.000000
0.314736 0.111411 0.000000
0.331730 0.111411 0.000000
0.348735 0.111411 0.000000
0.365739 0.111411 0.000000
0.382744 0.111411 0.000000
0.399749 0.111411 0.000000
0.416753 0.111411 0.000000
0.433757 0.111411 0.000000
0.450762 0.111411 0.000000
0.467773 0.111411 0.000000
0.484793 0.111411 0.000000
0.501813 0.111411 0.000000
0.518834 0.111411 0.000000
0.535846 0.111411 0.000000
0.552851 0.111411 0.000000
0.569855 0.111411 0.000000
0.586860 0.111411 0.000000
0.603864 0.111411 0.000000
0.620869 0.111411 0.000000
0.637874 0.111411 0.000000
0.654878 0.111411 0.000000
0.671883 0.111411 0.000000
0.688888 0.111411 0.000000
0.705892 0.111411 0.000000
0.722896 0.111411 0.000000
0.739912 0.111411 0.000000
0.756932 0.111411 0.000000
0.773941 0.111411 0.000000
0.790946 0.111411 0.000000
0.807939 0.111411 0.000000
0.824929 0.111411 0.000000
0.841930 0.111411 0.000000
0.858934 0.111411 0.000000
0.875938 0.111411 0.000000
0.892942 0.111411 0.000000
0.909947 0.111411 0.000000
0.926951 0.111411 0.000000
0.943956 0.111411 0.000000
0.960961 0.111411 0.000000
0.977966 0.111411 0.000000
0.994970 0.111411 0.000000
0.997922 0.111411 0.000000
0.999937 0.111411 0.000000
1.000000 0.111411 0.000000
1.000000 0.111411 0.000000
0.000000 0.085331 0.016222
0.004057 0.086525 0.016422
0.008244 0.087742 0.016636
0.016468 0.089689 0.017320
0.025080 0.091766 0.017893
0.039495 0.095812 0.016797
0.055321 0.100131 0.015275
0.084778 0.107084 0.009640
0.113179 0.113805 0.004410
0.134199 0.118903 0.002018
0.154917 0.123566 0.000000
0.174010 0.125882 0.000000
0.192998 0.127897 0.000000
0.211533 0.128606 0.000000
0.229733 0.129159 0.000000
0.246737 0.129159 0.000000
0.263742 0.129159 0.000000
0.280747 0.129159 0.000000
0.297747 0.129159 0.000000
0.314736 0.129159 0.000000
0.331730 0.129159 0.000000
0.348735 0.129159 0.000000
0.365739 0.129159 0.000000
0.382744 0.129159 0.000000
0.399749 0.129159 0.000000
0.416753 0.129159 0.000000
0.433757 0.129159 0.000000
0.450762 0.129159 0.000000
0.467773 0.129159 0.000000
0.484793 0.129159 0.000000
0.501813 0.129159 0.000000
0.518834 0.129159 0.000000
0.535846 0.129159 0.000000
0.552851 0.129159 0.000000
0.569855 0.129159 0.000000
0.586860 0.129159 0.000000
0.603864 0.129159 0.000000
0.620869 0.129159 0.000000
0.637874 0.129159 0.000000
0.654878 0.129159 0.000000
0.671883 0.129159 0.000000
0.688888 0.129159 0.000000
0.705892 0.129159 0.000000
0.722896 0.129159 0.000000
0.739912 0.129159 0.000000
0.756932 0.129159 0.000000
0.773941 0.129159 0.000000
0.790946 0.129159 0.000000
0.807945 0.129159 0.000000
0.824943 0.129159 0.000000
0.841939 0.129159 0.000000
0.858935 0.129159 0.000000
0.875938 0.129159 0.000000
0.892942 0.129159 0.000000
0.909947 0.129159 0.000000
0.926951 0.129159 0.000000
0.943956 0.129159 0.000000
0.960961 0.129159 0.000000
0.977966 0.129159 0.000000
0.994970 0.129159 0.000000
0.997922 0.129159 0.000000
0.999937 0.129159 0.000000
1.000000 0.129159 0.000000
1.000000 0.129159 0.000000
0.000000 0.094996 0.018357
0.003980 0.096309 0.018585
0.008102 0.097641 0.018829
0.016611 0.099532 0.019583
0.025335 0.101489 0.020417
0.037279 0.104438 0.022459
0.050903 0.107850 0.023647
0.080760 0.115733 0.016593
0.109576 0.123510 0.009838
0.131112 0.130538 0.005185
0.152275 0.137059 0.001159
0.171426 0.140837 0.000520
0.190658 0.144169 0.000000
0.210244 0.145570 0.000000
0.229301 0.146687 0.000000
0.246468 0.146792 0.000000
0.263613 0.146876 0.000000
0.280693 0.146895 0.000000
0.297747 0.146908 0.000000
0.314738 0.146908 0.000000
0.331732 0.146908 0.000000
0.348735 0.146908 0.000000
0.365739 0.146908 0.000000
0.382744 0.146908 0.000000
0.399749 0.146908 0.000000
0.416753 0.146908 0.000000
0.433757 0.146908 0.000000
0.450762 0.146908 0.000000
0.467773 0.146908 0.000000
0.484793 0.146908 0.000000
0.501813 0.146908 0.000000
0.518834 0.146908 0.000000
0.535846 0.146908 0.000000
0.552851 0.146908 0.000000
0.569855 0.146908 0.000000
0.586860 0.146908 0.000000
0.603864 0.146908 0.000000
0.620869 0.146908 0.000000
0.637874 0.146908 0.000000
0.654878 0.146908 0.000000
0.671883 0.146908 0.000000
0.688888 0.146908 0.000000
0.705892 0.146908 0.000000
0.722896 0.146908 0.000000
0.739912 0.146908 0.000000
0.756932 0.146908 0.000000
0.773941 0.146908 0.000000
0.790946 0.146908 0.000000
0.807950 0.146908 0.000000
0.824954 0.146908 0.000000
0.841948 0.146908 0.000000
0.858939 0.146908 0.000000
0.875939 0.146908 0.000000
0.892942 0.146908 0.000000
0.909947 0.146908 0.000000
0.926951 0.146908 0.000000
0.943956 0.146908 0.000000
0.960961 0.146908 0.000000
0.977966 0.146908 0.000000
0.994970 0.146908 0.000000
0.997922 0.146908 0.000000
0.999937 0.146908 0.000000
1.000000 0.146908 0.000000
1.000000 0.146908 0.000000
0.000000 0.104528 0.020217
0.004256 0.106016 0.020713
0.008654 0.107521 0.021218
0.017454 0.109609 0.022035
0.026504 0.111758 0.022945
0.039299 0.114834 0.025254
0.053443 0.118161 0.027206
0.080631 0.123918 0.025694
0.107227 0.130124 0.023415
0.129683 0.139475 0.015770
0.151523 0.148215 0.008580
0.170028 0.153655 0.003846
0.188634 0.158529 0.000000
0.207677 0.160953 0.000000
0.226536 0.163018 0.000000
0.244743 0.163800 0.000000
0.262787 0.164422 0.000000
0.280348 0.164558 0.000000
0.297750 0.164656 0.000000
0.314748 0.164656 0.000000
0.331745 0.164656 0.000000
0.348741 0.164656 0.000000
0.365739 0.164656 0.000000
0.382744 0.164656 0.000000
0.399749 0.164656 0.000000
0.416753 0.164656 0.000000
0.433757 0.164656 0.000000
0.450762 0.164656 0.000000
0.467773 0.164656 0.000000
0.484793 0.164656 0.000000
0.501813 0.164656 0.000000
0.518834 0.164656 0.000000
0.535846 0.164656 0.000000
0.552851 0.164656 0.000000
0.569855 0.164656 0.000000
0.586860 0.164656 0.000000
0.603864 0.164656 0.000000
0.620869 0.164656 0.000000
0.637874 0.164656 0.000000
0.654878 0.164656 0.000000
0.671883 0.164656 0.000000
0.688888 0.164656 0.000000
0.705892 0.164656 0.000000
0.722896 0.164656 0.000000
0.739912 0.164656 0.000000
0.756932 0.164656 0.000000
0.773941 0.164656 0.000000
0.790946 0.164656 0.000000
0.807950 0.164656 0.000000
0.824954 0.164656 0.000000
0.841954 0.164656 0.000000
0.858952 0.164656 0.000000
0.875948 0.164656 0.000000
0.892943 0.164656 0.000000
0.909947 0.164656 0.000000
0.926951 0.164656 0.000000
0.943956 0.164656 0.000000
0.960961 0.164656 0.000000
0.977966 0.164656 0.000000
0.994970 0.164656 0.000000
0.997922 0.164656 0.000000
0.999937 0.164656 0.000000
1.000000 0.164656 0.000000
1.000000 0.164656 0.000000
0.000000 0.114117 0.022156
0.004613 0.115745 0.022881
0.009364 0.117393 0.023611
0.018401 0.119684 0.024522
0.027732 0.122032 0.025539
0.041484 0.125242 0.028149
0.056280 0.128528 0.030816
0.081173 0.132546 0.034047
0.105841 0.137440 0.035721
0.128933 0.148469 0.026494
0.151209 0.158894 0.017404
0.169082 0.166061 0.009058
0.187062 0.172537 0.002105
0.205509 0.176015 0.001196
0.224068 0.179060 0.000431
0.243031 0.180557 0.000185
0.261757 0.181765 0.000000
0.279770 0.182109 0.000000
0.297535 0.182363 0.000000
0.314668 0.182388 0.000000
0.331757 0.182405 0.000000
0.348747 0.182405 0.000000
0.365742 0.182405 0.000000
0.382745 0.182405 0.000000
0.399749 0.182405 0.000000
0.416753 0.182405 0.000000
0.433757 0.182405 0.000000
0.450762 0.182405 0.000000
0.467773 0.182405 0.000000
0.484793 0.182405 0.000000
0.501813 0.182405 0.000000
0.518834 0.182405 0.000000
0.535846 0.182405 0.000000
0.552851 0.182405 0.000000
0.569855 0.182405 0.000000
0.586860 0.182405 0.000000
0.603864 0.182405 0.000000
0.620869 0.182405 0.000000
0.637874 0.182405 0.000000
0.654878 0.182405 0.000000
0.671883 0.182405 0.000000
0.688888 0.182405 0.000000
0.705892 0.182405 0.000000
0.722896 0.182405 0.000000
0.739912 0.182405 0.000000
0.756932 0.182405 0.000000
0.773941 0.182405 0.000000
0.790946 0.182405 0.000000
0.807950 0.182405 0.000000
0.824954 0.182405 0.000000
0.841959 0.182405 0.000000
0.858964 0.182405 0.000000
0.875957 0.182405 0.000000
0.892947 0.182405 0.000000
0.909948 0.182405 0.000000
0.926952 0.182405 0.000000
0.943956 0.182405 0.000000
0.960961 0.182405 0.000000
0.977966 0.182405 0.000000
0.994970 0.182405 0.000000
0.997922 0.182405 0.000000
0.999937 0.182405 0.000000
1.000000 0.182405 0.000000
1.000000 0.182405 0.000000
0.000000 0.123944 0.024435
0.005321 0.125572 0.025223
0.010759 0.127228 0.026021
0.019796 0.129747 0.027160
0.029216 0.132319 0.028419
0.044385 0.135703 0.031469
0.060403 0.139140 0.034656
0.084627 0.143095 0.039163
0.108633 0.147795 0.042518
0.131118 0.157705 0.037819
0.152793 0.167502 0.032310
0.170091 0.176685 0.022436
0.187450 0.185022 0.013333
0.205069 0.189688 0.007573
0.222881 0.193853 0.002732
0.241381 0.196224 0.001171
0.259841 0.198235 0.000000
0.278184 0.199169 0.000000
0.296379 0.199885 0.000000
0.314197 0.200044 0.000000
0.331759 0.200154 0.000000
0.348757 0.200154 0.000000
0.365754 0.200154 0.000000
0.382750 0.200154 0.000000
0.399749 0.200154 0.000000
0.416753 0.200154 0.000000
0.433757 0.200154 0.000000
0.450762 0.200154 0.000000
0.467773 0.200154 0.000000
0.484793 0.200154 0.000000
0.501813 0.200154 0.000000
0.518834 0.200154 0.000000
0.535846 0.200154 0.000000
0.552851 0.200154 0.000000
0.569855 0.200154 0.000000
0.586860 0.200154 0.000000
0.603864 0.200154 0.000000
0.620869 0.200154 0.000000
0.637874 0.200154 0.000000
0.654878 0.200154 0.000000
0.671883 0.200154 0.000000
0.688888 0.200154 0.000000
0.705892 0.200154 0.000000
0.722896 0.200154 0.000000
0.739912 0.200154 0.000000
0.756932 0.200154 0.000000
0.773941 0.200154 0.000000
0.790946 0.200154 0.000000
0.807950 0.200154 0.000000
0.824954 0.200154 0.000000
0.841959 0.200154 0.000000
0.858964 0.200154 0.000000
0.875963 0.200154 0.000000
0.892962 0.200154 0.000000
