Plugins/FilmEmulator/Content/LUTs/FE_Kodak_2302_Dev7_64.cube
TITLE "FE_Kodak_2302_Dev7_33"
LUT_3D_SIZE 4
0.0019167 0.0019167 0.0019167
0.0039374 0.0039374 0.0039374
0.0134597 0.0134597 0.0134597
0.0441604 0.0441604 0.0441604
0.0028303 0.0028303 0.0028303
0.0095742 0.0095742 0.0095742
0.0319476 0.0319476 0.0319476
0.0923237 0.0923237 0.0923237
0.0065790 0.0065790 0.0065790
0.0229044 0.0229044 0.0229044
0.0690818 0.0690818 0.0690818
0.1758144 0.1758144 0.1758144
0.0160426 0.0160426 0.0160426
0.0503932 0.0503932 0.0503932
0.1372368 0.1372368 0.1372368
0.2905076 0.2905076 0.2905076
0.5580961 0.5580961 0.5580961
0.7011815 0.7011815 0.7011815
0.8052098 0.8052098 0.8052098
0.8694769 0.8694769 0.8694769
0.6632562 0.6632562 0.6632562
0.7764828 0.7764828 0.7764828
0.8539888 0.8539888 0.8539888
0.9004283 0.9004283 0.9004283
0.7530352 0.7530352 0.7530352
0.8370072 0.8370072 0.8370072
0.8880478 0.8880478 0.8880478
0.9247701 0.9247701 0.9247701
0.8119382 0.8119382 0.8119382
0.8743428 0.8743428 0.8743428
0.9150438 0.9150438 0.9150438
0.9412170 0.9412170 0.9412170
0.9638566 0.9638566 0.9638566
0.9724346 0.9724346 0.9724346
0.9788659 0.9788659 0.9788659
0.9831250 0.9831250 0.9831250
0.9702088 0.9702088 0.9702088
0.9772246 0.9772246 0.9772246
0.9824789 0.9824789 0.9824789
0.9859242 0.9859242 0.9859242
0.9754593 0.9754593 0.9754593
0.9811128 0.9811128 0.9811128
0.9848641 0.9848641 0.9848641
0.9878295 0.9878295 0.9878295
0.9796425 0.9796425 0.9796425
0.9837255 0.9837255 0.9837255
0.9869110 0.9869110 0.9869110
0.9894590 0.9894590 0.9894590
0.9917935 0.9917935 0.9917935
0.9931123 0.9931123 0.9931123
0.9942170 0.9942170 0.9942170
0.9951195 0.9951195 0.9951195
0.9928674 0.9928674 0.9928674
0.9940111 0.9940111 0.9940111
0.9947794 0.9947794 0.9947794
0.9955888 0.9955888 0.9955888
0.9935773 0.9935773 0.9935773
0.9946007 0.9946007 0.9946007
0.9952812 0.9952812 0.9952812
0.9960130 0.9960130 0.9960130
0.9944158 0.9944158 0.9944158
0.9951195 0.9951195 0.9951195
0.9957350 0.9957350 0.9957350
0.9963800 0.9963800 0.9963800
