Plugins/FilmEmulator/Content/LUTs/FE_Kodak_2302_Dev3_64.cube
TITLE "FE_Kodak_2302_Dev3_33"
LUT_3D_SIZE 4
0.0018678 0.0018678 0.0018678
0.0050625 0.0050625 0.0050625
0.0194641 0.0194641 0.0194641
0.0556575 0.0556575 0.0556575
0.0035097 0.0035097 0.0035097
0.0134535 0.0134535 0.0134535
0.0424426 0.0424426 0.0424426
0.1015791 0.1015791 0.1015791
0.0090315 0.0090315 0.0090315
0.0310636 0.0310636 0.0310636
0.0805237 0.0805237 0.0805237
0.1707480 0.1707480 0.1707480
0.0225004 0.0225004 0.0225004
0.0623239 0.0623239 0.0623239
0.1399572 0.1399572 0.1399572
0.2558000 0.2558000 0.2558000
0.4621519 0.4621519 0.4621519
0.5891982 0.5891982 0.5891982
0.6815578 0.6815578 0.6815578
0.7529883 0.7529883 0.7529883
0.5560775 0.5560775 0.5560775
0.6598257 0.6598257 0.6598257
0.7352839 0.7352839 0.7352839
0.7962210 0.7962210 0.7962210
0.6291321 0.6291321 0.6291321
0.7160553 0.7160553 0.7160553
0.7806811 0.7806811 0.7806811
0.8248472 0.8248472 0.8248472
0.6956261 0.6956261 0.6956261
0.7643404 0.7643404 0.7643404
0.8156736 0.8156736 0.8156736
0.8566798 0.8566798 0.8566798
0.9040641 0.9040641 0.9040641
0.9253917 0.9253917 0.9253917
0.9418167 0.9418167 0.9418167
0.9527722 0.9527722 0.9527722
0.9199666 0.9199666 0.9199666
0.9375055 0.9375055 0.9375055
0.9499254 0.9499254 0.9499254
0.9580104 0.9580104 0.9580104
0.9328974 0.9328974 0.9328974
0.9469167 0.9469167 0.9469167
0.9554647 0.9554647 0.9554647
0.9620745 0.9620745 0.9620745
0.9437378 0.9437378 0.9437378
0.9527722 0.9527722 0.9527722
0.9600920 0.9600920 0.9600920
0.9657592 0.9657592 0.9657592
0.9721797 0.9721797 0.9721797
0.9755929 0.9755929 0.9755929
0.9785669 0.9785669 0.9785669
0.9806883 0.9806883 0.9806883
0.9749466 0.9749466 0.9749466
0.9774224 0.9774224 0.9774224
0.9801781 0.9801781 0.9801781
0.9821218 0.9821218 0.9821218
0.9768280 0.9768280 0.9768280
0.9796547 0.9796547 0.9796547
0.9816595 0.9816595 0.9816595
0.9838591 0.9838591 0.9838591
0.9785669 0.9785669 0.9785669
0.9811856 0.9811856 0.9811856
0.9830123 0.9830123 0.9830123
0.9846644 0.9846644 0.9846644
