Plugins/FilmEmulator/Content/LUTs/FE_Kodak_5213_64.cube
TITLE "FE_Kodak_5213_33"
LUT_3D_SIZE 64
0.0015915 0.0010500 0.0015134
0.0045743 0.0010914 0.0015174
0.0110745 0.0011635 0.0016020
0.0194423 0.0012191 0.0016906
0.0283764 0.0012992 0.0018085
0.0384461 0.0014424 0.0019917
0.0485413 0.0016296 0.0022168
0.0591391 0.0018447 0.0024642
0.0718993 0.0020528 0.0027560
0.0816808 0.0023396 0.0030308
0.0957117 0.0026029 0.0034138
0.1050187 0.0029281 0.0036949
0.1188412 0.0032209 0.0041382
0.1301436 0.0035415 0.0045087
0.1423602 0.0039026 0.0049321
0.1555278 0.0043193 0.0054387
0.1647435 0.0047785 0.0058114
0.1745110 0.0051136 0.0064029
0.1901315 0.0054789 0.0068353
0.2010524 0.0058826 0.0073066
0.2124495 0.0063160 0.0078102
0.2243126 0.0067811 0.0083483
0.2366474 0.0072803 0.0089232
0.2428366 0.0078157 0.0092361
0.2558689 0.0084082 0.0098835
0.2695402 0.0087244 0.0105691
0.2762913 0.0093816 0.0109490
0.2906471 0.0097341 0.0117080
0.2977165 0.0104668 0.0121285
0.3127249 0.0108596 0.0129684
0.3202937 0.0112628 0.0134177
0.3277536 0.0121469 0.0139087
0.3355223 0.0126192 0.0148937
0.3515135 0.0131096 0.0154144
0.3595474 0.0136163 0.0159578
0.3674494 0.0146831 0.0165407
0.3756413 0.0152500 0.0171233
0.3839102 0.0158385 0.0177262
0.3922524 0.0164494 0.0183500
0.4006603 0.0170912 0.0189957
0.4091311 0.0177618 0.0196665
0.4176619 0.0184582 0.0203619
0.4262473 0.0191817 0.0210816
0.4348827 0.0199329 0.0218262
0.4435633 0.0207132 0.0225967
0.4525254 0.0207206 0.0233644
0.4613086 0.0215312 0.0241881
0.4701214 0.0223728 0.0250403
0.4789584 0.0232469 0.0259218
0.4787239 0.0241459 0.0259544
0.4875792 0.0250848 0.0268673
0.4966823 0.0250936 0.0277782
0.5055597 0.0260626 0.0287576
0.5053267 0.0270588 0.0287933
0.5142059 0.0281020 0.0298077
0.5233143 0.0281117 0.0308187
0.5321799 0.0291945 0.0319025
0.5319471 0.0303076 0.0319420
0.5407979 0.0314729 0.0330643
0.5498831 0.0314836 0.0341825
0.5496514 0.0326818 0.0342248
0.5584784 0.0339358 0.0354249
0.5675032 0.0339472 0.0366206
0.5672733 0.0352365 0.0366657
0.0015794 0.0039297 0.0016068
0.0048334 0.0042204 0.0016843
0.0111138 0.0046827 0.0017673
0.0195016 0.0050200 0.0018787
0.0284141 0.0055781 0.0020333
0.0385237 0.0059967 0.0022503
0.0486888 0.0064446 0.0024797
0.0593851 0.0069255 0.0027702
0.0699695 0.0071835 0.0030768
0.0822326 0.0077201 0.0033816
0.0933763 0.0083098 0.0037234
0.1059498 0.0086258 0.0040479
0.1162527 0.0092836 0.0045316
0.1274917 0.0096349 0.0049277
0.1395632 0.0103681 0.0054290
0.1527038 0.0107589 0.0057870
0.1618725 0.0115928 0.0063774
0.1766865 0.0120478 0.0067980
0.1871160 0.0125184 0.0072572
0.1980260 0.0130074 0.0077490
0.2092724 0.0140327 0.0082844
0.2211384 0.0145801 0.0088454
0.2334869 0.0151485 0.0094441
0.2463231 0.0157389 0.0100944
0.2528376 0.0163463 0.0104454
0.2663916 0.0169905 0.0111705
0.2732539 0.0176574 0.0115589
0.2874996 0.0183566 0.0123606
0.2946927 0.0190763 0.0127900
0.3095894 0.0198270 0.0132302
0.3171149 0.0206075 0.0141593
0.3247308 0.0214140 0.0146594
0.3406627 0.0214249 0.0151531
0.3485710 0.0222629 0.0156878
0.3565812 0.0231375 0.0167975
0.3646615 0.0240412 0.0173894
0.3728229 0.0249765 0.0180019
0.3810641 0.0259414 0.0186354
0.3895999 0.0259504 0.0192668
0.3979873 0.0269521 0.0199468
0.4064404 0.0279916 0.0206518
0.4149549 0.0290703 0.0213813
0.4237520 0.0290802 0.0221085
0.4323756 0.0301997 0.0228885
0.4410458 0.0313613 0.0236954
0.4499965 0.0313720 0.0244998
0.4587590 0.0325711 0.0245229
0.4675661 0.0338213 0.0253864
0.4766311 0.0338327 0.0262469
0.4764123 0.0351248 0.0271778
0.4854976 0.0351366 0.0280990
0.4943514 0.0364753 0.0281254
0.5032334 0.0378356 0.0291159
0.5032471 0.0378428 0.0301131
0.5121320 0.0392524 0.0311718
0.5212286 0.0392579 0.0311624
0.5301026 0.0407183 0.0322570
0.5298893 0.0422253 0.0333991
0.5389628 0.0422312 0.0333890
0.5478268 0.0437980 0.0345595
0.5478403 0.0438064 0.0357377
0.5566654 0.0454209 0.0357699
0.5656973 0.0454358 0.0369769
0.5654865 0.0471103 0.0382807
0.0016610 0.0101238 0.0017716
0.0051540 0.0109304 0.0018492
0.0116877 0.0113879 0.0019587
0.0198102 0.0118547 0.0021480
0.0288820 0.0123337 0.0023457
0.0378453 0.0133200 0.0025931
0.0478732 0.0138509 0.0028401
0.0584412 0.0144020 0.0031537
0.0688627 0.0149719 0.0034623
0.0810013 0.0155622 0.0037131
0.0920627 0.0161767 0.0041386
0.1044728 0.0168205 0.0044994
0.1147256 0.0174910 0.0048931
0.1258312 0.0181888 0.0053635
0.1378577 0.0189110 0.0057176
0.1508626 0.0196650 0.0062917
0.1600465 0.0204420 0.0067089
0.1747227 0.0212522 0.0071549
0.1850576 0.0220910 0.0076400
0.1960162 0.0221055 0.0081474
0.2073212 0.0229774 0.0086994
0.2191019 0.0238829 0.0092886
0.2313656 0.0248206 0.0099201
0.2441184 0.0257884 0.0106089
0.2507629 0.0257971 0.0109640
0.2642431 0.0268022 0.0117247
0.2710707 0.0278363 0.0121320
0.2852462 0.0289190 0.0129729
0.2925964 0.0289286 0.0134064
0.3074323 0.0300470 0.0138674
0.3149300 0.0312091 0.0148496
0.3227199 0.0312196 0.0153543
0.3383936 0.0324243 0.0158911
0.3462773 0.0336693 0.0164513
0.3544630 0.0336805 0.0170097
0.3625229 0.0349724 0.0176088
0.3706767 0.0363192 0.0188522
0.3791155 0.0363313 0.0194908
0.3874196 0.0376866 0.0201780
0.3960108 0.0376991 0.0208649
0.4044541 0.0391038 0.0216011
0.4129603 0.0405590 0.0223628
0.4217313 0.0405647 0.0223561
0.4303490 0.0420723 0.0231440
0.4392375 0.0420861 0.0239300
0.4479556 0.0436481 0.0247722
0.4569542 0.0436625 0.0256123
0.4657610 0.0452808 0.0265124
0.4748213 0.0452956 0.0274102
0.4745950 0.0469566 0.0274435
0.4836764 0.0469719 0.0283735
0.4925472 0.0487077 0.0293725
0.5016554 0.0487236 0.0303691
0.5105268 0.0505116 0.0303966
0.5105402 0.0505212 0.0314365
0.5194238 0.0523822 0.0325405
0.5285271 0.0523991 0.0336416
0.5283017 0.0542949 0.0336819
0.5373916 0.0543125 0.0348205
0.5462621 0.0562853 0.0360393
0.5462621 0.0562853 0.0360393
0.5551077 0.0583261 0.0372994
0.5641324 0.0583338 0.0372882
0.5641459 0.0583448 0.0385563
0.0017415 0.0184873 0.0019301
0.0054121 0.0192900 0.0020476
0.0119520 0.0201064 0.0022296
0.0202557 0.0209378 0.0024315
0.0285152 0.0217905 0.0026919
0.0386863 0.0226733 0.0029465
0.0489660 0.0227046 0.0032071
0.0597569 0.0236153 0.0035199
0.0703953 0.0245561 0.0038700
0.0801443 0.0255228 0.0042075
0.0910949 0.0265268 0.0045743
0.1034712 0.0265532 0.0049667
0.1136387 0.0275945 0.0054440
0.1285506 0.0286750 0.0058016
0.1366910 0.0286981 0.0063779
0.1495977 0.0298168 0.0067986
0.1634987 0.0309782 0.0072504
0.1734277 0.0309979 0.0077321
0.1837028 0.0322000 0.0082561
0.1944562 0.0334473 0.0088153
0.2058343 0.0334625 0.0091004
0.2175533 0.0347573 0.0097164
0.2297551 0.0361010 0.0103854
0.2426129 0.0361243 0.0110923
0.2490623 0.0374723 0.0114775
0.2626580 0.0374966 0.0122580
0.2765517 0.0388994 0.0126795
0.2835793 0.0403474 0.0131193
0.2983422 0.0403734 0.0140104
0.3057040 0.0418745 0.0145046
0.3133641 0.0418881 0.0149976
0.3288082 0.0434574 0.0160536
0.3367821 0.0434715 0.0165987
0.3446520 0.0450833 0.0171830
0.3528188 0.0450979 0.0177659
0.3608666 0.0467675 0.0183907
0.3692066 0.0467826 0.0190139
0.3774191 0.0485119 0.0196819
0.3944872 0.0485341 0.0203448
0.4029190 0.0503253 0.0210630
0.4116332 0.0503416 0.0217795
0.4114271 0.0521896 0.0225542
0.4202012 0.0522064 0.0233205
0.4288111 0.0541133 0.0241415
0.4376912 0.0541307 0.0249607
0.4464048 0.0560975 0.0258381
0.4553835 0.0561049 0.0258303
0.4641872 0.0581398 0.0267376
0.4732431 0.0581584 0.0276429
0.4823215 0.0581770 0.0285794
0.4821106 0.0602750 0.0295941
0.4911927 0.0602829 0.0295852
0.5000745 0.0624609 0.0306254
0.5091867 0.0624807 0.0316634
0.5089753 0.0647251 0.0327846
0.5180733 0.0647334 0.0327747
0.5271782 0.0647539 0.0338835
0.5269669 0.0670750 0.0350810
0.5360459 0.0670837 0.0350705
0.5449194 0.0694919 0.0362978
0.5449328 0.0695048 0.0375333
0.5539924 0.0695137 0.0375220
0.5628123 0.0720034 0.0388322
0.5628123 0.0720034 0.0388322
0.0018801 0.0291479 0.0021385
0.0058818 0.0292770 0.0023072
0.0122645 0.0304911 0.0025493
0.0207725 0.0317297 0.0027847
0.0292552 0.0317848 0.0030432
0.0383621 0.0330457 0.0033322
0.0485186 0.0343513 0.0036560
0.0592668 0.0343961 0.0040311
0.0698227 0.0357429 0.0043812
0.0821832 0.0357821 0.0047556
0.0933828 0.0371425 0.0051699
0.1026565 0.0385438 0.0055110
0.1164197 0.0385839 0.0060549
0.1276670 0.0400378 0.0064542
0.1399539 0.0400674 0.0068712
0.1485884 0.0415701 0.0073297
0.1625353 0.0416013 0.0078143
0.1722904 0.0431596 0.0083436
0.1826472 0.0431863 0.0088974
0.1933478 0.0447937 0.0091965
0.2046843 0.0448215 0.0098065
0.2163585 0.0464960 0.0104813
0.2286634 0.0465167 0.0108290
0.2413148 0.0482519 0.0115800
0.2546114 0.0482735 0.0119637
0.2612870 0.0500648 0.0127965
0.2753117 0.0500871 0.0132202
0.2823193 0.0519332 0.0136785
0.2970423 0.0519661 0.0146159
0.3043864 0.0538650 0.0151311
0.3120275 0.0538821 0.0156452
0.3274257 0.0558478 0.0161914
0.3353939 0.0558760 0.0173143
0.3432491 0.0579033 0.0179232
0.3513997 0.0579216 0.0185308
0.3594344 0.0600190 0.0191819
0.3677593 0.0600380 0.0198315
0.3846478 0.0600648 0.0204994
0.3930020 0.0622355 0.0212226
0.4016391 0.0622552 0.0219445
0.4101274 0.0645005 0.0227179
0.4188927 0.0645209 0.0234896
0.4277147 0.0645411 0.0242871
0.4274955 0.0668430 0.0243164
0.4363683 0.0668640 0.0251413
0.4450756 0.0692651 0.0260250
0.4540620 0.0692868 0.0269067
0.4630845 0.0693085 0.0278175
0.4719130 0.0717916 0.0287944
0.4809750 0.0718007 0.0287857
0.4807641 0.0743577 0.0298075
0.4898578 0.0743809 0.0308185
0.4989633 0.0744041 0.0318628
0.5078368 0.0770368 0.0318912
0.5078503 0.0770511 0.0329809
0.5169624 0.0770752 0.0340965
0.5258312 0.0797836 0.0341266
0.5349258 0.0798082 0.0352798
0.5349394 0.0798230 0.0364817
0.5438034 0.0826205 0.0365139
0.5528796 0.0826460 0.0377451
0.5528930 0.0826613 0.0390283
0.5617051 0.0855504 0.0390626
0.5617185 0.0855661 0.0403891
0.0021103 0.0392330 0.0024242
0.0062095 0.0408526 0.0026390
0.0126194 0.0409733 0.0028743
0.0206343 0.0425784 0.0031512
0.0300443 0.0442266 0.0034528
0.0394226 0.0442924 0.0037822
0.0498452 0.0459780 0.0040776
0.0588851 0.0460274 0.0044261
0.0693787 0.0477669 0.0048102
0.0816665 0.0478183 0.0052211
0.0928034 0.0496199 0.0057436
0.1053855 0.0496619 0.0061130
0.1157084 0.0515146 0.0065160
0.1269933 0.0515518 0.0069370
0.1392306 0.0515986 0.0076324
0.1478219 0.0534912 0.0078891
0.1617093 0.0535304 0.0084104
0.1714254 0.0554935 0.0089796
0.1870736 0.0555342 0.0095725
0.1979774 0.0575568 0.0098940
0.2095178 0.0575922 0.0105617
0.2153197 0.0596785 0.0109286
0.2275906 0.0597153 0.0116721
0.2403528 0.0597414 0.0120588
0.2534555 0.0619202 0.0128942
0.2602725 0.0619394 0.0133250
0.2740858 0.0641821 0.0137827
0.2812544 0.0642019 0.0142429
0.2957587 0.0665341 0.0152461
0.3032720 0.0665549 0.0157641
0.3108969 0.0665756 0.0162995
0.3262644 0.0689758 0.0168681
0.3342057 0.0689973 0.0174404
0.3422469 0.0690188 0.0180319
0.3501831 0.0714924 0.0186657
0.3584094 0.0715145 0.0192981
0.3749017 0.0740808 0.0199697
0.3833810 0.0741038 0.0206483
0.3919372 0.0741267 0.0213510
0.4003514 0.0767649 0.0221037
0.4090464 0.0767886 0.0228550
0.4178041 0.0768124 0.0236314
0.4264019 0.0795272 0.0244628
0.4264149 0.0795418 0.0253003
0.4352819 0.0795664 0.0261579
0.4439851 0.0823710 0.0270763
0.4529535 0.0823812 0.0270682
0.4619718 0.0824066 0.0279844
0.4707985 0.0853034 0.0289667
0.4798715 0.0853296 0.0299499
0.4798851 0.0853453 0.0309749
0.4887401 0.0883206 0.0310024
0.4978446 0.0883476 0.0320528
0.5069557 0.0883747 0.0331378
0.5067322 0.0914352 0.0331772
0.5158446 0.0914631 0.0342992
0.5249515 0.0914910 0.0354580
0.5338108 0.0946613 0.0354893
0.5338243 0.0946786 0.0366982
0.5429267 0.0947074 0.0379355
0.5517703 0.0979785 0.0379689
0.5517838 0.0979964 0.0392594
0.5608343 0.0980260 0.0405801
0.5606131 0.1013884 0.0406280
0.0023636 0.0523976 0.0027353
0.0065672 0.0526055 0.0029706
0.0134516 0.0546598 0.0031909
0.0212329 0.0547807 0.0035721
0.0298977 0.0548669 0.0038199
0.0391999 0.0569292 0.0042331
0.0496077 0.0570029 0.0045919
0.0605280 0.0591208 0.0049887
0.0713539 0.0591847 0.0054362
0.0812226 0.0613579 0.0057930
0.0923735 0.0614088 0.0061655
0.1049078 0.0614706 0.0067737
0.1151901 0.0637154 0.0072200
0.1264311 0.0637612 0.0076955
0.1385120 0.0660853 0.0082141
0.1516803 0.0661329 0.0087567
0.1610128 0.0661607 0.0090399
0.1706946 0.0685586 0.0096514
0.1862900 0.0686081 0.0102912
0.1971584 0.0710767 0.0106455
0.2086627 0.0711198 0.0113700
0.2206435 0.0711501 0.0117468
0.2266811 0.0737084 0.0125645
0.2394070 0.0737398 0.0129805
0.2526309 0.0737712 0.0134102
0.2592636 0.0763975 0.0138748
0.2732277 0.0764441 0.0148255
0.2803821 0.0764675 0.0153294
0.2948489 0.0791810 0.0158645
0.3023486 0.0792052 0.0164032
0.3097714 0.0819983 0.0169804
0.3253031 0.0820333 0.0175512
0.3332317 0.0820583 0.0181464
0.3410623 0.0849441 0.0187840
0.3491872 0.0849699 0.0194204
0.3656933 0.0850062 0.0200719
0.3738753 0.0879870 0.0207788
0.3823450 0.0880138 0.0214859
0.3908920 0.0880406 0.0222165
0.3995118 0.0880675 0.0229716
0.4079859 0.0911463 0.0237803
0.4167361 0.0911739 0.0245874
0.4255447 0.0912016 0.0254214
0.4341879 0.0943801 0.0263145
0.4341879 0.0943801 0.0263145
0.4431056 0.0944088 0.0272058
0.4518628 0.0976886 0.0281601
0.4608769 0.0977181 0.0291138
0.4699228 0.0977477 0.0301018
0.4787571 0.1011138 0.0301286
0.4787707 0.1011322 0.0311595
0.4878606 0.1011626 0.0322151
0.4969504 0.1011747 0.0322054
0.5058377 0.1046659 0.0333350
0.5058514 0.1046848 0.0344726
0.5149638 0.1047162 0.0356371
0.5238346 0.1082971 0.0356686
0.5329322 0.1083295 0.0368723
0.5329455 0.1083490 0.0381267
0.5420365 0.1083618 0.0381152
0.5508968 0.1120620 0.0394451
0.5508968 0.1120620 0.0394451
0.5599504 0.1120953 0.0407718
0.5689690 0.1121287 0.0421425
0.0026608 0.0648223 0.0030733
0.0069641 0.0650601 0.0033063
0.0138780 0.0652445 0.0036080
0.0218670 0.0677100 0.0039503
0.0307842 0.0678191 0.0042684
0.0403518 0.0703295 0.0046344
0.0493706 0.0704110 0.0050287
0.0602908 0.0704943 0.0054780
0.0710207 0.0730765 0.0060241
0.0809110 0.0731362 0.0064114
0.0920229 0.0731960 0.0068235
0.1044288 0.0758428 0.0072708
0.1147579 0.0758964 0.0077496
0.1258668 0.0786134 0.0082718
0.1380052 0.0786690 0.0088182
0.1511329 0.0787248 0.0094005
0.1603204 0.0815115 0.0097161
0.1751495 0.0815693 0.0103601
0.1856359 0.0816035 0.0107037
0.1964836 0.0844996 0.0114459
0.2079494 0.0845350 0.0118252
0.2199085 0.0845855 0.0126292
0.2322040 0.0875631 0.0130631
0.2386188 0.0875892 0.0134995
0.2518226 0.0876415 0.0144160
0.2653383 0.0907178 0.0149196
0.2723665 0.0907451 0.0154266
0.2795064 0.0907724 0.0159507
0.2941282 0.0908106 0.0164873
0.3014313 0.0939770 0.0170674
0.3167253 0.0940165 0.0176411
0.3245400 0.0940447 0.0182393
0.3322628 0.0973133 0.0188802
0.3402801 0.0973424 0.0195197
0.3483956 0.0973716 0.0201806
0.3646790 0.1007565 0.0208850
0.3730584 0.1007867 0.0215956
0.3815201 0.1008169 0.0223299
0.3900599 0.1008471 0.0230888
0.3984601 0.1043282 0.0239015
0.4071406 0.1043594 0.0247127
0.4158719 0.1043718 0.0247053
0.4244576 0.1079618 0.0255737
0.4333134 0.1079939 0.0264405
0.4422265 0.1080260 0.0273359
0.4422399 0.1080454 0.0282695
0.4509806 0.1117161 0.0282946
0.4599913 0.1117493 0.0292527
0.4690344 0.1117825 0.0302453
0.4778807 0.1155863 0.0313078
0.4869556 0.1155999 0.0312984
0.4869690 0.1156206 0.0323683
0.4960715 0.1156548 0.0334637
0.5049589 0.1195748 0.0346361
0.5140581 0.1195888 0.0346256
0.5140718 0.1196100 0.0358059
0.5231801 0.1196453 0.0370141
0.5320427 0.1236616 0.0370466
0.5320561 0.1236836 0.0383068
0.5411625 0.1237199 0.0395965
0.5502330 0.1237343 0.0395846
0.5500250 0.1278781 0.0409763
0.5590683 0.1278928 0.0409639
0.5680906 0.1279301 0.0423408
0.0030659 0.0772486 0.0035122
0.0074182 0.0775039 0.0037373
0.0143065 0.0804342 0.0040904
0.0225394 0.0805928 0.0044284
0.0317234 0.0807222 0.0047991
0.0401929 0.0836452 0.0052120
0.0508486 0.0837398 0.0055201
0.0620726 0.0838410 0.0060610
0.0707441 0.0868286 0.0064585
0.0832433 0.0869085 0.0068714
0.0946512 0.0869936 0.0075524
0.1040399 0.0900743 0.0080613
0.1179476 0.0901318 0.0083170
0.1294227 0.0901947 0.0088664
0.1375024 0.0933680 0.0094662
0.1505898 0.0934330 0.0100910
0.1598666 0.0934712 0.0104198
0.1746620 0.0935372 0.0111257
0.1849937 0.0968009 0.0115084
0.1959496 0.0968579 0.0122910
0.2073916 0.0968977 0.0126980
0.2191683 0.1002674 0.0131342
0.2315985 0.1003263 0.0140262
0.2380016 0.1003558 0.0144945
0.2510070 0.1038339 0.0150008
0.2646644 0.1038769 0.0155058
0.2716808 0.1039076 0.0160325
0.2860453 0.1039506 0.0165719
0.2932370 0.1075470 0.0177422
0.3007119 0.1075788 0.0183437
0.3159849 0.1076231 0.0189597
0.3237897 0.1076550 0.0196019
0.3315036 0.1113338 0.0202898
0.3394994 0.1113469 0.0202837
0.3557906 0.1113928 0.0209665
0.3638725 0.1151850 0.0217057
0.3722435 0.1152189 0.0224438
0.3806975 0.1152529 0.0232064
0.3892299 0.1152868 0.0239945
0.3976240 0.1191960 0.0248383
0.4062980 0.1192310 0.0256807
0.4150233 0.1192448 0.0256730
0.4238211 0.1192798 0.0265430
0.4324553 0.1233073 0.0274745
0.4413641 0.1233434 0.0284042
0.4413641 0.1233434 0.0284042
0.4503341 0.1233795 0.0293659
0.4591217 0.1275279 0.0303983
0.4681484 0.1275426 0.0303891
0.4772146 0.1275798 0.0314193
0.4863017 0.1276171 0.0324835
0.4860926 0.1318737 0.0336326
0.4951802 0.1318889 0.0336224
0.5042902 0.1319271 0.0347591
0.5134029 0.1319654 0.0359330
0.5131800 0.1363231 0.0359754
0.5222892 0.1363625 0.0371891
0.5313888 0.1364018 0.0384424
0.5313888 0.1364018 0.0384424
0.5404965 0.1364413 0.0397365
0.5493611 0.1409657 0.0411210
0.5493611 0.1409657 0.0411210
0.5584199 0.1410062 0.0425030
0.5674313 0.1410222 0.0424903
0.0033971 0.0917533 0.0038767
0.0076405 0.0920311 0.0041340
0.0147724 0.0922712 0.0044672
0.0232316 0.0956413 0.0048421
0.0315965 0.0957817 0.0052489
0.0414404 0.0959155 0.0057369
0.0506906 0.0960136 0.0061019
0.0618319 0.0994334 0.0067077
0.0728731 0.0995235 0.0071364
0.0829923 0.0996028 0.0075985
0.0942911 0.1030977 0.0081080
0.1070543 0.1031802 0.0086410
0.1176039 0.1032510 0.0092116
0.1290443 0.1033042 0.0095065
0.1413395 0.1069036 0.0101461
0.1501527 0.1069465 0.0104768
0.1642112 0.1070208 0.0111864
0.1740434 0.1106930 0.0115711
0.1844848 0.1107570 0.0123580
0.1954090 0.1108017 0.0127672
0.2068353 0.1108659 0.0136345
0.2185889 0.1146552 0.0141025
0.2309862 0.1147014 0.0145688
0.2438837 0.1147480 0.0150595
0.2505236 0.1147816 0.0155712
0.2640035 0.1187104 0.0166667
0.2710086 0.1187450 0.0172323
0.2853504 0.1187932 0.0178115
0.2927025 0.1188278 0.0184154
0.2999849 0.1228421 0.0190622
0.3152367 0.1228919 0.0197019
0.3230312 0.1229276 0.0203689
0.3309302 0.1229633 0.0210608
0.3387336 0.1270997 0.0218033
0.3549945 0.1271287 0.0217902
0.3632721 0.1271656 0.0225311
0.3716369 0.1272025 0.0232966
0.3798769 0.1314625 0.0241164
0.3884019 0.1315004 0.0249348
0.3970009 0.1315385 0.0257803
0.4056573 0.1315534 0.0257726
0.4141760 0.1359389 0.0266776
0.4229682 0.1359778 0.0275810
0.4318153 0.1360170 0.0285142
0.4407074 0.1360324 0.0285056
0.4494546 0.1405454 0.0295057
0.4494679 0.1405700 0.0305159
0.4584729 0.1406103 0.0315502
0.4674974 0.1406262 0.0315408
0.4765618 0.1406666 0.0326089
0.4854251 0.1453102 0.0337521
0.4854251 0.1453102 0.0337521
0.4945257 0.1453518 0.0348930
0.5036216 0.1453680 0.0348825
0.5125114 0.1501427 0.0361030
0.5125251 0.1501685 0.0373322
0.5216210 0.1501853 0.0373209
0.5307216 0.1502279 0.0385786
0.5307352 0.1502538 0.0398891
0.5396085 0.1551366 0.0399240
0.5486967 0.1551803 0.0412663
0.5487102 0.1552070 0.0426658
0.5577578 0.1552242 0.0426530
0.5667853 0.1552680 0.0440845
0.0037775 0.1051242 0.0042991
0.0081453 0.1054308 0.0046409
0.0152538 0.1056914 0.0050163
0.0231583 0.1094758 0.0054388
0.0325864 0.1096350 0.0057775
0.0413107 0.1097760 0.0063414
0.0522499 0.1098991 0.0067426
0.0616392 0.1137150 0.0071823
0.0726483 0.1138168 0.0076449
0.0827387 0.1139066 0.0081475
0.0940796 0.1139966 0.0086831
0.1067350 0.1179262 0.0092648
0.1172568 0.1180057 0.0098763
0.1286678 0.1180654 0.0101923
0.1409328 0.1221052 0.0108898
0.1497247 0.1221538 0.0112508
0.1637502 0.1222371 0.0120124
0.1736844 0.1222858 0.0124102
0.1839705 0.1264161 0.0128366
0.1948789 0.1264880 0.0137086
0.2062731 0.1265383 0.0141620
0.2181515 0.1265885 0.0146303
0.2305309 0.1266393 0.0151231
0.2432592 0.1309204 0.0161874
0.2498874 0.1309580 0.0167369
0.2635037 0.1310103 0.0172997
0.2705001 0.1310479 0.0178864
0.2846461 0.1354341 0.0185094
0.2919872 0.1354727 0.0191366
0.3070002 0.1355268 0.0197788
0.3146790 0.1355655 0.0204483
0.3222737 0.1400654 0.0211682
0.3301628 0.1401054 0.0218882
0.3462317 0.1401611 0.0226255
0.3544009 0.1401768 0.0226187
0.3626720 0.1402169 0.0233872
0.3708247 0.1448481 0.0242102
0.3792651 0.1448893 0.0250316
0.3877844 0.1449305 0.0258804
0.3963785 0.1449717 0.0267573
0.4048166 0.1497097 0.0267811
0.4135443 0.1497519 0.0276879
0.4223323 0.1497944 0.0286246
0.4311755 0.1498369 0.0295937
0.4400643 0.1498535 0.0295848
0.4488086 0.1547520 0.0306247
0.4488219 0.1547786 0.0316722
0.4578108 0.1547957 0.0316626
0.4668466 0.1548394 0.0327348
0.4759093 0.1548832 0.0338423
0.4847578 0.1598911 0.0338721
0.4847714 0.1599185 0.0350275
0.4938709 0.1599634 0.0362102
0.5029665 0.1599810 0.0361993
0.5118562 0.1651528 0.0374645
0.5118562 0.1651528 0.0374645
0.5209661 0.1651988 0.0387268
0.5300677 0.1652450 0.0400302
0.5300677 0.1652450 0.0400302
0.5389559 0.1705556 0.0414245
0.5480323 0.1705741 0.0414121
0.5480459 0.1706030 0.0428164
0.5570956 0.1706215 0.0428035
0.5661257 0.1706689 0.0442399
0.0042235 0.1201765 0.0048240
0.0086831 0.1204862 0.0050667
0.0157503 0.1207675 0.0054779
0.0239094 0.1209893 0.0060028
0.0324839 0.1251974 0.0063863
0.0425905 0.1253491 0.0067881
0.0520883 0.1254939 0.0074525
0.0635617 0.1256191 0.0079357
0.0724279 0.1298970 0.0084676
0.0851878 0.1299903 0.0087333
0.0968337 0.1300912 0.0093070
0.1064986 0.1301777 0.0099213
0.1169946 0.1302426 0.0102386
0.1282926 0.1346424 0.0109393
0.1406316 0.1347330 0.0116800
0.1539565 0.1348007 0.0120632
0.1634015 0.1348535 0.0124628
0.1732017 0.1393718 0.0133256
0.1835950 0.1394262 0.0137665
0.1944780 0.1394807 0.0142219
0.2058543 0.1395353 0.0146921
0.2175753 0.1441880 0.0157265
0.2299310 0.1442445 0.0162557
0.2427868 0.1443012 0.0168024
0.2494060 0.1443420 0.0173725
0.2630047 0.1443988 0.0179563
0.2698196 0.1491466 0.0185873
0.2841215 0.1492049 0.0192113
0.2914543 0.1492469 0.0198619
0.3064511 0.1493054 0.0205280
0.3141218 0.1493475 0.0212253
0.3217091 0.1542323 0.0219735
0.3295906 0.1542756 0.0227205
0.3456452 0.1543359 0.0234853
0.3538078 0.1543529 0.0234782
0.3618687 0.1593740 0.0243043
0.3702191 0.1594185 0.0251289
0.3786535 0.1594632 0.0259809
0.3871674 0.1595077 0.0268611
0.3957434 0.1595252 0.0268530
0.4041895 0.1646848 0.0277952
0.4129128 0.1647305 0.0287355
0.4216965 0.1647764 0.0297082
0.4305227 0.1647944 0.0296993
0.4394214 0.1648403 0.0307067
0.4481626 0.1701406 0.0317850
0.4571488 0.1701591 0.0317754
0.4571623 0.1701878 0.0328612
0.4661959 0.1702349 0.0339728
0.4752434 0.1702535 0.0339626
0.4841041 0.1756944 0.0351519
0.4932027 0.1757427 0.0363387
0.4932027 0.1757427 0.0363387
0.5023112 0.1757913 0.0375643
0.5114238 0.1758398 0.0388298
0.5114238 0.1758398 0.0388298
0.5203111 0.1814236 0.0401838
0.5294000 0.1814431 0.0401718
0.5385116 0.1814928 0.0415220
0.5385116 0.1814928 0.0415220
0.5476027 0.1815426 0.0429170
0.5473812 0.1872192 0.0429675
0.5564464 0.1872701 0.0444091
0.5654791 0.1873211 0.0458973
0.0047259 0.1327109 0.0054062
0.0089585 0.1330175 0.0057048
0.0162766 0.1333112 0.0060460
0.0246640 0.1379566 0.0066332
0.0335287 0.1381362 0.0070482
0.0424923 0.1382862 0.0074937
0.0537299 0.1384374 0.0079770
0.0633644 0.1431034 0.0085089
0.0746609 0.1432283 0.0090652
0.0849952 0.1433141 0.0093524
0.0966171 0.1434236 0.0099665
0.1062627 0.1435179 0.0106269
0.1166495 0.1482731 0.0109891
0.1280149 0.1483711 0.0117331
0.1403248 0.1484445 0.0121180
0.1536319 0.1485427 0.0129377
0.1629422 0.1534216 0.0133820
0.1728366 0.1534805 0.0138248
0.1885795 0.1535562 0.0142776
0.1997004 0.1536413 0.0152556
0.2112994 0.1537009 0.0157691
0.2171395 0.1587044 0.0163242
0.2294770 0.1587655 0.0168732
0.2423148 0.1588269 0.0174405
0.2556492 0.1588883 0.0180265
0.2625060 0.1589324 0.0186376
0.2763904 0.1640939 0.0192863
0.2835974 0.1641394 0.0199394
0.2909218 0.1641848 0.0206143
0.3059023 0.1642480 0.0213080
