Plugins/FilmEmulator/Content/LUTs/FE_Kodak_Portra_800_64.cube
TITLE "FE_Kodak_Portra_800_33"
LUT_3D_SIZE 4
0.0029386 0.0030807 0.0031560
0.2328266 0.0073894 0.0069730
0.4975863 0.0185121 0.0172730
0.6654862 0.0330470 0.0308384
0.0068454 0.2562102 0.0091461
0.2402128 0.2708212 0.0200024
0.4994624 0.2862898 0.0337205
0.6684924 0.3105279 0.0507146
0.0173950 0.4865593 0.0231702
0.2548707 0.4959180 0.0375141
0.5083130 0.5056131 0.0541777
0.6661271 0.5153754 0.0700975
0.0325627 0.6320394 0.0412970
0.2711350 0.6316798 0.0572845
0.5183482 0.6408038 0.0740186
0.6750115 0.6498870 0.0956088
0.0183689 0.0123218 0.3039592
0.2821546 0.0251715 0.3272069
0.5307171 0.0415538 0.3502253
0.6849414 0.0581395 0.3628277
0.0257978 0.2789346 0.3419716
0.2933236 0.3025072 0.3611971
0.5347044 0.3189918 0.3812180
0.6891497 0.3360106 0.4018655
0.0356882 0.4963262 0.3691960
0.3004665 0.5156303 0.3888572
0.5436689 0.5253300 0.4091663
0.6869102 0.5350758 0.4196494
0.0534011 0.6412564 0.3941843
0.3186159 0.6501077 0.4038883
0.5536897 0.6499829 0.4241920
0.6955607 0.6589653 0.4453161
0.0537345 0.0330629 0.5687097
0.3388373 0.0502002 0.5826598
0.5641253 0.0672858 0.5957873
0.7038649 0.0865905 0.6085870
0.0637369 0.3109985 0.6035970
0.3427995 0.3275890 0.6138816
0.5693449 0.3448120 0.6245354
0.7087879 0.3625176 0.6351917
0.0741114 0.5159110 0.6216058
0.3509132 0.5254569 0.6314631
0.5784193 0.5351569 0.6415828
0.7068342 0.5448881 0.6517127
0.0863577 0.6503492 0.6366256
0.3598947 0.6591543 0.6463720
0.5767226 0.6680126 0.6563323
0.7151629 0.6679369 0.6659219
0.0970858 0.0581890 0.7220236
0.3800793 0.0750280 0.7323636
0.5973339 0.0963594 0.7427295
0.7223831 0.1147642 0.7523459
0.1066481 0.3364065 0.7466717
0.3852265 0.3537526 0.7549924
0.6034281 0.3625860 0.7550189
0.7277353 0.3806803 0.7634721
0.1187735 0.5355103 0.7606630
0.3938786 0.5450810 0.7604870
0.6010599 0.5547445 0.7684693
0.7258572 0.5644113 0.7763414
0.1325257 0.6593408 0.7641854
0.4146417 0.6681020 0.7718884
0.6107525 0.6768689 0.7796202
0.7339461 0.6767990 0.7794733
