Plugins/FilmEmulator/Content/LUTs/FE_Kodak_Eastman_Color_Negative_50T_5251_64.cube
# FilmEmulator LUT (resampled to 64)
LUT_3D_SIZE 8
0.000000 0.000000 0.000000
0.075156 0.000000 0.000000
0.158556 0.000000 0.000000
0.242737 0.000000 0.000000
0.324585 0.001251 0.000000
0.406704 0.001251 0.000000
0.491756 0.001203 0.000000
0.577637 0.001129 0.000000
0.000000 0.087625 0.002102
0.089720 0.093856 0.002904
0.189272 0.095636 0.000661
0.283205 0.090927 0.000000
0.370301 0.083275 0.000000
0.453312 0.075728 0.000000
0.534396 0.068107 0.000000
0.612418 0.063280 0.000000
0.000035 0.181375 0.007882
0.111578 0.201074 0.009537
0.237419 0.216108 0.009005
0.357009 0.218108 0.001272
0.451336 0.207621 0.000000
0.527983 0.192773 0.000000
0.596968 0.179831 0.000000
0.662319 0.170153 0.000000
0.003191 0.287947 0.018127
0.134227 0.321747 0.030670
0.298753 0.350604 0.048815
0.445706 0.363429 0.046807
0.545080 0.354928 0.013595
0.616334 0.335765 0.000000
0.674986 0.313996 0.000000
0.729004 0.294307 0.000000
0.006409 0.398124 0.038504
0.152603 0.429509 0.058236
0.343071 0.464579 0.078885
0.507966 0.490317 0.085542
0.628481 0.494385 0.079098
0.716852 0.483859 0.058972
0.777590 0.463047 0.017498
0.825470 0.437736 0.001168
0.017826 0.500750 0.061118
0.170368 0.526429 0.075850
0.365858 0.560827 0.101042
0.545691 0.601629 0.124264
0.720035 0.627623 0.149762
0.843689 0.630766 0.156401
0.915638 0.615497 0.141845
0.967634 0.592080 0.115592
0.061044 0.598149 0.079005
0.199743 0.617726 0.093673
0.389203 0.648096 0.122573
0.577040 0.703218 0.163710
0.786883 0.750982 0.211244
0.884523 0.768690 0.232675
0.938709 0.759341 0.228454
0.991795 0.738377 0.211823
0.117859 0.689087 0.097534
0.250044 0.704847 0.113072
0.426523 0.737022 0.148302
0.615941 0.808467 0.204442
0.820687 0.874538 0.257354
0.885166 0.900125 0.280156
0.944031 0.901420 0.285309
0.997650 0.892426 0.282410
0.000000 0.000000 0.081421
0.075853 0.000000 0.083956
0.163355 0.000000 0.085378
0.251458 0.000231 0.081506
0.337882 0.001216 0.070020
0.422753 0.001231 0.057028
0.509922 0.001208 0.051773
0.595176 0.001068 0.053079
0.000000 0.094786 0.095524
0.087852 0.097775 0.097655
0.191441 0.096416 0.097198
0.291100 0.089355 0.087741
0.381631 0.079941 0.069275
0.465616 0.070759 0.054684
0.546672 0.062889 0.052581
0.623884 0.059473 0.052673
0.001101 0.198041 0.113753
0.103315 0.210502 0.116019
0.232744 0.220157 0.117266
0.360681 0.219891 0.108219
0.459653 0.207884 0.083441
0.536309 0.190904 0.054497
0.604255 0.176741 0.052852
0.669036 0.166878 0.052307
0.003072 0.313860 0.132484
0.118626 0.334317 0.135572
0.283068 0.355621 0.141713
0.442194 0.369113 0.139132
0.548946 0.360943 0.117031
0.622563 0.339839 0.070004
0.681310 0.315987 0.053777
0.735146 0.294166 0.052985
0.006823 0.423591 0.148315
0.133327 0.443197 0.150711
0.322140 0.470084 0.160083
0.501056 0.497601 0.166204
0.630998 0.504500 0.163277
0.725677 0.494318 0.150402
0.788800 0.472375 0.120067
0.837520 0.446012 0.077672
0.013505 0.524420 0.158685
0.153631 0.540585 0.160425
0.347502 0.567260 0.176458
0.537923 0.608409 0.198991
0.721143 0.638362 0.227418
0.851735 0.643128 0.236242
0.926173 0.628525 0.222968
0.979517 0.606237 0.198851
0.058300 0.618248 0.168454
0.185155 0.630891 0.173418
0.372243 0.655067 0.195110
0.567216 0.709477 0.235580
0.783255 0.762876 0.285077
0.882738 0.783851 0.308811
0.938349 0.777417 0.308092
0.992322 0.759661 0.296101
0.114275 0.705117 0.182194
0.235353 0.716333 0.190590
0.409095 0.742736 0.218990
0.598171 0.813115 0.272832
0.817241 0.886102 0.326039
0.883438 0.913825 0.350463
0.943336 0.919835 0.359571
0.997367 0.917092 0.361040
0.000000 0.000000 0.165645
0.073733 0.000000 0.171121
0.168721 0.000007 0.176601
0.266616 0.001063 0.178767
0.361251 0.000948 0.174430
0.450566 0.000803 0.163692
0.536250 0.000741 0.145430
0.617845 0.000793 0.118617
0.000085 0.099964 0.186216
0.081115 0.099626 0.189854
0.192904 0.095069 0.193615
0.304535 0.084637 0.191801
0.402548 0.072827 0.180559
0.487284 0.062761 0.161640
0.565714 0.056127 0.135175
0.640330 0.055356 0.112216
0.001082 0.215347 0.212157
0.087474 0.220844 0.214206
0.223825 0.223202 0.216639
0.363873 0.219116 0.211524
0.470428 0.206047 0.194538
0.548647 0.188284 0.166667
0.616013 0.173739 0.129464
0.679903 0.163551 0.107377
0.003170 0.340839 0.238099
0.092672 0.351092 0.237695
0.256538 0.363170 0.239383
0.432228 0.374360 0.235267
0.549801 0.367465 0.217468
0.628258 0.345036 0.187616
0.689406 0.319388 0.144213
0.744236 0.295394 0.111118
0.006783 0.453517 0.257384
0.100967 0.463866 0.253803
0.284037 0.480889 0.255131
0.485356 0.505984 0.257425
0.626106 0.516708 0.254540
0.731357 0.508023 0.243828
0.799266 0.485723 0.221451
0.851608 0.458560 0.190618
0.010751 0.554381 0.267521
0.123766 0.562323 0.261774
0.309627 0.579377 0.265506
0.519723 0.615922 0.284074
0.709598 0.651173 0.313097
0.854237 0.658814 0.325058
0.931433 0.645644 0.313430
0.988359 0.624341 0.291256
0.041537 0.644412 0.275881
0.158585 0.650448 0.271938
0.336126 0.666567 0.280617
0.543279 0.715033 0.315745
0.766000 0.777621 0.365815
0.879128 0.803160 0.391038
0.937232 0.800756 0.393397
0.992417 0.787559 0.386388
0.097250 0.727866 0.289865
0.207873 0.734689 0.289890
0.374214 0.752797 0.302163
0.564461 0.814768 0.347976
0.796337 0.899428 0.399711
0.879942 0.929963 0.425062
0.941806 0.938417 0.437060
0.997053 0.941554 0.442622
0.000000 0.000087 0.244921
0.067836 0.000830 0.251775
0.172396 0.001233 0.260925
0.285904 0.000972 0.268651
0.393399 0.000610 0.269432
0.484885 0.000276 0.263260
0.566545 0.000074 0.251165
0.643023 0.000017 0.233346
0.000000 0.098750 0.269052
0.070505 0.095495 0.273405
0.190530 0.088691 0.280636
0.318636 0.075596 0.285269
0.428966 0.063579 0.279968
0.515117 0.057593 0.266690
0.590125 0.054241 0.248905
0.661509 0.051608 0.227201
0.000723 0.223621 0.302103
0.067877 0.224702 0.304160
0.207839 0.223351 0.308952
0.362469 0.215383 0.309261
0.482182 0.202340 0.296276
0.565049 0.184985 0.274207
0.632289 0.169339 0.249843
0.695174 0.158370 0.223416
0.002439 0.359994 0.338627
0.066684 0.366036 0.338610
0.220758 0.374445 0.341833
0.411315 0.380546 0.340249
0.546962 0.375659 0.322399
0.633577 0.352953 0.295549
0.698662 0.323781 0.267119
0.755762 0.296580 0.237098
0.005073 0.482441 0.369907
0.071089 0.489199 0.367409
0.233163 0.501833 0.368352
0.456150 0.518375 0.366427
0.613392 0.531865 0.358508
0.731039 0.525176 0.346572
0.808137 0.503429 0.324516
0.865109 0.475115 0.296949
0.007392 0.588591 0.390512
0.091454 0.593254 0.385285
0.258780 0.604208 0.382422
0.490444 0.628391 0.385711
0.682417 0.666514 0.408311
0.846562 0.677603 0.423073
0.932662 0.666410 0.413802
0.988232 0.646203 0.392719
0.022593 0.679359 0.407088
0.134609 0.683922 0.403316
0.294814 0.694184 0.400760
0.510553 0.725615 0.411302
0.728552 0.793385 0.454194
0.876838 0.824882 0.479818
0.935123 0.827481 0.485682
0.992004 0.820871 0.483409
0.088523 0.766044 0.429426
0.194988 0.772211 0.427990
0.345772 0.782921 0.423894
0.528024 0.822581 0.437683
0.754145 0.912087 0.482455
0.875270 0.946453 0.509279
0.939211 0.957150 0.526469
0.996617 0.964242 0.537903
0.000000 0.002258 0.320317
0.061760 0.001714 0.327532
0.171658 0.001176 0.338932
0.297556 0.000728 0.351565
0.415444 0.000253 0.356348
0.510010 0.000000 0.352140
0.590783 0.000000 0.341940
0.665336 0.000000 0.328312
0.000000 0.091400 0.345751
0.060789 0.085877 0.349765
0.180213 0.078406 0.358730
0.318682 0.068353 0.369207
0.443079 0.061844 0.370092
0.535851 0.057724 0.360194
0.611769 0.055760 0.344802
0.681147 0.053629 0.328390
0.000259 0.220331 0.383147
0.057800 0.218406 0.384453
0.184593 0.217263 0.390986
0.345607 0.210360 0.398076
0.485797 0.197826 0.392494
0.578383 0.181689 0.373612
0.648180 0.165046 0.352104
0.710621 0.150869 0.331923
0.001532 0.366024 0.428704
0.059357 0.370118 0.429357
0.183239 0.380112 0.435925
0.371114 0.387787 0.442361
0.536924 0.383863 0.429839
0.635989 0.363250 0.403578
0.706488 0.330473 0.375490
0.766321 0.297801 0.349303
0.003077 0.503136 0.477628
0.061352 0.510206 0.479166
0.194997 0.524734 0.488044
0.408847 0.538452 0.492366
0.590312 0.547570 0.478194
0.717649 0.542569 0.460838
0.805461 0.520812 0.435099
0.869548 0.490649 0.404164
0.004865 0.620670 0.517698
0.090534 0.629574 0.520930
0.242246 0.644413 0.529207
0.454280 0.658261 0.525461
0.638932 0.680987 0.521012
0.809560 0.692371 0.527090
0.921857 0.682382 0.518745
0.987149 0.664217 0.499275
0.055311 0.724464 0.549505
0.167486 0.737101 0.556229
0.308683 0.752741 0.562030
0.482072 0.763475 0.549530
0.666165 0.800666 0.554120
0.857362 0.832370 0.574267
0.933524 0.838143 0.583584
0.991132 0.835615 0.584099
0.134526 0.824101 0.576237
0.242764 0.840375 0.584137
0.365636 0.854127 0.583882
0.505378 0.864529 0.569717
0.683777 0.913031 0.580381
0.872884 0.949867 0.606486
0.936879 0.963650 0.631109
0.996199 0.971349 0.649972
0.000000 0.002463 0.392491
0.057843 0.001722 0.399334
0.164550 0.000998 0.411224
0.294624 0.000545 0.426543
0.419700 0.000025 0.434820
0.520549 0.000000 0.433676
0.604293 0.000000 0.426245
0.678777 0.000000 0.415601
0.000000 0.083433 0.417734
0.053454 0.076227 0.420736
0.163284 0.070007 0.429434
0.302512 0.064745 0.443394
0.438768 0.058402 0.450274
0.542637 0.056387 0.445250
0.623100 0.055241 0.433337
0.693601 0.054130 0.419947
0.000006 0.209579 0.455488
0.054632 0.205526 0.455684
0.157450 0.205293 0.462626
0.310939 0.205033 0.474775
0.472462 0.195550 0.478002
0.581943 0.180334 0.465003
0.657494 0.164132 0.446590
0.721935 0.147278 0.428506
0.000703 0.361462 0.507498
0.057184 0.363766 0.508116
0.148240 0.375156 0.517619
0.313927 0.390563 0.531983
0.511433 0.391401 0.529581
0.631164 0.373970 0.505118
0.710165 0.342377 0.478232
0.774107 0.304692 0.451959
0.001402 0.513575 0.572830
0.060122 0.522631 0.578032
0.175211 0.539507 0.592707
0.360565 0.557299 0.607790
0.558521 0.562821 0.600133
0.692215 0.557785 0.578928
0.788745 0.537479 0.551789
0.862980 0.507304 0.516979
0.014428 0.644174 0.631188
0.129460 0.661417 0.645618
0.273120 0.684393 0.668609
0.438608 0.701217 0.677537
0.597960 0.702558 0.657637
0.753721 0.705932 0.645437
0.876515 0.695868 0.631918
0.965926 0.677514 0.611098
0.108120 0.764800 0.680319
0.223898 0.791522 0.703135
0.350798 0.818726 0.725928
0.478319 0.828377 0.721550
0.618401 0.823222 0.696043
0.786092 0.836522 0.692980
0.924335 0.841182 0.696230
0.993906 0.837444 0.695341
0.179683 0.878928 0.715183
0.289608 0.910472 0.742201
0.397858 0.937669 0.766340
0.506020 0.941339 0.759566
0.634970 0.936379 0.732919
0.802557 0.952634 0.729026
0.940242 0.967234 0.742981
0.996072 0.975669 0.759617
0.000000 0.002790 0.462420
0.053159 0.001778 0.468474
0.152336 0.000898 0.479647
0.280806 0.000405 0.495755
0.409675 0.000000 0.506075
0.518215 0.000000 0.507999
0.606319 0.000000 0.503900
0.682617 0.000000 0.496556
0.000000 0.075663 0.485883
0.052230 0.068616 0.487927
0.144385 0.064235 0.495719
0.278045 0.062358 0.510996
0.420178 0.057608 0.521853
0.536669 0.056797 0.521278
0.624167 0.055830 0.513655
0.697676 0.054762 0.503313
0.000000 0.197183 0.521274
0.053697 0.191639 0.520539
0.130337 0.191677 0.527084
0.272258 0.197623 0.542786
0.442530 0.195206 0.553753
0.575224 0.181960 0.546248
0.660087 0.167641 0.531189
0.728127 0.151868 0.516021
0.000013 0.353592 0.577799
0.055526 0.354227 0.577876
0.121425 0.365440 0.587989
0.266587 0.386652 0.607302
0.470361 0.396706 0.615166
0.619021 0.385052 0.596792
0.709637 0.359458 0.571387
0.780469 0.325102 0.547008
0.000171 0.515842 0.652265
0.058826 0.527245 0.660330
0.161575 0.545708 0.678335
0.326985 0.565976 0.701382
0.527082 0.576362 0.705772
0.665804 0.569973 0.682413
0.770573 0.555035 0.658020
0.855951 0.531319 0.629862
0.028978 0.654054 0.728254
0.154324 0.678940 0.754583
0.293528 0.706612 0.788919
0.437723 0.725856 0.809922
0.576629 0.725588 0.794284
0.711916 0.722156 0.770872
0.835967 0.713644 0.751397
0.933332 0.699449 0.732038
0.135114 0.787894 0.799136
0.255801 0.823300 0.840593
0.376217 0.853456 0.880803
0.491362 0.862951 0.886572
0.608724 0.854338 0.855598
0.742215 0.855294 0.832618
0.879599 0.856314 0.821389
0.988451 0.852942 0.815461
0.211256 0.915876 0.855774
0.322687 0.952178 0.912342
0.427228 0.973490 0.948744
0.532666 0.973608 0.943332
0.640311 0.967952 0.898167
0.770252 0.972646 0.869336
0.907922 0.981100 0.863860
1.000000 0.988198 0.870972
0.000000 0.003113 0.530518
0.051501 0.001862 0.535679
0.136728 0.000890 0.545406
0.261492 0.000353 0.561214
0.391096 0.000022 0.573150
0.507769 0.000000 0.576835
0.600800 0.000000 0.575217
0.679718 0.000000 0.570526
0.000000 0.069331 0.551174
0.052489 0.063548 0.552668
0.124685 0.060522 0.559336
0.251610 0.059902 0.574675
0.393978 0.057532 0.588689
0.523868 0.057592 0.591142
0.619134 0.056786 0.586391
0.696114 0.055925 0.579084
0.000000 0.187465 0.583954
0.052921 0.180809 0.582534
0.111001 0.180101 0.588153
0.237772 0.188451 0.605806
0.404055 0.194475 0.623579
0.561856 0.186373 0.622125
0.658679 0.175599 0.609009
0.731523 0.161996 0.595742
0.000000 0.346331 0.643276
0.054161 0.345683 0.642804
0.111032 0.355681 0.651944
0.231796 0.379416 0.673427
0.423236 0.398729 0.689388
0.602206 0.396138 0.680586
0.706597 0.381384 0.660115
0.786974 0.356454 0.638524
0.000000 0.513829 0.721562
0.056565 0.527217 0.732047
0.147242 0.547170 0.752754
0.300067 0.569029 0.781630
0.492514 0.580850 0.793779
0.641902 0.580117 0.779184
0.752219 0.573932 0.758874
0.848027 0.562029 0.739877
0.032924 0.656277 0.812705
0.162173 0.686247 0.850421
0.298448 0.717420 0.896807
0.436699 0.736382 0.924555
0.567002 0.737926 0.912425
0.688487 0.736821 0.890240
0.804342 0.733298 0.869113
0.908482 0.728938 0.855787
0.150137 0.801003 0.914551
0.274651 0.840232 0.974948
0.394704 0.867094 1.000000
0.508144 0.871503 1.000000
0.616144 0.869899 0.990827
0.731616 0.876097 0.969052
0.854436 0.875891 0.947657
0.964743 0.876260 0.938089
0.235840 0.938568 1.000000
0.348881 0.969565 1.000000
0.457842 0.980669 1.000000
0.564143 0.982195 1.000000
0.662467 0.986197 1.000000
0.772744 0.991991 1.000000
0.894095 0.996957 0.995889
1.000000 1.000000 0.995667
