Plugins/FilmEmulator/Content/LUTs/FE_Kodak_Polymax_Grade_0_64.cube
TITLE "FE_Kodak_Polymax_Grade_0_33"
LUT_3D_SIZE 4
0.0021638 0.0021638 0.0021638
0.0021638 0.0021638 0.0021638
0.0021871 0.0021871 0.0021871
0.0023097 0.0023097 0.0023097
0.0116465 0.0116465 0.0116465
0.0179823 0.0179823 0.0179823
0.0257592 0.0257592 0.0257592
0.0352806 0.0352806 0.0352806
0.1027530 0.1027530 0.1027530
0.1206952 0.1206952 0.1206952
0.1378686 0.1378686 0.1378686
0.1577105 0.1577105 0.1577105
0.2588775 0.2588775 0.2588775
0.2849739 0.2849739 0.2849739
0.3128826 0.3128826 0.3128826
0.3371474 0.3371474 0.3371474
0.3776672 0.3776672 0.3776672
0.4037792 0.4037792 0.4037792
0.4304648 0.4304648 0.4304648
0.4522047 0.4522047 0.4522047
0.5581190 0.5581190 0.5581190
0.5806545 0.5806545 0.5806545
0.5973431 0.5973431 0.5973431
0.6197844 0.6197844 0.6197844
0.6998055 0.6998055 0.6998055
0.7147816 0.7147816 0.7147816
0.7341523 0.7341523 0.7341523
0.7481171 0.7481171 0.7481171
0.7988759 0.7988759 0.7988759
0.8102446 0.8102446 0.8102446
0.8211009 0.8211009 0.8211009
0.8280649 0.8280649 0.8280649
0.8414072 0.8414072 0.8414072
0.8509849 0.8509849 0.8509849
0.8571013 0.8571013 0.8571013
0.8658824 0.8658824 0.8658824
0.8928289 0.8928289 0.8928289
0.8977107 0.8977107 0.8977107
0.9027436 0.9027436 0.9027436
0.9075541 0.9075541 0.9075541
0.9269802 0.9269802 0.9269802
0.9308935 0.9308935 0.9308935
0.9346118 0.9346118 0.9346118
0.9381432 0.9381432 0.9381432
0.9500296 0.9500296 0.9500296
0.9526193 0.9526193 0.9526193
0.9550458 0.9550458 0.9550458
0.9561279 0.9561279 0.9561279
0.9592274 0.9592274 0.9592274
0.9611762 0.9611762 0.9611762
0.9621167 0.9621167 0.9621167
0.9639325 0.9639325 0.9639325
0.9685274 0.9685274 0.9685274
0.9691091 0.9691091 0.9691091
0.9702413 0.9702413 0.9702413
0.9707923 0.9707923 0.9707923
0.9736541 0.9736541 0.9736541
0.9740348 0.9740348 0.9740348
0.9747803 0.9747803 0.9747803
0.9751207 0.9751207 0.9751207
0.9767983 0.9767983 0.9767983
0.9770669 0.9770669 0.9770669
0.9775952 0.9775952 0.9775952
0.9778548 0.9778548 0.9778548
