Plugins/FilmEmulator/Content/LUTs/FE_Kodak_2302_Dev3_64.cube
TITLE "FE_Kodak_2302_Dev3_33"
LUT_3D_SIZE 8
0.0018678 0.0018678 0.0018678
0.0024680 0.0024680 0.0024680
0.0042195 0.0042195 0.0042195
0.0075204 0.0075204 0.0075204
0.0134535 0.0134535 0.0134535
0.0230496 0.0230496 0.0230496
0.0362893 0.0362893 0.0362893
0.0556575 0.0556575 0.0556575
0.0021404 0.0021404 0.0021404
0.0036020 0.0036020 0.0036020
0.0062813 0.0062813 0.0062813
0.0112944 0.0112944 0.0112944
0.0199407 0.0199407 0.0199407
0.0318524 0.0318524 0.0318524
0.0499612 0.0499612 0.0499612
0.0737892 0.0737892 0.0737892
0.0030862 0.0030862 0.0030862
0.0053466 0.0053466 0.0053466
0.0095640 0.0095640 0.0095640
0.0169132 0.0169132 0.0169132
0.0280936 0.0280936 0.0280936
0.0436160 0.0436160 0.0436160
0.0659478 0.0659478 0.0659478
0.0958974 0.0958974 0.0958974
0.0045529 0.0045529 0.0045529
0.0080533 0.0080533 0.0080533
0.0143910 0.0143910 0.0143910
0.0241875 0.0241875 0.0241875
0.0382386 0.0382386 0.0382386
0.0588867 0.0588867 0.0588867
0.0853806 0.0853806 0.0853806
0.1211730 0.1211730 0.1211730
0.0067934 0.0067934 0.0067934
0.0122966 0.0122966 0.0122966
0.0209284 0.0209284 0.0209284
0.0335438 0.0335438 0.0335438
0.0527368 0.0527368 0.0527368
0.0759202 0.0759202 0.0759202
0.1109982 0.1109982 0.1109982
0.1525424 0.1525424 0.1525424
0.0103834 0.0103834 0.0103834
0.0181447 0.0181447 0.0181447
0.0295424 0.0295424 0.0295424
0.0460561 0.0460561 0.0460561
0.0697666 0.0697666 0.0697666
0.0987019 0.0987019 0.0987019
0.1359810 0.1359810 0.1359810
0.1855289 0.1855289 0.1855289
0.0153983 0.0153983 0.0153983
0.0260489 0.0260489 0.0260489
0.0402881 0.0402881 0.0402881
0.0623239 0.0623239 0.0623239
0.0905015 0.0905015 0.0905015
0.1247393 0.1247393 0.1247393
0.1707480 0.1707480 0.1707480
0.2184429 0.2184429 0.2184429
0.0225004 0.0225004 0.0225004
0.0362893 0.0362893 0.0362893
0.0541786 0.0541786 0.0541786
0.0805237 0.0805237 0.0805237
0.1143040 0.1143040 0.1143040
0.1569390 0.1569390 0.1569390
0.2070250 0.2070250 0.2070250
0.2558000 0.2558000 0.2558000
0.0473244 0.0473244 0.0473244
0.0697666 0.0697666 0.0697666
0.1015791 0.1015791 0.1015791
0.1399572 0.1399572 0.1399572
0.1855289 0.1855289 0.1855289
0.2364067 0.2364067 0.2364067
0.2980728 0.2980728 0.2980728
0.3523953 0.3523953 0.3523953
0.0623239 0.0623239 0.0623239
0.0905015 0.0905015 0.0905015
0.1283951 0.1283951 0.1283951
0.1707480 0.1707480 0.1707480
0.2243194 0.2243194 0.2243194
0.2764373 0.2764373 0.2764373
0.3363592 0.3363592 0.3363592
0.4023592 0.4023592 0.4023592
0.0829198 0.0829198 0.0829198
0.1176951 0.1176951 0.1176951
0.1569390 0.1569390 0.1569390
0.2070250 0.2070250 0.2070250
0.2625655 0.2625655 0.2625655
0.3206917 0.3206917 0.3206917
0.3854551 0.3854551 0.3854551
0.4448783 0.4448783 0.4448783
0.1046373 0.1046373 0.1046373
0.1440526 0.1440526 0.1440526
0.1907361 0.1907361 0.1907361
0.2426167 0.2426167 0.2426167
0.3054971 0.3054971 0.3054971
0.3605427 0.3605427 0.3605427
0.4277370 0.4277370 0.4277370
0.4795166 0.4795166 0.4795166
0.1321418 0.1321418 0.1321418
0.1804792 0.1804792 0.1804792
0.2303076 0.2303076 0.2303076
0.2835406 0.2835406 0.2835406
0.3443330 0.3443330 0.3443330
0.4107676 0.4107676 0.4107676
0.4621519 0.4621519 0.4621519
0.5222516 0.5222516 0.5222516
0.1660407 0.1660407 0.1660407
0.2126781 0.2126781 0.2126781
0.2694450 0.2694450 0.2694450
0.3284777 0.3284777 0.3284777
0.3939020 0.3939020 0.3939020
0.4448783 0.4448783 0.4448783
0.5052420 0.5052420 0.5052420
0.5560775 0.5560775 0.5560775
0.2014839 0.2014839 0.2014839
0.2558000 0.2558000 0.2558000
0.3130240 0.3130240 0.3130240
0.3687712 0.3687712 0.3687712
0.4362887 0.4362887 0.4362887
0.4882201 0.4882201 0.4882201
0.5392096 0.5392096 0.5392096
0.5891982 0.5891982 0.5891982
0.2364067 0.2364067 0.2364067
0.2907530 0.2907530 0.2907530
0.3523953 0.3523953 0.3523953
0.4192284 0.4192284 0.4192284
0.4708252 0.4708252 0.4708252
0.5307395 0.5307395 0.5307395
0.5810495 0.5810495 0.5810495
0.6212666 0.6212666 0.6212666
0.3284777 0.3284777 0.3284777
0.3939020 0.3939020 0.3939020
0.4535012 0.4535012 0.4535012
0.5052420 0.5052420 0.5052420
0.5560775 0.5560775 0.5560775
0.6053458 0.6053458 0.6053458
0.6523085 0.6523085 0.6523085
0.6886354 0.6886354 0.6886354
0.3770767 0.3770767 0.3770767
0.4362887 0.4362887 0.4362887
0.4882201 0.4882201 0.4882201
0.5476575 0.5476575 0.5476575
0.5972985 0.5972985 0.5972985
0.6369302 0.6369302 0.6369302
0.6743954 0.6743954 0.6743954
0.7093378 0.7093378 0.7093378
0.4192284 0.4192284 0.4192284
0.4795166 0.4795166 0.4795166
0.5307395 0.5307395 0.5307395
0.5810495 0.5810495 0.5810495
0.6212666 0.6212666 0.6212666
0.6671504 0.6671504 0.6671504
0.7025275 0.7025275 0.7025275
0.7352839 0.7352839 0.7352839
0.4621519 0.4621519 0.4621519
0.5137507 0.5137507 0.5137507
0.5644658 0.5644658 0.5644658
0.6133366 0.6133366 0.6133366
0.6523085 0.6523085 0.6523085
0.6886354 0.6886354 0.6886354
0.7226782 0.7226782 0.7226782
0.7529883 0.7529883 0.7529883
0.4967299 0.4967299 0.4967299
0.5476575 0.5476575 0.5476575
0.5972985 0.5972985 0.5972985
0.6446567 0.6446567 0.6446567
0.6815578 0.6815578 0.6815578
0.7160553 0.7160553 0.7160553
0.7471764 0.7471764 0.7471764
0.7698793 0.7698793 0.7698793
0.5392096 0.5392096 0.5392096
0.5891982 0.5891982 0.5891982
0.6291321 0.6291321 0.6291321
0.6671504 0.6671504 0.6671504
0.7093378 0.7093378 0.7093378
0.7352839 0.7352839 0.7352839
0.7643404 0.7643404 0.7643404
0.7859436 0.7859436 0.7859436
0.5728173 0.5728173 0.5728173
0.6212666 0.6212666 0.6212666
0.6598257 0.6598257 0.6598257
0.6956261 0.6956261 0.6956261
0.7292052 0.7292052 0.7292052
0.7587098 0.7587098 0.7587098
0.7806811 0.7806811 0.7806811
0.8012232 0.8012232 0.8012232
0.6053458 0.6053458 0.6053458
0.6446567 0.6446567 0.6446567
0.6886354 0.6886354 0.6886354
0.7226782 0.7226782 0.7226782
0.7471764 0.7471764 0.7471764
0.7753265 0.7753265 0.7753265
0.7962210 0.7962210 0.7962210
0.8156736 0.8156736 0.8156736
0.6743954 0.6743954 0.6743954
0.7093378 0.7093378 0.7093378
0.7412745 0.7412745 0.7412745
0.7643404 0.7643404 0.7643404
0.7859436 0.7859436 0.7859436
0.8109493 0.8109493 0.8109493
0.8292975 0.8292975 0.8292975
0.8476425 0.8476425 0.8476425
0.6956261 0.6956261 0.6956261
0.7292052 0.7292052 0.7292052
0.7587098 0.7587098 0.7587098
0.7806811 0.7806811 0.7806811
0.8012232 0.8012232 0.8012232
0.8248472 0.8248472 0.8248472
0.8381429 0.8381429 0.8381429
0.8566798 0.8566798 0.8566798
0.7226782 0.7226782 0.7226782
0.7471764 0.7471764 0.7471764
0.7753265 0.7753265 0.7753265
0.7962210 0.7962210 0.7962210
0.8156736 0.8156736 0.8156736
0.8336573 0.8336573 0.8336573
0.8522182 0.8522182 0.8522182
0.8693942 0.8693942 0.8693942
0.7412745 0.7412745 0.7412745
0.7698793 0.7698793 0.7698793
0.7911258 0.7911258 0.7911258
0.8109493 0.8109493 0.8109493
0.8292975 0.8292975 0.8292975
0.8476425 0.8476425 0.8476425
0.8652663 0.8652663 0.8652663
0.8773280 0.8773280 0.8773280
0.7587098 0.7587098 0.7587098
0.7859436 0.7859436 0.7859436
0.8061327 0.8061327 0.8061327
0.8248472 0.8248472 0.8248472
0.8429512 0.8429512 0.8429512
0.8610286 0.8610286 0.8610286
0.8734142 0.8734142 0.8734142
0.8892632 0.8892632 0.8892632
0.7806811 0.7806811 0.7806811
0.8012232 0.8012232 0.8012232
0.8203062 0.8203062 0.8203062
0.8381429 0.8381429 0.8381429
0.8566798 0.8566798 0.8566798
0.8693942 0.8693942 0.8693942
0.8852627 0.8852627 0.8852627
0.8968985 0.8968985 0.8968985
0.7962210 0.7962210 0.7962210
0.8156736 0.8156736 0.8156736
0.8336573 0.8336573 0.8336573
0.8522182 0.8522182 0.8522182
0.8652663 0.8652663 0.8652663
0.8811373 0.8811373 0.8811373
0.8931408 0.8931408 0.8931408
0.9074775 0.9074775 0.9074775
0.8109493 0.8109493 0.8109493
0.8292975 0.8292975 0.8292975
0.8429512 0.8429512 0.8429512
0.8610286 0.8610286 0.8610286
0.8773280 0.8773280 0.8773280
0.8892632 0.8892632 0.8892632
0.9040641 0.9040641 0.9040641
0.9139784 0.9139784 0.9139784
0.8381429 0.8381429 0.8381429
0.8566798 0.8566798 0.8566798
0.8693942 0.8693942 0.8693942
0.8852627 0.8852627 0.8852627
0.8968985 0.8968985 0.8968985
0.9107813 0.9107813 0.9107813
0.9199666 0.9199666 0.9199666
0.9279756 0.9279756 0.9279756
0.8522182 0.8522182 0.8522182
0.8652663 0.8652663 0.8652663
0.8811373 0.8811373 0.8811373
0.8931408 0.8931408 0.8931408
0.9074775 0.9074775 0.9074775
0.9170713 0.9170713 0.9170713
0.9253917 0.9253917 0.9253917
0.9328974 0.9328974 0.9328974
0.8610286 0.8610286 0.8610286
0.8773280 0.8773280 0.8773280
0.8892632 0.8892632 0.8892632
0.9040641 0.9040641 0.9040641
0.9139784 0.9139784 0.9139784
0.9227228 0.9227228 0.9227228
0.9304768 0.9304768 0.9304768
0.9375055 0.9375055 0.9375055
0.8734142 0.8734142 0.8734142
0.8852627 0.8852627 0.8852627
0.9005387 0.9005387 0.9005387
0.9107813 0.9107813 0.9107813
0.9199666 0.9199666 0.9199666
0.9279756 0.9279756 0.9279756
0.9352396 0.9352396 0.9352396
0.9418167 0.9418167 0.9418167
0.8811373 0.8811373 0.8811373
0.8968985 0.8968985 0.8968985
0.9074775 0.9074775 0.9074775
0.9170713 0.9170713 0.9170713
0.9253917 0.9253917 0.9253917
0.9328974 0.9328974 0.9328974
0.9396972 0.9396972 0.9396972
0.9453490 0.9453490 0.9453490
0.8931408 0.8931408 0.8931408
0.9040641 0.9040641 0.9040641
0.9139784 0.9139784 0.9139784
0.9253917 0.9253917 0.9253917
0.9328974 0.9328974 0.9328974
0.9396972 0.9396972 0.9396972
0.9437378 0.9437378 0.9437378
0.9484418 0.9484418 0.9484418
0.9005387 0.9005387 0.9005387
0.9139784 0.9139784 0.9139784
0.9227228 0.9227228 0.9227228
0.9304768 0.9304768 0.9304768
0.9375055 0.9375055 0.9375055
0.9437378 0.9437378 0.9437378
0.9469167 0.9469167 0.9469167
0.9513686 0.9513686 0.9513686
0.9107813 0.9107813 0.9107813
0.9199666 0.9199666 0.9199666
0.9279756 0.9279756 0.9279756
0.9352396 0.9352396 0.9352396
0.9418167 0.9418167 0.9418167
0.9469167 0.9469167 0.9469167
0.9499254 0.9499254 0.9499254
0.9541372 0.9541372 0.9541372
0.9253917 0.9253917 0.9253917
0.9328974 0.9328974 0.9328974
0.9396972 0.9396972 0.9396972
0.9453490 0.9453490 0.9453490
0.9484418 0.9484418 0.9484418
0.9527722 0.9527722 0.9527722
0.9567555 0.9567555 0.9567555
0.9590639 0.9590639 0.9590639
0.9304768 0.9304768 0.9304768
0.9375055 0.9375055 0.9375055
0.9437378 0.9437378 0.9437378
0.9484418 0.9484418 0.9484418
0.9513686 0.9513686 0.9513686
0.9554647 0.9554647 0.9554647
0.9590639 0.9590639 0.9590639
0.9610954 0.9610954 0.9610954
0.9352396 0.9352396 0.9352396
0.9418167 0.9418167 0.9418167
0.9469167 0.9469167 0.9469167
0.9513686 0.9513686 0.9513686
0.9541372 0.9541372 0.9541372
0.9580104 0.9580104 0.9580104
0.9600920 0.9600920 0.9600920
0.9630298 0.9630298 0.9630298
0.9396972 0.9396972 0.9396972
0.9453490 0.9453490 0.9453490
0.9499254 0.9499254 0.9499254
0.9527722 0.9527722 0.9527722
0.9567555 0.9567555 0.9567555
0.9600920 0.9600920 0.9600920
0.9620745 0.9620745 0.9620745
0.9648717 0.9648717 0.9648717
0.9437378 0.9437378 0.9437378
0.9484418 0.9484418 0.9484418
0.9527722 0.9527722 0.9527722
0.9554647 0.9554647 0.9554647
0.9590639 0.9590639 0.9590639
0.9610954 0.9610954 0.9610954
0.9639621 0.9639621 0.9639621
0.9657592 0.9657592 0.9657592
0.9469167 0.9469167 0.9469167
0.9513686 0.9513686 0.9513686
0.9554647 0.9554647 0.9554647
0.9580104 0.9580104 0.9580104
0.9610954 0.9610954 0.9610954
0.9630298 0.9630298 0.9630298
0.9657592 0.9657592 0.9657592
0.9674696 0.9674696 0.9674696
0.9499254 0.9499254 0.9499254
0.9541372 0.9541372 0.9541372
0.9567555 0.9567555 0.9567555
0.9600920 0.9600920 0.9600920
0.9620745 0.9620745 0.9620745
0.9648717 0.9648717 0.9648717
0.9666250 0.9666250 0.9666250
0.9691170 0.9691170 0.9691170
0.9527722 0.9527722 0.9527722
0.9567555 0.9567555 0.9567555
0.9590639 0.9590639 0.9590639
0.9620745 0.9620745 0.9620745
0.9639621 0.9639621 0.9639621
0.9666250 0.9666250 0.9666250
0.9683016 0.9683016 0.9683016
0.9699119 0.9699119 0.9699119
0.9580104 0.9580104 0.9580104
0.9610954 0.9610954 0.9610954
0.9630298 0.9630298 0.9630298
0.9657592 0.9657592 0.9657592
0.9674696 0.9674696 0.9674696
0.9691170 0.9691170 0.9691170
0.9714429 0.9714429 0.9714429
0.9728980 0.9728980 0.9728980
0.9600920 0.9600920 0.9600920
0.9630298 0.9630298 0.9630298
0.9648717 0.9648717 0.9648717
0.9666250 0.9666250 0.9666250
0.9691170 0.9691170 0.9691170
0.9706871 0.9706871 0.9706871
0.9721797 0.9721797 0.9721797
0.9735984 0.9735984 0.9735984
0.9620745 0.9620745 0.9620745
0.9639621 0.9639621 0.9639621
0.9666250 0.9666250 0.9666250
0.9683016 0.9683016 0.9683016
0.9699119 0.9699119 0.9699119
0.9721797 0.9721797 0.9721797
0.9735984 0.9735984 0.9735984
0.9749466 0.9749466 0.9749466
0.9639621 0.9639621 0.9639621
0.9657592 0.9657592 0.9657592
0.9674696 0.9674696 0.9674696
0.9699119 0.9699119 0.9699119
0.9714429 0.9714429 0.9714429
0.9728980 0.9728980 0.9728980
0.9742811 0.9742811 0.9742811
0.9755929 0.9755929 0.9755929
0.9648717 0.9648717 0.9648717
0.9674696 0.9674696 0.9674696
0.9691170 0.9691170 0.9691170
0.9706871 0.9706871 0.9706871
0.9728980 0.9728980 0.9728980
0.9742811 0.9742811 0.9742811
0.9755929 0.9755929 0.9755929
0.9768280 0.9768280 0.9768280
0.9666250 0.9666250 0.9666250
0.9683016 0.9683016 0.9683016
0.9706871 0.9706871 0.9706871
0.9721797 0.9721797 0.9721797
0.9735984 0.9735984 0.9735984
0.9749466 0.9749466 0.9749466
0.9762182 0.9762182 0.9762182
0.9774224 0.9774224 0.9774224
0.9683016 0.9683016 0.9683016
0.9699119 0.9699119 0.9699119
0.9714429 0.9714429 0.9714429
0.9728980 0.9728980 0.9728980
0.9749466 0.9749466 0.9749466
0.9762182 0.9762182 0.9762182
0.9774224 0.9774224 0.9774224
0.9785669 0.9785669 0.9785669
0.9691170 0.9691170 0.9691170
0.9714429 0.9714429 0.9714429
0.9728980 0.9728980 0.9728980
0.9742811 0.9742811 0.9742811
0.9755929 0.9755929 0.9755929
0.9768280 0.9768280 0.9768280
0.9780020 0.9780020 0.9780020
0.9791178 0.9791178 0.9791178
0.9721797 0.9721797 0.9721797
0.9735984 0.9735984 0.9735984
0.9749466 0.9749466 0.9749466
0.9762182 0.9762182 0.9762182
0.9774224 0.9774224 0.9774224
0.9785669 0.9785669 0.9785669
0.9796547 0.9796547 0.9796547
0.9806883 0.9806883 0.9806883
0.9735984 0.9735984 0.9735984
0.9749466 0.9749466 0.9749466
0.9762182 0.9762182 0.9762182
0.9774224 0.9774224 0.9774224
0.9785669 0.9785669 0.9785669
0.9796547 0.9796547 0.9796547
0.9806883 0.9806883 0.9806883
0.9816595 0.9816595 0.9816595
0.9742811 0.9742811 0.9742811
0.9755929 0.9755929 0.9755929
0.9768280 0.9768280 0.9768280
0.9780020 0.9780020 0.9780020
0.9791178 0.9791178 0.9791178
0.9801781 0.9801781 0.9801781
0.9811856 0.9811856 0.9811856
0.9821218 0.9821218 0.9821218
0.9755929 0.9755929 0.9755929
0.9768280 0.9768280 0.9768280
0.9780020 0.9780020 0.9780020
0.9791178 0.9791178 0.9791178
0.9801781 0.9801781 0.9801781
0.9811856 0.9811856 0.9811856
0.9821218 0.9821218 0.9821218
0.9825726 0.9825726 0.9825726
0.9762182 0.9762182 0.9762182
0.9774224 0.9774224 0.9774224
0.9785669 0.9785669 0.9785669
0.9796547 0.9796547 0.9796547
0.9806883 0.9806883 0.9806883
0.9816595 0.9816595 0.9816595
0.9825726 0.9825726 0.9825726
0.9834410 0.9834410 0.9834410
0.9774224 0.9774224 0.9774224
0.9785669 0.9785669 0.9785669
0.9796547 0.9796547 0.9796547
0.9801781 0.9801781 0.9801781
0.9811856 0.9811856 0.9811856
0.9821218 0.9821218 0.9821218
0.9830123 0.9830123 0.9830123
0.9838591 0.9838591 0.9838591
0.9780020 0.9780020 0.9780020
0.9791178 0.9791178 0.9791178
0.9801781 0.9801781 0.9801781
0.9811856 0.9811856 0.9811856
0.9821218 0.9821218 0.9821218
0.9830123 0.9830123 0.9830123
0.9834410 0.9834410 0.9834410
0.9842668 0.9842668 0.9842668
0.9785669 0.9785669 0.9785669
0.9796547 0.9796547 0.9796547
0.9806883 0.9806883 0.9806883
0.9816595 0.9816595 0.9816595
0.9825726 0.9825726 0.9825726
0.9834410 0.9834410 0.9834410
0.9842668 0.9842668 0.9842668
0.9846644 0.9846644 0.9846644
