Plugins/FilmEmulator/Content/LUTs/FE_Kodak_Polymax_Grade_5_64.cube
TITLE "FE_Kodak_Polymax_Grade_5_33"
LUT_3D_SIZE 64
0.0022376 0.0022376 0.0022376
0.0022376 0.0022376 0.0022376
0.0022376 0.0022376 0.0022376
0.0022376 0.0022376 0.0022376
0.0022376 0.0022376 0.0022376
0.0022376 0.0022376 0.0022376
0.0022376 0.0022376 0.0022376
0.0022376 0.0022376 0.0022376
0.0022376 0.0022376 0.0022376
0.0022376 0.0022376 0.0022376
0.0022376 0.0022376 0.0022376
0.0022376 0.0022376 0.0022376
0.0022376 0.0022376 0.0022376
0.0022376 0.0022376 0.0022376
0.0022376 0.0022376 0.0022376
0.0022376 0.0022376 0.0022376
0.0022376 0.0022376 0.0022376
0.0022376 0.0022376 0.0022376
0.0022376 0.0022376 0.0022376
0.0022376 0.0022376 0.0022376
0.0022376 0.0022376 0.0022376
0.0022376 0.0022376 0.0022376
0.0022376 0.0022376 0.0022376
0.0022376 0.0022376 0.0022376
0.0022376 0.0022376 0.0022376
0.0022376 0.0022376 0.0022376
0.0022376 0.0022376 0.0022376
0.0022376 0.0022376 0.0022376
0.0022376 0.0022376 0.0022376
0.0022376 0.0022376 0.0022376
0.0022376 0.0022376 0.0022376
0.0022376 0.0022376 0.0022376
0.0022376 0.0022376 0.0022376
0.0022376 0.0022376 0.0022376
0.0022376 0.0022376 0.0022376
0.0022376 0.0022376 0.0022376
0.0022376 0.0022376 0.0022376
0.0022376 0.0022376 0.0022376
0.0022376 0.0022376 0.0022376
0.0022376 0.0022376 0.0022376
0.0022376 0.0022376 0.0022376
0.0022376 0.0022376 0.0022376
0.0022376 0.0022376 0.0022376
0.0022376 0.0022376 0.0022376
0.0022376 0.0022376 0.0022376
0.0022376 0.0022376 0.0022376
0.0022376 0.0022376 0.0022376
0.0022376 0.0022376 0.0022376
0.0022376 0.0022376 0.0022376
0.0022376 0.0022376 0.0022376
0.0022376 0.0022376 0.0022376
0.0022376 0.0022376 0.0022376
0.0022376 0.0022376 0.0022376
0.0022376 0.0022376 0.0022376
0.0022376 0.0022376 0.0022376
0.0022376 0.0022376 0.0022376
0.0022376 0.0022376 0.0022376
0.0022376 0.0022376 0.0022376
0.0022376 0.0022376 0.0022376
0.0022376 0.0022376 0.0022376
0.0022376 0.0022376 0.0022376
0.0022376 0.0022376 0.0022376
0.0022376 0.0022376 0.0022376
0.0022376 0.0022376 0.0022376
0.0022376 0.0022376 0.0022376
0.0022376 0.0022376 0.0022376
0.0022376 0.0022376 0.0022376
0.0022376 0.0022376 0.0022376
0.0022376 0.0022376 0.0022376
0.0022376 0.0022376 0.0022376
0.0022376 0.0022376 0.0022376
0.0022376 0.0022376 0.0022376
0.0022376 0.0022376 0.0022376
0.0022376 0.0022376 0.0022376
0.0022376 0.0022376 0.0022376
0.0022376 0.0022376 0.0022376
0.0022376 0.0022376 0.0022376
0.0022376 0.0022376 0.0022376
0.0022376 0.0022376 0.0022376
0.0022376 0.0022376 0.0022376
0.0022376 0.0022376 0.0022376
0.0022376 0.0022376 0.0022376
0.0022376 0.0022376 0.0022376
0.0022376 0.0022376 0.0022376
0.0022376 0.0022376 0.0022376
0.0022376 0.0022376 0.0022376
0.0022376 0.0022376 0.0022376
0.0022376 0.0022376 0.0022376
0.0022376 0.0022376 0.0022376
0.0022376 0.0022376 0.0022376
0.0022376 0.0022376 0.0022376
0.0022376 0.0022376 0.0022376
0.0022376 0.0022376 0.0022376
0.0022376 0.0022376 0.0022376
0.0022376 0.0022376 0.0022376
0.0022376 0.0022376 0.0022376
0.0022376 0.0022376 0.0022376
0.0022376 0.0022376 0.0022376
0.0022376 0.0022376 0.0022376
0.0022376 0.0022376 0.0022376
0.0022376 0.0022376 0.0022376
0.0022376 0.0022376 0.0022376
0.0022376 0.0022376 0.0022376
0.0022376 0.0022376 0.0022376
0.0022376 0.0022376 0.0022376
0.0022376 0.0022376 0.0022376
0.0022376 0.0022376 0.0022376
0.0022376 0.0022376 0.0022376
0.0022376 0.0022376 0.0022376
0.0022376 0.0022376 0.0022376
0.0022376 0.0022376 0.0022376
0.0022376 0.0022376 0.0022376
0.0022376 0.0022376 0.0022376
0.0022376 0.0022376 0.0022376
0.0022376 0.0022376 0.0022376
0.0022376 0.0022376 0.0022376
0.0022376 0.0022376 0.0022376
0.0022376 0.0022376 0.0022376
0.0022376 0.0022376 0.0022376
0.0022376 0.0022376 0.0022376
0.0022376 0.0022376 0.0022376
0.0022376 0.0022376 0.0022376
0.0022376 0.0022376 0.0022376
0.0022376 0.0022376 0.0022376
0.0022376 0.0022376 0.0022376
0.0022376 0.0022376 0.0022376
0.0022376 0.0022376 0.0022376
0.0022376 0.0022376 0.0022376
0.0022376 0.0022376 0.0022376
0.0022376 0.0022376 0.0022376
0.0022376 0.0022376 0.0022376
0.0022376 0.0022376 0.0022376
0.0022376 0.0022376 0.0022376
0.0022376 0.0022376 0.0022376
0.0022376 0.0022376 0.0022376
0.0022376 0.0022376 0.0022376
0.0022376 0.0022376 0.0022376
0.0022376 0.0022376 0.0022376
0.0022376 0.0022376 0.0022376
0.0022376 0.0022376 0.0022376
0.0022376 0.0022376 0.0022376
0.0022376 0.0022376 0.0022376
0.0022376 0.0022376 0.0022376
0.0022376 0.0022376 0.0022376
0.0022376 0.0022376 0.0022376
0.0022376 0.0022376 0.0022376
0.0022376 0.0022376 0.0022376
0.0022376 0.0022376 0.0022376
0.0022376 0.0022376 0.0022376
0.0022376 0.0022376 0.0022376
0.0022376 0.0022376 0.0022376
0.0022376 0.0022376 0.0022376
0.0022376 0.0022376 0.0022376
0.0022376 0.0022376 0.0022376
0.0022376 0.0022376 0.0022376
0.0022376 0.0022376 0.0022376
0.0022376 0.0022376 0.0022376
0.0022376 0.0022376 0.0022376
0.0022376 0.0022376 0.0022376
0.0022376 0.0022376 0.0022376
0.0022376 0.0022376 0.0022376
0.0022376 0.0022376 0.0022376
0.0022376 0.0022376 0.0022376
0.0022376 0.0022376 0.0022376
0.0022376 0.0022376 0.0022376
0.0022376 0.0022376 0.0022376
0.0022376 0.0022376 0.0022376
0.0022376 0.0022376 0.0022376
0.0022376 0.0022376 0.0022376
0.0022376 0.0022376 0.0022376
0.0022376 0.0022376 0.0022376
0.0022376 0.0022376 0.0022376
0.0022376 0.0022376 0.0022376
0.0022376 0.0022376 0.0022376
0.0022376 0.0022376 0.0022376
0.0022376 0.0022376 0.0022376
0.0022376 0.0022376 0.0022376
0.0022376 0.0022376 0.0022376
0.0022376 0.0022376 0.0022376
0.0022376 0.0022376 0.0022376
0.0022376 0.0022376 0.0022376
0.0022376 0.0022376 0.0022376
0.0022376 0.0022376 0.0022376
0.0022376 0.0022376 0.0022376
0.0022376 0.0022376 0.0022376
0.0022376 0.0022376 0.0022376
0.0022376 0.0022376 0.0022376
0.0022377 0.0022377 0.0022377
0.0022378 0.0022378 0.0022378
0.0022379 0.0022379 0.0022379
0.0022381 0.0022381 0.0022381
0.0022383 0.0022383 0.0022383
0.0022376 0.0022376 0.0022376
0.0022376 0.0022376 0.0022376
0.0022376 0.0022376 0.0022376
0.0022376 0.0022376 0.0022376
0.0022376 0.0022376 0.0022376
0.0022376 0.0022376 0.0022376
0.0022376 0.0022376 0.0022376
0.0022376 0.0022376 0.0022376
0.0022376 0.0022376 0.0022376
0.0022376 0.0022376 0.0022376
0.0022376 0.0022376 0.0022376
0.0022376 0.0022376 0.0022376
0.0022376 0.0022376 0.0022376
0.0022376 0.0022376 0.0022376
0.0022376 0.0022376 0.0022376
0.0022376 0.0022376 0.0022376
0.0022376 0.0022376 0.0022376
0.0022376 0.0022376 0.0022376
0.0022376 0.0022376 0.0022376
0.0022376 0.0022376 0.0022376
0.0022376 0.0022376 0.0022376
0.0022376 0.0022376 0.0022376
0.0022376 0.0022376 0.0022376
0.0022376 0.0022376 0.0022376
0.0022376 0.0022376 0.0022376
0.0022376 0.0022376 0.0022376
0.0022376 0.0022376 0.0022376
0.0022376 0.0022376 0.0022376
0.0022376 0.0022376 0.0022376
0.0022376 0.0022376 0.0022376
0.0022376 0.0022376 0.0022376
0.0022376 0.0022376 0.0022376
0.0022376 0.0022376 0.0022376
0.0022376 0.0022376 0.0022376
0.0022376 0.0022376 0.0022376
0.0022376 0.0022376 0.0022376
0.0022376 0.0022376 0.0022376
0.0022376 0.0022376 0.0022376
0.0022376 0.0022376 0.0022376
0.0022376 0.0022376 0.0022376
0.0022376 0.0022376 0.0022376
0.0022376 0.0022376 0.0022376
0.0022376 0.0022376 0.0022376
0.0022376 0.0022376 0.0022376
0.0022376 0.0022376 0.0022376
0.0022376 0.0022376 0.0022376
0.0022376 0.0022376 0.0022376
0.0022376 0.0022376 0.0022376
0.0022376 0.0022376 0.0022376
0.0022376 0.0022376 0.0022376
0.0022376 0.0022376 0.0022376
0.0022377 0.0022377 0.0022377
0.0022377 0.0022377 0.0022377
0.0022378 0.0022378 0.0022378
0.0022379 0.0022379 0.0022379
0.0022382 0.0022382 0.0022382
0.0022384 0.0022384 0.0022384
0.0022386 0.0022386 0.0022386
0.0022389 0.0022389 0.0022389
0.0022394 0.0022394 0.0022394
0.0022397 0.0022397 0.0022397
0.0022402 0.0022402 0.0022402
0.0022406 0.0022406 0.0022406
0.0022411 0.0022411 0.0022411
0.0022376 0.0022376 0.0022376
0.0022376 0.0022376 0.0022376
0.0022376 0.0022376 0.0022376
0.0022376 0.0022376 0.0022376
0.0022376 0.0022376 0.0022376
0.0022376 0.0022376 0.0022376
0.0022376 0.0022376 0.0022376
0.0022376 0.0022376 0.0022376
0.0022376 0.0022376 0.0022376
0.0022376 0.0022376 0.0022376
0.0022376 0.0022376 0.0022376
0.0022376 0.0022376 0.0022376
0.0022376 0.0022376 0.0022376
0.0022376 0.0022376 0.0022376
0.0022376 0.0022376 0.0022376
0.0022376 0.0022376 0.0022376
0.0022376 0.0022376 0.0022376
0.0022376 0.0022376 0.0022376
0.0022376 0.0022376 0.0022376
0.0022376 0.0022376 0.0022376
0.0022376 0.0022376 0.0022376
0.0022376 0.0022376 0.0022376
0.0022376 0.0022376 0.0022376
0.0022376 0.0022376 0.0022376
0.0022376 0.0022376 0.0022376
0.0022376 0.0022376 0.0022376
0.0022376 0.0022376 0.0022376
0.0022376 0.0022376 0.0022376
0.0022376 0.0022376 0.0022376
0.0022376 0.0022376 0.0022376
0.0022376 0.0022376 0.0022376
0.0022376 0.0022376 0.0022376
0.0022376 0.0022376 0.0022376
0.0022376 0.0022376 0.0022376
0.0022376 0.0022376 0.0022376
0.0022376 0.0022376 0.0022376
0.0022376 0.0022376 0.0022376
0.0022376 0.0022376 0.0022376
0.0022376 0.0022376 0.0022376
0.0022376 0.0022376 0.0022376
0.0022376 0.0022376 0.0022376
0.0022376 0.0022376 0.0022376
0.0022376 0.0022376 0.0022376
0.0022376 0.0022376 0.0022376
0.0022377 0.0022377 0.0022377
0.0022377 0.0022377 0.0022377
0.0022378 0.0022378 0.0022378
0.0022380 0.0022380 0.0022380
0.0022382 0.0022382 0.0022382
0.0022385 0.0022385 0.0022385
0.0022387 0.0022387 0.0022387
0.0022391 0.0022391 0.0022391
0.0022394 0.0022394 0.0022394
0.0022397 0.0022397 0.0022397
0.0022402 0.0022402 0.0022402
0.0022406 0.0022406 0.0022406
0.0022411 0.0022411 0.0022411
0.0022416 0.0022416 0.0022416
0.0022422 0.0022422 0.0022422
0.0022428 0.0022428 0.0022428
0.0022434 0.0022434 0.0022434
0.0022440 0.0022440 0.0022440
0.0022447 0.0022447 0.0022447
0.0022452 0.0022452 0.0022452
0.0022376 0.0022376 0.0022376
0.0022376 0.0022376 0.0022376
0.0022376 0.0022376 0.0022376
0.0022376 0.0022376 0.0022376
0.0022376 0.0022376 0.0022376
0.0022376 0.0022376 0.0022376
0.0022376 0.0022376 0.0022376
0.0022376 0.0022376 0.0022376
0.0022376 0.0022376 0.0022376
0.0022376 0.0022376 0.0022376
0.0022376 0.0022376 0.0022376
0.0022376 0.0022376 0.0022376
0.0022376 0.0022376 0.0022376
0.0022376 0.0022376 0.0022376
0.0022376 0.0022376 0.0022376
0.0022376 0.0022376 0.0022376
0.0022376 0.0022376 0.0022376
0.0022376 0.0022376 0.0022376
0.0022376 0.0022376 0.0022376
0.0022376 0.0022376 0.0022376
0.0022376 0.0022376 0.0022376
0.0022376 0.0022376 0.0022376
0.0022376 0.0022376 0.0022376
0.0022376 0.0022376 0.0022376
0.0022376 0.0022376 0.0022376
0.0022376 0.0022376 0.0022376
0.0022376 0.0022376 0.0022376
0.0022376 0.0022376 0.0022376
0.0022376 0.0022376 0.0022376
0.0022376 0.0022376 0.0022376
0.0022376 0.0022376 0.0022376
0.0022376 0.0022376 0.0022376
0.0022376 0.0022376 0.0022376
0.0022376 0.0022376 0.0022376
0.0022376 0.0022376 0.0022376
0.0022376 0.0022376 0.0022376
0.0022376 0.0022376 0.0022376
0.0022377 0.0022377 0.0022377
0.0022378 0.0022378 0.0022378
0.0022379 0.0022379 0.0022379
0.0022381 0.0022381 0.0022381
0.0022383 0.0022383 0.0022383
0.0022385 0.0022385 0.0022385
0.0022388 0.0022388 0.0022388
0.0022392 0.0022392 0.0022392
0.0022395 0.0022395 0.0022395
0.0022399 0.0022399 0.0022399
0.0022403 0.0022403 0.0022403
0.0022408 0.0022408 0.0022408
0.0022412 0.0022412 0.0022412
0.0022418 0.0022418 0.0022418
0.0022424 0.0022424 0.0022424
0.0022430 0.0022430 0.0022430
0.0022436 0.0022436 0.0022436
0.0022440 0.0022440 0.0022440
0.0022447 0.0022447 0.0022447
0.0022454 0.0022454 0.0022454
0.0022462 0.0022462 0.0022462
0.0022467 0.0022467 0.0022467
0.0022475 0.0022475 0.0022475
0.0022483 0.0022483 0.0022483
0.0022489 0.0022489 0.0022489
0.0022498 0.0022498 0.0022498
0.0022504 0.0022504 0.0022504
0.0022376 0.0022376 0.0022376
0.0022376 0.0022376 0.0022376
0.0022376 0.0022376 0.0022376
0.0022376 0.0022376 0.0022376
0.0022376 0.0022376 0.0022376
0.0022376 0.0022376 0.0022376
0.0022376 0.0022376 0.0022376
0.0022376 0.0022376 0.0022376
0.0022376 0.0022376 0.0022376
0.0022376 0.0022376 0.0022376
0.0022376 0.0022376 0.0022376
0.0022376 0.0022376 0.0022376
0.0022376 0.0022376 0.0022376
0.0022376 0.0022376 0.0022376
0.0022376 0.0022376 0.0022376
0.0022376 0.0022376 0.0022376
0.0022376 0.0022376 0.0022376
0.0022376 0.0022376 0.0022376
0.0022376 0.0022376 0.0022376
0.0022376 0.0022376 0.0022376
0.0022376 0.0022376 0.0022376
0.0022376 0.0022376 0.0022376
0.0022376 0.0022376 0.0022376
0.0022376 0.0022376 0.0022376
0.0022376 0.0022376 0.0022376
0.0022376 0.0022376 0.0022376
0.0022376 0.0022376 0.0022376
0.0022376 0.0022376 0.0022376
0.0022376 0.0022376 0.0022376
0.0022376 0.0022376 0.0022376
0.0022377 0.0022377 0.0022377
0.0022378 0.0022378 0.0022378
0.0022379 0.0022379 0.0022379
0.0022381 0.0022381 0.0022381
0.0022383 0.0022383 0.0022383
0.0022385 0.0022385 0.0022385
0.0022388 0.0022388 0.0022388
0.0022393 0.0022393 0.0022393
0.0022396 0.0022396 0.0022396
0.0022400 0.0022400 0.0022400
0.0022405 0.0022405 0.0022405
0.0022409 0.0022409 0.0022409
0.0022414 0.0022414 0.0022414
0.0022420 0.0022420 0.0022420
0.0022426 0.0022426 0.0022426
0.0022430 0.0022430 0.0022430
0.0022436 0.0022436 0.0022436
0.0022443 0.0022443 0.0022443
0.0022450 0.0022450 0.0022450
0.0022456 0.0022456 0.0022456
0.0022462 0.0022462 0.0022462
0.0022470 0.0022470 0.0022470
0.0022478 0.0022478 0.0022478
0.0022483 0.0022483 0.0022483
0.0022492 0.0022492 0.0022492
0.0022498 0.0022498 0.0022498
0.0022507 0.0022507 0.0022507
0.0022513 0.0022513 0.0022513
0.0022523 0.0022523 0.0022523
0.0022530 0.0022530 0.0022530
0.0022540 0.0022540 0.0022540
0.0022546 0.0022546 0.0022546
0.0022557 0.0022557 0.0022557
0.0022564 0.0022564 0.0022564
0.0022376 0.0022376 0.0022376
0.0022376 0.0022376 0.0022376
0.0022376 0.0022376 0.0022376
0.0022376 0.0022376 0.0022376
0.0022376 0.0022376 0.0022376
0.0022376 0.0022376 0.0022376
0.0022376 0.0022376 0.0022376
0.0022376 0.0022376 0.0022376
0.0022376 0.0022376 0.0022376
0.0022376 0.0022376 0.0022376
0.0022376 0.0022376 0.0022376
0.0022376 0.0022376 0.0022376
0.0022376 0.0022376 0.0022376
0.0022376 0.0022376 0.0022376
0.0022376 0.0022376 0.0022376
0.0022376 0.0022376 0.0022376
0.0022376 0.0022376 0.0022376
0.0022376 0.0022376 0.0022376
0.0022376 0.0022376 0.0022376
0.0022376 0.0022376 0.0022376
0.0022376 0.0022376 0.0022376
0.0022376 0.0022376 0.0022376
0.0022377 0.0022377 0.0022377
0.0022377 0.0022377 0.0022377
0.0022378 0.0022378 0.0022378
0.0022379 0.0022379 0.0022379
0.0022381 0.0022381 0.0022381
0.0022384 0.0022384 0.0022384
0.0022386 0.0022386 0.0022386
0.0022389 0.0022389 0.0022389
0.0022393 0.0022393 0.0022393
0.0022396 0.0022396 0.0022396
0.0022400 0.0022400 0.0022400
0.0022405 0.0022405 0.0022405
0.0022409 0.0022409 0.0022409
0.0022414 0.0022414 0.0022414
0.0022420 0.0022420 0.0022420
0.0022426 0.0022426 0.0022426
0.0022431 0.0022431 0.0022431
0.0022438 0.0022438 0.0022438
0.0022445 0.0022445 0.0022445
0.0022450 0.0022450 0.0022450
0.0022456 0.0022456 0.0022456
0.0022464 0.0022464 0.0022464
0.0022472 0.0022472 0.0022472
0.0022478 0.0022478 0.0022478
0.0022486 0.0022486 0.0022486
0.0022492 0.0022492 0.0022492
0.0022501 0.0022501 0.0022501
0.0022507 0.0022507 0.0022507
0.0022516 0.0022516 0.0022516
0.0022523 0.0022523 0.0022523
0.0022533 0.0022533 0.0022533
0.0022540 0.0022540 0.0022540
0.0022550 0.0022550 0.0022550
0.0022557 0.0022557 0.0022557
0.0022568 0.0022568 0.0022568
0.0022575 0.0022575 0.0022575
0.0022582 0.0022582 0.0022582
0.0022596 0.0022596 0.0022596
0.0022607 0.0022607 0.0022607
0.0022618 0.0022618 0.0022618
0.0022629 0.0022629 0.0022629
0.0022646 0.0022646 0.0022646
0.0022376 0.0022376 0.0022376
0.0022376 0.0022376 0.0022376
0.0022376 0.0022376 0.0022376
0.0022376 0.0022376 0.0022376
0.0022376 0.0022376 0.0022376
0.0022376 0.0022376 0.0022376
0.0022376 0.0022376 0.0022376
0.0022376 0.0022376 0.0022376
0.0022376 0.0022376 0.0022376
0.0022376 0.0022376 0.0022376
0.0022376 0.0022376 0.0022376
0.0022376 0.0022376 0.0022376
0.0022376 0.0022376 0.0022376
0.0022376 0.0022376 0.0022376
0.0022376 0.0022376 0.0022376
0.0022377 0.0022377 0.0022377
0.0022377 0.0022377 0.0022377
0.0022378 0.0022378 0.0022378
0.0022380 0.0022380 0.0022380
0.0022382 0.0022382 0.0022382
0.0022384 0.0022384 0.0022384
0.0022387 0.0022387 0.0022387
0.0022391 0.0022391 0.0022391
0.0022394 0.0022394 0.0022394
0.0022397 0.0022397 0.0022397
0.0022402 0.0022402 0.0022402
0.0022406 0.0022406 0.0022406
0.0022411 0.0022411 0.0022411
0.0022416 0.0022416 0.0022416
0.0022422 0.0022422 0.0022422
0.0022428 0.0022428 0.0022428
0.0022434 0.0022434 0.0022434
0.0022440 0.0022440 0.0022440
0.0022445 0.0022445 0.0022445
0.0022452 0.0022452 0.0022452
0.0022459 0.0022459 0.0022459
0.0022464 0.0022464 0.0022464
0.0022472 0.0022472 0.0022472
0.0022480 0.0022480 0.0022480
0.0022486 0.0022486 0.0022486
0.0022495 0.0022495 0.0022495
0.0022504 0.0022504 0.0022504
0.0022510 0.0022510 0.0022510
0.0022519 0.0022519 0.0022519
0.0022526 0.0022526 0.0022526
0.0022536 0.0022536 0.0022536
0.0022543 0.0022543 0.0022543
0.0022550 0.0022550 0.0022550
0.0022560 0.0022560 0.0022560
0.0022568 0.0022568 0.0022568
0.0022575 0.0022575 0.0022575
0.0022586 0.0022586 0.0022586
0.0022596 0.0022596 0.0022596
0.0022607 0.0022607 0.0022607
0.0022623 0.0022623 0.0022623
0.0022634 0.0022634 0.0022634
0.0022646 0.0022646 0.0022646
0.0022664 0.0022664 0.0022664
0.0022683 0.0022683 0.0022683
0.0022710 0.0022710 0.0022710
0.0022729 0.0022729 0.0022729
0.0022750 0.0022750 0.0022750
0.0022775 0.0022775 0.0022775
0.0022799 0.0022799 0.0022799
0.0022376 0.0022376 0.0022376
0.0022376 0.0022376 0.0022376
0.0022376 0.0022376 0.0022376
0.0022376 0.0022376 0.0022376
0.0022376 0.0022376 0.0022376
0.0022376 0.0022376 0.0022376
0.0022376 0.0022376 0.0022376
0.0022376 0.0022376 0.0022376
0.0022377 0.0022377 0.0022377
0.0022378 0.0022378 0.0022378
0.0022378 0.0022378 0.0022378
0.0022381 0.0022381 0.0022381
0.0022383 0.0022383 0.0022383
0.0022385 0.0022385 0.0022385
0.0022387 0.0022387 0.0022387
0.0022392 0.0022392 0.0022392
0.0022395 0.0022395 0.0022395
0.0022399 0.0022399 0.0022399
0.0022403 0.0022403 0.0022403
0.0022408 0.0022408 0.0022408
0.0022412 0.0022412 0.0022412
0.0022418 0.0022418 0.0022418
0.0022424 0.0022424 0.0022424
0.0022430 0.0022430 0.0022430
0.0022434 0.0022434 0.0022434
0.0022440 0.0022440 0.0022440
0.0022447 0.0022447 0.0022447
0.0022454 0.0022454 0.0022454
0.0022459 0.0022459 0.0022459
0.0022467 0.0022467 0.0022467
0.0022475 0.0022475 0.0022475
0.0022480 0.0022480 0.0022480
0.0022489 0.0022489 0.0022489
0.0022498 0.0022498 0.0022498
0.0022504 0.0022504 0.0022504
0.0022513 0.0022513 0.0022513
0.0022519 0.0022519 0.0022519
0.0022530 0.0022530 0.0022530
0.0022536 0.0022536 0.0022536
0.0022546 0.0022546 0.0022546
0.0022553 0.0022553 0.0022553
0.0022560 0.0022560 0.0022560
0.0022571 0.0022571 0.0022571
0.0022579 0.0022579 0.0022579
0.0022586 0.0022586 0.0022586
0.0022602 0.0022602 0.0022602
0.0022612 0.0022612 0.0022612
0.0022623 0.0022623 0.0022623
0.0022634 0.0022634 0.0022634
0.0022655 0.0022655 0.0022655
0.0022674 0.0022674 0.0022674
0.0022692 0.0022692 0.0022692
0.0022710 0.0022710 0.0022710
0.0022729 0.0022729 0.0022729
0.0022750 0.0022750 0.0022750
0.0022775 0.0022775 0.0022775
0.0022812 0.0022812 0.0022812
0.0022836 0.0022836 0.0022836
0.0022861 0.0022861 0.0022861
0.0022890 0.0022890 0.0022890
0.0022919 0.0022919 0.0022919
0.0022948 0.0022948 0.0022948
0.0022977 0.0022977 0.0022977
0.0023007 0.0023007 0.0023007
0.0022376 0.0022376 0.0022376
0.0022377 0.0022377 0.0022377
0.0022378 0.0022378 0.0022378
0.0022379 0.0022379 0.0022379
0.0022381 0.0022381 0.0022381
0.0022383 0.0022383 0.0022383
0.0022385 0.0022385 0.0022385
0.0022388 0.0022388 0.0022388
0.0022392 0.0022392 0.0022392
0.0022395 0.0022395 0.0022395
0.0022399 0.0022399 0.0022399
0.0022405 0.0022405 0.0022405
0.0022409 0.0022409 0.0022409
0.0022412 0.0022412 0.0022412
0.0022418 0.0022418 0.0022418
0.0022424 0.0022424 0.0022424
0.0022430 0.0022430 0.0022430
0.0022436 0.0022436 0.0022436
0.0022443 0.0022443 0.0022443
0.0022450 0.0022450 0.0022450
0.0022454 0.0022454 0.0022454
0.0022462 0.0022462 0.0022462
0.0022470 0.0022470 0.0022470
0.0022475 0.0022475 0.0022475
0.0022483 0.0022483 0.0022483
0.0022492 0.0022492 0.0022492
0.0022498 0.0022498 0.0022498
0.0022507 0.0022507 0.0022507
0.0022513 0.0022513 0.0022513
0.0022523 0.0022523 0.0022523
0.0022530 0.0022530 0.0022530
0.0022540 0.0022540 0.0022540
0.0022546 0.0022546 0.0022546
0.0022553 0.0022553 0.0022553
0.0022564 0.0022564 0.0022564
0.0022571 0.0022571 0.0022571
0.0022582 0.0022582 0.0022582
0.0022591 0.0022591 0.0022591
0.0022602 0.0022602 0.0022602
0.0022612 0.0022612 0.0022612
0.0022629 0.0022629 0.0022629
0.0022639 0.0022639 0.0022639
0.0022655 0.0022655 0.0022655
0.0022674 0.0022674 0.0022674
0.0022692 0.0022692 0.0022692
0.0022720 0.0022720 0.0022720
0.0022738 0.0022738 0.0022738
0.0022763 0.0022763 0.0022763
0.0022787 0.0022787 0.0022787
0.0022812 0.0022812 0.0022812
0.0022836 0.0022836 0.0022836
0.0022861 0.0022861 0.0022861
0.0022890 0.0022890 0.0022890
0.0022919 0.0022919 0.0022919
0.0022948 0.0022948 0.0022948
0.0022977 0.0022977 0.0022977
0.0023007 0.0023007 0.0023007
0.0023038 0.0023038 0.0023038
0.0023071 0.0023071 0.0023071
0.0023103 0.0023103 0.0023103
0.0023136 0.0023136 0.0023136
0.0023168 0.0023168 0.0023168
0.0023204 0.0023204 0.0023204
0.0023244 0.0023244 0.0023244
0.0022389 0.0022389 0.0022389
0.0022393 0.0022393 0.0022393
0.0022396 0.0022396 0.0022396
0.0022400 0.0022400 0.0022400
0.0022405 0.0022405 0.0022405
0.0022409 0.0022409 0.0022409
0.0022414 0.0022414 0.0022414
0.0022420 0.0022420 0.0022420
0.0022426 0.0022426 0.0022426
0.0022431 0.0022431 0.0022431
0.0022438 0.0022438 0.0022438
0.0022443 0.0022443 0.0022443
0.0022450 0.0022450 0.0022450
0.0022456 0.0022456 0.0022456
0.0022464 0.0022464 0.0022464
0.0022470 0.0022470 0.0022470
0.0022478 0.0022478 0.0022478
0.0022486 0.0022486 0.0022486
0.0022492 0.0022492 0.0022492
0.0022501 0.0022501 0.0022501
0.0022507 0.0022507 0.0022507
0.0022516 0.0022516 0.0022516
0.0022523 0.0022523 0.0022523
0.0022533 0.0022533 0.0022533
0.0022540 0.0022540 0.0022540
0.0022550 0.0022550 0.0022550
0.0022557 0.0022557 0.0022557
0.0022564 0.0022564 0.0022564
0.0022575 0.0022575 0.0022575
0.0022582 0.0022582 0.0022582
0.0022591 0.0022591 0.0022591
0.0022607 0.0022607 0.0022607
0.0022618 0.0022618 0.0022618
0.0022629 0.0022629 0.0022629
0.0022639 0.0022639 0.0022639
0.0022664 0.0022664 0.0022664
0.0022683 0.0022683 0.0022683
0.0022701 0.0022701 0.0022701
0.0022720 0.0022720 0.0022720
0.0022738 0.0022738 0.0022738
0.0022763 0.0022763 0.0022763
0.0022787 0.0022787 0.0022787
0.0022824 0.0022824 0.0022824
0.0022849 0.0022849 0.0022849
0.0022875 0.0022875 0.0022875
0.0022904 0.0022904 0.0022904
0.0022933 0.0022933 0.0022933
0.0022963 0.0022963 0.0022963
0.0022992 0.0022992 0.0022992
0.0023022 0.0023022 0.0023022
0.0023054 0.0023054 0.0023054
0.0023071 0.0023071 0.0023071
0.0023103 0.0023103 0.0023103
0.0023136 0.0023136 0.0023136
0.0023168 0.0023168 0.0023168
0.0023204 0.0023204 0.0023204
0.0023244 0.0023244 0.0023244
0.0023284 0.0023284 0.0023284
0.0023324 0.0023324 0.0023324
0.0023344 0.0023344 0.0023344
0.0023384 0.0023384 0.0023384
0.0023434 0.0023434 0.0023434
0.0023486 0.0023486 0.0023486
0.0023537 0.0023537 0.0023537
0.0022422 0.0022422 0.0022422
0.0022428 0.0022428 0.0022428
0.0022431 0.0022431 0.0022431
0.0022438 0.0022438 0.0022438
0.0022445 0.0022445 0.0022445
0.0022452 0.0022452 0.0022452
0.0022459 0.0022459 0.0022459
0.0022464 0.0022464 0.0022464
0.0022472 0.0022472 0.0022472
0.0022480 0.0022480 0.0022480
0.0022486 0.0022486 0.0022486
0.0022495 0.0022495 0.0022495
0.0022501 0.0022501 0.0022501
0.0022510 0.0022510 0.0022510
0.0022516 0.0022516 0.0022516
0.0022526 0.0022526 0.0022526
0.0022533 0.0022533 0.0022533
0.0022543 0.0022543 0.0022543
0.0022550 0.0022550 0.0022550
0.0022560 0.0022560 0.0022560
0.0022568 0.0022568 0.0022568
0.0022575 0.0022575 0.0022575
0.0022586 0.0022586 0.0022586
0.0022596 0.0022596 0.0022596
0.0022607 0.0022607 0.0022607
0.0022618 0.0022618 0.0022618
0.0022634 0.0022634 0.0022634
0.0022646 0.0022646 0.0022646
0.0022664 0.0022664 0.0022664
0.0022683 0.0022683 0.0022683
