Plugins/FilmEmulator/Content/LUTs/FE_Kodak_2302_Dev7_64.cube
TITLE "FE_Kodak_2302_Dev7_33"
LUT_3D_SIZE 64
0.0019167 0.0019167 0.0019167
0.0019167 0.0019167 0.0019167
0.0019225 0.0019225 0.0019225
0.0019377 0.0019377 0.0019377
0.0019626 0.0019626 0.0019626
0.0020179 0.0020179 0.0020179
0.0020741 0.0020741 0.0020741
0.0021253 0.0021253 0.0021253
0.0021723 0.0021723 0.0021723
0.0022275 0.0022275 0.0022275
0.0022918 0.0022918 0.0022918
0.0023789 0.0023789 0.0023789
0.0024790 0.0024790 0.0024790
0.0025902 0.0025902 0.0025902
0.0027064 0.0027064 0.0027064
0.0028515 0.0028515 0.0028515
0.0030169 0.0030169 0.0030169
0.0031747 0.0031747 0.0031747
0.0033270 0.0033270 0.0033270
0.0035228 0.0035228 0.0035228
0.0037243 0.0037243 0.0037243
0.0039374 0.0039374 0.0039374
0.0041442 0.0041442 0.0041442
0.0044181 0.0044181 0.0044181
0.0046679 0.0046679 0.0046679
0.0049413 0.0049413 0.0049413
0.0052330 0.0052330 0.0052330
0.0055705 0.0055705 0.0055705
0.0059296 0.0059296 0.0059296
0.0062299 0.0062299 0.0062299
0.0066997 0.0066997 0.0066997
0.0070749 0.0070749 0.0070749
0.0074817 0.0074817 0.0074817
0.0079510 0.0079510 0.0079510
0.0084496 0.0084496 0.0084496
0.0089791 0.0089791 0.0089791
0.0095742 0.0095742 0.0095742
0.0102183 0.0102183 0.0102183
0.0106713 0.0106713 0.0106713
0.0113884 0.0113884 0.0113884
0.0119457 0.0119457 0.0119457
0.0128326 0.0128326 0.0128326
0.0134597 0.0134597 0.0134597
0.0144574 0.0144574 0.0144574
0.0152236 0.0152236 0.0152236
0.0160426 0.0160426 0.0160426
0.0173530 0.0173530 0.0173530
0.0182845 0.0182845 0.0182845
0.0192819 0.0192819 0.0192819
0.0204223 0.0204223 0.0204223
0.0216286 0.0216286 0.0216286
0.0229044 0.0229044 0.0229044
0.0242537 0.0242537 0.0242537
0.0256804 0.0256804 0.0256804
0.0273375 0.0273375 0.0273375
0.0282046 0.0282046 0.0282046
0.0300197 0.0300197 0.0300197
0.0319476 0.0319476 0.0319476
0.0339951 0.0339951 0.0339951
0.0350657 0.0350657 0.0350657
0.0374425 0.0374425 0.0374425
0.0400029 0.0400029 0.0400029
0.0413453 0.0413453 0.0413453
0.0441604 0.0441604 0.0441604
0.0019167 0.0019167 0.0019167
0.0019191 0.0019191 0.0019191
0.0019327 0.0019327 0.0019327
0.0019520 0.0019520 0.0019520
0.0020014 0.0020014 0.0020014
0.0020581 0.0020581 0.0020581
0.0021090 0.0021090 0.0021090
0.0021566 0.0021566 0.0021566
0.0022126 0.0022126 0.0022126
0.0022710 0.0022710 0.0022710
0.0023506 0.0023506 0.0023506
0.0024430 0.0024430 0.0024430
0.0025424 0.0025424 0.0025424
0.0026719 0.0026719 0.0026719
0.0028093 0.0028093 0.0028093
0.0029661 0.0029661 0.0029661
0.0031212 0.0031212 0.0031212
0.0032958 0.0032958 0.0032958
0.0034550 0.0034550 0.0034550
0.0036424 0.0036424 0.0036424
0.0038507 0.0038507 0.0038507
0.0040915 0.0040915 0.0040915
0.0043619 0.0043619 0.0043619
0.0046020 0.0046020 0.0046020
0.0048715 0.0048715 0.0048715
0.0051567 0.0051567 0.0051567
0.0054841 0.0054841 0.0054841
0.0058377 0.0058377 0.0058377
0.0061177 0.0061177 0.0061177
0.0065790 0.0065790 0.0065790
0.0069476 0.0069476 0.0069476
0.0073366 0.0073366 0.0073366
0.0077914 0.0077914 0.0077914
0.0082800 0.0082800 0.0082800
0.0087990 0.0087990 0.0087990
0.0093685 0.0093685 0.0093685
0.0099989 0.0099989 0.0099989
0.0106713 0.0106713 0.0106713
0.0111442 0.0111442 0.0111442
0.0119457 0.0119457 0.0119457
0.0125300 0.0125300 0.0125300
0.0134597 0.0134597 0.0134597
0.0141170 0.0141170 0.0141170
0.0148297 0.0148297 0.0148297
0.0160426 0.0160426 0.0160426
0.0169050 0.0169050 0.0169050
0.0178128 0.0178128 0.0178128
0.0187684 0.0187684 0.0187684
0.0198441 0.0198441 0.0198441
0.0210169 0.0210169 0.0210169
0.0222576 0.0222576 0.0222576
0.0235696 0.0235696 0.0235696
0.0249571 0.0249571 0.0249571
0.0264964 0.0264964 0.0264964
0.0282046 0.0282046 0.0282046
0.0300197 0.0300197 0.0300197
0.0319476 0.0319476 0.0319476
0.0329560 0.0329560 0.0329560
0.0350657 0.0350657 0.0350657
0.0374425 0.0374425 0.0374425
0.0387024 0.0387024 0.0387024
0.0413453 0.0413453 0.0413453
0.0441604 0.0441604 0.0441604
0.0456356 0.0456356 0.0456356
0.0019170 0.0019170 0.0019170
0.0019284 0.0019284 0.0019284
0.0019450 0.0019450 0.0019450
0.0019834 0.0019834 0.0019834
0.0020423 0.0020423 0.0020423
0.0020963 0.0020963 0.0020963
0.0021420 0.0021420 0.0021420
0.0021929 0.0021929 0.0021929
0.0022504 0.0022504 0.0022504
0.0023227 0.0023227 0.0023227
0.0024193 0.0024193 0.0024193
0.0025155 0.0025155 0.0025155
0.0026389 0.0026389 0.0026389
0.0027677 0.0027677 0.0027677
0.0029161 0.0029161 0.0029161
0.0030686 0.0030686 0.0030686
0.0032342 0.0032342 0.0032342
0.0034225 0.0034225 0.0034225
0.0036020 0.0036020 0.0036020
0.0038081 0.0038081 0.0038081
0.0040395 0.0040395 0.0040395
0.0042517 0.0042517 0.0042517
0.0045370 0.0045370 0.0045370
0.0048027 0.0048027 0.0048027
0.0050839 0.0050839 0.0050839
0.0053991 0.0053991 0.0053991
0.0057472 0.0057472 0.0057472
0.0060229 0.0060229 0.0060229
0.0064605 0.0064605 0.0064605
0.0068225 0.0068225 0.0068225
0.0072046 0.0072046 0.0072046
0.0076350 0.0076350 0.0076350
0.0081139 0.0081139 0.0081139
0.0086225 0.0086225 0.0086225
0.0091673 0.0091673 0.0091673
0.0097843 0.0097843 0.0097843
0.0104424 0.0104424 0.0104424
0.0109052 0.0109052 0.0109052
0.0116637 0.0116637 0.0116637
0.0125300 0.0125300 0.0125300
0.0131425 0.0131425 0.0131425
0.0137845 0.0137845 0.0137845
0.0148297 0.0148297 0.0148297
0.0156278 0.0156278 0.0156278
0.0164682 0.0164682 0.0164682
0.0173530 0.0173530 0.0173530
0.0187684 0.0187684 0.0187684
0.0198441 0.0198441 0.0198441
0.0210169 0.0210169 0.0210169
0.0222576 0.0222576 0.0222576
0.0235696 0.0235696 0.0235696
0.0249571 0.0249571 0.0249571
0.0264964 0.0264964 0.0264964
0.0273375 0.0273375 0.0273375
0.0290984 0.0290984 0.0290984
0.0309691 0.0309691 0.0309691
0.0329560 0.0329560 0.0329560
0.0350657 0.0350657 0.0350657
0.0362221 0.0362221 0.0362221
0.0387024 0.0387024 0.0387024
0.0413453 0.0413453 0.0413453
0.0427307 0.0427307 0.0427307
0.0456356 0.0456356 0.0456356
0.0471577 0.0471577 0.0471577
0.0019242 0.0019242 0.0019242
0.0019396 0.0019396 0.0019396
0.0019702 0.0019702 0.0019702
0.0020240 0.0020240 0.0020240
0.0020805 0.0020805 0.0020805
0.0021287 0.0021287 0.0021287
0.0021801 0.0021801 0.0021801
0.0022324 0.0022324 0.0022324
0.0023057 0.0023057 0.0023057
0.0023884 0.0023884 0.0023884
0.0024911 0.0024911 0.0024911
0.0026063 0.0026063 0.0026063
0.0027267 0.0027267 0.0027267
0.0028729 0.0028729 0.0028729
0.0030169 0.0030169 0.0030169
0.0031747 0.0031747 0.0031747
0.0033586 0.0033586 0.0033586
0.0035228 0.0035228 0.0035228
0.0037660 0.0037660 0.0037660
0.0039374 0.0039374 0.0039374
0.0041976 0.0041976 0.0041976
0.0044750 0.0044750 0.0044750
0.0047348 0.0047348 0.0047348
0.0050121 0.0050121 0.0050121
0.0053154 0.0053154 0.0053154
0.0056582 0.0056582 0.0056582
0.0059296 0.0059296 0.0059296
0.0063442 0.0063442 0.0063442
0.0066997 0.0066997 0.0066997
0.0070749 0.0070749 0.0070749
0.0076350 0.0076350 0.0076350
0.0081139 0.0081139 0.0081139
0.0086225 0.0086225 0.0086225
0.0089791 0.0089791 0.0089791
0.0095742 0.0095742 0.0095742
0.0102183 0.0102183 0.0102183
0.0109052 0.0109052 0.0109052
0.0113884 0.0113884 0.0113884
0.0122344 0.0122344 0.0122344
0.0128326 0.0128326 0.0128326
0.0137845 0.0137845 0.0137845
0.0144574 0.0144574 0.0144574
0.0152236 0.0152236 0.0152236
0.0164682 0.0164682 0.0164682
0.0173530 0.0173530 0.0173530
0.0182845 0.0182845 0.0182845
0.0192819 0.0192819 0.0192819
0.0204223 0.0204223 0.0204223
0.0216286 0.0216286 0.0216286
0.0229044 0.0229044 0.0229044
0.0242537 0.0242537 0.0242537
0.0256804 0.0256804 0.0256804
0.0273375 0.0273375 0.0273375
0.0290984 0.0290984 0.0290984
0.0300197 0.0300197 0.0300197
0.0319476 0.0319476 0.0319476
0.0339951 0.0339951 0.0339951
0.0362221 0.0362221 0.0362221
0.0374425 0.0374425 0.0374425
0.0400029 0.0400029 0.0400029
0.0427307 0.0427307 0.0427307
0.0441604 0.0441604 0.0441604
0.0471577 0.0471577 0.0471577
0.0487279 0.0487279 0.0487279
0.0019349 0.0019349 0.0019349
0.0019565 0.0019565 0.0019565
0.0020095 0.0020095 0.0020095
0.0020645 0.0020645 0.0020645
0.0021154 0.0021154 0.0021154
0.0021645 0.0021645 0.0021645
0.0022175 0.0022175 0.0022175
0.0022848 0.0022848 0.0022848
0.0023600 0.0023600 0.0023600
0.0024549 0.0024549 0.0024549
0.0025583 0.0025583 0.0025583
0.0026885 0.0026885 0.0026885
0.0028303 0.0028303 0.0028303
0.0029914 0.0029914 0.0029914
0.0031479 0.0031479 0.0031479
0.0032958 0.0032958 0.0032958
0.0034877 0.0034877 0.0034877
0.0036831 0.0036831 0.0036831
0.0038938 0.0038938 0.0038938
0.0041442 0.0041442 0.0041442
0.0043619 0.0043619 0.0043619
0.0046679 0.0046679 0.0046679
0.0049413 0.0049413 0.0049413
0.0052330 0.0052330 0.0052330
0.0054841 0.0054841 0.0054841
0.0058377 0.0058377 0.0058377
0.0062299 0.0062299 0.0062299
0.0065790 0.0065790 0.0065790
0.0069476 0.0069476 0.0069476
0.0074817 0.0074817 0.0074817
0.0079510 0.0079510 0.0079510
0.0084496 0.0084496 0.0084496
0.0089791 0.0089791 0.0089791
0.0093685 0.0093685 0.0093685
0.0099989 0.0099989 0.0099989
0.0106713 0.0106713 0.0106713
0.0113884 0.0113884 0.0113884
0.0119457 0.0119457 0.0119457
0.0128326 0.0128326 0.0128326
0.0134597 0.0134597 0.0134597
0.0141170 0.0141170 0.0141170
0.0152236 0.0152236 0.0152236
0.0160426 0.0160426 0.0160426
0.0169050 0.0169050 0.0169050
0.0178128 0.0178128 0.0178128
0.0187684 0.0187684 0.0187684
0.0204223 0.0204223 0.0204223
0.0216286 0.0216286 0.0216286
0.0229044 0.0229044 0.0229044
0.0242537 0.0242537 0.0242537
0.0249571 0.0249571 0.0249571
0.0264964 0.0264964 0.0264964
0.0282046 0.0282046 0.0282046
0.0300197 0.0300197 0.0300197
0.0319476 0.0319476 0.0319476
0.0339951 0.0339951 0.0339951
0.0350657 0.0350657 0.0350657
0.0374425 0.0374425 0.0374425
0.0400029 0.0400029 0.0400029
0.0413453 0.0413453 0.0413453
0.0441604 0.0441604 0.0441604
0.0456356 0.0456356 0.0456356
0.0487279 0.0487279 0.0487279
0.0522063 0.0522063 0.0522063
0.0019471 0.0019471 0.0019471
0.0019905 0.0019905 0.0019905
0.0020485 0.0020485 0.0020485
0.0021026 0.0021026 0.0021026
0.0021489 0.0021489 0.0021489
0.0022027 0.0022027 0.0022027
0.0022641 0.0022641 0.0022641
0.0023413 0.0023413 0.0023413
0.0024311 0.0024311 0.0024311
0.0025278 0.0025278 0.0025278
0.0026553 0.0026553 0.0026553
0.0027884 0.0027884 0.0027884
0.0029410 0.0029410 0.0029410
0.0030948 0.0030948 0.0030948
0.0032649 0.0032649 0.0032649
0.0034225 0.0034225 0.0034225
0.0036424 0.0036424 0.0036424
0.0038507 0.0038507 0.0038507
0.0040395 0.0040395 0.0040395
0.0043065 0.0043065 0.0043065
0.0045370 0.0045370 0.0045370
0.0048715 0.0048715 0.0048715
0.0051567 0.0051567 0.0051567
0.0053991 0.0053991 0.0053991
0.0057472 0.0057472 0.0057472
0.0061177 0.0061177 0.0061177
0.0064605 0.0064605 0.0064605
0.0068225 0.0068225 0.0068225
0.0073366 0.0073366 0.0073366
0.0077914 0.0077914 0.0077914
0.0082800 0.0082800 0.0082800
0.0087990 0.0087990 0.0087990
0.0093685 0.0093685 0.0093685
0.0097843 0.0097843 0.0097843
0.0104424 0.0104424 0.0104424
0.0111442 0.0111442 0.0111442
0.0116637 0.0116637 0.0116637
0.0125300 0.0125300 0.0125300
0.0131425 0.0131425 0.0131425
0.0141170 0.0141170 0.0141170
0.0148297 0.0148297 0.0148297
0.0156278 0.0156278 0.0156278
0.0169050 0.0169050 0.0169050
0.0178128 0.0178128 0.0178128
0.0187684 0.0187684 0.0187684
0.0198441 0.0198441 0.0198441
0.0210169 0.0210169 0.0210169
0.0222576 0.0222576 0.0222576
0.0235696 0.0235696 0.0235696
0.0249571 0.0249571 0.0249571
0.0264964 0.0264964 0.0264964
0.0282046 0.0282046 0.0282046
0.0290984 0.0290984 0.0290984
0.0309691 0.0309691 0.0309691
0.0329560 0.0329560 0.0329560
0.0350657 0.0350657 0.0350657
0.0362221 0.0362221 0.0362221
0.0387024 0.0387024 0.0387024
0.0413453 0.0413453 0.0413453
0.0427307 0.0427307 0.0427307
0.0456356 0.0456356 0.0456356
0.0487279 0.0487279 0.0487279
0.0503932 0.0503932 0.0503932
0.0540808 0.0540808 0.0540808
0.0019768 0.0019768 0.0019768
0.0020331 0.0020331 0.0020331
0.0020868 0.0020868 0.0020868
0.0021353 0.0021353 0.0021353
0.0021841 0.0021841 0.0021841
0.0022436 0.0022436 0.0022436
0.0023135 0.0023135 0.0023135
0.0023979 0.0023979 0.0023979
0.0025033 0.0025033 0.0025033
0.0026226 0.0026226 0.0026226
0.0027471 0.0027471 0.0027471
0.0028944 0.0028944 0.0028944
0.0030427 0.0030427 0.0030427
0.0032038 0.0032038 0.0032038
0.0033904 0.0033904 0.0033904
0.0035622 0.0035622 0.0035622
0.0037660 0.0037660 0.0037660
0.0039881 0.0039881 0.0039881
0.0042517 0.0042517 0.0042517
0.0044750 0.0044750 0.0044750
0.0047348 0.0047348 0.0047348
0.0050121 0.0050121 0.0050121
0.0053154 0.0053154 0.0053154
0.0056582 0.0056582 0.0056582
0.0060229 0.0060229 0.0060229
0.0063442 0.0063442 0.0063442
0.0066997 0.0066997 0.0066997
0.0072046 0.0072046 0.0072046
0.0076350 0.0076350 0.0076350
0.0081139 0.0081139 0.0081139
0.0086225 0.0086225 0.0086225
0.0091673 0.0091673 0.0091673
0.0097843 0.0097843 0.0097843
0.0102183 0.0102183 0.0102183
0.0109052 0.0109052 0.0109052
0.0116637 0.0116637 0.0116637
0.0122344 0.0122344 0.0122344
0.0131425 0.0131425 0.0131425
0.0137845 0.0137845 0.0137845
0.0144574 0.0144574 0.0144574
0.0156278 0.0156278 0.0156278
0.0164682 0.0164682 0.0164682
0.0173530 0.0173530 0.0173530
0.0182845 0.0182845 0.0182845
0.0192819 0.0192819 0.0192819
0.0204223 0.0204223 0.0204223
0.0216286 0.0216286 0.0216286
0.0229044 0.0229044 0.0229044
0.0242537 0.0242537 0.0242537
0.0256804 0.0256804 0.0256804
0.0273375 0.0273375 0.0273375
0.0290984 0.0290984 0.0290984
0.0309691 0.0309691 0.0309691
0.0319476 0.0319476 0.0319476
0.0339951 0.0339951 0.0339951
0.0362221 0.0362221 0.0362221
0.0387024 0.0387024 0.0387024
0.0400029 0.0400029 0.0400029
0.0427307 0.0427307 0.0427307
0.0441604 0.0441604 0.0441604
0.0471577 0.0471577 0.0471577
0.0503932 0.0503932 0.0503932
0.0522063 0.0522063 0.0522063
0.0560187 0.0560187 0.0560187
0.0020150 0.0020150 0.0020150
0.0020741 0.0020741 0.0020741
0.0021220 0.0021220 0.0021220
0.0021723 0.0021723 0.0021723
0.0022225 0.0022225 0.0022225
0.0022918 0.0022918 0.0022918
0.0023789 0.0023789 0.0023789
0.0024669 0.0024669 0.0024669
0.0025742 0.0025742 0.0025742
0.0027064 0.0027064 0.0027064
0.0028515 0.0028515 0.0028515
0.0029914 0.0029914 0.0029914
0.0031479 0.0031479 0.0031479
0.0033270 0.0033270 0.0033270
0.0035228 0.0035228 0.0035228
0.0037243 0.0037243 0.0037243
0.0039374 0.0039374 0.0039374
0.0041442 0.0041442 0.0041442
0.0044181 0.0044181 0.0044181
0.0046679 0.0046679 0.0046679
0.0049413 0.0049413 0.0049413
0.0052330 0.0052330 0.0052330
0.0055705 0.0055705 0.0055705
0.0059296 0.0059296 0.0059296
0.0062299 0.0062299 0.0062299
0.0066997 0.0066997 0.0066997
0.0070749 0.0070749 0.0070749
0.0074817 0.0074817 0.0074817
0.0079510 0.0079510 0.0079510
0.0084496 0.0084496 0.0084496
0.0089791 0.0089791 0.0089791
0.0095742 0.0095742 0.0095742
0.0102183 0.0102183 0.0102183
0.0106713 0.0106713 0.0106713
0.0113884 0.0113884 0.0113884
0.0119457 0.0119457 0.0119457
0.0128326 0.0128326 0.0128326
0.0134597 0.0134597 0.0134597
0.0144574 0.0144574 0.0144574
0.0152236 0.0152236 0.0152236
0.0160426 0.0160426 0.0160426
0.0169050 0.0169050 0.0169050
0.0182845 0.0182845 0.0182845
0.0192819 0.0192819 0.0192819
0.0204223 0.0204223 0.0204223
0.0216286 0.0216286 0.0216286
0.0229044 0.0229044 0.0229044
0.0242537 0.0242537 0.0242537
0.0256804 0.0256804 0.0256804
0.0273375 0.0273375 0.0273375
0.0282046 0.0282046 0.0282046
0.0300197 0.0300197 0.0300197
0.0319476 0.0319476 0.0319476
0.0339951 0.0339951 0.0339951
0.0350657 0.0350657 0.0350657
0.0374425 0.0374425 0.0374425
0.0400029 0.0400029 0.0400029
0.0413453 0.0413453 0.0413453
0.0441604 0.0441604 0.0441604
0.0471577 0.0471577 0.0471577
0.0487279 0.0487279 0.0487279
0.0522063 0.0522063 0.0522063
0.0540808 0.0540808 0.0540808
0.0580217 0.0580217 0.0580217
0.0020581 0.0020581 0.0020581
0.0021090 0.0021090 0.0021090
0.0021566 0.0021566 0.0021566
0.0022077 0.0022077 0.0022077
0.0022710 0.0022710 0.0022710
0.0023506 0.0023506 0.0023506
0.0024430 0.0024430 0.0024430
0.0025424 0.0025424 0.0025424
0.0026719 0.0026719 0.0026719
0.0028093 0.0028093 0.0028093
0.0029661 0.0029661 0.0029661
0.0031212 0.0031212 0.0031212
0.0032958 0.0032958 0.0032958
0.0034550 0.0034550 0.0034550
0.0036424 0.0036424 0.0036424
0.0038507 0.0038507 0.0038507
0.0040915 0.0040915 0.0040915
0.0043619 0.0043619 0.0043619
0.0046020 0.0046020 0.0046020
0.0048715 0.0048715 0.0048715
0.0051567 0.0051567 0.0051567
0.0054841 0.0054841 0.0054841
0.0058377 0.0058377 0.0058377
0.0061177 0.0061177 0.0061177
0.0065790 0.0065790 0.0065790
0.0069476 0.0069476 0.0069476
0.0073366 0.0073366 0.0073366
0.0077914 0.0077914 0.0077914
0.0082800 0.0082800 0.0082800
0.0087990 0.0087990 0.0087990
0.0093685 0.0093685 0.0093685
0.0099989 0.0099989 0.0099989
0.0104424 0.0104424 0.0104424
0.0111442 0.0111442 0.0111442
0.0119457 0.0119457 0.0119457
0.0125300 0.0125300 0.0125300
0.0134597 0.0134597 0.0134597
0.0141170 0.0141170 0.0141170
0.0148297 0.0148297 0.0148297
0.0160426 0.0160426 0.0160426
0.0169050 0.0169050 0.0169050
0.0178128 0.0178128 0.0178128
0.0187684 0.0187684 0.0187684
0.0198441 0.0198441 0.0198441
0.0210169 0.0210169 0.0210169
0.0222576 0.0222576 0.0222576
0.0235696 0.0235696 0.0235696
0.0249571 0.0249571 0.0249571
0.0264964 0.0264964 0.0264964
0.0282046 0.0282046 0.0282046
0.0300197 0.0300197 0.0300197
0.0309691 0.0309691 0.0309691
0.0329560 0.0329560 0.0329560
0.0350657 0.0350657 0.0350657
0.0374425 0.0374425 0.0374425
0.0387024 0.0387024 0.0387024
0.0413453 0.0413453 0.0413453
0.0441604 0.0441604 0.0441604
0.0456356 0.0456356 0.0456356
0.0487279 0.0487279 0.0487279
0.0503932 0.0503932 0.0503932
0.0540808 0.0540808 0.0540808
0.0560187 0.0560187 0.0560187
0.0600919 0.0600919 0.0600919
0.0020931 0.0020931 0.0020931
0.0021420 0.0021420 0.0021420
0.0021929 0.0021929 0.0021929
0.0022504 0.0022504 0.0022504
0.0023227 0.0023227 0.0023227
0.0024075 0.0024075 0.0024075
0.0025155 0.0025155 0.0025155
0.0026389 0.0026389 0.0026389
0.0027677 0.0027677 0.0027677
0.0029161 0.0029161 0.0029161
0.0030686 0.0030686 0.0030686
0.0032342 0.0032342 0.0032342
0.0034225 0.0034225 0.0034225
0.0036020 0.0036020 0.0036020
0.0038081 0.0038081 0.0038081
0.0040395 0.0040395 0.0040395
0.0042517 0.0042517 0.0042517
0.0045370 0.0045370 0.0045370
0.0048027 0.0048027 0.0048027
0.0050839 0.0050839 0.0050839
0.0053991 0.0053991 0.0053991
0.0056582 0.0056582 0.0056582
0.0060229 0.0060229 0.0060229
0.0064605 0.0064605 0.0064605
0.0068225 0.0068225 0.0068225
0.0072046 0.0072046 0.0072046
0.0076350 0.0076350 0.0076350
0.0081139 0.0081139 0.0081139
0.0086225 0.0086225 0.0086225
0.0091673 0.0091673 0.0091673
0.0097843 0.0097843 0.0097843
0.0104424 0.0104424 0.0104424
0.0109052 0.0109052 0.0109052
0.0116637 0.0116637 0.0116637
0.0122344 0.0122344 0.0122344
0.0131425 0.0131425 0.0131425
0.0137845 0.0137845 0.0137845
0.0148297 0.0148297 0.0148297
0.0156278 0.0156278 0.0156278
0.0164682 0.0164682 0.0164682
0.0173530 0.0173530 0.0173530
0.0187684 0.0187684 0.0187684
0.0198441 0.0198441 0.0198441
0.0210169 0.0210169 0.0210169
0.0222576 0.0222576 0.0222576
0.0235696 0.0235696 0.0235696
0.0249571 0.0249571 0.0249571
0.0256804 0.0256804 0.0256804
0.0273375 0.0273375 0.0273375
0.0290984 0.0290984 0.0290984
0.0309691 0.0309691 0.0309691
0.0329560 0.0329560 0.0329560
0.0339951 0.0339951 0.0339951
0.0362221 0.0362221 0.0362221
0.0387024 0.0387024 0.0387024
0.0400029 0.0400029 0.0400029
0.0427307 0.0427307 0.0427307
0.0456356 0.0456356 0.0456356
0.0471577 0.0471577 0.0471577
0.0503932 0.0503932 0.0503932
0.0522063 0.0522063 0.0522063
0.0560187 0.0560187 0.0560187
0.0580217 0.0580217 0.0580217
0.0622310 0.0622310 0.0622310
0.0021287 0.0021287 0.0021287
0.0021762 0.0021762 0.0021762
0.0022324 0.0022324 0.0022324
0.0022987 0.0022987 0.0022987
0.0023884 0.0023884 0.0023884
0.0024911 0.0024911 0.0024911
0.0025902 0.0025902 0.0025902
0.0027267 0.0027267 0.0027267
0.0028729 0.0028729 0.0028729
0.0030169 0.0030169 0.0030169
0.0031747 0.0031747 0.0031747
0.0033586 0.0033586 0.0033586
0.0035228 0.0035228 0.0035228
0.0037243 0.0037243 0.0037243
0.0039374 0.0039374 0.0039374
0.0041976 0.0041976 0.0041976
0.0044181 0.0044181 0.0044181
0.0047348 0.0047348 0.0047348
0.0050121 0.0050121 0.0050121
0.0053154 0.0053154 0.0053154
0.0055705 0.0055705 0.0055705
0.0059296 0.0059296 0.0059296
0.0063442 0.0063442 0.0063442
0.0066997 0.0066997 0.0066997
0.0070749 0.0070749 0.0070749
0.0074817 0.0074817 0.0074817
0.0079510 0.0079510 0.0079510
0.0084496 0.0084496 0.0084496
0.0089791 0.0089791 0.0089791
0.0095742 0.0095742 0.0095742
0.0102183 0.0102183 0.0102183
0.0109052 0.0109052 0.0109052
0.0113884 0.0113884 0.0113884
0.0122344 0.0122344 0.0122344
0.0128326 0.0128326 0.0128326
0.0137845 0.0137845 0.0137845
0.0144574 0.0144574 0.0144574
0.0152236 0.0152236 0.0152236
0.0164682 0.0164682 0.0164682
0.0173530 0.0173530 0.0173530
0.0182845 0.0182845 0.0182845
0.0192819 0.0192819 0.0192819
0.0204223 0.0204223 0.0204223
0.0216286 0.0216286 0.0216286
0.0229044 0.0229044 0.0229044
0.0242537 0.0242537 0.0242537
0.0256804 0.0256804 0.0256804
0.0273375 0.0273375 0.0273375
0.0290984 0.0290984 0.0290984
0.0300197 0.0300197 0.0300197
0.0319476 0.0319476 0.0319476
0.0339951 0.0339951 0.0339951
0.0362221 0.0362221 0.0362221
0.0374425 0.0374425 0.0374425
0.0400029 0.0400029 0.0400029
0.0427307 0.0427307 0.0427307
0.0441604 0.0441604 0.0441604
0.0471577 0.0471577 0.0471577
0.0487279 0.0487279 0.0487279
0.0522063 0.0522063 0.0522063
0.0540808 0.0540808 0.0540808
0.0580217 0.0580217 0.0580217
0.0600919 0.0600919 0.0600919
0.0644410 0.0644410 0.0644410
0.0021645 0.0021645 0.0021645
0.0022175 0.0022175 0.0022175
0.0022779 0.0022779 0.0022779
0.0023600 0.0023600 0.0023600
0.0024549 0.0024549 0.0024549
0.0025583 0.0025583 0.0025583
0.0026885 0.0026885 0.0026885
0.0028303 0.0028303 0.0028303
0.0029661 0.0029661 0.0029661
0.0031212 0.0031212 0.0031212
0.0032958 0.0032958 0.0032958
0.0034877 0.0034877 0.0034877
0.0036831 0.0036831 0.0036831
0.0038938 0.0038938 0.0038938
0.0041442 0.0041442 0.0041442
0.0043619 0.0043619 0.0043619
0.0046020 0.0046020 0.0046020
0.0049413 0.0049413 0.0049413
0.0052330 0.0052330 0.0052330
0.0054841 0.0054841 0.0054841
0.0058377 0.0058377 0.0058377
0.0062299 0.0062299 0.0062299
0.0065790 0.0065790 0.0065790
0.0069476 0.0069476 0.0069476
0.0074817 0.0074817 0.0074817
0.0079510 0.0079510 0.0079510
0.0084496 0.0084496 0.0084496
0.0089791 0.0089791 0.0089791
0.0093685 0.0093685 0.0093685
0.0099989 0.0099989 0.0099989
0.0106713 0.0106713 0.0106713
0.0111442 0.0111442 0.0111442
0.0119457 0.0119457 0.0119457
0.0128326 0.0128326 0.0128326
0.0134597 0.0134597 0.0134597
0.0141170 0.0141170 0.0141170
0.0152236 0.0152236 0.0152236
0.0160426 0.0160426 0.0160426
0.0169050 0.0169050 0.0169050
0.0178128 0.0178128 0.0178128
0.0187684 0.0187684 0.0187684
0.0198441 0.0198441 0.0198441
0.0216286 0.0216286 0.0216286
0.0229044 0.0229044 0.0229044
0.0235696 0.0235696 0.0235696
0.0249571 0.0249571 0.0249571
0.0264964 0.0264964 0.0264964
0.0282046 0.0282046 0.0282046
0.0300197 0.0300197 0.0300197
0.0319476 0.0319476 0.0319476
0.0329560 0.0329560 0.0329560
0.0350657 0.0350657 0.0350657
0.0374425 0.0374425 0.0374425
0.0400029 0.0400029 0.0400029
0.0413453 0.0413453 0.0413453
0.0441604 0.0441604 0.0441604
0.0456356 0.0456356 0.0456356
0.0487279 0.0487279 0.0487279
0.0503932 0.0503932 0.0503932
0.0540808 0.0540808 0.0540808
0.0560187 0.0560187 0.0560187
0.0600919 0.0600919 0.0600919
0.0622310 0.0622310 0.0622310
0.0667239 0.0667239 0.0667239
0.0021978 0.0021978 0.0021978
0.0022573 0.0022573 0.0022573
0.0023320 0.0023320 0.0023320
0.0024311 0.0024311 0.0024311
0.0025278 0.0025278 0.0025278
0.0026553 0.0026553 0.0026553
0.0027884 0.0027884 0.0027884
0.0029161 0.0029161 0.0029161
0.0030948 0.0030948 0.0030948
0.0032649 0.0032649 0.0032649
0.0034225 0.0034225 0.0034225
0.0036020 0.0036020 0.0036020
0.0038507 0.0038507 0.0038507
0.0040395 0.0040395 0.0040395
0.0043065 0.0043065 0.0043065
0.0045370 0.0045370 0.0045370
0.0048027 0.0048027 0.0048027
0.0050839 0.0050839 0.0050839
0.0053991 0.0053991 0.0053991
0.0057472 0.0057472 0.0057472
0.0061177 0.0061177 0.0061177
0.0064605 0.0064605 0.0064605
0.0068225 0.0068225 0.0068225
0.0073366 0.0073366 0.0073366
0.0077914 0.0077914 0.0077914
0.0082800 0.0082800 0.0082800
0.0087990 0.0087990 0.0087990
0.0093685 0.0093685 0.0093685
0.0097843 0.0097843 0.0097843
0.0104424 0.0104424 0.0104424
