Plugins/FilmEmulator/Content/LUTs/FE_Kodak_2302_Dev2_64.cube
TITLE "FE_Kodak_2302_Dev2_33"
LUT_3D_SIZE 8
0.0018207 0.0018207 0.0018207
0.0026962 0.0026962 0.0026962
0.0051177 0.0051177 0.0051177
0.0095717 0.0095717 0.0095717
0.0167204 0.0167204 0.0167204
0.0276987 0.0276987 0.0276987
0.0428865 0.0428865 0.0428865
0.0622909 0.0622909 0.0622909
0.0022733 0.0022733 0.0022733
0.0042741 0.0042741 0.0042741
0.0080352 0.0080352 0.0080352
0.0145075 0.0145075 0.0145075
0.0243455 0.0243455 0.0243455
0.0383473 0.0383473 0.0383473
0.0570750 0.0570750 0.0570750
0.0812647 0.0812647 0.0812647
0.0035120 0.0035120 0.0035120
0.0067056 0.0067056 0.0067056
0.0120786 0.0120786 0.0120786
0.0208702 0.0208702 0.0208702
0.0334640 0.0334640 0.0334640
0.0507571 0.0507571 0.0507571
0.0743584 0.0743584 0.0743584
0.1026367 0.1026367 0.1026367
0.0056015 0.0056015 0.0056015
0.0103621 0.0103621 0.0103621
0.0180046 0.0180046 0.0180046
0.0292299 0.0292299 0.0292299
0.0453444 0.0453444 0.0453444
0.0660119 0.0660119 0.0660119
0.0940877 0.0940877 0.0940877
0.1253413 0.1253413 0.1253413
0.0086672 0.0086672 0.0086672
0.0155724 0.0155724 0.0155724
0.0256365 0.0256365 0.0256365
0.0394369 0.0394369 0.0394369
0.0587664 0.0587664 0.0587664
0.0836938 0.0836938 0.0836938
0.1151009 0.1151009 0.1151009
0.1483793 0.1483793 0.1483793
0.0131985 0.0131985 0.0131985
0.0225272 0.0225272 0.0225272
0.0353186 0.0353186 0.0353186
0.0538287 0.0538287 0.0538287
0.0765983 0.0765983 0.0765983
0.1056359 0.1056359 0.1056359
0.1403350 0.1403350 0.1403350
0.1747702 0.1747702 0.1747702
0.0193856 0.0193856 0.0193856
0.0308573 0.0308573 0.0308573
0.0479361 0.0479361 0.0479361
0.0700584 0.0700584 0.0700584
0.0968640 0.0968640 0.0968640
0.1289559 0.1289559 0.1289559
0.1655986 0.1655986 0.1655986
0.2046766 0.2046766 0.2046766
0.0269940 0.0269940 0.0269940
0.0417057 0.0417057 0.0417057
0.0622909 0.0622909 0.0622909
0.0887508 0.0887508 0.0887508
0.1184163 0.1184163 0.1184163
0.1525424 0.1525424 0.1525424
0.1943052 0.1943052 0.1943052
0.2375061 0.2375061 0.2375061
0.0538287 0.0538287 0.0538287
0.0788999 0.0788999 0.0788999
0.1056359 0.1056359 0.1056359
0.1403350 0.1403350 0.1403350
0.1795041 0.1795041 0.1795041
0.2207849 0.2207849 0.2207849
0.2611233 0.2611233 0.2611233
0.3052659 0.3052659 0.3052659
0.0700584 0.0700584 0.0700584
0.0968640 0.0968640 0.0968640
0.1289559 0.1289559 0.1289559
0.1655986 0.1655986 0.1655986
0.2100145 0.2100145 0.2100145
0.2491277 0.2491277 0.2491277
0.2923062 0.2923062 0.2923062
0.3321190 0.3321190 0.3321190
0.0887508 0.0887508 0.0887508
0.1218139 0.1218139 0.1218139
0.1568007 0.1568007 0.1568007
0.1943052 0.1943052 0.1943052
0.2375061 0.2375061 0.2375061
0.2796749 0.2796749 0.2796749
0.3185419 0.3185419 0.3185419
0.3606283 0.3606283 0.3606283
0.1118667 0.1118667 0.1118667
0.1443106 0.1443106 0.1443106
0.1843375 0.1843375 0.1843375
0.2262632 0.2262632 0.2262632
0.2672592 0.2672592 0.2672592
0.3118653 0.3118653 0.3118653
0.3533345 0.3533345 0.3533345
0.3980110 0.3980110 0.3980110
0.1364515 0.1364515 0.1364515
0.1747702 0.1747702 0.1747702
0.2154021 0.2154021 0.2154021
0.2550791 0.2550791 0.2550791
0.2987457 0.2987457 0.2987457
0.3390156 0.3390156 0.3390156
0.3828874 0.3828874 0.3828874
0.4212652 0.4212652 0.4212652
0.1611553 0.1611553 0.1611553
0.1994402 0.1994402 0.1994402
0.2432698 0.2432698 0.2432698
0.2859486 0.2859486 0.2859486
0.3252937 0.3252937 0.3252937
0.3679869 0.3679869 0.3679869
0.4133318 0.4133318 0.4133318
0.4550540 0.4550540 0.4550540
0.1892710 0.1892710 0.1892710
0.2318370 0.2318370 0.2318370
0.2734860 0.2734860 0.2734860
0.3118653 0.3118653 0.3118653
0.3606283 0.3606283 0.3606283
0.3980110 0.3980110 0.3980110
0.4465553 0.4465553 0.4465553
0.4892618 0.4892618 0.4892618
0.2207849 0.2207849 0.2207849
0.2611233 0.2611233 0.2611233
0.3052659 0.3052659 0.3052659
0.3461083 0.3461083 0.3461083
0.3904227 0.3904227 0.3904227
0.4296563 0.4296563 0.4296563
0.4721252 0.4721252 0.4721252
0.5159271 0.5159271 0.5159271
0.2859486 0.2859486 0.2859486
0.3321190 0.3321190 0.3321190
0.3754077 0.3754077 0.3754077
0.4133318 0.4133318 0.4133318
0.4550540 0.4550540 0.4550540
0.4978421 0.4978421 0.4978421
0.5443414 0.5443414 0.5443414
0.5817519 0.5817519 0.5817519
0.3185419 0.3185419 0.3185419
0.3606283 0.3606283 0.3606283
0.4056486 0.4056486 0.4056486
0.4465553 0.4465553 0.4465553
0.4892618 0.4892618 0.4892618
0.5348932 0.5348932 0.5348932
0.5724701 0.5724701 0.5724701
0.6175954 0.6175954 0.6175954
0.3461083 0.3461083 0.3461083
0.3904227 0.3904227 0.3904227
0.4296563 0.4296563 0.4296563
0.4721252 0.4721252 0.4721252
0.5159271 0.5159271 0.5159271
0.5631367 0.5631367 0.5631367
0.6001377 0.6001377 0.6001377
0.6346266 0.6346266 0.6346266
0.3754077 0.3754077 0.3754077
0.4212652 0.4212652 0.4212652
0.4635789 0.4635789 0.4635789
0.5064237 0.5064237 0.5064237
0.5537580 0.5537580 0.5537580
0.5909768 0.5909768 0.5909768
0.6261501 0.6261501 0.6261501
0.6595441 0.6595441 0.6595441
0.4056486 0.4056486 0.4056486
0.4550540 0.4550540 0.4550540
0.4978421 0.4978421 0.4978421
0.5348932 0.5348932 0.5348932
0.5817519 0.5817519 0.5817519
0.6175954 0.6175954 0.6175954
0.6513281 0.6513281 0.6513281
0.6836095 0.6836095 0.6836095
0.4380877 0.4380877 0.4380877
0.4806878 0.4806878 0.4806878
0.5254191 0.5254191 0.5254191
0.5724701 0.5724701 0.5724701
0.6089666 0.6089666 0.6089666
0.6430210 0.6430210 0.6430210
0.6756886 0.6756886 0.6756886
0.7048854 0.7048854 0.7048854
0.4721252 0.4721252 0.4721252
0.5159271 0.5159271 0.5159271
0.5537580 0.5537580 0.5537580
0.6001377 0.6001377 0.6001377
0.6346266 0.6346266 0.6346266
0.6676657 0.6676657 0.6676657
0.6980643 0.6980643 0.6980643
0.7182546 0.7182546 0.7182546
0.4978421 0.4978421 0.4978421
0.5443414 0.5443414 0.5443414
0.5817519 0.5817519 0.5817519
0.6261501 0.6261501 0.6261501
0.6595441 0.6595441 0.6595441
0.6911548 0.6911548 0.6911548
0.7116162 0.7116162 0.7116162
0.7376023 0.7376023 0.7376023
0.5724701 0.5724701 0.5724701
0.6089666 0.6089666 0.6089666
0.6430210 0.6430210 0.6430210
0.6756886 0.6756886 0.6756886
0.7048854 0.7048854 0.7048854
0.7312491 0.7312491 0.7312491
0.7500150 0.7500150 0.7500150
0.7673301 0.7673301 0.7673301
0.6001377 0.6001377 0.6001377
0.6346266 0.6346266 0.6346266
0.6676657 0.6676657 0.6676657
0.6980643 0.6980643 0.6980643
0.7182546 0.7182546 0.7182546
0.7438577 0.7438577 0.7438577
0.7617468 0.7617468 0.7617468
0.7835268 0.7835268 0.7835268
0.6261501 0.6261501 0.6261501
0.6595441 0.6595441 0.6595441
0.6911548 0.6911548 0.6911548
0.7116162 0.7116162 0.7116162
0.7376023 0.7376023 0.7376023
0.7560725 0.7560725 0.7560725
0.7782200 0.7782200 0.7782200
0.7938625 0.7938625 0.7938625
0.6513281 0.6513281 0.6513281
0.6836095 0.6836095 0.6836095
0.7048854 0.7048854 0.7048854
0.7312491 0.7312491 0.7312491
0.7500150 0.7500150 0.7500150
0.7728211 0.7728211 0.7728211
0.7887410 0.7887410 0.7887410
0.8038284 0.8038284 0.8038284
0.6756886 0.6756886 0.6756886
0.6980643 0.6980643 0.6980643
0.7247993 0.7247993 0.7247993
0.7438577 0.7438577 0.7438577
0.7673301 0.7673301 0.7673301
0.7835268 0.7835268 0.7835268
0.7988917 0.7988917 0.7988917
0.8134111 0.8134111 0.8134111
0.6911548 0.6911548 0.6911548
0.7182546 0.7182546 0.7182546
0.7376023 0.7376023 0.7376023
0.7617468 0.7617468 0.7617468
0.7782200 0.7782200 0.7782200
0.7938625 0.7938625 0.7938625
0.8086729 0.8086729 0.8086729
0.8226002 0.8226002 0.8226002
0.7116162 0.7116162 0.7116162
0.7312491 0.7312491 0.7312491
0.7560725 0.7560725 0.7560725
0.7728211 0.7728211 0.7728211
0.7887410 0.7887410 0.7887410
0.8038284 0.8038284 0.8038284
0.8180508 0.8180508 0.8180508
0.8314309 0.8314309 0.8314309
0.7247993 0.7247993 0.7247993
0.7500150 0.7500150 0.7500150
0.7673301 0.7673301 0.7673301
0.7835268 0.7835268 0.7835268
0.8038284 0.8038284 0.8038284
0.8180508 0.8180508 0.8180508
0.8270603 0.8270603 0.8270603
0.8399075 0.8399075 0.8399075
0.7617468 0.7617468 0.7617468
0.7782200 0.7782200 0.7782200
0.7938625 0.7938625 0.7938625
0.8086729 0.8086729 0.8086729
0.8226002 0.8226002 0.8226002
0.8357130 0.8357130 0.8357130
0.8480356 0.8480356 0.8480356
0.8594992 0.8594992 0.8594992
0.7728211 0.7728211 0.7728211
0.7938625 0.7938625 0.7938625
0.8086729 0.8086729 0.8086729
0.8226002 0.8226002 0.8226002
0.8314309 0.8314309 0.8314309
0.8440148 0.8440148 0.8440148
0.8557990 0.8557990 0.8557990
0.8631196 0.8631196 0.8631196
0.7887410 0.7887410 0.7887410
0.8038284 0.8038284 0.8038284
0.8180508 0.8180508 0.8180508
0.8314309 0.8314309 0.8314309
0.8399075 0.8399075 0.8399075
0.8519713 0.8519713 0.8519713
0.8631196 0.8631196 0.8631196
0.8701248 0.8701248 0.8701248
0.7988917 0.7988917 0.7988917
0.8134111 0.8134111 0.8134111
0.8270603 0.8270603 0.8270603
0.8399075 0.8399075 0.8399075
0.8480356 0.8480356 0.8480356
0.8594992 0.8594992 0.8594992
0.8701248 0.8701248 0.8701248
0.8768229 0.8768229 0.8768229
0.8086729 0.8086729 0.8086729
0.8226002 0.8226002 0.8226002
0.8357130 0.8357130 0.8357130
0.8480356 0.8480356 0.8480356
0.8557990 0.8557990 0.8557990
0.8666611 0.8666611 0.8666611
0.8735119 0.8735119 0.8735119
0.8832219 0.8832219 0.8832219
0.8180508 0.8180508 0.8180508
0.8314309 0.8314309 0.8314309
0.8440148 0.8440148 0.8440148
0.8519713 0.8519713 0.8519713
0.8631196 0.8631196 0.8631196
0.8735119 0.8735119 0.8735119
0.8800590 0.8800590 0.8800590
0.8893301 0.8893301 0.8893301
0.8270603 0.8270603 0.8270603
0.8399075 0.8399075 0.8399075
0.8519713 0.8519713 0.8519713
0.8594992 0.8594992 0.8594992
0.8701248 0.8701248 0.8701248
0.8768229 0.8768229 0.8768229
0.8863117 0.8863117 0.8863117
0.8922936 0.8922936 0.8922936
0.8357130 0.8357130 0.8357130
0.8480356 0.8480356 0.8480356
0.8594992 0.8594992 0.8594992
0.8666611 0.8666611 0.8666611
0.8768229 0.8768229 0.8768229
0.8832219 0.8832219 0.8832219
0.8922936 0.8922936 0.8922936
0.8980113 0.8980113 0.8980113
0.8557990 0.8557990 0.8557990
0.8631196 0.8631196 0.8631196
0.8735119 0.8735119 0.8735119
0.8800590 0.8800590 0.8800590
0.8893301 0.8893301 0.8893301
0.8951868 0.8951868 0.8951868
0.9007683 0.9007683 0.9007683
0.9060836 0.9060836 0.9060836
0.8594992 0.8594992 0.8594992
0.8701248 0.8701248 0.8701248
0.8800590 0.8800590 0.8800590
0.8863117 0.8863117 0.8863117
0.8922936 0.8922936 0.8922936
0.9007683 0.9007683 0.9007683
0.9060836 0.9060836 0.9060836
0.9111422 0.9111422 0.9111422
0.8666611 0.8666611 0.8666611
0.8768229 0.8768229 0.8768229
0.8832219 0.8832219 0.8832219
0.8922936 0.8922936 0.8922936
0.8980113 0.8980113 0.8980113
0.9034585 0.9034585 0.9034585
0.9086445 0.9086445 0.9086445
0.9159538 0.9159538 0.9159538
0.8735119 0.8735119 0.8735119
0.8832219 0.8832219 0.8832219
0.8893301 0.8893301 0.8893301
0.8951868 0.8951868 0.8951868
0.9034585 0.9034585 0.9034585
0.9086445 0.9086445 0.9086445
0.9135783 0.9135783 0.9135783
0.9183368 0.9183368 0.9183368
0.8800590 0.8800590 0.8800590
0.8863117 0.8863117 0.8863117
0.8951868 0.8951868 0.8951868
0.9007683 0.9007683 0.9007683
0.9060836 0.9060836 0.9060836
0.9111422 0.9111422 0.9111422
0.9159538 0.9159538 0.9159538
0.9229832 0.9229832 0.9229832
0.8863117 0.8863117 0.8863117
0.8922936 0.8922936 0.8922936
0.8980113 0.8980113 0.8980113
0.9034585 0.9034585 0.9034585
0.9111422 0.9111422 0.9111422
0.9159538 0.9159538 0.9159538
0.9206911 0.9206911 0.9206911
0.9252142 0.9252142 0.9252142
0.8893301 0.8893301 0.8893301
0.8980113 0.8980113 0.8980113
0.9034585 0.9034585 0.9034585
0.9086445 0.9086445 0.9086445
0.9135783 0.9135783 0.9135783
0.9183368 0.9183368 0.9183368
0.9229832 0.9229832 0.9229832
0.9273859 0.9273859 0.9273859
0.8951868 0.8951868 0.8951868
0.9007683 0.9007683 0.9007683
0.9060836 0.9060836 0.9060836
0.9135783 0.9135783 0.9135783
0.9183368 0.9183368 0.9183368
0.9229832 0.9229832 0.9229832
0.9273859 0.9273859 0.9273859
0.9315556 0.9315556 0.9315556
0.9060836 0.9060836 0.9060836
0.9111422 0.9111422 0.9111422
0.9159538 0.9159538 0.9159538
0.9206911 0.9206911 0.9206911
0.9252142 0.9252142 0.9252142
0.9294994 0.9294994 0.9294994
0.9335564 0.9335564 0.9335564
0.9373957 0.9373957 0.9373957
0.9086445 0.9086445 0.9086445
0.9135783 0.9135783 0.9135783
0.9183368 0.9183368 0.9183368
0.9229832 0.9229832 0.9229832
0.9273859 0.9273859 0.9273859
0.9315556 0.9315556 0.9315556
0.9355027 0.9355027 0.9355027
0.9392601 0.9392601 0.9392601
0.9135783 0.9135783 0.9135783
0.9183368 0.9183368 0.9183368
0.9229832 0.9229832 0.9229832
0.9273859 0.9273859 0.9273859
0.9315556 0.9315556 0.9315556
0.9355027 0.9355027 0.9355027
0.9392601 0.9392601 0.9392601
0.9429221 0.9429221 0.9429221
0.9159538 0.9159538 0.9159538
0.9206911 0.9206911 0.9206911
0.9252142 0.9252142 0.9252142
0.9294994 0.9294994 0.9294994
0.9335564 0.9335564 0.9335564
0.9373957 0.9373957 0.9373957
0.9411179 0.9411179 0.9411179
0.9446745 0.9446745 0.9446745
0.9206911 0.9206911 0.9206911
0.9252142 0.9252142 0.9252142
0.9294994 0.9294994 0.9294994
0.9335564 0.9335564 0.9335564
0.9373957 0.9373957 0.9373957
0.9392601 0.9392601 0.9392601
0.9429221 0.9429221 0.9429221
0.9463760 0.9463760 0.9463760
0.9229832 0.9229832 0.9229832
0.9273859 0.9273859 0.9273859
0.9315556 0.9315556 0.9315556
0.9355027 0.9355027 0.9355027
0.9392601 0.9392601 0.9392601
0.9429221 0.9429221 0.9429221
0.9463760 0.9463760 0.9463760
0.9480280 0.9480280 0.9480280
0.9273859 0.9273859 0.9273859
0.9315556 0.9315556 0.9315556
0.9335564 0.9335564 0.9335564
0.9373957 0.9373957 0.9373957
0.9411179 0.9411179 0.9411179
0.9446745 0.9446745 0.9446745
0.9480280 0.9480280 0.9480280
0.9511890 0.9511890 0.9511890
0.9294994 0.9294994 0.9294994
0.9335564 0.9335564 0.9335564
0.9373957 0.9373957 0.9373957
0.9411179 0.9411179 0.9411179
0.9446745 0.9446745 0.9446745
0.9463760 0.9463760 0.9463760
0.9496320 0.9496320 0.9496320
0.9527001 0.9527001 0.9527001
0.9355027 0.9355027 0.9355027
0.9392601 0.9392601 0.9392601
0.9429221 0.9429221 0.9429221
0.9463760 0.9463760 0.9463760
0.9480280 0.9480280 0.9480280
0.9511890 0.9511890 0.9511890
0.9541668 0.9541668 0.9541668
0.9569619 0.9569619 0.9569619
0.9373957 0.9373957 0.9373957
0.9411179 0.9411179 0.9411179
0.9446745 0.9446745 0.9446745
0.9480280 0.9480280 0.9480280
0.9511890 0.9511890 0.9511890
0.9527001 0.9527001 0.9527001
0.9555902 0.9555902 0.9555902
0.9582931 0.9582931 0.9582931
0.9411179 0.9411179 0.9411179
0.9446745 0.9446745 0.9446745
0.9463760 0.9463760 0.9463760
0.9496320 0.9496320 0.9496320
0.9527001 0.9527001 0.9527001
0.9555902 0.9555902 0.9555902
0.9569619 0.9569619 0.9569619
0.9595850 0.9595850 0.9595850
0.9429221 0.9429221 0.9429221
0.9463760 0.9463760 0.9463760
0.9496320 0.9496320 0.9496320
0.9511890 0.9511890 0.9511890
0.9541668 0.9541668 0.9541668
0.9569619 0.9569619 0.9569619
0.9582931 0.9582931 0.9582931
0.9608383 0.9608383 0.9608383
0.9446745 0.9446745 0.9446745
0.9480280 0.9480280 0.9480280
0.9511890 0.9511890 0.9511890
0.9541668 0.9541668 0.9541668
0.9555902 0.9555902 0.9555902
0.9582931 0.9582931 0.9582931
0.9608383 0.9608383 0.9608383
0.9620544 0.9620544 0.9620544
0.9480280 0.9480280 0.9480280
0.9496320 0.9496320 0.9496320
0.9527001 0.9527001 0.9527001
0.9555902 0.9555902 0.9555902
0.9569619 0.9569619 0.9569619
0.9595850 0.9595850 0.9595850
0.9620544 0.9620544 0.9620544
0.9632342 0.9632342 0.9632342
0.9496320 0.9496320 0.9496320
0.9527001 0.9527001 0.9527001
0.9541668 0.9541668 0.9541668
0.9569619 0.9569619 0.9569619
0.9595850 0.9595850 0.9595850
0.9608383 0.9608383 0.9608383
0.9632342 0.9632342 0.9632342
0.9643785 0.9643785 0.9643785
0.9511890 0.9511890 0.9511890
0.9541668 0.9541668 0.9541668
0.9555902 0.9555902 0.9555902
0.9582931 0.9582931 0.9582931
0.9608383 0.9608383 0.9608383
0.9620544 0.9620544 0.9620544
0.9643785 0.9643785 0.9643785
0.9654887 0.9654887 0.9654887
