Plugins/FilmEmulator/Content/LUTs/FE_Kodak_Portra_800_At3200_64.cube
TITLE "FE_Kodak_Portra_800_At3200_33"
LUT_3D_SIZE 8
0.0003143 0.0004332 0.0005816
0.0581201 0.0006277 0.0008946
0.2150019 0.0015930 0.0019266
0.3957313 0.0034125 0.0036109
0.5474774 0.0063249 0.0063678
0.6736104 0.0099159 0.0098479
0.7629500 0.0143658 0.0143479
0.8201894 0.0187594 0.0191129
0.0005449 0.0733217 0.0011568
0.0596872 0.0829730 0.0023053
0.2137212 0.0941147 0.0041024
0.3849120 0.1022973 0.0068074
0.5497085 0.1157959 0.0108362
0.6657238 0.1304882 0.0150314
0.7571110 0.1408292 0.0198894
0.8157799 0.1518653 0.0262490
0.0014992 0.2469994 0.0027300
0.0639941 0.2623927 0.0046107
0.2187814 0.2784202 0.0077293
0.3924374 0.2866608 0.0117775
0.5460825 0.2950783 0.0162408
0.6735935 0.3124295 0.0214679
0.7546132 0.3213055 0.0271872
0.8137397 0.3395172 0.0344054
0.0032469 0.4268202 0.0052855
0.0690687 0.4363012 0.0082757
0.2252029 0.4461536 0.0125938
0.4016369 0.4560703 0.0173337
0.5558736 0.4660631 0.0228618
0.6717045 0.4761075 0.0289368
0.7622288 0.4861825 0.0351591
0.8200470 0.4962882 0.0426764
0.0060704 0.5581470 0.0095898
0.0747261 0.5677730 0.0133570
0.2322136 0.5775846 0.0183669
0.4115470 0.5874260 0.0242030
0.5664013 0.5873444 0.0305724
0.6812674 0.5971734 0.0371344
0.7611427 0.6069424 0.0450538
0.8191537 0.6166368 0.0525409
0.0095254 0.6647001 0.0147220
0.0809082 0.6643623 0.0193913
0.2396388 0.6732680 0.0245392
0.4218889 0.6821257 0.0310303
0.5651900 0.6820590 0.0376310
0.6801888 0.6908377 0.0456472
0.7603226 0.6907916 0.0531514
0.8184834 0.6994535 0.0619112
0.0142028 0.7335337 0.0212752
0.0875807 0.7412523 0.0258526
0.2474183 0.7411074 0.0326109
0.4209588 0.7487337 0.0395802
0.5761660 0.7486727 0.0479182
0.6900612 0.7561861 0.0558475
0.7685673 0.7635571 0.0650211
0.8252717 0.7635221 0.0726852
0.0192945 0.7921432 0.0282966
0.0948394 0.7919572 0.0329806
0.2553751 0.7984651 0.0415737
0.4317494 0.7983974 0.0484158
0.5753416 0.7983510 0.0563408
0.6893343 0.8047842 0.0655834
0.7680506 0.8047520 0.0760754
0.8247775 0.8110404 0.0850541
0.0016131 0.0009830 0.0897473
0.0772475 0.0023342 0.1025013
0.2457508 0.0045857 0.1124782
0.4167137 0.0079071 0.1273300
0.5700161 0.0122158 0.1384804
0.6941252 0.0168113 0.1499032
0.7714427 0.0209274 0.1616076
0.8271738 0.0260430 0.1741639
0.0024829 0.0867531 0.1127422
0.0803120 0.0982167 0.1253306
0.2463793 0.1111930 0.1348369
0.4192015 0.1206841 0.1499284
0.5737398 0.1356246 0.1611112
0.6876124 0.1463089 0.1727545
0.7663274 0.1577001 0.1851901
0.8232769 0.1698205 0.1984405
0.0037516 0.2708482 0.1309968
0.0860358 0.2785969 0.1400542
0.2521432 0.2952570 0.1502303
0.4271826 0.3037996 0.1664685
0.5702711 0.3214367 0.1783642
0.6846762 0.3304395 0.1908170
0.7729183 0.3395794 0.2040590
0.8287165 0.3487970 0.2110339
0.0067036 0.4367585 0.1436725
0.0926930 0.4463628 0.1535665
0.2592726 0.4562060 0.1643489
0.4366895 0.4661682 0.1758461
0.5801491 0.4761981 0.1880336
0.6935470 0.4862660 0.2011093
0.7714580 0.4963636 0.2148962
0.8275387 0.5064767 0.2293906
0.0104888 0.5681623 0.1563619
0.1000504 0.5777802 0.1670554
0.2669842 0.5875552 0.1786141
0.4350840 0.5973424 0.1909125
0.5904924 0.5972589 0.2038677
0.6922449 0.6070198 0.2177854
0.7703727 0.6167065 0.2324094
0.8266515 0.6263117 0.2400782
0.0149200 0.6737459 0.1695733
0.1037661 0.6734403 0.1808471
0.2751619 0.6822376 0.1931575
0.4455487 0.6909783 0.2064418
0.5892698 0.6909111 0.2201985
0.7016613 0.6995543 0.2275375
0.7783442 0.6995072 0.2423521
0.8331120 0.7080307 0.2581326
0.0202619 0.7414828 0.1830163
0.1121016 0.7489522 0.1889656
0.2836998 0.7488213 0.2015815
0.4563186 0.7563027 0.2152991
0.6000387 0.7562463 0.2294886
0.7008186 0.7636112 0.2446530
0.7776397 0.7635714 0.2523053
0.8325440 0.7707919 0.2685154
0.0263002 0.7921310 0.1906873
0.1211319 0.7985731 0.2034996
0.2925228 0.7984689 0.2169711
0.4554689 0.8048793 0.2314682
0.5991993 0.8048329 0.2387802
0.7104174 0.8111090 0.2543566
0.7770354 0.8110807 0.2703627
0.8321210 0.8110508 0.2786578
0.0065378 0.0033821 0.2858707
0.1021033 0.0062886 0.2987648
0.2704623 0.0098859 0.3204031
0.4499689 0.0143476 0.3328715
0.5925596 0.0187519 0.3447402
0.7038584 0.0233404 0.3564094
0.7795835 0.0290536 0.3784377
0.8338307 0.0348845 0.3903230
0.0082417 0.1025494 0.3237506
0.1070223 0.1159315 0.3429873
0.2726958 0.1305966 0.3535875
0.4539012 0.1409268 0.3640440
0.5972027 0.1519588 0.3747187
0.7084066 0.1637090 0.3855566
0.7837132 0.1762014 0.4069829
0.8303753 0.1890709 0.4182036
0.0101710 0.2872514 0.3438431
0.1100310 0.2953992 0.3629722
0.2791689 0.3126736 0.3733544
0.4505506 0.3215083 0.3836442
0.5939382 0.3396981 0.3944842
0.7057128 0.3489017 0.4050915
0.7816008 0.3581152 0.4264197
0.8357338 0.3674461 0.4373385
0.0126226 0.4567672 0.3598376
0.1183340 0.4664493 0.3794934
0.2868389 0.4763908 0.3897084
0.4601828 0.4864199 0.4001637
0.6036708 0.4964931 0.4107846
0.7041017 0.4964305 0.4211766
0.7802652 0.5065368 0.4320371
0.8346617 0.5166516 0.4537594
0.0163799 0.5880676 0.3743698
0.1274914 0.5877109 0.3940603
0.2951788 0.5974445 0.4044409
0.4705032 0.6071597 0.4150350
0.6022041 0.6168283 0.4257999
0.7130990 0.6167625 0.4362836
0.7877303 0.6263611 0.4472454
0.8337985 0.6358795 0.4583035
0.0212569 0.6826600 0.3880681
0.1320634 0.6823753 0.4081172
0.3038773 0.6910670 0.4186223
0.4693715 0.6909822 0.4289745
0.6128485 0.6996143 0.4398204
0.7120494 0.7081263 0.4507841
0.7869559 0.7080795 0.4614427
0.8400406 0.7164620 0.4725427
0.0275732 0.7491557 0.4116906
0.1368954 0.7489389 0.4215864
0.3129460 0.7563772 0.4321894
0.4802362 0.7563061 0.4426315
0.6118894 0.7636613 0.4535714
0.7214532 0.7636132 0.4642065
0.7862720 0.7708333 0.4753110
0.8395611 0.7707976 0.4862232
0.0357257 0.7987252 0.4247044
0.1475733 0.7985620 0.4347622
0.3222857 0.8049364 0.4454688
0.4914571 0.8048781 0.4559838
0.6227524 0.8111501 0.4669868
0.7207454 0.8111147 0.4776898
0.7940258 0.8171371 0.4889579
0.8390848 0.8171120 0.4999135
0.0152746 0.0078845 0.4855039
0.1291188 0.0121869 0.5000247
0.3073427 0.0161852 0.5135194
0.4725071 0.0209145 0.5269014
0.6149783 0.0260401 0.5399438
0.7235084 0.0312473 0.5527233
0.7958863 0.0377932 0.5545039
0.8402529 0.0461189 0.5675330
0.0176091 0.1209161 0.5245634
0.1306007 0.1357600 0.5360689
0.3108098 0.1464114 0.5475221
0.4773080 0.1577934 0.5590907
0.6202818 0.1699083 0.5597225
0.7183575 0.1827777 0.5714411
0.7919397 0.1956206 0.5831119
0.8439617 0.2091568 0.5947168
0.0207275 0.3042945 0.5466444
0.1396125 0.3217229 0.5576055
0.3079532 0.3306559 0.5576054
0.4859670 0.3397614 0.5686497
0.6173654 0.3489618 0.5798232
0.7258956 0.3675427 0.5913614
0.7899913 0.3769830 0.6024894
0.8424759 0.3865231 0.6135189
0.0245213 0.4667411 0.5531046
0.1441754 0.4765356 0.5636942
0.3162026 0.4865191 0.5745926
0.4839286 0.4965728 0.5856540
0.6270682 0.5066549 0.5967385
0.7243521 0.5167575 0.6077831
0.7969537 0.5268569 0.6080058
0.8414352 0.5369554 0.6189975
0.0278043 0.5978763 0.5689173
0.1549974 0.5975774 0.5790709
0.3250299 0.6072546 0.5900002
0.4945037 0.6168970 0.6010030
0.6256229 0.6264778 0.6011777
0.7232145 0.6264191 0.6118170
0.7960342 0.6359240 0.6227359
0.8406748 0.6453419 0.6335729
0.0315599 0.6914350 0.5834835
0.1603936 0.6911836 0.5936906
0.3342151 0.6997580 0.6045609
0.5054645 0.6996742 0.6043005
0.6360883 0.7081754 0.6152427
0.7321320 0.7165470 0.6261084
0.7952822 0.7165068 0.6365327
0.8467035 0.7247440 0.6367657
0.0374325 0.7566739 0.5972504
0.1660796 0.7564755 0.5966221
0.3437600 0.7637757 0.6074622
0.5044618 0.7637112 0.6179632
0.6351531 0.7709128 0.6287625
0.7314369 0.7708707 0.6391230
0.8027022 0.7779307 0.6393331
0.8462416 0.7779007 0.6496198
0.0443763 0.8051696 0.5997257
0.1786089 0.8050132 0.6099513
0.3535710 0.8112433 0.6206864
0.5157049 0.8111910 0.6310556
0.6458625 0.8111491 0.6308656
0.7404908 0.8171675 0.6415449
0.8022245 0.8171393 0.6517872
0.8457829 0.8229689 0.6622440
0.0269264 0.0143348 0.6443338
0.1562326 0.0187311 0.6565211
0.3368606 0.0233252 0.6581774
0.5074139 0.0290484 0.6703450
0.6372818 0.0348879 0.6820425
0.7327404 0.0409369 0.6833317
0.8034041 0.0499281 0.6949858
0.8465877 0.0565884 0.6960045
0.0311549 0.1411544 0.6659797
0.1584949 0.1520971 0.6762345
0.3412187 0.1638183 0.6867813
0.5009902 0.1763022 0.6873087
0.6430479 0.1891605 0.6977879
0.7379299 0.2023480 0.7080945
0.7999189 0.2162358 0.7086621
0.8503343 0.2308210 0.7187825
0.0350722 0.3219438 0.6850129
0.1691865 0.3399670 0.6950939
0.3488755 0.3491067 0.6951078
0.5100476 0.3582899 0.7050370
0.6403545 0.3676024 0.7148222
0.7356484 0.3866200 0.7153199
0.7981227 0.3962573 0.7249594
0.8489704 0.4059807 0.7251642
0.0379554 0.4869232 0.7005709
0.1745428 0.4968009 0.7003297
0.3471591 0.4966627 0.7097544
0.5202359 0.5067248 0.7098478
0.6499266 0.5168152 0.7195365
0.7342420 0.5269170 0.7290729
0.8049677 0.5370008 0.7292589
0.8480378 0.5470754 0.7386172
0.0429868 0.6076257 0.7044081
0.1803406 0.6171125 0.7138494
0.3564147 0.6169813 0.7135548
0.5187149 0.6265439 0.7231296
0.6485280 0.6360319 0.7325491
0.7428265 0.6359724 0.7324162
0.8040752 0.6453835 0.7416916
0.8537070 0.6546758 0.7418866
0.0487265 0.6913766 0.7168456
0.1865129 0.6998628 0.7166716
0.3660706 0.7083088 0.7260989
0.5296789 0.7082329 0.7351134
0.6474730 0.7165991 0.7352698
0.7419447 0.7165486 0.7441587
0.8111697 0.7247800 0.7443375
0.8531922 0.7247449 0.7530693
0.0529029 0.7566348 0.7193102
0.2001629 0.7638593 0.7284901
0.3762748 0.7637681 0.7282187
0.5286694 0.7709602 0.7374992
0.6579130 0.7709099 0.7463132
0.7506688 0.7779655 0.7464733
0.8106253 0.7779318 0.7551432
0.8526769 0.7848465 0.7553408
0.0574479 0.8051468 0.7307389
0.2070297 0.8113114 0.7305809
0.3866152 0.8112374 0.7394356
0.5398843 0.8172409 0.7484647
0.6571167 0.8172036 0.7483244
0.7501060 0.8171689 0.7569255
0.8100798 0.8229939 0.7571008
0.8522988 0.8229694 0.7655393
0.0433096 0.0209100 0.7456203
0.1881081 0.0260276 0.7555869
0.3679942 0.0312401 0.7654377
0.5308282 0.0377954 0.7666700
0.6592230 0.0443327 0.7761683
0.7513798 0.0519465 0.7772055
0.8108391 0.0616417 0.7865456
0.8526909 0.0700085 0.7873803
0.0480368 0.1580127 0.7700303
0.1911471 0.1700505 0.7702084
0.3730897 0.1828916 0.7789522
0.5369834 0.1957235 0.7793421
0.6540679 0.2092581 0.7879220
0.7472828 0.2234910 0.7962695
0.8076590 0.2384292 0.7967172
0.8565526 0.2461406 0.8045713
0.0517395 0.3401633 0.7769052
0.1964222 0.3492176 0.7849846
0.3702674 0.3677503 0.7852815
0.5340948 0.3771534 0.7933651
0.6627114 0.3866730 0.7934877
0.7452666 0.3963053 0.8014104
0.8138319 0.4060231 0.8015631
0.8553071 0.4158362 0.8092760
0.0559512 0.4970164 0.7892874
0.2024508 0.5069440 0.7891580
0.3795649 0.5169792 0.7970765
0.5442472 0.5270420 0.7971622
0.6609869 0.5371159 0.8049561
0.7533287 0.5370517 0.8048495
0.8127327 0.5471198 0.8124524
0.8544022 0.5571739 0.8126199
0.0632318 0.6173015 0.7923386
0.2089614 0.6267420 0.8000395
0.3894356 0.6266198 0.7998199
0.5428600 0.6360956 0.8075054
0.6707641 0.6454818 0.8076203
0.7522755 0.6454303 0.8148956
0.8118609 0.6547229 0.8150501
0.8598794 0.6638826 0.8223460
0.0685437 0.7000240 0.8023439
0.2237408 0.7083983 0.8022442
0.3996602 0.7082987 0.8095655
0.5537534 0.7166485 0.8096580
0.6697502 0.7248709 0.8170855
0.7606665 0.7248204 0.8169841
0.8187417 0.7329109 0.8242208
0.8593780 0.7328757 0.8241546
0.0743045 0.7639949 0.8042719
0.2311154 0.7710931 0.8116470
0.4101011 0.7710101 0.8114482
0.5527631 0.7780530 0.8187987
0.6798620 0.7780033 0.8186769
0.7599289 0.7849094 0.8258480
0.8182094 0.7848756 0.8257715
0.8588867 0.7916346 0.8327419
0.0805483 0.8114200 0.8133441
0.2388407 0.8112998 0.8130356
0.4092694 0.8172849 0.8202828
0.5640078 0.8172379 0.8201423
0.6791030 0.8230527 0.8272420
0.7593751 0.8230221 0.8271558
0.8176824 0.8287011 0.8272929
0.8585186 0.8286770 0.8340034
0.0634743 0.0290527 0.8204924
0.2170796 0.0348850 0.8282365
0.4006732 0.0409388 0.8289896
0.5541997 0.0479994 0.8297998
0.6696007 0.0566059 0.8373446
0.7600402 0.0671205 0.8382397
0.8180405 0.0761805 0.8452821
0.8585831 0.0864532 0.8459397
0.0675160 0.1765181 0.8317267
0.2208558 0.1893101 0.8385256
0.3951539 0.2024729 0.8387966
0.5607318 0.2163441 0.8455037
0.6758818 0.2309259 0.8458374
0.7565034 0.2384634 0.8521219
0.8227047 0.2540925 0.8524612
0.8624851 0.2699989 0.8587172
0.0726660 0.3586582 0.8433483
0.2268449 0.3678497 0.8432775
0.4037542 0.3868189 0.8497769
0.5580015 0.3964232 0.8498563
0.6735693 0.4061331 0.8559788
0.7637257 0.4159276 0.8560888
0.8212330 0.4258088 0.8562169
0.8613513 0.4357631 0.8621446
0.0784951 0.5071259 0.8464051
0.2336549 0.5170881 0.8525073
0.4134796 0.5271226 0.8525402
0.5682074 0.5371775 0.8585454
0.6828275 0.5472265 0.8586444
0.7624134 0.5572678 0.8587608
0.8201683 0.5672820 0.8645909
0.8605412 0.5672373 0.8645375
0.0848578 0.6269050 0.8548861
0.2408816 0.6362765 0.8548372
0.4236553 0.6361629 0.8546762
0.5668227 0.6455447 0.8606182
0.6815965 0.6548197 0.8607161
0.7704823 0.6547618 0.8662809
0.8267305 0.6639211 0.8663996
0.8658254 0.6729693 0.8719705
0.0918084 0.7085408 0.8565983
0.2485465 0.7168040 0.8565583
0.4225525 0.7167125 0.8622094
0.5776055 0.7249184 0.8622815
0.6914099 0.7248647 0.8677859
0.7696586 0.7329494 0.8678954
0.8260606 0.7408894 0.8680130
0.8653420 0.7408556 0.8733547
0.0953295 0.7712123 0.8581005
0.2565834 0.7710834 0.8636236
0.4331798 0.7781008 0.8636599
0.5767512 0.7780486 0.8691027
0.6905402 0.7849454 0.8691926
0.7690244 0.7849084 0.8691242
0.8255527 0.7916625 0.8745879
0.8649240 0.7916334 0.8745379
0.1031539 0.8174428 0.8650820
0.2648259 0.8173404 0.8648714
0.4441311 0.8172774 0.8647282
0.5877398 0.8230852 0.8703035
0.7004254 0.8230484 0.8702195
0.7772242 0.8287243 0.8756320
0.8251159 0.8287005 0.8755825
0.8645157 0.8342392 0.8808186
0.0849508 0.0378090 0.8659769
0.2493603 0.0443390 0.8719599
0.4229003 0.0519583 0.8725688
0.5773197 0.0616613 0.8784789
0.6906139 0.0700332 0.8789816
0.7685949 0.0828899 0.8796918
0.8250149 0.0940629 0.8851819
0.8701496 0.1022499 0.8855028
0.0903818 0.1959409 0.8793421
0.2538377 0.2094093 0.8794857
0.4292563 0.2236192 0.8797065
0.5842190 0.2385421 0.8849267
0.6970882 0.2462452 0.8850196
0.7742935 0.2620591 0.8900695
0.8298202 0.2700309 0.8901746
0.8682661 0.2864891 0.8904434
0.0971456 0.3774929 0.8830503
0.2605556 0.3869123 0.8830190
0.4383546 0.3964923 0.8879147
0.5817925 0.4061905 0.8879844
0.6949776 0.4159812 0.8927444
0.7725383 0.4358554 0.8929878
0.8283986 0.4458620 0.8930876
0.8671801 0.4558495 0.8976814
0.1005344 0.5274090 0.8854464
0.2680863 0.5373653 0.8901882
0.4366008 0.5372566 0.8900762
0.5918560 0.5472867 0.8901365
0.6934423 0.5573229 0.8948222
0.7713521 0.5673302 0.8949129
0.8274425 0.5772958 0.8994311
0.8664590 0.5772514 0.8993899
0.1085431 0.6364214 0.8918735
0.2761707 0.6457098 0.8918508
0.4469283 0.6456107 0.8917403
0.5905007 0.6548748 0.8963466
0.7027203 0.6640165 0.8964226
0.7792094 0.6639658 0.9007372
0.8337953 0.6730070 0.9008293
0.8715496 0.6819316 0.9009278
0.1172157 0.7169238 0.8932052
0.2846176 0.7250592 0.8931895
0.4575765 0.7249754 0.8975725
0.6011244 0.7330396 0.8976357
0.7018586 0.7329917 0.8975744
0.7784075 0.7409272 0.9019843
0.8332196 0.7408877 0.9019376
0.8710889 0.7485679 0.9061905
0.1215889 0.7782756 0.8943707
0.2934494 0.7781621 0.8986584
0.4683986 0.7850312 0.8986940
0.6002747 0.7849840 0.8986212
0.7113333 0.7917256 0.9029767
0.7863579 0.7916893 0.9029241
0.8326508 0.7982913 0.9030190
0.8706861 0.7982633 0.9071004
0.1312932 0.8174201 0.8996342
0.3024448 0.8231765 0.8996204
0.4676563 0.8231232 0.8995236
0.6112030 0.8287858 0.9038294
0.7107142 0.8287534 0.9037716
0.7858492 0.8287231 0.9037194
0.8391508 0.8342578 0.9078935
0.8703451 0.8342378 0.9078618
