Plugins/FilmEmulator/Content/LUTs/FE_Kodak_2383_64.cube
TITLE "FE_Kodak_2383_33"
LUT_3D_SIZE 64
0.0070548 0.0000000 0.0280123
0.0076483 0.0000000 0.0280473
0.0245380 0.0022060 0.0290447
0.0750091 0.0093709 0.0321245
0.1452558 0.0198212 0.0366755
0.2122918 0.0303615 0.0413374
0.2865092 0.0427502 0.0469100
0.3635994 0.0565208 0.0532243
0.4384595 0.0720265 0.0606739
0.5091972 0.0930449 0.0718083
0.5815004 0.1127729 0.0826414
0.6536297 0.1319120 0.0938198
0.7105602 0.1479830 0.1029954
0.7678633 0.1668496 0.1126482
0.8278968 0.1891015 0.1237570
0.8825907 0.2108573 0.1352772
0.9347100 0.2332489 0.1480151
0.9789380 0.2543257 0.1607805
1.0000000 0.2755606 0.1746227
1.0000000 0.2945238 0.1881981
1.0000000 0.3140574 0.2030693
1.0000000 0.3304859 0.2161826
1.0000000 0.3464254 0.2293742
1.0000000 0.3619049 0.2425978
1.0000000 0.3746874 0.2536945
1.0000000 0.3874190 0.2648424
1.0000000 0.4003884 0.2761464
1.0000000 0.4127710 0.2870803
1.0000000 0.4228769 0.2962347
1.0000000 0.4336451 0.3062964
1.0000000 0.4460079 0.3176596
1.0000000 0.4570032 0.3280714
1.0000000 0.4706339 0.3407030
1.0000000 0.4823320 0.3522764
1.0000000 0.4908450 0.3615983
1.0000000 0.5001436 0.3712322
1.0000000 0.5076953 0.3794893
1.0000000 0.5152830 0.3878878
1.0000000 0.5226183 0.3960793
1.0000000 0.5300844 0.4046203
1.0000000 0.5374311 0.4131031
1.0000000 0.5446003 0.4214750
1.0000000 0.5501238 0.4279833
1.0000000 0.5573174 0.4365019
1.0000000 0.5626502 0.4428383
1.0000000 0.5700610 0.4515892
1.0000000 0.5754684 0.4580094
1.0000000 0.5807362 0.4643153
1.0000000 0.5862584 0.4709895
1.0000000 0.5925826 0.4789203
1.0000000 0.5978459 0.4853300
1.0000000 0.6035166 0.4921681
1.0000000 0.6080819 0.4974472
1.0000000 0.6135264 0.5040591
1.0000000 0.6189297 0.5106522
1.0000000 0.6246601 0.5176447
1.0000000 0.6295645 0.5238471
1.0000000 0.6339152 0.5289884
1.0000000 0.6394575 0.5358456
1.0000000 0.6432547 0.5405705
1.0000000 0.6488701 0.5475653
1.0000000 0.6524934 0.5521035
1.0000000 0.6580014 0.5589798
1.0000000 0.6618434 0.5637360
0.0071183 0.0199434 0.0300158
0.0073397 0.0206839 0.0301002
0.0220607 0.0237448 0.0310819
0.0698185 0.0317006 0.0341414
0.1410192 0.0428440 0.0388509
0.2067910 0.0537295 0.0435231
0.2792767 0.0663040 0.0490602
0.3550872 0.0802159 0.0553536
0.4285119 0.0950370 0.0644058
0.5027617 0.1108794 0.0746711
0.5750411 0.1275417 0.0848862
0.6423483 0.1441174 0.0949093
0.6999367 0.1597321 0.1037634
0.7555918 0.1759967 0.1126540
0.8206409 0.1966854 0.1240435
0.8757900 0.2159628 0.1352274
0.9284149 0.2366616 0.1476488
0.9730845 0.2563544 0.1602259
1.0000000 0.2760936 0.1736766
1.0000000 0.2938311 0.1869798
1.0000000 0.3099336 0.1998478
1.0000000 0.3281673 0.2142839
1.0000000 0.3441779 0.2274997
1.0000000 0.3597341 0.2407279
1.0000000 0.3725688 0.2518491
1.0000000 0.3852426 0.2629372
1.0000000 0.3982463 0.2742766
1.0000000 0.4107591 0.2852893
1.0000000 0.4212161 0.2949648
1.0000000 0.4332765 0.3056875
1.0000000 0.4439128 0.3156747
1.0000000 0.4566094 0.3274043
1.0000000 0.4706339 0.3407030
1.0000000 0.4803453 0.3502465
1.0000000 0.4903675 0.3607408
1.0000000 0.4982660 0.3691971
1.0000000 0.5063214 0.3783183
1.0000000 0.5139413 0.3867353
1.0000000 0.5226183 0.3960793
1.0000000 0.5288351 0.4035314
1.0000000 0.5356295 0.4110133
1.0000000 0.5427401 0.4192877
1.0000000 0.5501238 0.4279833
1.0000000 0.5555532 0.4344035
1.0000000 0.5626502 0.4428383
1.0000000 0.5682226 0.4494152
1.0000000 0.5745062 0.4571381
1.0000000 0.5807362 0.4643153
1.0000000 0.5862584 0.4709895
1.0000000 0.5916958 0.4775760
1.0000000 0.5969701 0.4840026
1.0000000 0.6024873 0.4906845
1.0000000 0.6080819 0.4974472
1.0000000 0.6135264 0.5040591
1.0000000 0.6189297 0.5106522
1.0000000 0.6239146 0.5169473
1.0000000 0.6284275 0.5222486
1.0000000 0.6339152 0.5289884
1.0000000 0.6387913 0.5352170
1.0000000 0.6432547 0.5405705
1.0000000 0.6482252 0.5469543
1.0000000 0.6524934 0.5521035
1.0000000 0.6574169 0.5584235
1.0000000 0.6618434 0.5637360
0.0074017 0.0538142 0.0335089
0.0071648 0.0537831 0.0334947
0.0199435 0.0564374 0.0343630
0.0664886 0.0636627 0.0373373
0.1349406 0.0737636 0.0418613
0.2012123 0.0845519 0.0466096
0.2748641 0.0972189 0.0523006
0.3462952 0.1099154 0.0605960
0.4221249 0.1248329 0.0702258
0.4952772 0.1402822 0.0799958
0.5670493 0.1560473 0.0895963
0.6337420 0.1724211 0.0988762
0.6955242 0.1889670 0.1078989
0.7507982 0.2045377 0.1166613
0.8098116 0.2232003 0.1272798
0.8646544 0.2417597 0.1385633
0.9170550 0.2620118 0.1511790
0.9616084 0.2807727 0.1642177
1.0000000 0.3004369 0.1783709
1.0000000 0.3173488 0.1921056
1.0000000 0.3357199 0.2067682
1.0000000 0.3507448 0.2195193
1.0000000 0.3657920 0.2327702
1.0000000 0.3798338 0.2453349
1.0000000 0.3932756 0.2576527
1.0000000 0.4050933 0.2685850
1.0000000 0.4166812 0.2792131
1.0000000 0.4266579 0.2884517
1.0000000 0.4372670 0.2987228
1.0000000 0.4463771 0.3080314
1.0000000 0.4562176 0.3179346
1.0000000 0.4668243 0.3290007
1.0000000 0.4792884 0.3414676
1.0000000 0.4907256 0.3534749
1.0000000 0.4976584 0.3618774
1.0000000 0.5058905 0.3713906
1.0000000 0.5122247 0.3794378
1.0000000 0.5189991 0.3877011
1.0000000 0.5250419 0.3956835
1.0000000 0.5308638 0.4029846
1.0000000 0.5366728 0.4112161
1.0000000 0.5415815 0.4182663
1.0000000 0.5482922 0.4258228
1.0000000 0.5555532 0.4344035
1.0000000 0.5608198 0.4406735
1.0000000 0.5682226 0.4494152
1.0000000 0.5737092 0.4559090
1.0000000 0.5789609 0.4621843
1.0000000 0.5853295 0.4701418
1.0000000 0.5907832 0.4767401
1.0000000 0.5961035 0.4832057
1.0000000 0.6016366 0.4898993
1.0000000 0.6072469 0.4966739
1.0000000 0.6127524 0.5033398
1.0000000 0.6170582 0.5083696
1.0000000 0.6227606 0.5153255
1.0000000 0.6284275 0.5222486
1.0000000 0.6332360 0.5283496
1.0000000 0.6375427 0.5334643
1.0000000 0.6432547 0.5405705
1.0000000 0.6470090 0.5452461
1.0000000 0.6524934 0.5521035
1.0000000 0.6560633 0.5565820
1.0000000 0.6612667 0.5631861
0.0081598 0.0998620 0.0385267
0.0075269 0.0985711 0.0383539
0.0183428 0.1023509 0.0392805
0.0635259 0.1093495 0.0422362
0.1308600 0.1195691 0.0468212
0.1955947 0.1299084 0.0515406
0.2674053 0.1419738 0.0593325
0.3403256 0.1561233 0.0685373
0.4148859 0.1702083 0.0776944
0.4866865 0.1849132 0.0868459
0.5575681 0.2005484 0.0958701
0.6233754 0.2162451 0.1046101
0.6848937 0.2321441 0.1134888
0.7385345 0.2472604 0.1222526
0.7964008 0.2648268 0.1328884
0.8559112 0.2846829 0.1456046
0.9076093 0.3040039 0.1587084
0.9511443 0.3235121 0.1728011
0.9911400 0.3422765 0.1874435
1.0000000 0.3588942 0.2011563
1.0000000 0.3763680 0.2161053
1.0000000 0.3911973 0.2295181
1.0000000 0.4054626 0.2422788
1.0000000 0.4192761 0.2549162
1.0000000 0.4307878 0.2654511
1.0000000 0.4419466 0.2762307
1.0000000 0.4533926 0.2870042
1.0000000 0.4643854 0.2976665
1.0000000 0.4748019 0.3081034
1.0000000 0.4840099 0.3177660
1.0000000 0.4933771 0.3277813
1.0000000 0.5038935 0.3386462
1.0000000 0.5161219 0.3511263
1.0000000 0.5254902 0.3622687
1.0000000 0.5338911 0.3719704
1.0000000 0.5407217 0.3804249
1.0000000 0.5474217 0.3897191
1.0000000 0.5537062 0.3978786
1.0000000 0.5597652 0.4053546
1.0000000 0.5657353 0.4136991
1.0000000 0.5705835 0.4208755
1.0000000 0.5763820 0.4283708
1.0000000 0.5820222 0.4357107
1.0000000 0.5866177 0.4429703
1.0000000 0.5920053 0.4503081
1.0000000 0.5963175 0.4566310
1.0000000 0.6015207 0.4637885
1.0000000 0.6045138 0.4697726
1.0000000 0.6085527 0.4761472
1.0000000 0.6125398 0.4824387
1.0000000 0.6164289 0.4886032
1.0000000 0.6203156 0.4950863
1.0000000 0.6242394 0.5014992
1.0000000 0.6279780 0.5065538
1.0000000 0.6305706 0.5125636
1.0000000 0.6342875 0.5191431
1.0000000 0.6371067 0.5235551
1.0000000 0.6407051 0.5299363
1.0000000 0.6440477 0.5348504
1.0000000 0.6468843 0.5408624
1.0000000 0.6491314 0.5456988
1.0000000 0.6517448 0.5500712
1.0000000 0.6560633 0.5565820
1.0000000 0.6599282 0.5613645
0.0102401 0.1706294 0.0469030
0.0093801 0.1682675 0.0465729
0.0184909 0.1715931 0.0474150
0.0606445 0.1788573 0.0503756
0.1257123 0.1891595 0.0550290
0.1903710 0.1999204 0.0619412
0.2602011 0.2119265 0.0705217
0.3340251 0.2251346 0.0794447
0.4029905 0.2382949 0.0877883
0.4774440 0.2511225 0.0963682
0.5465659 0.2661552 0.1049721
0.6156157 0.2824264 0.1142200
0.6717796 0.2970437 0.1228012
0.7234228 0.3115650 0.1317098
0.7850639 0.3298385 0.1436879
0.8380025 0.3473122 0.1558272
0.8891318 0.3638413 0.1697569
0.9320924 0.3814206 0.1838456
0.9716836 0.3994085 0.1988757
1.0000000 0.4152648 0.2129919
1.0000000 0.4317701 0.2275343
1.0000000 0.4442384 0.2402390
1.0000000 0.4595737 0.2544379
1.0000000 0.4713913 0.2657806
1.0000000 0.4842932 0.2781479
1.0000000 0.4951950 0.2886212
1.0000000 0.5046070 0.2992470
1.0000000 0.5153567 0.3101159
1.0000000 0.5241914 0.3196507
1.0000000 0.5344039 0.3300475
1.0000000 0.5434328 0.3405215
1.0000000 0.5518652 0.3510383
1.0000000 0.5615744 0.3627771
1.0000000 0.5724128 0.3751026
1.0000000 0.5804868 0.3849461
1.0000000 0.5856825 0.3932880
1.0000000 0.5921212 0.4016384
1.0000000 0.5984045 0.4093299
1.0000000 0.6046031 0.4179044
1.0000000 0.6089885 0.4249941
1.0000000 0.6149119 0.4335983
1.0000000 0.6205574 0.4410756
1.0000000 0.6246493 0.4490523
1.0000000 0.6291588 0.4555807
1.0000000 0.6344222 0.4629282
1.0000000 0.6387115 0.4692358
1.0000000 0.6415477 0.4753261
1.0000000 0.6464726 0.4826561
1.0000000 0.6504927 0.4890003
1.0000000 0.6530993 0.4949415
1.0000000 0.6570799 0.5015122
1.0000000 0.6610943 0.5079848
1.0000000 0.6649472 0.5131283
1.0000000 0.6673731 0.5191944
1.0000000 0.6711727 0.5258203
1.0000000 0.6741611 0.5302980
1.0000000 0.6764389 0.5364234
1.0000000 0.6799673 0.5414801
1.0000000 0.6829535 0.5475280
1.0000000 0.6849582 0.5523159
1.0000000 0.6883302 0.5573750
1.0000000 0.6912082 0.5631783
1.0000000 0.6930692 0.5679560
1.0000000 0.6957484 0.5724503
0.0146409 0.2595436 0.0587336
0.0138401 0.2565132 0.0582737
0.0208525 0.2601970 0.0591301
0.0612764 0.2645341 0.0617701
0.1242200 0.2745630 0.0684749
0.1875700 0.2850233 0.0764157
0.2570032 0.2938316 0.0841618
0.3256433 0.3059096 0.0923370
0.3958869 0.3189274 0.1004205
0.4683655 0.3332645 0.1089002
0.5355906 0.3445988 0.1168987
0.6029544 0.3599436 0.1263804
0.6581757 0.3738907 0.1353111
0.7080117 0.3846645 0.1438842
0.7677528 0.4016568 0.1563783
0.8246065 0.4194387 0.1704361
0.8695329 0.4326625 0.1836001
0.9162142 0.4506447 0.1992759
0.9505160 0.4658561 0.2134297
0.9851185 0.4798933 0.2280592
1.0000000 0.4953249 0.2426757
1.0000000 0.5086378 0.2557620
1.0000000 0.5192581 0.2681355
1.0000000 0.5316527 0.2802886
1.0000000 0.5424803 0.2914910
1.0000000 0.5518946 0.3029270
1.0000000 0.5625099 0.3140861
1.0000000 0.5714545 0.3240150
1.0000000 0.5789672 0.3338156
1.0000000 0.5874277 0.3440204
1.0000000 0.5939586 0.3533551
1.0000000 0.6029537 0.3640137
1.0000000 0.6138980 0.3777412
1.0000000 0.6220934 0.3897129
1.0000000 0.6287098 0.3985268
1.0000000 0.6361952 0.4076023
1.0000000 0.6404753 0.4157714
1.0000000 0.6464673 0.4244428
1.0000000 0.6504618 0.4315882
1.0000000 0.6561588 0.4402527
1.0000000 0.6617872 0.4479210
1.0000000 0.6654024 0.4549149
1.0000000 0.6700279 0.4625264
1.0000000 0.6734975 0.4695879
1.0000000 0.6778688 0.4760094
1.0000000 0.6829206 0.4834213
1.0000000 0.6854025 0.4896089
1.0000000 0.6895183 0.4960798
1.0000000 0.6925031 0.5027896
1.0000000 0.6964984 0.5094512
1.0000000 0.7003063 0.5147378
1.0000000 0.7024679 0.5207160
1.0000000 0.7062538 0.5271606
1.0000000 0.7082848 0.5321120
1.0000000 0.7113457 0.5379819
1.0000000 0.7133452 0.5440329
1.0000000 0.7168031 0.5491549
1.0000000 0.7203726 0.5559108
1.0000000 0.7216175 0.5600234
1.0000000 0.7250571 0.5651454
1.0000000 0.7263908 0.5705701
1.0000000 0.7297653 0.5758134
1.0000000 0.7309226 0.5799289
1.0000000 0.7341629 0.5849671
0.0215540 0.3501769 0.0725868
0.0210321 0.3464456 0.0719664
0.0267630 0.3506616 0.0729291
0.0636121 0.3542036 0.0771431
0.1234890 0.3638269 0.0848087
0.1871841 0.3741062 0.0925941
0.2533399 0.3814991 0.0996946
0.3226950 0.3932402 0.1075443
0.3908362 0.4019647 0.1145940
0.4572873 0.4144996 0.1224844
0.5261416 0.4248197 0.1308765
0.5917203 0.4388095 0.1405613
0.6459344 0.4516557 0.1498952
0.6984172 0.4618257 0.1595999
0.7512861 0.4761438 0.1719869
0.8071945 0.4893184 0.1861823
0.8553985 0.5050973 0.2009705
0.8967006 0.5172098 0.2146652
0.9345057 0.5327962 0.2302728
0.9639030 0.5466269 0.2441760
0.9921167 0.5579822 0.2581016
1.0000000 0.5717725 0.2725783
1.0000000 0.5810103 0.2842861
1.0000000 0.5913227 0.2957011
1.0000000 0.5999053 0.3072494
1.0000000 0.6094644 0.3180483
1.0000000 0.6166649 0.3282190
1.0000000 0.6260697 0.3394716
1.0000000 0.6349663 0.3508482
1.0000000 0.6404058 0.3597265
1.0000000 0.6483165 0.3698806
1.0000000 0.6543156 0.3800004
1.0000000 0.6641623 0.3929164
1.0000000 0.6712666 0.4049149
1.0000000 0.6773638 0.4136685
1.0000000 0.6813340 0.4220271
1.0000000 0.6881363 0.4320410
1.0000000 0.6916816 0.4391786
1.0000000 0.6972849 0.4480125
1.0000000 0.7006127 0.4551675
1.0000000 0.7058970 0.4627953
1.0000000 0.7090819 0.4708830
1.0000000 0.7133791 0.4774978
1.0000000 0.7163639 0.4844024
1.0000000 0.7204925 0.4909620
1.0000000 0.7251981 0.4985307
1.0000000 0.7273235 0.5045648
1.0000000 0.7311966 0.5109719
1.0000000 0.7331909 0.5171219
1.0000000 0.7374567 0.5232897
1.0000000 0.7393566 0.5292273
1.0000000 0.7429693 0.5356811
1.0000000 0.7447402 0.5405861
1.0000000 0.7477682 0.5465417
1.0000000 0.7494290 0.5512292
1.0000000 0.7529429 0.5577141
1.0000000 0.7545615 0.5625633
1.0000000 0.7576143 0.5686612
1.0000000 0.7591130 0.5732681
1.0000000 0.7624779 0.5797250
1.0000000 0.7635350 0.5838944
1.0000000 0.7649894 0.5885690
1.0000000 0.7677221 0.5930860
1.0000000 0.7691880 0.5990066
0.0310745 0.4376258 0.0894046
0.0305634 0.4336545 0.0873217
0.0354813 0.4379921 0.0902721
0.0695361 0.4408440 0.0952467
0.1260501 0.4495736 0.1022604
0.1890805 0.4553401 0.1089956
0.2522608 0.4652147 0.1160400
0.3191793 0.4721701 0.1225868
0.3880674 0.4835044 0.1303933
0.4523221 0.4912958 0.1376960
0.5187832 0.5035481 0.1468902
0.5826504 0.5127558 0.1561927
0.6397336 0.5251344 0.1666819
0.6859940 0.5330964 0.1765028
0.7420830 0.5471331 0.1900000
0.7913904 0.5574222 0.2029415
0.8383645 0.5717833 0.2180757
0.8831053 0.5834047 0.2333752
0.9158083 0.5962178 0.2472498
0.9489032 0.6068625 0.2616594
0.9754857 0.6196479 0.2761605
0.9965929 0.6280168 0.2879642
1.0000000 0.6388431 0.3003418
1.0000000 0.6465954 0.3124776
1.0000000 0.6566647 0.3247530
1.0000000 0.6627314 0.3345085
1.0000000 0.6714915 0.3458470
1.0000000 0.6775296 0.3568722
1.0000000 0.6846876 0.3663076
1.0000000 0.6902736 0.3766124
1.0000000 0.6974865 0.3868240
1.0000000 0.7026240 0.3968146
1.0000000 0.7092527 0.4092383
1.0000000 0.7165673 0.4202785
1.0000000 0.7210158 0.4299922
1.0000000 0.7265713 0.4381660
1.0000000 0.7305313 0.4473772
1.0000000 0.7358807 0.4563086
1.0000000 0.7388291 0.4634901
1.0000000 0.7438607 0.4711961
1.0000000 0.7466798 0.4793041
1.0000000 0.7508554 0.4860340
1.0000000 0.7534370 0.4928787
1.0000000 0.7559830 0.4998029
1.0000000 0.7599186 0.5065532
1.0000000 0.7617604 0.5125273
1.0000000 0.7661166 0.5199339
1.0000000 0.7677981 0.5248333
1.0000000 0.7714343 0.5314789
1.0000000 0.7730973 0.5373904
1.0000000 0.7766311 0.5439459
1.0000000 0.7781547 0.5487945
1.0000000 0.7797319 0.5548856
1.0000000 0.7830590 0.5602188
1.0000000 0.7845373 0.5661049
1.0000000 0.7877233 0.5714873
1.0000000 0.7891689 0.5775898
1.0000000 0.7918805 0.5821929
1.0000000 0.7931459 0.5866750
1.0000000 0.7963893 0.5933362
1.0000000 0.7972779 0.5973839
1.0000000 0.7985034 0.6019261
1.0000000 0.8012680 0.6078368
1.0000000 0.8020957 0.6117740
0.0426443 0.5187467 0.1095468
0.0426753 0.5187392 0.1083940
0.0468948 0.5190400 0.1098409
0.0776713 0.5212196 0.1138768
0.1328155 0.5293791 0.1205930
0.1937094 0.5341274 0.1265785
0.2562887 0.5433156 0.1333222
0.3210754 0.5491033 0.1396022
0.3843442 0.5552255 0.1463227
0.4496971 0.5658758 0.1549484
0.5138369 0.5732131 0.1635780
0.5757261 0.5846181 0.1741300
0.6317760 0.5923251 0.1847795
0.6755611 0.6023892 0.1954219
0.7299229 0.6112826 0.2081901
0.7827076 0.6209436 0.2224164
0.8282828 0.6335766 0.2370746
0.8672314 0.6424643 0.2509926
0.9032300 0.6551263 0.2661720
0.9319227 0.6632250 0.2786446
0.9577453 0.6747017 0.2929640
0.9812948 0.6828756 0.3059960
0.9990900 0.6897328 0.3176235
1.0000000 0.6992637 0.3300656
1.0000000 0.7047031 0.3404586
1.0000000 0.7126944 0.3515582
1.0000000 0.7179384 0.3618118
1.0000000 0.7257667 0.3735646
1.0000000 0.7305757 0.3837104
1.0000000 0.7345008 0.3926470
1.0000000 0.7411562 0.4029005
1.0000000 0.7451829 0.4124422
1.0000000 0.7532114 0.4254794
1.0000000 0.7586035 0.4376739
1.0000000 0.7623374 0.4464836
1.0000000 0.7674316 0.4554757
1.0000000 0.7701179 0.4627550
1.0000000 0.7748731 0.4716775
1.0000000 0.7773762 0.4787301
1.0000000 0.7818549 0.4865125
1.0000000 0.7842296 0.4945676
1.0000000 0.7864957 0.5014278
1.0000000 0.7907041 0.5090364
1.0000000 0.7923412 0.5151006
1.0000000 0.7963972 0.5226528
1.0000000 0.7979313 0.5284609
1.0000000 0.7998767 0.5342293
1.0000000 0.8032454 0.5409025
1.0000000 0.8046547 0.5467268
1.0000000 0.8079119 0.5532818
1.0000000 0.8092352 0.5581189
1.0000000 0.8105671 0.5641144
1.0000000 0.8136304 0.5694466
1.0000000 0.8149254 0.5753281
1.0000000 0.8161172 0.5800618
1.0000000 0.8190860 0.5867262
1.0000000 0.8198905 0.5906741
1.0000000 0.8227313 0.5958447
1.0000000 0.8238602 0.6017636
1.0000000 0.8246128 0.6057435
1.0000000 0.8273225 0.6108625
1.0000000 0.8280581 0.6147465
1.0000000 0.8307299 0.6211229
1.0000000 0.8314284 0.6251545
0.0569539 0.5940599 0.1301123
0.0560613 0.5899547 0.1282051
0.0600484 0.5901862 0.1292043
0.0884981 0.5959032 0.1334254
0.1399923 0.5990659 0.1384261
0.1993730 0.6068808 0.1448104
0.2599347 0.6111233 0.1503483
0.3222575 0.6158509 0.1565512
0.3864222 0.6248782 0.1647158
0.4492583 0.6305004 0.1724306
0.5112388 0.6365912 0.1815380
0.5711948 0.6466050 0.1926875
0.6260276 0.6531022 0.2037479
0.6684988 0.6619912 0.2146787
0.7200364 0.6692705 0.2274382
0.7713264 0.6773731 0.2409909
0.8157315 0.6884240 0.2555578
0.8535876 0.6958832 0.2687255
0.8891181 0.7067561 0.2837230
0.9204973 0.7144766 0.2976380
0.9461980 0.7215521 0.3103977
0.9656203 0.7303760 0.3230499
0.9831253 0.7362144 0.3345618
0.9977708 0.7444081 0.3472034
1.0000000 0.7497836 0.3587021
1.0000000 0.7542029 0.3686123
1.0000000 0.7609490 0.3801637
1.0000000 0.7653294 0.3905532
1.0000000 0.7694267 0.4006182
1.0000000 0.7746935 0.4101769
1.0000000 0.7782189 0.4196874
1.0000000 0.7834934 0.4297491
1.0000000 0.7882811 0.4419843
1.0000000 0.7928571 0.4532411
1.0000000 0.7971807 0.4622673
1.0000000 0.8001759 0.4707919
1.0000000 0.8024825 0.4789649
1.0000000 0.8063176 0.4866453
1.0000000 0.8084483 0.4937078
1.0000000 0.8104928 0.5006969
1.0000000 0.8140994 0.5092150
1.0000000 0.8160288 0.5160896
1.0000000 0.8194193 0.5236344
1.0000000 0.8208069 0.5295437
1.0000000 0.8225409 0.5351273
1.0000000 0.8253343 0.5416806
1.0000000 0.8266326 0.5476553
1.0000000 0.8282660 0.5542709
1.0000000 0.8308580 0.5594168
1.0000000 0.8320552 0.5654484
1.0000000 0.8332351 0.5714271
1.0000000 0.8357100 0.5766020
1.0000000 0.8368318 0.5824107
1.0000000 0.8379092 0.5871767
1.0000000 0.8403164 0.5936875
1.0000000 0.8413109 0.5982045
1.0000000 0.8434877 0.6026770
1.0000000 0.8445157 0.6086248
1.0000000 0.8454356 0.6131091
1.0000000 0.8475250 0.6175890
1.0000000 0.8484234 0.6219640
1.0000000 0.8491139 0.6271962
1.0000000 0.8513741 0.6322642
1.0000000 0.8519734 0.6361867
0.0710874 0.6513489 0.1478027
0.0702282 0.6482611 0.1463931
0.0734650 0.6484177 0.1468258
0.0982962 0.6496489 0.1492656
0.1477177 0.6552325 0.1544899
0.2062490 0.6584819 0.1596125
0.2645194 0.6648974 0.1659631
0.3270406 0.6689492 0.1724328
0.3888537 0.6733347 0.1796129
0.4500499 0.6808641 0.1887049
0.5104353 0.6859976 0.1983329
0.5682816 0.6914326 0.2090341
0.6222496 0.6996518 0.2209185
0.6673430 0.7047729 0.2317434
0.7127540 0.7104467 0.2430156
0.7626812 0.7201952 0.2573599
0.8064684 0.7270043 0.2706923
0.8477538 0.7342414 0.2848194
0.8824186 0.7437114 0.2995313
0.9097723 0.7497139 0.3116297
0.9349056 0.7558484 0.3242911
0.9569030 0.7643191 0.3381217
0.9739134 0.7694179 0.3498352
0.9888856 0.7743516 0.3614045
0.9995518 0.7805895 0.3722976
1.0000000 0.7850927 0.3832514
1.0000000 0.7910541 0.3949915
1.0000000 0.7948680 0.4053144
1.0000000 0.7978528 0.4141047
1.0000000 0.8032693 0.4250403
1.0000000 0.8063267 0.4343624
1.0000000 0.8092880 0.4429091
1.0000000 0.8152905 0.4559293
1.0000000 0.8184948 0.4661590
1.0000000 0.8214968 0.4753568
1.0000000 0.8253241 0.4844115
1.0000000 0.8277948 0.4925877
1.0000000 0.8296834 0.4996138
1.0000000 0.8331608 0.5074009
1.0000000 0.8349165 0.5142334
1.0000000 0.8366618 0.5220954
1.0000000 0.8398908 0.5297465
1.0000000 0.8410854 0.5345497
1.0000000 0.8426611 0.5412164
1.0000000 0.8456841 0.5479989
1.0000000 0.8471625 0.5547376
1.0000000 0.8482761 0.5605624
1.0000000 0.8512812 0.5660588
1.0000000 0.8526262 0.5727668
1.0000000 0.8536475 0.5786867
1.0000000 0.8546202 0.5832860
1.0000000 0.8574519 0.5898900
1.0000000 0.8583760 0.5945945
1.0000000 0.8593283 0.6005512
1.0000000 0.8619930 0.6058726
1.0000000 0.8625784 0.6096646
1.0000000 0.8634589 0.6155304
1.0000000 0.8660313 0.6208686
1.0000000 0.8665749 0.6246830
1.0000000 0.8673442 0.6289963
1.0000000 0.8697910 0.6340397
1.0000000 0.8703727 0.6394293
1.0000000 0.8710892 0.6437827
1.0000000 0.8732276 0.6483494
0.0848354 0.6970644 0.1630718
0.0847932 0.6970660 0.1628401
0.0859248 0.6933118 0.1617380
0.1094508 0.6980828 0.1649692
0.1558227 0.7001016 0.1688603
0.2137184 0.7028254 0.1740407
0.2718172 0.7097684 0.1810515
0.3298379 0.7129671 0.1874179
0.3924347 0.7167622 0.1952603
0.4520074 0.7244884 0.2054756
0.5108740 0.7287864 0.2151948
0.5667377 0.7333119 0.2256848
0.6198971 0.7416012 0.2383105
0.6641047 0.7459382 0.2490674
0.7114948 0.7510965 0.2608376
0.7600636 0.7603114 0.2753485
0.8025775 0.7661098 0.2884784
0.8389142 0.7716784 0.3007734
0.8727022 0.7805463 0.3155352
0.9027105 0.7862995 0.3288209
0.9270450 0.7915272 0.3413286
0.9463552 0.7961265 0.3531289
0.9647002 0.8038120 0.3665701
0.9772161 0.8074067 0.3771684
0.9901323 0.8114511 0.3882166
0.9990515 0.8172402 0.3999319
1.0000000 0.8205113 0.4100286
1.0000000 0.8237774 0.4202273
1.0000000 0.8291556 0.4314415
1.0000000 0.8315831 0.4401698
1.0000000 0.8341491 0.4486341
1.0000000 0.8388491 0.4591669
1.0000000 0.8421479 0.4705870
1.0000000 0.8455203 0.4816383
1.0000000 0.8500743 0.4917628
1.0000000 0.8518217 0.4998382
1.0000000 0.8534963 0.5069677
1.0000000 0.8554637 0.5149667
1.0000000 0.8589323 0.5228269
1.0000000 0.8603879 0.5295255
1.0000000 0.8618197 0.5364581
1.0000000 0.8647183 0.5433029
1.0000000 0.8660384 0.5498908
1.0000000 0.8673391 0.5566219
1.0000000 0.8700631 0.5634221
1.0000000 0.8712757 0.5699633
1.0000000 0.8721681 0.5745254
1.0000000 0.8730603 0.5804839
1.0000000 0.8755937 0.5872064
1.0000000 0.8766631 0.5924681
1.0000000 0.8774819 0.5981647
1.0000000 0.8798704 0.6036497
1.0000000 0.8806254 0.6082176
1.0000000 0.8813985 0.6139964
1.0000000 0.8834542 0.6185735
1.0000000 0.8841445 0.6229745
1.0000000 0.8848605 0.6287820
1.0000000 0.8855427 0.6331753
1.0000000 0.8874895 0.6376653
1.0000000 0.8881165 0.6418473
1.0000000 0.8885920 0.6471388
1.0000000 0.8906721 0.6522651
1.0000000 0.8910851 0.6560102
1.0000000 0.8916622 0.6601664
0.1028244 0.7478114 0.1816691
0.1027930 0.7478141 0.1814990
0.1027893 0.7441792 0.1801616
0.1241194 0.7485014 0.1832863
0.1691985 0.7500431 0.1871240
0.2250006 0.7521214 0.1924193
0.2802191 0.7578396 0.1993860
0.3383760 0.7604122 0.2064618
0.3958097 0.7632211 0.2146140
0.4556689 0.7664866 0.2238234
0.5134389 0.7732069 0.2351666
0.5671384 0.7768028 0.2458009
0.6189816 0.7806861 0.2570392
0.6624119 0.7873017 0.2685849
0.7077279 0.7914505 0.2800031
0.7543637 0.7962632 0.2927575
0.7957536 0.8038856 0.3063916
0.8348430 0.8090047 0.3195091
0.8679311 0.8139040 0.3330035
0.8939614 0.8182280 0.3449304
0.9171710 0.8250738 0.3581663
0.9386760 0.8294666 0.3710219
0.9548892 0.8331348 0.3828305
0.9685308 0.8389475 0.3950565
0.9809808 0.8423109 0.4061121
0.9903386 0.8450579 0.4166727
0.9989916 0.8478109 0.4266140
1.0000000 0.8526226 0.4380058
1.0000000 0.8547502 0.4459923
1.0000000 0.8571991 0.4558049
