Plugins/FilmEmulator/Content/LUTs/FE_Kodak_Aerocolor_2460_64.cube
TITLE "FE_Kodak_Aerocolor_2460_33"
LUT_3D_SIZE 4
0.0002109 0.0002360 0.0002998
0.2494213 0.0030506 0.0073356
0.6330454 0.0114980 0.0261718
0.8203307 0.0249717 0.0537079
0.0023128 0.2044166 0.0180869
0.2800394 0.2597422 0.0443284
0.6569346 0.2960027 0.0778085
0.8338209 0.3385580 0.1175871
0.0095006 0.5342080 0.0630914
0.3004437 0.5802872 0.1005159
0.6711566 0.6124215 0.1460809
0.8366768 0.6392531 0.1950504
0.0221843 0.7317612 0.1243656
0.3196476 0.7550406 0.1660097
0.6831126 0.7773029 0.2206634
0.8439362 0.7894636 0.2693436
0.0096245 0.0311976 0.2603309
0.3299491 0.0503802 0.3178958
0.6866205 0.0697972 0.3629684
0.8410234 0.0922414 0.4093224
0.0151172 0.3545226 0.3835592
0.3575197 0.4002010 0.4272526
0.7040761 0.4362748 0.4719570
0.8513750 0.4699156 0.5166800
0.0244105 0.6446217 0.4674623
0.3803724 0.6780617 0.5117871
0.7165332 0.7010595 0.5470035
0.8587266 0.7138723 0.5810765
0.0419867 0.7928127 0.5345284
0.3924624 0.8090686 0.5770500
0.7271522 0.8199295 0.6105058
0.8600477 0.8281373 0.6351674
0.0385023 0.1078561 0.6063229
0.4077069 0.1381687 0.6347969
0.7247446 0.1669718 0.6616102
0.8588055 0.1942707 0.6868705
0.0481853 0.4763179 0.6792346
0.4357687 0.5186157 0.7026724
0.7390137 0.5442857 0.7244513
0.8672137 0.5667973 0.7386902
0.0594082 0.7187338 0.7262192
0.4502973 0.7374749 0.7463042
0.7499702 0.7563935 0.7595910
0.8736991 0.7669840 0.7774557
0.0705066 0.8263527 0.7618771
0.4743685 0.8430251 0.7744716
0.7595399 0.8514218 0.7915139
0.8748150 0.8580114 0.8024964
0.0821844 0.2128271 0.7781806
0.4842158 0.2520172 0.7914171
0.7587576 0.2842234 0.8035826
0.8745916 0.3179091 0.8152577
0.0961893 0.5712373 0.8120650
0.5014812 0.6093636 0.8273813
0.7707494 0.6326194 0.8370383
0.8816686 0.6529469 0.8421290
0.1117731 0.7637015 0.8370714
0.5265985 0.7841341 0.8462546
0.7803546 0.7943544 0.8546313
0.8830190 0.8028774 0.8623689
0.1290473 0.8558066 0.8562320
0.5397108 0.8653594 0.8640192
0.7889856 0.8722336 0.8713258
0.8882517 0.8776783 0.8750115
