Plugins/FilmEmulator/Content/LUTs/FE_Kodak_Vericolor_III_64.cube
TITLE "FE_Kodak_Vericolor_III_33"
LUT_3D_SIZE 64
0.0027970 0.0026869 0.0021846
0.0034589 0.0026851 0.0021844
0.0065491 0.0026798 0.0021840
0.0116599 0.0026752 0.0021837
0.0188421 0.0026717 0.0021835
0.0268337 0.0028997 0.0021874
0.0370593 0.0031850 0.0021920
0.0476245 0.0034811 0.0021963
0.0589775 0.0037834 0.0022940
0.0728757 0.0041796 0.0023848
0.0867303 0.0045678 0.0025092
0.0995035 0.0049509 0.0026138
0.1139681 0.0053652 0.0027946
0.1303769 0.0058916 0.0029163
0.1443243 0.0063312 0.0030975
0.1648542 0.0069695 0.0032777
0.1817403 0.0075799 0.0034674
0.1938197 0.0080151 0.0036656
0.2130867 0.0087157 0.0039270
0.2337168 0.0095015 0.0041188
0.2481129 0.0101187 0.0044173
0.2628607 0.0107773 0.0046304
0.2863786 0.0114773 0.0048852
0.3022006 0.0126160 0.0051740
0.3188601 0.0134728 0.0054763
0.3362499 0.0139291 0.0057921
0.3445129 0.0148960 0.0061304
0.3621057 0.0159279 0.0065057
0.3800706 0.0170332 0.0067159
0.3892423 0.0176090 0.0071402
0.4077401 0.0188641 0.0075973
0.4264239 0.0202523 0.0078432
0.4358900 0.0209777 0.0083387
0.4548679 0.0225186 0.0086084
0.4644388 0.0233278 0.0088922
0.4740820 0.0241606 0.0094938
0.4933217 0.0259301 0.0098214
0.5029675 0.0268863 0.0101523
0.5126494 0.0278853 0.0108389
0.5224010 0.0289264 0.0112039
0.5419365 0.0311299 0.0115907
0.5516881 0.0322889 0.0119809
0.5614067 0.0334898 0.0123868
0.5710843 0.0347340 0.0128124
0.5807525 0.0360157 0.0136960
0.5903259 0.0373508 0.0141661
0.5998408 0.0387229 0.0146519
0.6092930 0.0401211 0.0151541
0.6187190 0.0415681 0.0156733
0.6281602 0.0430652 0.0162100
0.6375099 0.0446143 0.0167649
0.6467248 0.0462262 0.0167783
0.6558730 0.0478843 0.0173523
0.6649136 0.0495987 0.0179808
0.6738392 0.0513718 0.0186317
0.6830724 0.0513554 0.0192905
0.6826816 0.0531939 0.0199881
0.6913620 0.0550893 0.0207105
0.6998821 0.0570386 0.0207268
0.7083055 0.0590407 0.0214752
0.7167360 0.0611091 0.0222502
0.7167707 0.0610961 0.0230347
0.7250549 0.0632325 0.0238649
0.7331573 0.0654531 0.0238836
0.0027437 0.0039473 0.0022031
0.0035504 0.0042881 0.0022069
0.0067214 0.0046970 0.0022111
0.0116752 0.0050852 0.0022147
0.0181782 0.0055146 0.0022185
0.0268215 0.0060684 0.0022231
0.0357855 0.0065199 0.0022267
0.0460473 0.0070039 0.0023251
0.0570422 0.0076154 0.0024399
0.0705659 0.0082804 0.0025419
0.0840347 0.0090034 0.0026775
0.0965522 0.0095414 0.0028299
0.1105553 0.0104886 0.0029934
0.1267101 0.0111693 0.0031361
0.1453270 0.0118932 0.0033162
0.1606672 0.0126646 0.0035064
0.1773431 0.0135239 0.0037078
0.1954708 0.0144602 0.0039708
0.2081439 0.0154638 0.0041628
0.2286171 0.0165325 0.0044651
0.2430566 0.0170919 0.0046774
0.2575626 0.0182749 0.0049352
0.2806896 0.0196164 0.0052244
0.2969701 0.0203187 0.0055259
0.3134004 0.0218093 0.0058494
0.3306054 0.0225886 0.0061869
0.3391755 0.0233968 0.0065610
0.3565567 0.0251126 0.0067735
0.3748281 0.0260065 0.0072019
0.3934771 0.0269587 0.0076575
0.4022134 0.0290197 0.0079057
0.4212966 0.0300946 0.0084056
0.4306755 0.0312169 0.0086707
0.4500932 0.0323702 0.0092514
0.4596258 0.0335745 0.0095634
0.4691944 0.0348224 0.0098858
0.4889109 0.0361046 0.0105546
0.4985456 0.0374435 0.0109102
0.5081916 0.0388195 0.0112775
0.5179572 0.0402217 0.0116570
0.5380180 0.0416686 0.0120492
0.5477927 0.0431698 0.0124572
0.5575769 0.0447139 0.0133164
0.5672829 0.0463203 0.0137733
0.5769435 0.0479820 0.0142457
0.5865509 0.0497008 0.0147341
0.5960985 0.0514784 0.0152391
0.6055791 0.0533166 0.0157612
0.6150361 0.0552173 0.0163009
0.6249729 0.0552003 0.0168454
0.6343594 0.0571422 0.0174216
0.6436130 0.0591606 0.0174354
0.6528040 0.0612335 0.0180667
0.6618872 0.0633748 0.0187205
0.6712877 0.0633546 0.0193823
0.6801327 0.0655657 0.0200830
0.6797449 0.0678567 0.0208087
0.6884726 0.0702149 0.0215600
0.6974488 0.0702073 0.0215600
0.7059103 0.0726419 0.0223380
0.7143812 0.0751550 0.0231436
0.7144160 0.0751392 0.0239590
0.7227072 0.0777487 0.0239777
0.7308884 0.0804073 0.0248411
0.0026498 0.0079122 0.0022370
0.0035736 0.0086021 0.0022410
0.0066719 0.0093420 0.0022447
0.0116742 0.0099258 0.0022475
0.0182270 0.0105626 0.0022505
0.0259778 0.0116058 0.0022708
0.0359789 0.0123512 0.0023706
0.0463270 0.0131565 0.0024694
0.0574316 0.0140645 0.0025969
0.0686021 0.0150369 0.0027077
0.0819201 0.0155404 0.0028603
0.0974785 0.0166123 0.0030237
0.1117378 0.0177600 0.0031682
0.1239268 0.0183552 0.0034090
0.1421414 0.0197004 0.0036052
0.1573792 0.0204058 0.0037414
0.1737451 0.0218993 0.0040071
0.1918409 0.0226773 0.0042950
0.2042986 0.0243394 0.0045031
0.2247632 0.0252061 0.0047176
0.2390150 0.0261045 0.0049741
0.2610215 0.0280737 0.0054134
0.2765296 0.0291204 0.0055700
0.2926442 0.0302000 0.0058916
0.3093207 0.0313185 0.0062318
0.3263870 0.0324769 0.0066089
0.3438775 0.0336764 0.0070272
0.3521198 0.0362364 0.0072551
0.3702693 0.0375703 0.0077141
0.3887891 0.0389479 0.0079577
0.3980075 0.0403480 0.0084606
0.4170004 0.0418004 0.0087274
0.4264020 0.0432982 0.0093116
0.4457458 0.0448521 0.0096255
0.4552710 0.0464639 0.0099498
0.4653591 0.0464409 0.0106142
0.4850293 0.0481026 0.0109716
0.4946707 0.0498262 0.0113409
0.5043221 0.0516088 0.0117225
0.5243556 0.0534466 0.0121169
0.5342004 0.0553410 0.0129469
0.5439913 0.0572880 0.0133911
0.5542332 0.0572706 0.0138395
0.5639588 0.0592819 0.0143140
0.5736411 0.0613599 0.0148046
0.5832729 0.0635066 0.0153118
0.5928471 0.0657240 0.0158362
0.6028221 0.0657040 0.0163654
0.6123067 0.0679933 0.0169254
0.6218114 0.0703572 0.0175043
0.6316841 0.0703348 0.0181238
0.6409657 0.0727891 0.0181381
0.6501866 0.0753073 0.0187945
0.6593009 0.0779065 0.0194742
0.6687360 0.0778816 0.0201623
0.6776185 0.0805449 0.0208907
0.6772333 0.0832920 0.0216449
0.6863806 0.0832827 0.0216448
0.6950153 0.0861062 0.0224257
0.7039228 0.0860789 0.0232161
0.7124304 0.0889890 0.0240526
0.7120684 0.0919992 0.0249188
0.7207941 0.0919889 0.0249186
0.7290123 0.0950801 0.0258465
0.0025728 0.0142165 0.0022661
0.0036503 0.0151944 0.0022693
0.0068726 0.0162238 0.0022722
0.0117370 0.0173275 0.0022753
0.0183858 0.0178957 0.0022927
0.0262708 0.0191568 0.0023938
0.0351571 0.0198295 0.0025163
0.0452609 0.0212754 0.0026207
0.0562100 0.0220258 0.0027678
0.0696080 0.0236295 0.0029261
0.0830989 0.0244663 0.0030497
0.0955971 0.0253315 0.0032515
0.1095889 0.0272043 0.0034387
0.1259180 0.0282083 0.0036339
0.1396725 0.0292509 0.0038523
0.1546839 0.0303335 0.0040360
0.1707994 0.0326323 0.0043297
0.1886238 0.0338364 0.0045361
0.2079004 0.0350785 0.0048700
0.2214561 0.0363719 0.0051513
0.2428733 0.0377077 0.0054490
0.2576809 0.0390841 0.0057637
0.2730939 0.0404863 0.0060964
0.2890657 0.0419441 0.0062724
0.3056334 0.0434444 0.0066519
0.3225988 0.0449956 0.0070728
0.3399607 0.0466085 0.0072962
0.3578227 0.0482679 0.0077576
0.3667260 0.0499889 0.0082480
0.3851790 0.0517728 0.0085082
0.3947932 0.0517579 0.0087694
0.4137730 0.0535909 0.0093564
0.4231154 0.0555019 0.0096718
0.4424642 0.0574378 0.0103260
0.4519796 0.0594553 0.0106737
0.4720511 0.0594314 0.0110243
0.4816729 0.0615152 0.0113952
0.4913145 0.0636678 0.0117785
0.5010079 0.0658782 0.0125767
0.5210502 0.0681666 0.0130085
0.5313486 0.0681458 0.0134442
0.5411462 0.0705151 0.0139053
0.5509182 0.0729613 0.0143821
0.5611342 0.0729391 0.0148632
0.5708299 0.0754636 0.0153725
0.5804769 0.0780690 0.0158989
0.5905386 0.0780453 0.0164302
0.6000673 0.0807151 0.0169923
0.6095782 0.0834598 0.0175733
0.6195676 0.0834333 0.0181952
0.6290131 0.0862618 0.0188535
0.6383262 0.0891965 0.0188682
0.6480210 0.0891683 0.0195352
0.6571655 0.0921742 0.0202412
0.6666285 0.0921450 0.0209560
0.6755407 0.0952422 0.0217125
0.6843317 0.0984336 0.0224958
0.6843317 0.0984336 0.0224958
0.6929967 0.1017214 0.0233068
0.7019367 0.1016894 0.0241277
0.7104773 0.1050746 0.0249964
0.7192315 0.1050628 0.0249963
0.7188758 0.1085599 0.0259271
0.7275131 0.1085245 0.0268870
0.0025105 0.0230820 0.0022907
0.0037501 0.0238882 0.0022922
0.0071366 0.0255976 0.0022954
0.0122798 0.0264755 0.0023290
0.0186621 0.0274169 0.0024298
0.0267215 0.0284107 0.0025366
0.0356978 0.0305535 0.0026678
0.0460441 0.0316683 0.0027903
0.0571803 0.0328245 0.0029476
0.0684078 0.0340257 0.0031139
0.0816807 0.0352707 0.0032755
0.0939745 0.0365630 0.0034614
0.1079291 0.0379013 0.0036579
0.1240445 0.0392749 0.0038777
0.1376346 0.0406753 0.0041564
0.1524676 0.0421299 0.0043544
0.1686726 0.0436285 0.0046673
0.1863283 0.0451842 0.0048975
0.2054208 0.0467908 0.0051805
0.2188636 0.0484576 0.0054796
0.2401099 0.0501758 0.0057961
0.2548075 0.0519580 0.0061306
0.2701069 0.0538005 0.0064844
0.2863636 0.0537791 0.0066839
0.3028412 0.0556812 0.0071068
0.3197233 0.0576245 0.0075564
0.3370082 0.0596431 0.0077948
0.3547990 0.0617172 0.0082875
0.3640822 0.0616994 0.0085420
0.3825194 0.0638402 0.0090945
0.4012939 0.0660627 0.0094011
0.4105485 0.0683649 0.0097179
0.4302044 0.0683240 0.0103670
0.4396562 0.0706999 0.0107160
0.4491580 0.0731528 0.0110767
0.4687276 0.0756771 0.0114495
0.4788610 0.0756399 0.0122131
0.4884977 0.0782517 0.0126266
0.5083683 0.0809199 0.0130600
0.5186790 0.0808954 0.0134974
0.5285032 0.0836461 0.0139602
0.5383115 0.0864827 0.0144388
0.5485717 0.0864565 0.0149218
0.5583235 0.0893803 0.0154329
0.5685077 0.0893532 0.0159488
0.5781717 0.0923664 0.0164946
0.5877823 0.0954719 0.0170589
0.5977939 0.0954432 0.0176284
0.6073245 0.0986411 0.0182665
0.6173343 0.0986102 0.0189126
0.6267607 0.1019243 0.0189273
0.6365823 0.1018924 0.0195964
0.6458557 0.1052842 0.0203046
0.6550252 0.1087769 0.0210380
0.6645163 0.1087430 0.0217804
0.6734529 0.1123649 0.0225662
0.6826549 0.1123526 0.0225661
0.6822636 0.1161496 0.0233801
0.6913717 0.1161135 0.0242036
0.6999226 0.1200093 0.0250754
0.7088606 0.1199960 0.0250753
0.7172777 0.1240048 0.0260093
0.7173142 0.1239787 0.0269724
0.7255864 0.1281029 0.0279924
0.0024643 0.0332079 0.0023094
0.0038692 0.0344042 0.0023110
0.0072346 0.0356177 0.0023612
0.0124699 0.0382572 0.0024653
0.0189954 0.0396111 0.0025808
0.0262378 0.0410024 0.0026856
0.0351238 0.0424403 0.0028469
0.0453140 0.0439328 0.0030074
0.0562814 0.0454848 0.0031343
0.0699385 0.0454342 0.0033544
0.0805765 0.0470442 0.0035447
0.0960450 0.0487034 0.0037458
0.1102718 0.0504290 0.0038996
0.1224453 0.0522091 0.0041798
0.1406889 0.0540503 0.0043790
0.1558117 0.0559521 0.0046937
0.1723364 0.0579019 0.0049251
0.1843586 0.0578693 0.0052053
0.2032988 0.0598795 0.0055060
0.2236946 0.0619558 0.0058239
0.2377364 0.0641074 0.0061600
0.2526952 0.0640720 0.0065101
0.2679194 0.0662906 0.0069221
0.2837062 0.0685938 0.0071407
0.3000956 0.0709589 0.0075923
0.3172719 0.0709308 0.0078257
0.3345178 0.0733713 0.0083204
0.3522106 0.0759036 0.0085828
0.3614967 0.0758675 0.0091306
0.3798444 0.0784786 0.0094384
0.3985715 0.0811547 0.0097564
0.4083053 0.0811148 0.0104080
0.4274249 0.0838643 0.0107584
0.4368650 0.0867085 0.0111205
0.4468286 0.0866828 0.0114855
0.4664226 0.0895879 0.0122612
0.4760343 0.0926090 0.0126763
0.4861482 0.0925812 0.0131009
0.5060163 0.0956836 0.0135504
0.5163279 0.0956548 0.0140041
0.5261546 0.0988607 0.0144841
0.5359674 0.1021633 0.0149804
0.5462342 0.1021327 0.0154814
0.5559942 0.1055334 0.0160114
0.5661890 0.1055019 0.0165464
0.5758650 0.1090028 0.0171124
0.5959418 0.1089585 0.0176837
0.6054826 0.1125873 0.0183238
0.6055233 0.1125645 0.0189719
0.6150826 0.1163555 0.0196582
0.6249813 0.1163428 0.0196582
0.6343647 0.1202457 0.0203690
0.6441041 0.1202085 0.0210882
0.6532842 0.1242250 0.0218497
0.6627973 0.1241866 0.0226203
0.6717127 0.1283441 0.0226383
0.6809766 0.1283047 0.0234361
0.6805841 0.1325698 0.0242809
0.6897177 0.1325292 0.0251354
0.6982577 0.1369272 0.0251553
0.7072604 0.1368841 0.0260715
0.7157050 0.1413761 0.0270582
0.7157416 0.1413469 0.0280593
0.7240053 0.1459931 0.0280814
0.0024233 0.0460278 0.0023266
0.0039656 0.0476149 0.0023772
0.0075619 0.0492243 0.0024798
0.0127297 0.0509047 0.0025958
0.0194483 0.0508210 0.0027253
0.0268846 0.0525852 0.0028609
0.0359824 0.0544112 0.0030221
0.0464272 0.0563038 0.0031924
0.0576665 0.0582426 0.0033734
0.0689877 0.0602517 0.0035648
0.0825196 0.0601972 0.0037639
0.0949370 0.0622743 0.0040089
0.1090219 0.0644254 0.0041999
0.1210764 0.0666442 0.0045016
0.1393718 0.0665949 0.0047123
0.1543657 0.0688926 0.0049446
0.1707704 0.0712609 0.0052302
0.1886094 0.0737052 0.0055323
0.2015141 0.0736639 0.0058469
0.2217766 0.0761850 0.0061844
0.2357318 0.0787952 0.0065412
0.2506078 0.0787494 0.0069496
0.2657225 0.0814348 0.0071690
0.2897092 0.0841708 0.0076225
0.2981674 0.0841314 0.0080978
0.3148729 0.0869758 0.0083532
0.3320524 0.0898923 0.0088810
0.3501158 0.0898562 0.0091666
0.3682069 0.0928760 0.0094756
0.3776842 0.0928308 0.0101086
0.3963713 0.0959414 0.0104490
0.4055905 0.0991568 0.0108007
0.4251353 0.0991171 0.0111554
0.4346000 0.1024090 0.0119090
0.4545152 0.1023681 0.0122998
0.4640875 0.1057767 0.0127161
0.4741690 0.1057452 0.0131421
0.4838014 0.1092538 0.0135929
0.5041428 0.1092098 0.0140480
0.5139726 0.1128476 0.0145296
0.5242797 0.1128140 0.0150157
0.5340853 0.1166142 0.0155303
0.5438706 0.1205270 0.0160623
0.5541129 0.1204914 0.0165990
0.5739517 0.1245047 0.0171671
0.5840536 0.1244680 0.0177402
0.5936193 0.1286088 0.0183826
0.6036415 0.1285695 0.0190327
0.6136832 0.1285300 0.0197054
0.6231726 0.1327874 0.0204179
0.6231726 0.1327874 0.0204179
0.6325732 0.1371660 0.0211556
0.6423327 0.1371241 0.0219021
0.6515325 0.1416248 0.0226926
0.6610681 0.1415818 0.0234923
0.6700053 0.1462352 0.0235109
0.6792936 0.1461908 0.0243389
0.6880225 0.1509424 0.0252155
0.6880602 0.1509120 0.0261340
0.6970432 0.1508958 0.0261339
0.7056557 0.1557733 0.0271229
0.7145315 0.1557246 0.0281261
0.7141263 0.1607967 0.0281485
0.7228510 0.1607467 0.0291888
0.0024703 0.0589444 0.0024225
0.0040873 0.0609221 0.0025097
0.0076978 0.0629317 0.0026344
0.0130438 0.0628125 0.0027389
0.0192087 0.0649255 0.0029141
0.0275492 0.0671190 0.0030368
0.0368699 0.0693912 0.0032079
0.0459500 0.0693203 0.0033870
0.0570794 0.0716783 0.0035791
0.0682926 0.0741197 0.0037820
0.0817010 0.0740497 0.0040249
0.0940087 0.0765685 0.0043141
0.1079703 0.0791776 0.0045196
0.1242359 0.0818496 0.0047348
0.1380573 0.0817982 0.0049643
0.1529564 0.0845332 0.0053982
0.1695028 0.0844764 0.0057053
0.1872394 0.0873077 0.0060346
0.1997521 0.0902511 0.0062088
0.2202067 0.0901909 0.0065618
0.2340984 0.0932051 0.0069770
0.2485519 0.0963110 0.0074183
0.2718677 0.0962622 0.0076464
0.2878347 0.0994601 0.0081298
0.3047045 0.0994209 0.0083795
0.3129028 0.1027247 0.0089088
0.3304114 0.1026837 0.0091954
0.3480012 0.1060907 0.0095053
0.3660773 0.1095780 0.0101484
0.3754945 0.1095458 0.0104818
0.3941354 0.1131825 0.0108347
0.4038303 0.1131284 0.0115577
0.4228735 0.1169266 0.0119467
0.4327534 0.1168925 0.0123387
0.4521667 0.1208017 0.0127566
0.4622046 0.1207662 0.0131839
0.4717937 0.1248013 0.0136364
0.4919831 0.1247517 0.0140930
0.5017452 0.1289025 0.0145763
0.5120569 0.1288646 0.0150639
0.5218771 0.1331337 0.0155801
0.5321740 0.1330947 0.0161009
0.5419639 0.1374840 0.0166522
0.5623842 0.1374294 0.0172083
0.5720682 0.1419407 0.0177970
0.5821836 0.1418980 0.0184267
0.5922362 0.1418552 0.0190784
0.6017972 0.1464879 0.0197685
0.6118545 0.1464437 0.0204669
0.6213201 0.1512317 0.0204832
0.6311976 0.1511861 0.0212064
0.6307784 0.1560903 0.0219722
0.6405573 0.1560434 0.0227470
0.6502262 0.1559966 0.0235486
0.6592952 0.1610592 0.0235673
0.6687303 0.1610111 0.0243973
0.6776035 0.1661757 0.0252760
0.6867831 0.1661252 0.0261965
0.6863565 0.1714740 0.0262174
0.6954038 0.1714216 0.0271879
0.7044547 0.1713690 0.0281935
0.7129084 0.1768352 0.0282158
0.7216552 0.1767810 0.0292585
0.7212922 0.1823688 0.0303631
0.0025439 0.0725285 0.0025425
0.0043122 0.0749235 0.0026455
0.0078507 0.0773702 0.0027795
0.0133672 0.0772185 0.0029261
0.0197053 0.0797840 0.0030907
0.0272618 0.0824322 0.0032209
0.0365561 0.0823214 0.0034629
0.0471728 0.0850485 0.0036591
0.0565051 0.0878785 0.0038665
0.0702061 0.0877956 0.0040410
0.0808971 0.0907120 0.0043313
0.0965823 0.0906362 0.0045339
0.1071141 0.0936493 0.0048595
0.1232703 0.0967507 0.0051237
0.1370037 0.0966859 0.0054152
0.1517905 0.0998877 0.0057278
0.1682334 0.0998212 0.0060536
0.1858643 0.1031163 0.0064029
0.2049055 0.1065260 0.0065877
0.2186535 0.1064645 0.0069989
0.2324742 0.1099651 0.0074416
0.2547575 0.1099096 0.0076704
0.2700647 0.1135383 0.0081554
0.2863200 0.1134938 0.0084059
0.3027599 0.1172836 0.0089371
0.3199503 0.1172373 0.0092246
0.3283714 0.1211472 0.0098489
0.3463337 0.1210991 0.0101726
0.3643236 0.1251314 0.0105154
0.3737212 0.1250951 0.0108608
0.3923570 0.1292193 0.0115949
0.4116867 0.1291685 0.0119755
0.4210140 0.1334472 0.0123783
0.4308817 0.1334088 0.0127872
0.4502757 0.1377932 0.0132263
0.4603055 0.1377532 0.0136693
0.4698883 0.1422742 0.0141382
0.4900693 0.1422184 0.0146114
0.4998295 0.1468633 0.0151123
0.5101410 0.1468208 0.0156176
0.5204507 0.1467783 0.0161396
0.5302622 0.1515483 0.0166923
0.5507570 0.1514888 0.0172497
0.5604904 0.1563866 0.0178398
0.5706667 0.1563401 0.0184710
0.5803102 0.1613814 0.0191396
0.5903749 0.1613336 0.0198160
0.6004212 0.1612857 0.0205160
0.6100202 0.1664577 0.0212574
0.6199659 0.1664402 0.0212573
0.6293962 0.1717467 0.0220250
0.6391900 0.1716961 0.0228016
0.6392291 0.1716635 0.0236052
0.6484236 0.1771379 0.0236240
0.6579978 0.1770859 0.0244559
0.6670102 0.1826642 0.0253367
0.6763421 0.1826097 0.0262594
0.6855021 0.1825906 0.0262593
0.6851132 0.1883239 0.0272531
0.6941795 0.1882674 0.0282611
0.7028363 0.1941198 0.0293288
0.7117243 0.1940993 0.0293286
0.7204927 0.1940410 0.0304114
0.7201285 0.2000533 0.0315584
0.0026561 0.0888989 0.0027089
0.0044614 0.0887420 0.0027889
0.0082691 0.0915643 0.0029382
0.0136992 0.0944991 0.0031034
0.0202531 0.0943534 0.0032905
0.0280415 0.0974218 0.0034769
0.0376028 0.0973028 0.0036709
0.0467746 0.1004902 0.0038789
0.0581093 0.1037638 0.0041510
0.0696295 0.1036778 0.0043451
0.0831422 0.1070697 0.0045520
0.0958085 0.1069793 0.0048749
0.1100567 0.1104759 0.0051399
0.1225003 0.1104026 0.0054323
0.1407594 0.1140226 0.0057460
0.1561303 0.1139476 0.0060727
0.1727257 0.1177401 0.0064232
0.1847713 0.1176744 0.0068063
0.2037216 0.1215935 0.0070213
0.2174101 0.1215241 0.0074595
0.2383973 0.1255346 0.0079314
0.2533626 0.1254857 0.0081750
0.2686088 0.1296238 0.0086918
0.2848085 0.1295736 0.0089587
0.3011673 0.1338501 0.0092543
0.3183402 0.1337728 0.0098727
0.3355823 0.1381681 0.0102054
0.3446196 0.1381284 0.0105407
0.3626029 0.1426198 0.0112534
0.3814266 0.1425641 0.0116229
0.3905447 0.1472195 0.0120140
0.4098427 0.1471624 0.0124082
0.4191570 0.1519439 0.0128284
0.4290129 0.1519003 0.0132581
0.4488684 0.1518412 0.0137022
0.4584474 0.1567205 0.0146465
0.4685097 0.1566758 0.0151364
0.4881945 0.1617119 0.0156552
0.4984412 0.1616659 0.0161785
0.5082616 0.1668503 0.0167325
0.5185329 0.1668330 0.0167325
0.5288346 0.1667856 0.0172913
0.5488501 0.1720858 0.0178828
0.5590766 0.1720354 0.0185155
0.5687767 0.1774864 0.0191857
0.5789108 0.1774346 0.0198638
0.5889843 0.1773829 0.0205655
0.5985665 0.1829693 0.0213086
0.6086104 0.1829502 0.0213085
0.6181427 0.1886749 0.0220780
0.6280518 0.1886201 0.0228565
0.6378598 0.1885654 0.0236619
0.6374419 0.1944477 0.0245147
0.6471077 0.1944276 0.0245146
0.6566983 0.1943715 0.0253773
0.6657283 0.2003721 0.0263224
0.6750783 0.2003127 0.0272967
0.6842569 0.2002921 0.0272966
0.6929147 0.2064317 0.0283287
0.6929528 0.2063921 0.0293757
0.7015913 0.2127133 0.0293988
0.7105375 0.2126507 0.0304842
0.7193270 0.2125880 0.0316086
0.7189308 0.2189901 0.0316334
0.0027320 0.1049673 0.0028316
0.0046249 0.1047675 0.0029883
0.0084670 0.1080491 0.0031561
0.0140904 0.1078547 0.0033013
0.0208156 0.1112933 0.0034882
0.0288403 0.1148786 0.0036858
0.0372823 0.1147533 0.0038914
0.0481022 0.1185099 0.0041644
0.0577178 0.1184128 0.0043591
0.0690514 0.1223006 0.0046722
0.0825996 0.1222010 0.0048907
0.0950221 0.1262231 0.0051565
0.1093469 0.1261278 0.0054499
0.1215180 0.1302728 0.0057645
0.1398760 0.1301735 0.0060924
0.1549173 0.1344334 0.0064440
0.1716795 0.1343442 0.0068283
0.1833621 0.1387560 0.0070439
0.2025317 0.1386626 0.0074836
0.2161602 0.1385847 0.0079504
0.2370348 0.1431003 0.0082014
0.2519678 0.1430211 0.0087127
0.2671300 0.1476751 0.0089875
0.2833053 0.1475910 0.0095815
0.2996125 0.1523681 0.0099045
0.3167013 0.1523090 0.0102300
0.3338959 0.1572139 0.0105747
0.3429446 0.1571415 0.0112805
0.3612974 0.1570808 0.0116509
0.3796336 0.1621283 0.0120430
0.3891956 0.1620828 0.0124381
0.4079991 0.1672620 0.0128594
0.4178117 0.1671846 0.0137352
0.4375302 0.1671204 0.0141950
0.4470151 0.1724476 0.0146819
0.4570305 0.1723992 0.0151730
0.4766503 0.1778440 0.0156930
0.4867653 0.1777943 0.0162176
0.4970103 0.1777445 0.0167594
0.5068303 0.1833422 0.0173330
0.5171416 0.1832910 0.0179116
0.5371647 0.1890407 0.0179260
0.5474302 0.1889863 0.0185602
0.5576623 0.1889318 0.0192165
0.5673684 0.1948034 0.0199116
0.5775099 0.1947476 0.0206150
0.5875924 0.1946919 0.0213428
0.5971846 0.2007018 0.0221135
0.6072391 0.2006812 0.0221134
0.6167829 0.2068323 0.0229114
0.6267051 0.2067734 0.0237187
0.6365275 0.2067145 0.0245539
0.6457512 0.2130439 0.0245735
0.6457900 0.2130053 0.0254382
0.6553979 0.2129436 0.0263646
0.6644500 0.2192903 0.0273619
0.6737784 0.2192680 0.0273618
0.6830149 0.2192044 0.0283737
0.6916985 0.2256458 0.0294451
0.6916985 0.2256458 0.0294451
0.7008104 0.2255802 0.0305321
0.7093682 0.2321570 0.0316829
0.7181427 0.2321334 0.0316827
0.7181789 0.2320900 0.0328503
0.0028865 0.1197301 0.0030392
0.0048388 0.1235538 0.0031669
0.0086923 0.1233072 0.0033125
0.0144657 0.1272096 0.0035639
0.0206717 0.1270354 0.0037626
0.0286393 0.1311370 0.0039044
0.0384128 0.1309724 0.0041747
0.0477752 0.1352014 0.0044745
0.0594484 0.1350776 0.0046837
0.0710931 0.1394532 0.0049066
0.0820495 0.1393516 0.0051691
0.0943979 0.1438529 0.0054676
0.1086385 0.1437461 0.0057786
0.1252970 0.1436376 0.0061072
0.1389972 0.1482707 0.0064596
0.1542083 0.1481739 0.0068448
0.1706403 0.1529251 0.0072780
0.1887386 0.1528490 0.0075017
0.2013471 0.1577425 0.0079761
0.2218004 0.1576649 0.0082212
0.2357026 0.1627022 0.0087409
0.2505504 0.1626409 0.0090092
0.2660617 0.1625495 0.0096046
0.2817746 0.1677405 0.0099284
0.2984310 0.1676759 0.0102547
0.3150964 0.1729701 0.0109483
0.3326725 0.1729042 0.0113079
0.3507538 0.1728385 0.0116791
0.3595426 0.1783132 0.0120721
0.3782970 0.1782458 0.0124682
0.3874214 0.1838245 0.0133222
0.4066643 0.1837548 0.0137684
0.4164280 0.1837038 0.0142293
0.4356481 0.1894313 0.0147174
0.4456059 0.1893789 0.0152097
0.4556146 0.1893268 0.0157183
0.4752246 0.1951912 0.0162567
0.4853366 0.1951376 0.0167998
0.4950897 0.2011607 0.0173748
0.5053988 0.2011056 0.0179548
0.5259784 0.2010282 0.0185900
0.5357402 0.2072256 0.0186050
0.5460098 0.2071672 0.0192629
0.5562470 0.2071086 0.0199437
0.5659593 0.2134088 0.0206647
0.5761084 0.2133489 0.0213942
0.5861995 0.2132891 0.0221490
0.5957658 0.2196853 0.0221664
0.6058722 0.2196237 0.0229480
0.6158947 0.2195620 0.0237565
0.6253713 0.2260135 0.0246123
0.6351682 0.2259909 0.0246122
0.6448986 0.2259279 0.0254782
0.6444944 0.2325363 0.0264268
0.6541184 0.2324699 0.0274049
0.6635832 0.2324468 0.0274048
0.6725348 0.2391669 0.0284404
0.6817889 0.2390991 0.0294913
0.6908680 0.2390754 0.0294911
0.6904907 0.2459544 0.0306038
0.6996222 0.2458848 0.0317325
0.7085648 0.2458603 0.0317323
0.7169942 0.2528491 0.0329271
0.7170308 0.2528031 0.0341393
0.0030116 0.1365617 0.0032184
0.0050714 0.1408373 0.0033847
0.0092266 0.1405485 0.0035731
0.0143637 0.1449587 0.0037753
0.0212805 0.1447457 0.0039984
0.0295043 0.1493234 0.0041886
0.0381495 0.1491541 0.0044856
0.0492059 0.1538796 0.0046991
0.0590424 0.1537578 0.0049187
0.0707463 0.1536073 0.0053271
0.0844669 0.1584758 0.0056347
0.0973111 0.1583598 0.0059551
0.1079461 0.1634028 0.0062987
0.1244974 0.1633066 0.0064753
0.1381233 0.1684749 0.0068670
0.1532557 0.1683645 0.0072956
0.1698526 0.1682818 0.0075199
0.1876147 0.1735753 0.0079955
0.2004708 0.1734811 0.0084941
0.2205279 0.1789356 0.0087621
0.2346917 0.1788691 0.0090311
0.2495249 0.1787701 0.0096279
0.2645896 0.1843754 0.0099525
0.2806358 0.1843054 0.0102795
0.2972832 0.1842036 0.0109659
0.3138786 0.1899439 0.0113352
0.3314179 0.1898727 0.0117074
0.3490238 0.1957510 0.0121014
0.3582735 0.1956642 0.0129111
0.3769997 0.1955907 0.0133437
