Plugins/FilmEmulator/Content/LUTs/FE_Kodak_Vision_200T_5274_64.cube
# FilmEmulator LUT (resampled to 64)
LUT_3D_SIZE 64
0.000000 0.000000 0.000000
0.003596 0.000403 0.000000
0.007243 0.000830 0.000000
0.012451 0.002024 0.000000
0.017785 0.003219 0.000000
0.024993 0.004428 0.000000
0.032388 0.005674 0.000000
0.041596 0.007270 0.000000
0.051043 0.008867 0.000000
0.062173 0.010463 0.000000
0.073397 0.012062 0.000000
0.085132 0.013674 0.000000
0.096959 0.015359 0.000000
0.109189 0.017359 0.000000
0.121358 0.019270 0.000000
0.133310 0.020867 0.000000
0.145172 0.022467 0.000000
0.156766 0.024079 0.000000
0.168187 0.025574 0.000000
0.179162 0.026767 0.000000
0.189904 0.027966 0.000000
0.200134 0.029175 0.000000
0.210109 0.030245 0.000000
0.219596 0.031051 0.000000
0.228751 0.032003 0.000000
0.237354 0.033196 0.000000
0.245636 0.034554 0.000000
0.253448 0.036150 0.000000
0.260861 0.037753 0.000000
0.267759 0.039366 0.000000
0.274380 0.041123 0.000000
0.280689 0.043045 0.000000
0.286688 0.044913 0.000000
0.292377 0.046727 0.000000
0.297868 0.048507 0.000000
0.303185 0.050259 0.000000
0.308284 0.051958 0.000000
0.313213 0.053617 0.000000
0.317903 0.055239 0.000000
0.322430 0.056835 0.000000
0.326724 0.058209 0.000000
0.330878 0.059449 0.000000
0.334961 0.060852 0.000000
0.339007 0.062340 0.000000
0.342935 0.063604 0.000000
0.346810 0.064767 0.000000
0.350663 0.066108 0.000000
0.354508 0.067518 0.000000
0.358189 0.068882 0.000000
0.361817 0.070231 0.000000
0.365456 0.071568 0.000000
0.369098 0.072901 0.000000
0.372716 0.074196 0.000000
0.376328 0.075483 0.000000
0.380070 0.076534 0.000000
0.383837 0.077541 0.000000
0.387726 0.078087 0.000000
0.391632 0.078568 0.000000
0.395524 0.079063 0.000000
0.399415 0.079559 0.000000
0.403306 0.079822 0.000000
0.407196 0.080070 0.000000
0.411012 0.080303 0.000000
0.414825 0.080536 0.000000
0.000000 0.002403 0.000000
0.004210 0.003412 0.000000
0.008471 0.004434 0.000000
0.014285 0.005840 0.000000
0.020225 0.007258 0.000000
0.028048 0.008869 0.000000
0.036074 0.010517 0.000000
0.046077 0.012523 0.000000
0.056301 0.014503 0.000000
0.068077 0.016305 0.000000
0.079955 0.018107 0.000000
0.092390 0.019916 0.000000
0.104902 0.021761 0.000000
0.117747 0.023761 0.000000
0.130501 0.025719 0.000000
0.142932 0.027528 0.000000
0.155239 0.029286 0.000000
0.167172 0.030890 0.000000
0.178871 0.032434 0.000000
0.189972 0.033824 0.000000
0.200838 0.035264 0.000000
0.211187 0.036812 0.000000
0.221252 0.038215 0.000000
0.230778 0.039344 0.000000
0.239955 0.040598 0.000000
0.248550 0.042059 0.000000
0.256824 0.043655 0.000000
0.264629 0.045449 0.000000
0.272061 0.047221 0.000000
0.279014 0.048967 0.000000
0.285684 0.050766 0.000000
0.292032 0.052625 0.000000
0.298094 0.054509 0.000000
0.303869 0.056417 0.000000
0.309435 0.058217 0.000000
0.314814 0.059921 0.000000
0.319967 0.061653 0.000000
0.324944 0.063406 0.000000
0.329686 0.064973 0.000000
0.334267 0.066412 0.000000
0.338660 0.067805 0.000000
0.342941 0.069172 0.000000
0.347093 0.070525 0.000000
0.351178 0.071871 0.000000
0.355184 0.073178 0.000000
0.359153 0.074466 0.000000
0.363061 0.075826 0.000000
0.366945 0.077213 0.000000
0.370725 0.078571 0.000000
0.374470 0.079919 0.000000
0.378203 0.081244 0.000000
0.381933 0.082561 0.000000
0.385669 0.083757 0.000000
0.389406 0.084926 0.000000
0.393248 0.085885 0.000000
0.397109 0.086806 0.000000
0.401038 0.087404 0.000000
0.404975 0.087955 0.000000
0.408949 0.088421 0.000000
0.412927 0.088878 0.000000
0.416860 0.089116 0.000000
0.420790 0.089341 0.000000
0.424652 0.089459 0.000000
0.428512 0.089573 0.000000
0.000013 0.004842 0.000013
0.004830 0.006446 0.000013
0.009698 0.008050 0.000012
0.016113 0.009674 0.000006
0.022654 0.011323 0.000000
0.031088 0.013335 0.000000
0.039744 0.015385 0.000000
0.050537 0.017794 0.000000
0.061533 0.020153 0.000000
0.073956 0.022166 0.000000
0.086491 0.024177 0.000000
0.099631 0.026183 0.000000
0.112831 0.028188 0.000000
0.126289 0.030192 0.000000
0.139627 0.032199 0.000000
0.152540 0.034215 0.000000
0.165291 0.036129 0.000000
0.177562 0.037731 0.000000
0.189539 0.039330 0.000000
0.200769 0.040916 0.000000
0.211760 0.042594 0.000000
0.222225 0.044474 0.000000
0.232381 0.046208 0.000000
0.241943 0.047663 0.000000
0.251142 0.049220 0.000000
0.259732 0.050948 0.000000
0.268000 0.052781 0.000000
0.275797 0.054767 0.000000
0.283250 0.056705 0.000000
0.290258 0.058583 0.000000
0.296977 0.060425 0.000000
0.303366 0.062229 0.000000
0.309492 0.064130 0.000000
0.315355 0.066127 0.000000
0.320995 0.067945 0.000000
0.326438 0.069605 0.000000
0.331647 0.071366 0.000000
0.336673 0.073206 0.000000
0.341468 0.074719 0.000000
0.346106 0.076008 0.000000
0.350598 0.077419 0.000000
0.355004 0.078903 0.000000
0.359227 0.080209 0.000000
0.363354 0.081421 0.000000
0.367437 0.082766 0.000000
0.371501 0.084173 0.000000
0.375464 0.085549 0.000000
0.379389 0.086913 0.000000
0.383267 0.088265 0.000000
0.387131 0.089613 0.000000
0.390958 0.090924 0.000000
0.394775 0.092226 0.000000
0.398629 0.093326 0.000000
0.402492 0.094381 0.000000
0.406433 0.095250 0.000000
0.410388 0.096085 0.000000
0.414358 0.096731 0.000000
0.418329 0.097349 0.000000
0.422383 0.097786 0.000000
0.426445 0.098203 0.000000
0.430420 0.098418 0.000000
0.434390 0.098619 0.000000
0.438298 0.098628 0.000000
0.442205 0.098631 0.000000
0.000415 0.008439 0.000415
0.005635 0.010255 0.000415
0.010904 0.012078 0.000409
0.017728 0.014103 0.000198
0.024688 0.016154 0.000000
0.033682 0.018567 0.000000
0.042903 0.021000 0.000000
0.054326 0.023614 0.000000
0.065960 0.026203 0.000000
0.079076 0.028625 0.000000
0.092329 0.031013 0.000000
0.106328 0.033215 0.000000
0.120333 0.035404 0.000000
0.134365 0.037534 0.000000
0.148264 0.039651 0.000000
0.161689 0.041723 0.000000
0.174894 0.043729 0.000000
0.187439 0.045536 0.000000
0.199681 0.047328 0.000000
0.211147 0.049080 0.000000
0.222320 0.050911 0.000000
0.232849 0.052916 0.000000
0.243034 0.054882 0.000000
0.252566 0.056770 0.000000
0.261774 0.058687 0.000000
0.270443 0.060651 0.000000
0.278764 0.062646 0.000000
0.286577 0.064687 0.000000
0.294073 0.066684 0.000000
0.301161 0.068625 0.000000
0.307965 0.070586 0.000000
0.314449 0.072571 0.000000
0.320673 0.074519 0.000000
0.326638 0.076429 0.000000
0.332368 0.078240 0.000000
0.337890 0.079963 0.000000
0.343199 0.081654 0.000000
0.348344 0.083321 0.000000
0.353243 0.084819 0.000000
0.357975 0.086203 0.000000
0.362567 0.087566 0.000000
0.367075 0.088916 0.000000
0.371410 0.090238 0.000000
0.375656 0.091544 0.000000
0.379830 0.092833 0.000000
0.383973 0.094114 0.000000
0.388021 0.095448 0.000000
0.392031 0.096805 0.000000
0.396020 0.098137 0.000000
0.400002 0.099461 0.000000
0.403941 0.100755 0.000000
0.407868 0.102041 0.000000
0.411833 0.103151 0.000000
0.415806 0.104222 0.000000
0.419837 0.105033 0.000000
0.423879 0.105797 0.000000
0.427942 0.106393 0.000000
0.432008 0.106964 0.000000
0.436092 0.107368 0.000000
0.440177 0.107754 0.000000
0.444191 0.107952 0.000000
0.448200 0.108137 0.000000
0.452133 0.108229 0.000000
0.456063 0.108319 0.000000
0.000793 0.012061 0.000817
0.006402 0.014102 0.000817
0.012061 0.016154 0.000805
0.019282 0.018582 0.000402
0.026648 0.021033 0.000024
0.036197 0.023836 0.000012
0.045982 0.026642 0.000000
0.058039 0.029470 0.000000
0.070316 0.032298 0.000000
0.084139 0.035126 0.000000
0.098122 0.037888 0.000000
0.112973 0.040292 0.000000
0.127780 0.042670 0.000000
0.142396 0.044933 0.000000
0.156863 0.047169 0.000000
0.170798 0.049306 0.000000
0.184455 0.051412 0.000000
0.197276 0.053425 0.000000
0.209782 0.055414 0.000000
0.221479 0.057341 0.000000
0.232830 0.059333 0.000000
0.243422 0.061466 0.000000
0.253641 0.063657 0.000000
0.263149 0.065959 0.000000
0.272371 0.068220 0.000000
0.281116 0.070413 0.000000
0.289491 0.072568 0.000000
0.297327 0.074668 0.000000
0.304872 0.076727 0.000000
0.312044 0.078734 0.000000
0.318937 0.080809 0.000000
0.325516 0.082963 0.000000
0.331840 0.084956 0.000000
0.337909 0.086786 0.000000
0.343731 0.088589 0.000000
0.349337 0.090367 0.000000
0.354748 0.091989 0.000000
0.360009 0.093489 0.000000
0.365015 0.094972 0.000000
0.369847 0.096442 0.000000
0.374541 0.097761 0.000000
0.379153 0.098990 0.000000
0.383603 0.100324 0.000000
0.387967 0.101712 0.000000
0.392235 0.102944 0.000000
0.396460 0.104106 0.000000
0.400596 0.105397 0.000000
0.404697 0.106738 0.000000
0.408797 0.108049 0.000000
0.412896 0.109350 0.000000
0.416947 0.110623 0.000000
0.420986 0.111889 0.000000
0.425061 0.113003 0.000000
0.429145 0.114083 0.000000
0.433268 0.114841 0.000000
0.437399 0.115540 0.000000
0.441553 0.116087 0.000000
0.445712 0.116611 0.000000
0.449826 0.116982 0.000000
0.453935 0.117338 0.000000
0.457985 0.117518 0.000000
0.462032 0.117688 0.000000
0.465989 0.117858 0.000000
0.469942 0.118028 0.000000
0.000793 0.016076 0.001205
0.006607 0.018518 0.001205
0.012471 0.020972 0.001192
0.019896 0.023801 0.000798
0.027486 0.026642 0.000414
0.037539 0.029658 0.000197
0.047846 0.032690 0.000000
0.060603 0.035872 0.000000
0.073608 0.039055 0.000000
0.088344 0.042245 0.000000
0.103218 0.045356 0.000000
0.118841 0.048036 0.000000
0.134411 0.050684 0.000000
0.149752 0.053190 0.000000
0.164890 0.055665 0.000000
0.179305 0.058023 0.000000
0.193394 0.060348 0.000000
0.206507 0.062573 0.000000
0.219264 0.064808 0.000000
0.231110 0.067066 0.000000
0.242584 0.069331 0.000000
0.253239 0.071614 0.000000
0.263534 0.073946 0.000000
0.273145 0.076374 0.000000
0.282443 0.078759 0.000000
0.291219 0.081070 0.000000
0.299664 0.083340 0.000000
0.307626 0.085549 0.000000
0.315311 0.087719 0.000000
0.322640 0.089835 0.000000
0.329665 0.091966 0.000000
0.336346 0.094112 0.000000
0.342788 0.096113 0.000000
0.348991 0.097967 0.000000
0.354956 0.099743 0.000000
0.360711 0.101450 0.000000
0.366236 0.103014 0.000000
0.371583 0.104468 0.000000
0.376732 0.105908 0.000000
0.381745 0.107339 0.000000
0.386592 0.108687 0.000000
0.391338 0.109987 0.000000
0.395921 0.111267 0.000000
0.400419 0.112537 0.000000
0.404821 0.113727 0.000000
0.409180 0.114882 0.000000
0.413461 0.116085 0.000000
0.417712 0.117309 0.000000
0.421925 0.118578 0.000000
0.426126 0.119863 0.000000
0.430305 0.121059 0.000000
0.434478 0.122230 0.000000
0.438668 0.123256 0.000000
0.442862 0.124250 0.000000
0.447102 0.125014 0.000000
0.451351 0.125737 0.000000
0.455575 0.126252 0.000000
0.459796 0.126737 0.000000
0.463937 0.127083 0.000000
0.468070 0.127414 0.000000
0.472137 0.127579 0.000000
0.476199 0.127733 0.000000
0.480172 0.127895 0.000000
0.484141 0.128057 0.000000
0.000793 0.020202 0.001632
0.006792 0.023027 0.001612
0.012842 0.025863 0.001581
0.020473 0.029073 0.001174
0.028285 0.032287 0.000769
0.038825 0.035546 0.000385
0.049639 0.038832 0.000036
0.063089 0.042366 0.000017
0.076812 0.045903 0.000000
0.092443 0.049461 0.000000
0.108194 0.052926 0.000000
0.124592 0.055892 0.000000
0.140928 0.058819 0.000000
0.156996 0.061581 0.000000
0.172809 0.064302 0.000000
0.187713 0.066881 0.000000
0.202244 0.069426 0.000000
0.215657 0.071873 0.000000
0.228674 0.074352 0.000000
0.240676 0.076916 0.000000
0.252279 0.079439 0.000000
0.263005 0.081873 0.000000
0.273383 0.084347 0.000000
0.283097 0.086901 0.000000
0.292474 0.089409 0.000000
0.301288 0.091840 0.000000
0.309809 0.094223 0.000000
0.317900 0.096538 0.000000
0.325726 0.098811 0.000000
0.333210 0.101032 0.000000
0.340370 0.103210 0.000000
0.347164 0.105338 0.000000
0.353731 0.107339 0.000000
0.360071 0.109214 0.000000
0.366181 0.110966 0.000000
0.372086 0.112611 0.000000
0.377732 0.114122 0.000000
0.383175 0.115529 0.000000
0.388469 0.116926 0.000000
0.393661 0.118317 0.000000
0.398661 0.119684 0.000000
0.403546 0.121038 0.000000
0.408267 0.122260 0.000000
0.412901 0.123414 0.000000
0.417439 0.124562 0.000000
0.421934 0.125708 0.000000
0.426360 0.126831 0.000000
0.430760 0.127946 0.000000
0.435091 0.129171 0.000000
0.439398 0.130433 0.000000
0.443707 0.131551 0.000000
0.448016 0.132629 0.000000
0.452321 0.133569 0.000000
0.456625 0.134478 0.000000
0.460979 0.135249 0.000000
0.465343 0.135995 0.000000
0.469638 0.136479 0.000000
0.473922 0.136926 0.000000
0.478093 0.137246 0.000000
0.482252 0.137554 0.000000
0.486334 0.137703 0.000000
0.490410 0.137842 0.000000
0.494398 0.137995 0.000000
0.498382 0.138149 0.000000
0.000793 0.025411 0.002438
0.006792 0.028432 0.002214
0.012849 0.031465 0.001978
0.020684 0.034856 0.001366
0.028708 0.038273 0.000782
0.039580 0.042076 0.000603
0.050750 0.045884 0.000420
0.064815 0.049749 0.000196
0.079166 0.053628 0.000000
0.095521 0.057603 0.000000
0.112009 0.061481 0.000000
0.129210 0.064832 0.000000
0.146340 0.068140 0.000000
0.163163 0.071255 0.000000
0.179693 0.074302 0.000000
0.195171 0.077101 0.000000
0.210230 0.079888 0.000000
0.224029 0.082642 0.000000
0.237383 0.085360 0.000000
0.249598 0.087987 0.000000
0.261396 0.090605 0.000000
0.272280 0.093204 0.000000
0.282799 0.095831 0.000000
0.292623 0.098511 0.000000
0.302107 0.101148 0.000000
0.311024 0.103712 0.000000
0.319672 0.106194 0.000000
0.327930 0.108555 0.000000
0.335907 0.110876 0.000000
0.343525 0.113144 0.000000
0.350856 0.115291 0.000000
0.357862 0.117301 0.000000
0.364618 0.119240 0.000000
0.371123 0.121107 0.000000
0.377398 0.122864 0.000000
0.383469 0.124524 0.000000
0.389293 0.126020 0.000000
0.394925 0.127388 0.000000
0.400389 0.128741 0.000000
0.405739 0.130084 0.000000
0.410916 0.131365 0.000000
0.415990 0.132608 0.000000
0.420879 0.133731 0.000000
0.425671 0.134790 0.000000
0.430366 0.135898 0.000000
0.435019 0.137028 0.000000
0.439591 0.138136 0.000000
0.444133 0.139235 0.000000
0.448611 0.140385 0.000000
0.453069 0.141553 0.000000
0.457533 0.142589 0.000000
0.461999 0.143588 0.000000
0.466423 0.144462 0.000000
0.470837 0.145308 0.000000
0.475282 0.146082 0.000000
0.479733 0.146844 0.000000
0.484100 0.147302 0.000000
0.488456 0.147717 0.000000
0.492676 0.148014 0.000000
0.496882 0.148298 0.000000
0.500967 0.148438 0.000000
0.505044 0.148569 0.000000
0.509038 0.148707 0.000000
0.513031 0.148844 0.000000
0.000793 0.030716 0.003244
0.006767 0.033940 0.002816
0.012804 0.037175 0.002378
0.020818 0.040772 0.001586
0.029031 0.044413 0.000842
0.040239 0.048720 0.000816
0.051769 0.053018 0.000755
0.066411 0.057228 0.000352
0.081358 0.061462 0.000000
0.098442 0.065859 0.000000
0.115670 0.070155 0.000000
0.133671 0.073912 0.000000
0.151594 0.077614 0.000000
0.169176 0.081075 0.000000
0.186426 0.084443 0.000000
0.202494 0.087481 0.000000
0.218094 0.090520 0.000000
0.232292 0.093564 0.000000
0.245997 0.096514 0.000000
0.258443 0.099228 0.000000
0.270453 0.101953 0.000000
0.281502 0.104704 0.000000
0.292171 0.107468 0.000000
0.302114 0.110256 0.000000
0.311715 0.113003 0.000000
0.320749 0.115682 0.000000
0.329534 0.118249 0.000000
0.337957 0.120652 0.000000
0.346090 0.123007 0.000000
0.353850 0.125301 0.000000
0.361355 0.127416 0.000000
0.368571 0.129330 0.000000
0.375515 0.131216 0.000000
0.382188 0.133074 0.000000
0.388631 0.134829 0.000000
0.394872 0.136493 0.000000
0.400879 0.137969 0.000000
0.406703 0.139297 0.000000
0.412342 0.140607 0.000000
0.417852 0.141905 0.000000
0.423207 0.143102 0.000000
0.428468 0.144238 0.000000
0.433528 0.145269 0.000000
0.438484 0.146245 0.000000
0.443339 0.147310 0.000000
0.448148 0.148415 0.000000
0.452869 0.149499 0.000000
0.457556 0.150576 0.000000
0.462181 0.151656 0.000000
0.466786 0.152738 0.000000
0.471402 0.153696 0.000000
0.476020 0.154618 0.000000
0.480565 0.155433 0.000000
0.485092 0.156223 0.000000
0.489627 0.156996 0.000000
0.494163 0.157765 0.000000
0.498602 0.158204 0.000000
0.503028 0.158595 0.000000
0.507300 0.158868 0.000000
0.511555 0.159129 0.000000
0.515649 0.159268 0.000000
0.519733 0.159398 0.000000
0.523736 0.159515 0.000000
0.527737 0.159631 0.000000
0.000793 0.036699 0.004050
0.006562 0.040167 0.003426
0.012401 0.043651 0.002796
0.020415 0.047626 0.001996
0.028652 0.051636 0.001232
0.040238 0.056171 0.001002
0.052140 0.060718 0.000755
0.067096 0.065377 0.000352
0.082414 0.070059 0.000000
0.100262 0.074905 0.000000
0.118256 0.079665 0.000000
0.137037 0.083965 0.000000
0.155739 0.088161 0.000000
0.174101 0.091905 0.000000
0.192110 0.095576 0.000000
0.208863 0.098985 0.000000
0.225098 0.102343 0.000000
0.239784 0.105552 0.000000
0.253942 0.108692 0.000000
0.266751 0.111657 0.000000
0.279081 0.114575 0.000000
0.290359 0.117389 0.000000
0.301237 0.120186 0.000000
0.311353 0.122950 0.000000
0.321145 0.125676 0.000000
0.330399 0.128340 0.000000
0.339383 0.130898 0.000000
0.347970 0.133301 0.000000
0.356286 0.135601 0.000000
0.364251 0.137769 0.000000
0.371953 0.139843 0.000000
0.379358 0.141812 0.000000
0.386488 0.143717 0.000000
0.393341 0.145560 0.000000
0.399974 0.147266 0.000000
0.406411 0.148851 0.000000
0.412628 0.150270 0.000000
0.418674 0.151559 0.000000
0.424514 0.152835 0.000000
0.430214 0.154101 0.000000
0.435748 0.155232 0.000000
0.441182 0.156282 0.000000
0.446436 0.157278 0.000000
0.451595 0.158245 0.000000
0.456623 0.159248 0.000000
0.461589 0.160266 0.000000
0.466474 0.161276 0.000000
0.471326 0.162281 0.000000
0.476093 0.163326 0.000000
0.480832 0.164385 0.000000
0.485569 0.165287 0.000000
0.490305 0.166146 0.000000
0.494981 0.166950 0.000000
0.499642 0.167741 0.000000
0.504264 0.168473 0.000000
0.508879 0.169195 0.000000
0.513384 0.169656 0.000000
0.517872 0.170079 0.000000
0.522207 0.170333 0.000000
0.526525 0.170570 0.000000
0.530675 0.170759 0.000000
0.534813 0.170945 0.000000
0.538834 0.171002 0.000000
0.542851 0.171056 0.000000
0.000730 0.042845 0.004793
0.006327 0.046519 0.004001
0.012000 0.050213 0.003209
0.020013 0.054540 0.002405
0.028269 0.058895 0.001625
0.040179 0.063663 0.001221
0.052405 0.068464 0.000818
0.067692 0.073579 0.000415
0.083391 0.078719 0.000059
0.101967 0.084035 0.000027
0.120697 0.089275 0.000000
0.140256 0.094111 0.000000
0.159737 0.098804 0.000000
0.178882 0.102876 0.000000
0.197656 0.106881 0.000000
0.215104 0.110647 0.000000
0.231989 0.114317 0.000000
0.247183 0.117697 0.000000
0.261814 0.121023 0.000000
0.275005 0.124211 0.000000
0.287675 0.127299 0.000000
0.299196 0.130170 0.000000
0.310299 0.132996 0.000000
0.320605 0.135733 0.000000
0.330598 0.138433 0.000000
0.340067 0.141068 0.000000
0.349248 0.143606 0.000000
0.358005 0.145999 0.000000
0.366504 0.148248 0.000000
0.374671 0.150312 0.000000
0.382569 0.152346 0.000000
0.390162 0.154345 0.000000
0.397480 0.156253 0.000000
0.404521 0.158070 0.000000
0.411344 0.159724 0.000000
0.417976 0.161236 0.000000
0.424401 0.162601 0.000000
0.430664 0.163852 0.000000
0.436707 0.165092 0.000000
0.442598 0.166326 0.000000
0.448314 0.167398 0.000000
0.453923 0.168372 0.000000
0.459369 0.169337 0.000000
0.464728 0.170297 0.000000
0.469927 0.171245 0.000000
0.475052 0.172188 0.000000
0.480098 0.173132 0.000000
0.485111 0.174076 0.000000
0.490021 0.175083 0.000000
0.494896 0.176110 0.000000
0.499755 0.176964 0.000000
0.504610 0.177770 0.000000
0.509413 0.178564 0.000000
0.514205 0.179355 0.000000
0.518915 0.180048 0.000000
0.523610 0.180723 0.000000
0.528181 0.181203 0.000000
0.532736 0.181657 0.000000
0.537132 0.181900 0.000000
0.541512 0.182122 0.000000
0.545719 0.182345 0.000000
0.549915 0.182567 0.000000
0.553961 0.182574 0.000000
0.558001 0.182574 0.000000
0.000327 0.049867 0.005196
0.005932 0.053541 0.004397
0.011612 0.057242 0.003597
0.019617 0.061781 0.002800
0.027868 0.066352 0.002028
0.039809 0.071380 0.001625
0.052103 0.076462 0.001222
0.067808 0.082074 0.000818
0.083939 0.087721 0.000436
0.103050 0.093619 0.000200
0.122352 0.099428 0.000000
0.142682 0.104760 0.000000
0.162941 0.109963 0.000000
0.182889 0.114602 0.000000
0.202456 0.119113 0.000000
0.220660 0.123171 0.000000
0.238265 0.127110 0.000000
0.254074 0.130695 0.000000
0.269285 0.134185 0.000000
0.282973 0.137436 0.000000
0.296084 0.140576 0.000000
0.307928 0.143470 0.000000
0.319341 0.146298 0.000000
0.329930 0.148996 0.000000
0.340171 0.151635 0.000000
0.349829 0.154176 0.000000
0.359201 0.156632 0.000000
0.368156 0.158962 0.000000
0.376845 0.161182 0.000000
0.385192 0.163262 0.000000
0.393275 0.165256 0.000000
0.401058 0.167153 0.000000
0.408580 0.168971 0.000000
0.415842 0.170709 0.000000
0.422865 0.172301 0.000000
0.429678 0.173766 0.000000
0.436297 0.175092 0.000000
0.442765 0.176312 0.000000
0.449012 0.177516 0.000000
0.455108 0.178711 0.000000
0.461019 0.179758 0.000000
0.466817 0.180716 0.000000
0.472442 0.181670 0.000000
0.477974 0.182622 0.000000
0.483340 0.183557 0.000000
0.488631 0.184484 0.000000
0.493825 0.185418 0.000000
0.498980 0.186355 0.000000
0.504037 0.187306 0.000000
0.509062 0.188263 0.000000
0.514046 0.189102 0.000000
0.519019 0.189908 0.000000
0.523934 0.190701 0.000000
0.528836 0.191492 0.000000
0.533636 0.192145 0.000000
0.538418 0.192773 0.000000
0.543069 0.193268 0.000000
0.547702 0.193745 0.000000
0.552156 0.194019 0.000000
0.556591 0.194273 0.000000
0.560868 0.194438 0.000000
0.565135 0.194598 0.000000
0.569244 0.194603 0.000000
0.573347 0.194603 0.000000
0.000000 0.056895 0.005672
0.005573 0.060615 0.004868
0.011220 0.064366 0.004062
0.019182 0.069102 0.003233
0.027396 0.073874 0.002428
0.039405 0.079180 0.001987
0.051796 0.084561 0.001549
0.067896 0.090652 0.001146
0.084438 0.096791 0.000743
0.104073 0.103262 0.000340
0.123934 0.109635 0.000000
0.145014 0.115474 0.000000
0.166031 0.121194 0.000000
0.186775 0.126400 0.000000
0.207129 0.131421 0.000000
0.226092 0.135781 0.000000
0.244427 0.140000 0.000000
0.260877 0.143797 0.000000
0.276692 0.147456 0.000000
0.290884 0.150763 0.000000
0.304452 0.153946 0.000000
0.316644 0.156859 0.000000
0.328384 0.159680 0.000000
0.339263 0.162329 0.000000
0.349759 0.164899 0.000000
0.359616 0.167338 0.000000
0.369186 0.169704 0.000000
0.378333 0.171962 0.000000
0.387210 0.174140 0.000000
0.395740 0.176215 0.000000
0.404005 0.178161 0.000000
0.411969 0.179962 0.000000
0.419686 0.181692 0.000000
0.427157 0.183353 0.000000
0.434375 0.184890 0.000000
0.441370 0.186317 0.000000
0.448179 0.187614 0.000000
0.454843 0.188809 0.000000
0.461290 0.189977 0.000000
0.467587 0.191126 0.000000
0.473690 0.192153 0.000000
0.479675 0.193106 0.000000
0.485477 0.194057 0.000000
0.491184 0.195007 0.000000
0.496719 0.195932 0.000000
0.502175 0.196845 0.000000
0.507519 0.197768 0.000000
0.512819 0.198695 0.000000
0.518022 0.199600 0.000000
0.523192 0.200498 0.000000
0.528296 0.201328 0.000000
0.533383 0.202140 0.000000
0.538410 0.202935 0.000000
0.543424 0.203725 0.000000
0.548317 0.204340 0.000000
0.553188 0.204921 0.000000
0.557921 0.205423 0.000000
0.562634 0.205913 0.000000
0.567150 0.206210 0.000000
0.571646 0.206488 0.000000
0.575994 0.206604 0.000000
0.580332 0.206709 0.000000
0.584508 0.206713 0.000000
0.588678 0.206713 0.000000
0.000000 0.063948 0.006463
0.005368 0.067912 0.005666
0.010811 0.071903 0.004862
0.018576 0.076765 0.003828
0.026620 0.081677 0.002819
0.038848 0.087347 0.002172
0.051468 0.093094 0.001549
0.067867 0.099595 0.001146
0.084729 0.106159 0.000743
0.104837 0.113165 0.000340
0.125199 0.120076 0.000000
0.146932 0.126465 0.000000
0.168623 0.132740 0.000000
0.190131 0.138513 0.000000
0.211251 0.144054 0.000000
0.230985 0.148769 0.000000
0.250090 0.153315 0.000000
0.267304 0.157356 0.000000
0.283821 0.161197 0.000000
0.298556 0.164527 0.000000
0.312639 0.167724 0.000000
0.325288 0.170629 0.000000
0.337437 0.173413 0.000000
0.348630 0.175967 0.000000
0.359414 0.178427 0.000000
0.369516 0.180733 0.000000
0.379301 0.182975 0.000000
0.388621 0.185123 0.000000
0.397679 0.187197 0.000000
0.406397 0.189177 0.000000
0.414833 0.191040 0.000000
0.422947 0.192770 0.000000
0.430817 0.194430 0.000000
0.438445 0.196020 0.000000
0.445837 0.197528 0.000000
0.453021 0.198963 0.000000
0.460002 0.200267 0.000000
0.466823 0.201470 0.000000
0.473446 0.202599 0.000000
0.479933 0.203678 0.000000
0.486214 0.204702 0.000000
0.492372 0.205695 0.000000
0.498353 0.206675 0.000000
0.504242 0.207648 0.000000
0.509947 0.208575 0.000000
0.515568 0.209480 0.000000
0.521072 0.210390 0.000000
0.526529 0.211301 0.000000
0.531865 0.212197 0.000000
0.537161 0.213086 0.000000
0.542367 0.213940 0.000000
0.547549 0.214783 0.000000
0.552689 0.215583 0.000000
0.557821 0.216374 0.000000
