Plugins/FilmEmulator/Content/LUTs/FE_Kodak_Portra_160_64.cube
TITLE "FE_Kodak_Portra_160_33"
LUT_3D_SIZE 64
0.0018049 0.0028734 0.0016632
0.0023601 0.0028722 0.0016629
0.0049042 0.0028692 0.0016621
0.0093427 0.0028711 0.0017431
0.0146903 0.0028939 0.0018744
0.0212427 0.0029312 0.0018852
0.0285859 0.0029780 0.0018756
0.0370775 0.0030326 0.0018951
0.0460555 0.0030958 0.0019537
0.0546856 0.0031449 0.0020327
0.0676380 0.0032025 0.0021210
0.0767210 0.0033462 0.0022850
0.0906560 0.0034577 0.0024613
0.1025487 0.0036450 0.0026310
0.1158191 0.0038658 0.0028723
0.1254849 0.0040204 0.0030453
0.1412989 0.0042640 0.0033244
0.1527528 0.0044592 0.0035400
0.1713804 0.0047156 0.0038027
0.1846634 0.0049842 0.0042312
0.1987396 0.0052703 0.0045449
0.2136199 0.0055750 0.0047128
0.2213050 0.0059058 0.0050680
0.2373947 0.0063177 0.0054824
0.2542476 0.0067581 0.0059305
0.2629481 0.0069896 0.0061681
0.2809362 0.0074765 0.0066720
0.2902177 0.0077324 0.0069391
0.3093360 0.0082707 0.0075056
0.3191510 0.0085872 0.0078161
0.3394039 0.0089163 0.0081394
0.3497240 0.0096107 0.0088264
0.3603782 0.0099781 0.0091912
0.3711808 0.0103594 0.0095710
0.3821230 0.0107551 0.0099664
0.4045129 0.0111662 0.0103779
0.4158351 0.0115870 0.0112446
0.4270896 0.0125001 0.0117061
0.4385744 0.0129871 0.0121726
0.4501347 0.0134929 0.0126576
0.4618984 0.0140181 0.0131617
0.4739948 0.0145635 0.0136857
0.4862844 0.0145573 0.0142204
0.4984478 0.0151234 0.0147860
0.5106040 0.0157183 0.0147961
0.5104699 0.0163288 0.0153846
0.5226422 0.0169629 0.0159959
0.5347969 0.0176213 0.0166313
0.5469222 0.0182922 0.0172868
0.5591497 0.0182841 0.0179461
0.5711548 0.0189618 0.0179575
0.5710305 0.0196557 0.0186546
0.5829797 0.0203745 0.0193779
0.5951014 0.0211190 0.0201289
0.6072378 0.0211188 0.0201285
0.6071165 0.0218903 0.0209085
0.6190119 0.0226894 0.0217177
0.6309100 0.0226790 0.0225430
0.6307743 0.0235169 0.0225577
0.6423907 0.0243741 0.0234296
0.6539820 0.0243629 0.0243187
0.6538501 0.0252618 0.0243346
0.6651405 0.0261812 0.0252737
0.6763638 0.0261805 0.0252732
0.0017970 0.0041454 0.0016742
0.0027375 0.0043113 0.0016749
0.0056542 0.0045026 0.0018265
0.0105010 0.0047589 0.0019039
0.0158042 0.0050341 0.0018984
0.0219738 0.0053256 0.0018987
0.0295471 0.0056335 0.0019197
0.0383545 0.0059693 0.0019966
0.0476189 0.0061730 0.0020779
0.0589445 0.0066048 0.0021888
0.0698218 0.0068278 0.0023577
0.0791586 0.0073053 0.0024947
0.0934953 0.0075527 0.0026658
0.1057048 0.0080778 0.0029107
0.1146417 0.0083496 0.0031761
0.1292997 0.0086673 0.0033672
0.1455665 0.0089930 0.0037138
0.1572488 0.0096956 0.0039906
0.1697639 0.0100628 0.0042851
0.1829790 0.0104439 0.0046013
0.1970000 0.0108393 0.0049407
0.2118415 0.0112489 0.0053295
0.2274975 0.0116789 0.0055435
0.2439925 0.0121196 0.0059934
0.2524395 0.0125891 0.0062339
0.2700438 0.0130740 0.0067396
0.2790814 0.0135836 0.0070100
0.2978502 0.0141064 0.0075783
0.3074509 0.0146555 0.0078920
0.3274288 0.0146488 0.0082128
0.3375669 0.0152115 0.0089000
0.3479733 0.0158030 0.0092679
0.3585993 0.0164173 0.0096510
0.3804164 0.0170550 0.0100497
0.3914664 0.0177171 0.0104648
0.4028028 0.0177006 0.0113310
0.4140894 0.0183748 0.0117879
0.4254819 0.0190478 0.0122572
0.4369635 0.0197450 0.0127451
0.4486647 0.0197360 0.0132434
0.4604292 0.0204579 0.0137701
0.4725279 0.0212059 0.0143175
0.4847946 0.0212056 0.0143173
0.4969638 0.0219804 0.0148862
0.5091466 0.0227828 0.0154774
0.5214727 0.0227723 0.0160813
0.5213468 0.0236035 0.0167196
0.5335121 0.0244640 0.0173781
0.5457723 0.0244636 0.0173778
0.5578619 0.0253550 0.0180524
0.5700343 0.0253434 0.0187404
0.5699101 0.0262667 0.0194674
0.5820082 0.0262546 0.0202086
0.5941200 0.0272210 0.0202214
0.6061444 0.0282098 0.0210045
0.6061623 0.0281974 0.0218036
0.6180502 0.0292336 0.0218174
0.6299596 0.0292200 0.0226464
0.6298412 0.0302805 0.0235221
0.6415871 0.0302795 0.0235216
0.6530573 0.0313764 0.0244300
0.6530741 0.0313628 0.0253568
0.6643601 0.0325120 0.0253728
0.6756124 0.0324968 0.0263227
0.0018846 0.0094787 0.0016993
0.0032507 0.0098260 0.0018932
0.0065900 0.0101936 0.0019376
0.0112730 0.0105820 0.0019161
0.0169447 0.0109849 0.0019304
0.0236600 0.0114034 0.0019616
0.0318927 0.0118350 0.0020416
0.0396489 0.0122829 0.0021458
0.0492057 0.0127516 0.0022983
0.0609144 0.0132436 0.0024305
0.0691455 0.0137559 0.0025703
0.0817929 0.0142837 0.0027758
0.0926473 0.0148304 0.0030291
0.1047991 0.0153979 0.0033055
0.1183508 0.0159923 0.0035045
0.1334205 0.0166073 0.0037552
0.1444192 0.0165925 0.0040296
0.1561085 0.0172235 0.0044823
0.1750404 0.0178923 0.0046464
0.1885811 0.0185668 0.0049891
0.2030299 0.0185495 0.0053780
0.2104850 0.0192205 0.0058144
0.2260708 0.0199239 0.0060476
0.2424961 0.0206433 0.0065380
0.2597324 0.0206329 0.0067956
0.2685642 0.0213780 0.0073463
0.2868810 0.0221589 0.0076407
0.2964095 0.0221379 0.0082745
0.3158553 0.0229457 0.0086165
0.3257893 0.0237830 0.0089724
0.3360185 0.0237714 0.0093369
0.3464255 0.0246267 0.0101171
0.3680467 0.0246142 0.0105276
0.3789544 0.0255109 0.0109619
0.3899953 0.0264397 0.0114139
0.4012969 0.0264271 0.0118660
0.4125745 0.0273882 0.0123384
0.4240948 0.0273753 0.0128210
0.4355661 0.0283700 0.0133311
0.4472587 0.0283566 0.0138521
0.4590158 0.0293860 0.0144027
0.4712525 0.0293722 0.0149651
0.4833900 0.0304375 0.0155595
0.4955379 0.0315544 0.0155695
0.5078645 0.0315394 0.0161769
0.5200468 0.0326811 0.0168187
0.5323588 0.0326657 0.0174696
0.5322330 0.0338484 0.0181479
0.5445154 0.0338326 0.0188396
0.5567352 0.0338314 0.0188393
0.5687717 0.0350539 0.0195697
0.5808773 0.0350375 0.0203147
0.5807538 0.0363034 0.0211018
0.5930160 0.0363020 0.0211014
0.6050508 0.0376108 0.0219179
0.6171052 0.0375931 0.0227507
0.6169661 0.0389814 0.0227657
0.6288885 0.0389630 0.0236301
0.6405273 0.0403894 0.0245429
0.6405273 0.0403894 0.0245429
0.6521447 0.0403703 0.0254733
0.6634426 0.0418644 0.0254897
0.6634589 0.0418466 0.0264445
0.6745955 0.0433749 0.0274519
0.0020134 0.0174989 0.0019325
0.0038489 0.0181680 0.0019503
0.0077061 0.0181501 0.0019359
0.0126503 0.0188351 0.0019563
0.0182209 0.0195195 0.0020008
0.0255435 0.0202230 0.0021027
0.0330632 0.0202056 0.0021932
0.0429196 0.0209301 0.0023623
0.0509811 0.0216875 0.0024981
0.0631234 0.0216674 0.0026399
0.0716397 0.0224443 0.0028808
0.0847227 0.0232474 0.0031435
0.0959771 0.0232282 0.0033304
0.1085240 0.0240591 0.0036497
0.1225014 0.0249250 0.0039190
0.1327230 0.0249023 0.0042053
0.1493504 0.0257982 0.0045154
0.1614423 0.0257748 0.0048452
0.1741744 0.0267023 0.0052084
0.1877532 0.0266762 0.0056273
0.2020509 0.0276453 0.0058531
0.2171826 0.0286361 0.0063278
0.2332303 0.0286211 0.0065771
0.2414840 0.0296470 0.0071103
0.2586713 0.0296316 0.0073903
0.2765672 0.0306913 0.0079988
0.2858663 0.0306761 0.0083240
0.2952396 0.0317875 0.0086679
0.3147805 0.0317560 0.0093864
0.3246960 0.0329055 0.0097740
0.3349069 0.0328892 0.0101707
0.3559864 0.0340772 0.0105904
0.3668670 0.0340604 0.0110200
0.3777597 0.0352906 0.0114744
0.3889225 0.0352735 0.0119288
0.4000746 0.0365468 0.0124038
0.4114795 0.0365294 0.0128889
0.4228500 0.0378465 0.0134016
0.4461201 0.0378270 0.0139252
0.4580143 0.0378089 0.0144692
0.4578881 0.0391882 0.0150444
0.4701198 0.0391694 0.0156316
0.4822515 0.0406035 0.0162522
0.4945606 0.0405840 0.0168859
0.5067207 0.0420866 0.0168970
0.5190479 0.0420665 0.0175508
0.5313615 0.0420466 0.0182201
0.5435000 0.0435824 0.0189271
0.5435183 0.0435637 0.0196483
0.5555967 0.0451720 0.0196611
0.5677816 0.0451507 0.0204095
0.5798937 0.0451294 0.0211859
0.5920199 0.0467931 0.0211996
0.5920379 0.0467730 0.0220060
0.6040789 0.0484740 0.0228572
0.6161262 0.0484718 0.0228568
0.6161437 0.0484510 0.0237250
0.6279373 0.0502103 0.0246414
0.6397076 0.0502079 0.0246409
0.6397248 0.0501863 0.0255755
0.6512187 0.0520059 0.0265505
0.6626629 0.0520034 0.0265499
0.6625466 0.0538884 0.0275619
0.6738127 0.0538857 0.0275612
0.0022406 0.0262083 0.0019585
0.0045772 0.0271469 0.0019575
0.0086719 0.0271172 0.0019765
0.0142075 0.0280841 0.0020545
0.0196959 0.0280576 0.0021366
0.0276577 0.0290601 0.0022491
0.0358954 0.0290244 0.0024209
0.0445899 0.0300646 0.0025600
0.0529726 0.0300344 0.0027338
0.0655313 0.0310991 0.0029831
0.0743604 0.0322044 0.0032552
0.0879401 0.0321756 0.0034486
0.0995382 0.0333142 0.0038034
0.1125494 0.0332817 0.0040813
0.1219830 0.0344709 0.0043823
0.1375217 0.0344376 0.0047024
0.1488067 0.0344061 0.0050457
0.1670719 0.0356466 0.0052361
0.1802067 0.0356115 0.0056573
0.1940668 0.0368788 0.0061162
0.2088253 0.0368589 0.0063572
0.2164401 0.0381710 0.0068726
0.2324480 0.0381505 0.0071433
0.2491460 0.0395216 0.0077222
0.2578295 0.0395018 0.0080361
0.2756708 0.0409458 0.0083683
0.2849663 0.0409067 0.0090622
0.3040867 0.0408845 0.0094302
0.3138087 0.0423791 0.0098197
0.3340115 0.0423562 0.0102182
0.3443672 0.0439024 0.0106400
0.3550961 0.0438605 0.0115206
0.3659638 0.0438392 0.0119769
0.3768418 0.0454381 0.0124538
0.3992552 0.0454143 0.0129408
0.4105106 0.0470682 0.0134557
0.4220130 0.0470456 0.0139816
0.4335916 0.0470436 0.0139814
0.4451265 0.0487542 0.0145373
0.4570152 0.0487308 0.0151049
0.4690970 0.0505000 0.0157049
0.4813720 0.0504756 0.0163176
0.4936793 0.0504514 0.0169538
0.4935508 0.0522826 0.0176218
0.5058570 0.0522802 0.0176216
0.5181846 0.0522554 0.0182935
0.5303528 0.0541469 0.0190033
0.5426407 0.0541213 0.0197271
0.5548865 0.0540957 0.0204780
0.5547405 0.0560802 0.0204917
0.5669299 0.0560537 0.0212712
0.5790477 0.0560271 0.0220798
0.5911798 0.0580829 0.0220942
0.5911974 0.0580582 0.0229339
0.6033878 0.0580307 0.0238046
0.6153015 0.0601559 0.0238200
0.6272433 0.0601274 0.0247236
0.6272605 0.0601019 0.0256613
0.6389019 0.0622987 0.0256779
0.6505423 0.0622694 0.0266390
0.6505423 0.0622694 0.0266390
0.6618798 0.0645139 0.0276537
0.6731728 0.0644836 0.0286871
0.6731728 0.0644836 0.0286871
0.0026525 0.0362684 0.0019753
0.0054820 0.0362218 0.0020052
0.0097722 0.0374978 0.0020864
0.0153448 0.0374511 0.0021910
0.0213463 0.0387792 0.0023035
0.0287351 0.0387294 0.0024794
0.0373407 0.0386899 0.0026200
0.0463709 0.0400719 0.0028291
0.0550698 0.0400222 0.0030851
0.0652724 0.0414567 0.0033664
0.0772910 0.0414193 0.0035664
0.0875963 0.0429137 0.0038214
0.1033611 0.0428692 0.0041005
0.1121704 0.0428297 0.0044000
0.1265563 0.0443723 0.0047246
0.1425932 0.0443293 0.0050695
0.1541540 0.0459241 0.0054684
0.1665494 0.0458787 0.0059081
0.1796406 0.0458537 0.0061409
0.1934647 0.0474999 0.0066390
0.2081883 0.0474742 0.0069005
0.2236596 0.0491761 0.0074598
0.2400499 0.0491497 0.0077535
0.2485279 0.0491027 0.0083967
0.2659405 0.0508822 0.0087437
0.2750092 0.0508567 0.0090989
0.2937189 0.0508289 0.0094684
0.3032615 0.0526467 0.0102597
0.3230867 0.0526180 0.0106759
0.3331418 0.0545212 0.0111165
0.3436150 0.0544941 0.0115672
0.3543144 0.0544675 0.0120253
0.3760209 0.0564358 0.0125041
0.3871625 0.0564086 0.0129931
0.3984331 0.0563814 0.0135011
0.4096798 0.0584249 0.0140382
0.4211747 0.0583969 0.0145865
0.4327651 0.0583688 0.0151561
0.4442939 0.0604804 0.0157582
0.4561595 0.0604775 0.0157579
0.4683836 0.0604483 0.0163726
0.4805087 0.0626308 0.0170224
0.4928139 0.0626008 0.0176810
0.5051379 0.0625712 0.0183552
0.5174655 0.0625416 0.0190547
0.5173180 0.0648263 0.0190675
0.5296342 0.0647957 0.0197936
0.5419243 0.0647651 0.0205470
0.5540083 0.0671227 0.0205605
0.5662016 0.0670910 0.0213425
0.5662195 0.0670626 0.0221542
0.5781970 0.0694693 0.0230112
0.5904793 0.0694656 0.0230108
0.6026762 0.0694328 0.0238842
0.6026940 0.0694035 0.0247908
0.6146145 0.0719186 0.0248068
0.6265640 0.0718847 0.0257470
0.6265640 0.0718847 0.0257470
0.6382312 0.0744525 0.0267286
0.6498809 0.0744176 0.0277282
0.6498809 0.0744176 0.0277282
0.6613619 0.0743828 0.0287643
0.6725157 0.0770654 0.0287828
0.6725321 0.0770335 0.0298580
0.0031758 0.0467120 0.0020355
0.0064424 0.0466359 0.0021371
0.0110225 0.0482949 0.0022301
0.0165810 0.0482249 0.0024001
0.0231694 0.0481706 0.0025361
0.0312369 0.0498925 0.0026816
0.0388627 0.0498274 0.0029241
0.0482403 0.0515940 0.0031908
0.0572695 0.0515473 0.0033803
0.0678911 0.0514814 0.0037017
0.0803269 0.0533174 0.0039748
0.0910498 0.0532652 0.0042651
0.1030645 0.0532132 0.0045766
0.1164223 0.0551116 0.0049140
0.1313472 0.0550574 0.0052788
0.1422018 0.0550030 0.0057034
0.1537269 0.0569893 0.0059322
0.1725197 0.0569301 0.0064090
0.1859849 0.0568991 0.0066615
0.2001881 0.0589319 0.0072015
0.2076446 0.0589031 0.0074851
0.2231860 0.0588447 0.0080961
0.2394465 0.0609690 0.0084309
0.2565346 0.0609353 0.0087734
0.2654057 0.0608776 0.0095006
0.2835833 0.0630711 0.0098930
0.2930286 0.0630396 0.0102945
0.3026638 0.0630083 0.0107122
0.3223399 0.0652741 0.0111542
0.3325112 0.0652417 0.0116064
0.3429739 0.0652099 0.0120661
0.3643577 0.0675510 0.0125465
0.3753514 0.0675185 0.0130372
0.3864851 0.0674860 0.0135468
0.3977482 0.0674536 0.0140762
0.4089881 0.0698734 0.0146359
0.4204768 0.0698399 0.0152074
0.4320617 0.0698065 0.0158008
0.4435860 0.0723051 0.0164282
0.4554660 0.0722704 0.0170687
0.4676682 0.0722667 0.0170685
0.4799381 0.0722322 0.0177289
0.4920945 0.0748121 0.0184172
0.5044176 0.0747768 0.0191190
0.5167456 0.0747416 0.0198472
0.5288970 0.0774369 0.0198601
0.5289153 0.0774046 0.0206164
0.5412071 0.0773681 0.0214006
0.5534404 0.0773642 0.0214002
0.5654908 0.0801135 0.0222285
0.5776176 0.0800758 0.0230729
0.5776176 0.0800758 0.0230729
0.5899223 0.0800381 0.0239487
0.6019822 0.0828695 0.0248736
0.6140510 0.0828650 0.0248731
0.6140683 0.0828305 0.0258164
0.6260242 0.0827918 0.0267827
0.6376812 0.0857483 0.0267999
0.6376982 0.0857131 0.0278027
0.6493386 0.0857083 0.0278021
0.6608278 0.0856684 0.0288409
0.6607108 0.0886875 0.0299381
0.6720066 0.0886825 0.0299374
0.6720227 0.0886463 0.0310547
0.0037824 0.0579579 0.0021679
0.0075742 0.0578644 0.0022799
0.0124361 0.0598950 0.0024552
0.0179245 0.0598252 0.0025942
0.0251446 0.0597509 0.0027700
0.0325348 0.0618572 0.0030225
0.0404668 0.0617772 0.0032957
0.0502326 0.0617174 0.0034914
0.0595838 0.0639149 0.0037171
0.0706094 0.0638233 0.0041317
0.0835591 0.0637571 0.0044334
0.0946748 0.0636951 0.0047570
0.1070642 0.0659570 0.0051078
0.1209288 0.0659184 0.0052969
0.1310380 0.0658536 0.0057229
0.1474866 0.0681824 0.0061871
0.1594451 0.0681451 0.0064309
0.1721307 0.0680785 0.0069476
0.1854846 0.0705156 0.0072261
0.1997503 0.0704471 0.0078064
0.2148355 0.0704080 0.0081237
0.2307575 0.0703690 0.0084538
0.2389475 0.0728534 0.0091610
0.2560112 0.0728133 0.0095329
0.2738849 0.0727734 0.0099199
0.2830088 0.0753701 0.0103295
0.2924422 0.0753328 0.0107486
0.3118586 0.0752916 0.0111845
0.3218637 0.0752218 0.0120990
0.3318969 0.0779006 0.0125808
0.3530123 0.0778593 0.0130727
0.3638501 0.0778221 0.0135838
0.3748372 0.0777849 0.0141146
0.3858081 0.0805823 0.0141239
0.3970635 0.0805439 0.0146756
0.4084384 0.0805055 0.0152486
0.4199223 0.0804670 0.0158437
0.4313590 0.0833125 0.0164727
0.4430237 0.0832729 0.0171149
0.4549004 0.0832334 0.0177771
0.4669534 0.0862051 0.0177888
0.4792207 0.0861647 0.0184670
0.4915228 0.0861244 0.0191707
0.5038456 0.0860841 0.0199008
0.5160263 0.0891119 0.0206720
0.5283262 0.0891071 0.0206717
0.5406195 0.0890655 0.0214579
0.5406379 0.0890286 0.0222740
0.5528733 0.0890239 0.0222735
0.5649266 0.0921460 0.0231350
0.5770573 0.0921030 0.0240132
0.5893484 0.0920979 0.0240127
0.5893664 0.0920599 0.0249240
0.6014309 0.0952785 0.0258858
0.6135054 0.0952731 0.0258853
0.6135226 0.0952345 0.0268546
0.6254674 0.0952291 0.0268540
0.6371486 0.0985483 0.0278768
0.6371653 0.0985086 0.0289190
0.6488130 0.0985030 0.0289183
0.6603101 0.0984574 0.0299978
0.6603101 0.0984574 0.0299978
0.6714973 0.1018781 0.0311372
0.6826129 0.1018722 0.0311365
0.0045134 0.0692863 0.0023311
0.0085523 0.0691637 0.0025083
0.0134545 0.0715844 0.0026520
0.0194283 0.0714849 0.0028614
0.0261677 0.0713847 0.0031199
0.0339015 0.0738971 0.0033073
0.0440228 0.0737977 0.0036062
0.0523040 0.0737230 0.0038613
0.0620536 0.0736468 0.0041432
0.0734724 0.0762324 0.0044487
0.0869049 0.0761540 0.0047734
0.0984244 0.0760807 0.0051218
0.1112502 0.0787466 0.0055248
0.1206486 0.0786699 0.0059690
0.1360338 0.0786222 0.0062041
0.1472169 0.0785457 0.0067027
0.1590804 0.0813293 0.0069714
0.1783441 0.0812460 0.0075313
0.1921674 0.0812021 0.0078277
0.2068283 0.0811216 0.0084770
0.2143746 0.0839875 0.0088274
0.2302717 0.0839412 0.0091859
0.2469532 0.0838952 0.0095589
0.2555845 0.0838538 0.0099470
0.2733384 0.0867657 0.0107779
0.2825687 0.0867230 0.0112151
0.3015919 0.0866759 0.0116697
0.3113917 0.0866341 0.0121318
0.3212446 0.0896796 0.0126150
0.3418243 0.0896323 0.0131082
0.3524961 0.0895897 0.0136206
0.3633265 0.0895471 0.0141528
0.3741698 0.0926859 0.0147155
0.3965209 0.0926370 0.0152899
0.4078902 0.0925932 0.0158865
0.4193510 0.0925883 0.0158863
0.4307833 0.0958237 0.0165170
0.4424440 0.0957784 0.0171609
0.4543173 0.0957335 0.0178249
0.4665324 0.0956890 0.0185045
0.4787799 0.0956837 0.0185042
0.4909337 0.0990176 0.0192222
0.4909522 0.0989771 0.0199545
0.5032742 0.0989312 0.0207140
0.5155839 0.0989257 0.0207136
0.5277556 0.1023613 0.0215158
0.5400504 0.1023138 0.0223336
0.5523064 0.1022665 0.0231819
0.5523064 0.1022665 0.0231819
0.5645082 0.1022192 0.0240618
0.5764968 0.1057571 0.0249911
0.5887922 0.1057511 0.0249905
0.5888100 0.1057081 0.0259382
0.6010040 0.1057022 0.0259376
0.6129591 0.1093481 0.0269263
0.6249275 0.1092980 0.0279331
0.6249275 0.1092980 0.0279331
0.6367528 0.1092480 0.0289767
0.6484061 0.1092418 0.0289760
0.6482874 0.1130025 0.0300783
0.6597922 0.1129509 0.0312000
0.6711028 0.1129445 0.0311992
0.6711188 0.1128994 0.0323624
0.6822411 0.1128928 0.0323616
0.0054148 0.0826418 0.0025646
0.0096583 0.0825214 0.0027093
0.0151679 0.0823881 0.0029538
0.0211140 0.0822696 0.0032206
0.0284080 0.0851245 0.0034139
0.0369209 0.0850070 0.0037383
0.0458776 0.0849141 0.0040111
0.0544577 0.0878568 0.0043069
0.0645857 0.0877671 0.0046212
0.0764884 0.0876775 0.0049584
0.0867407 0.0875925 0.0053264
0.0981911 0.0906193 0.0057586
0.1110394 0.0905645 0.0059854
0.1253622 0.0904716 0.0064664
0.1357824 0.0904226 0.0067211
0.1528070 0.0903302 0.0072610
0.1650241 0.0934885 0.0075519
0.1780295 0.0933977 0.0081683
0.1918341 0.0933464 0.0085002
0.2064630 0.0932953 0.0088455
0.2218267 0.0965466 0.0092109
0.2298896 0.0964575 0.0099742
0.2465517 0.0964049 0.0103789
0.2639832 0.0963525 0.0107999
0.2728934 0.0997059 0.0112456
0.2915133 0.0996520 0.0117014
0.3011184 0.0996044 0.0121648
0.3109089 0.0995574 0.0126407
0.3310095 0.0995052 0.0131349
0.3413166 0.1029586 0.0136575
0.3519806 0.1029102 0.0141912
0.3628037 0.1028617 0.0147455
0.3848734 0.1028079 0.0153210
0.3959783 0.1063639 0.0159295
0.4073424 0.1063140 0.0165509
0.4188163 0.1062642 0.0171961
0.4303698 0.1062586 0.0171958
0.4420275 0.1062091 0.0178611
0.4537525 0.1098709 0.0185545
0.4659649 0.1098203 0.0192615
0.4782285 0.1097698 0.0199950
0.4905102 0.1097637 0.0199947
0.5028317 0.1097132 0.0207556
0.5150124 0.1134820 0.0215594
0.5150124 0.1134820 0.0215594
0.5273321 0.1134300 0.0223789
0.5396281 0.1133779 0.0232289
0.5518674 0.1133716 0.0232284
0.5639259 0.1172479 0.0241261
0.5639442 0.1172007 0.0250416
0.5760628 0.1171942 0.0250411
0.5883793 0.1171404 0.0259901
0.6005946 0.1170872 0.0269627
0.6004525 0.1211284 0.0269807
0.6125541 0.1210735 0.0279895
0.6245098 0.1210666 0.0279889
0.6245270 0.1210186 0.0290352
0.6363574 0.1209637 0.0301189
0.6478807 0.1251147 0.0301382
0.6478971 0.1250654 0.0312628
0.6593915 0.1250582 0.0312621
0.6707247 0.1250017 0.0324267
0.6707247 0.1250017 0.0324267
0.6817403 0.1292222 0.0336558
0.0063742 0.0949578 0.0027972
0.0109131 0.0947943 0.0030494
0.0164175 0.0946487 0.0033246
0.0229297 0.0978881 0.0035240
0.0296066 0.0977859 0.0037490
0.0384883 0.0976365 0.0041668
0.0478036 0.0975311 0.0044709
0.0567562 0.0974321 0.0047971
0.0672506 0.1007673 0.0051506
0.0796144 0.1007027 0.0053411
0.0902513 0.1005999 0.0057705
0.1021722 0.1004973 0.0062343
0.1154211 0.1039692 0.0064842
0.1302357 0.1038638 0.0070051
0.1410029 0.1038081 0.0072809
0.1525297 0.1037092 0.0078655
0.1711929 0.1036464 0.0081851
0.1844894 0.1072211 0.0085234
0.1986963 0.1071168 0.0092300
0.2061108 0.1070647 0.0096048
0.2215543 0.1070067 0.0099946
0.2377298 0.1106848 0.0104072
0.2547335 0.1106252 0.0108293
0.2635481 0.1105718 0.0112685
0.2817768 0.1104661 0.0121897
0.2911843 0.1104144 0.0126666
0.3006605 0.1142044 0.0131709
0.3203890 0.1141451 0.0136855
0.3305265 0.1140919 0.0142203
0.3409402 0.1140857 0.0142201
0.3623987 0.1140263 0.0147753
0.3732297 0.1179220 0.0153625
0.3843374 0.1178671 0.0159619
0.3955763 0.1178125 0.0165845
0.4069362 0.1177577 0.0172310
0.4184061 0.1177034 0.0178977
0.4298128 0.1217573 0.0179094
0.4414665 0.1217020 0.0185922
0.4533338 0.1216466 0.0193006
0.4655442 0.1215912 0.0200356
0.4777881 0.1215844 0.0200352
0.4899401 0.1257047 0.0208116
0.5022608 0.1256476 0.0216031
0.5145892 0.1255905 0.0224242
0.5268909 0.1255835 0.0224237
0.5269090 0.1255334 0.0232759
0.5392061 0.1254763 0.0241593
0.5513010 0.1297625 0.0241749
0.5635080 0.1297037 0.0250917
0.5756473 0.1296450 0.0260426
0.5756473 0.1296450 0.0260426
0.5879667 0.1295867 0.0270172
0.6000258 0.1339938 0.0270346
0.6121317 0.1339337 0.0280454
0.6121491 0.1338813 0.0290937
0.6241094 0.1338736 0.0290931
0.6359450 0.1338136 0.0301789
0.6359450 0.1338136 0.0301789
0.6474905 0.1382901 0.0313250
0.6589909 0.1382821 0.0313243
0.6590071 0.1382282 0.0324920
0.6703303 0.1382203 0.0324912
0.6703465 0.1381665 0.0337012
0.6814979 0.1381047 0.0349541
0.0071998 0.1088888 0.0031482
0.0123263 0.1087374 0.0033343
0.0177678 0.1085793 0.0036353
0.0249262 0.1084468 0.0038919
0.0322706 0.1083244 0.0041758
0.0401175 0.1119842 0.0044835
0.0498037 0.1118649 0.0048105
0.0591117 0.1117529 0.0051615
0.0700516 0.1116356 0.0055635
0.0829078 0.1115158 0.0060106
0.0938912 0.1153251 0.0062515
0.1062439 0.1152091 0.0067538
0.1200154 0.1151409 0.0070196
0.1300583 0.1150322 0.0075834
0.1464650 0.1149643 0.0078817
0.1582885 0.1188293 0.0085412
0.1708889 0.1187652 0.0088881
0.1842529 0.1187011 0.0092490
0.1984337 0.1186372 0.0096245
0.2134439 0.1185734 0.0100151
0.2292021 0.1225434 0.0108517
0.2374436 0.1224848 0.0112918
0.2544334 0.1224194 0.0117495
0.2632407 0.1223620 0.0122148
0.2814400 0.1222986 0.0126924
0.2907210 0.1264396 0.0131977
0.3100696 0.1263744 0.0137134
0.3200255 0.1263161 0.0142493
0.3301569 0.1262579 0.0148058
0.3512166 0.1261927 0.0153836
0.3618940 0.1304480 0.0159946
0.3728376 0.1304409 0.0159944
0.3839405 0.1303809 0.0166182
0.3951749 0.1303209 0.0172660
0.4065305 0.1302615 0.0179340
0.4179966 0.1302028 0.0186177
0.4293998 0.1346288 0.0186299
0.4410506 0.1345684 0.0193398
0.4529155 0.1345078 0.0200762
0.4651239 0.1344471 0.0208402
0.4773662 0.1344397 0.0208398
0.4895170 0.1389342 0.0216469
0.5018375 0.1388717 0.0224696
0.5141656 0.1388094 0.0233230
0.5264678 0.1388017 0.0233225
0.5387660 0.1387393 0.0242077
0.5387844 0.1386847 0.0251262
0.5508807 0.1433561 0.0251425
0.5630896 0.1432921 0.0260952
0.5752134 0.1432841 0.0260947
0.5875362 0.1432204 0.0270711
0.5875537 0.1431649 0.0280839
0.5997589 0.1431567 0.0280833
0.6117266 0.1478982 0.0291517
0.6117266 0.1478982 0.0291517
0.6237090 0.1478326 0.0302398
0.6355325 0.1478243 0.0302391
0.6355494 0.1477673 0.0313673
0.6472359 0.1477018 0.0325358
0.6586063 0.1526280 0.0325566
0.6586227 0.1525695 0.0337690
0.6699519 0.1525608 0.0337681
0.6811100 0.1524935 0.0350234
0.6811100 0.1524935 0.0350234
0.0084814 0.1204912 0.0034400
0.0133517 0.1202975 0.0037662
0.0192803 0.1201448 0.0040406
0.0259545 0.1241352 0.0043381
0.0336462 0.1239970 0.0046544
0.0436927 0.1238584 0.0049937
0.0519150 0.1237341 0.0053641
0.0615968 0.1236026 0.0057952
0.0729715 0.1235218 0.0060233
0.0862761 0.1276235 0.0065115
0.0977146 0.1275484 0.0067678
0.1105144 0.1274216 0.0073113
0.1198504 0.1273545 0.0075991
0.1351565 0.1272265 0.0082192
0.1461983 0.1315025 0.0085589
0.1580700 0.1314321 0.0089065
0.1772245 0.1313543 0.0092680
0.1909915 0.1312293 0.0100358
0.1981838 0.1311668 0.0104431
0.2130830 0.1355573 0.0108740
0.2289101 0.1354855 0.0113149
0.2455221 0.1354139 0.0117735
0.2541187 0.1353512 0.0122397
0.2719048 0.1352818 0.0127183
0.2811036 0.1352198 0.0132157
0.2999444 0.1397287 0.0137413
0.3097129 0.1396649 0.0142783
0.3196623 0.1396013 0.0148359
0.3401888 0.1395302 0.0154149
0.3508352 0.1394665 0.0160164
