Plugins/FilmEmulator/Content/LUTs/FE_Kodak_Polymax_Grade_Minus_1_64.cube
TITLE "FE_Kodak_Polymax_Grade_Minus_1_33"
LUT_3D_SIZE 4
0.0021657 0.0021657 0.0021657
0.0021657 0.0021657 0.0021657
0.0022586 0.0022586 0.0022586
0.0028116 0.0028116 0.0028116
0.0184616 0.0184616 0.0184616
0.0258995 0.0258995 0.0258995
0.0352741 0.0352741 0.0352741
0.0455209 0.0455209 0.0455209
0.1066304 0.1066304 0.1066304
0.1241627 0.1241627 0.1241627
0.1407908 0.1407908 0.1407908
0.1586789 0.1586789 0.1586789
0.2350983 0.2350983 0.2350983
0.2542316 0.2542316 0.2542316
0.2694835 0.2694835 0.2694835
0.2853005 0.2853005 0.2853005
0.3097075 0.3097075 0.3097075
0.3265556 0.3265556 0.3265556
0.3396807 0.3396807 0.3396807
0.3577710 0.3577710 0.3577710
0.4194191 0.4194191 0.4194191
0.4341401 0.4341401 0.4341401
0.4490173 0.4490173 0.4490173
0.4639860 0.4639860 0.4639860
0.5194037 0.5194037 0.5194037
0.5345246 0.5345246 0.5345246
0.5446302 0.5446302 0.5446302
0.5546991 0.5546991 0.5546991
0.6043281 0.6043281 0.6043281
0.6140674 0.6140674 0.6140674
0.6237162 0.6237162 0.6237162
0.6332681 0.6332681 0.6332681
0.6474196 0.6474196 0.6474196
0.6567158 0.6567158 0.6567158
0.6658934 0.6658934 0.6658934
0.6704360 0.6704360 0.6704360
0.7054863 0.7054863 0.7054863
0.7097059 0.7097059 0.7097059
0.7180372 0.7180372 0.7180372
0.7262213 0.7262213 0.7262213
0.7497396 0.7497396 0.7497396
0.7572733 0.7572733 0.7572733
0.7609817 0.7609817 0.7609817
0.7683131 0.7683131 0.7683131
0.7895296 0.7895296 0.7895296
0.7929235 0.7929235 0.7929235
0.7962769 0.7962769 0.7962769
0.8028936 0.8028936 0.8028936
0.8095001 0.8095001 0.8095001
0.8127394 0.8127394 0.8127394
0.8159361 0.8159361 0.8159361
0.8190903 0.8190903 0.8190903
0.8372002 0.8372002 0.8372002
0.8401268 0.8401268 0.8401268
0.8430107 0.8430107 0.8430107
0.8458521 0.8458521 0.8458521
0.8594319 0.8594319 0.8594319
0.8620245 0.8620245 0.8620245
0.8646033 0.8646033 0.8646033
0.8671542 0.8671542 0.8671542
0.8769536 0.8769536 0.8769536
0.8793043 0.8793043 0.8793043
0.8816161 0.8816161 0.8816161
0.8838896 0.8838896 0.8838896
