Plugins/FilmEmulator/Content/LUTs/FE_Kodak_Vision2_200T_5217_64.cube
# FilmEmulator LUT (resampled to 64)
LUT_3D_SIZE 64
0.000000 0.000000 0.001160
0.012990 0.001736 0.003532
0.025992 0.003479 0.005892
0.039353 0.005416 0.007923
0.052705 0.007359 0.009954
0.065912 0.009374 0.011984
0.079093 0.011382 0.014004
0.092021 0.013319 0.015927
0.104966 0.015230 0.017832
0.118034 0.016950 0.019614
0.131139 0.018649 0.021377
0.144455 0.020230 0.023036
0.158145 0.021797 0.024663
0.173460 0.023300 0.026151
0.188351 0.024787 0.027615
0.201728 0.026213 0.028994
0.215121 0.027597 0.030335
0.228560 0.028853 0.031560
0.241930 0.030025 0.032715
0.255122 0.030986 0.033691
0.268386 0.031894 0.034591
0.281810 0.032684 0.035319
0.295271 0.033464 0.036005
0.308803 0.034223 0.036609
0.322243 0.035000 0.037237
0.335527 0.035806 0.037904
0.348710 0.036537 0.038546
0.361747 0.037157 0.039150
0.374756 0.037730 0.039714
0.387730 0.038241 0.040225
0.400683 0.038789 0.040766
0.413610 0.039378 0.041339
0.426546 0.040006 0.042006
0.439490 0.040673 0.042765
0.452433 0.041388 0.043558
0.465376 0.042148 0.044379
0.479000 0.042942 0.045192
0.493152 0.043764 0.045999
0.507212 0.044705 0.046933
0.521210 0.045728 0.047956
0.535072 0.046945 0.049125
0.548852 0.048279 0.050380
0.562785 0.049795 0.051839
0.576798 0.051406 0.053405
0.590939 0.053274 0.055237
0.605138 0.055259 0.057190
0.619136 0.057533 0.059332
0.633056 0.059919 0.061549
0.646999 0.062597 0.064010
0.660949 0.065372 0.066552
0.674840 0.068280 0.069276
0.688714 0.071225 0.072051
0.702839 0.074573 0.075443
0.717022 0.078014 0.078977
0.731794 0.082293 0.083296
0.746675 0.086726 0.087760
0.761651 0.092407 0.093418
0.776641 0.098267 0.099246
0.790071 0.106936 0.107701
0.803340 0.115895 0.116429
0.813876 0.122893 0.123208
0.824230 0.129759 0.129858
0.836507 0.130800 0.130937
0.848846 0.131653 0.131836
0.000000 0.007596 0.000571
0.012864 0.010733 0.003493
0.025750 0.013833 0.006383
0.039341 0.015755 0.008240
0.052919 0.017678 0.010118
0.066323 0.019631 0.012290
0.079706 0.021569 0.014449
0.092886 0.023373 0.016481
0.106081 0.025165 0.018496
0.119384 0.026877 0.020389
0.132692 0.028577 0.022250
0.146023 0.030205 0.023941
0.159720 0.031800 0.025592
0.175004 0.033249 0.027072
0.189874 0.034687 0.028528
0.203267 0.036090 0.029899
0.216667 0.037446 0.031230
0.230091 0.038662 0.032439
0.243480 0.039813 0.033592
0.256782 0.040798 0.034600
0.270149 0.041744 0.035550
0.283660 0.042605 0.036373
0.297156 0.043442 0.037148
0.310625 0.044233 0.037831
0.323998 0.045009 0.038488
0.337212 0.045760 0.039099
0.350356 0.046448 0.039663
0.363401 0.047045 0.040157
0.376411 0.047611 0.040645
0.389378 0.048138 0.041125
0.402359 0.048702 0.041668
0.415358 0.049307 0.042281
0.428356 0.049931 0.042979
0.441355 0.050573 0.043762
0.454333 0.051253 0.044578
0.467291 0.051965 0.045423
0.481187 0.052735 0.046255
0.495812 0.053548 0.047077
0.509859 0.054491 0.048004
0.523510 0.055522 0.049004
0.537237 0.056766 0.050188
0.551009 0.058139 0.051483
0.564971 0.059715 0.052976
0.579031 0.061398 0.054573
0.593240 0.063326 0.056442
0.607518 0.065366 0.058434
0.621618 0.067689 0.060622
0.635648 0.070123 0.062886
0.649595 0.072830 0.065476
0.663514 0.075629 0.068176
0.677533 0.078695 0.071132
0.691580 0.081837 0.074158
0.705923 0.085446 0.077744
0.720334 0.089163 0.081460
0.735135 0.093571 0.085767
0.750008 0.098107 0.090184
0.764722 0.104145 0.096194
0.779412 0.110398 0.102432
0.792429 0.118997 0.110804
0.805273 0.127838 0.119398
0.816115 0.134533 0.125933
0.826824 0.141085 0.132331
0.838890 0.141437 0.132776
0.851001 0.141589 0.133030
0.000000 0.015200 0.000000
0.012669 0.019676 0.003418
0.025375 0.024075 0.006783
0.039252 0.026043 0.008526
0.053111 0.028006 0.010305
0.066711 0.029897 0.012608
0.080296 0.031769 0.014896
0.093728 0.033443 0.017034
0.107173 0.035121 0.019154
0.120708 0.036820 0.021155
0.134215 0.038515 0.023113
0.147569 0.040186 0.024838
0.161280 0.041805 0.026517
0.176536 0.043201 0.027991
0.191388 0.044594 0.029442
0.204798 0.045970 0.030806
0.218207 0.047297 0.032128
0.231615 0.048473 0.033321
0.245024 0.049602 0.034472
0.258433 0.050610 0.035511
0.271901 0.051593 0.036511
0.285495 0.052522 0.037424
0.299025 0.053414 0.038285
0.312433 0.054234 0.039045
0.325743 0.055009 0.039730
0.338889 0.055707 0.040290
0.351997 0.056354 0.040779
0.365049 0.056928 0.041167
0.378060 0.057488 0.041581
0.391020 0.058031 0.042029
0.404030 0.058611 0.042571
0.417098 0.059231 0.043220
0.430159 0.059852 0.043948
0.443213 0.060473 0.044755
0.456226 0.061119 0.045594
0.469202 0.061786 0.046463
0.483365 0.062531 0.047315
0.498452 0.063338 0.048153
0.512490 0.064283 0.049076
0.525812 0.065325 0.050055
0.539411 0.066597 0.051255
0.553178 0.068009 0.052589
0.567166 0.069642 0.054113
0.581271 0.071391 0.055739
0.595545 0.073374 0.057640
0.609894 0.075464 0.059667
0.624091 0.077834 0.061899
0.638228 0.080315 0.064211
0.652183 0.083055 0.066936
0.666078 0.085882 0.069797
0.680229 0.089112 0.072988
0.694452 0.092454 0.076272
0.709012 0.096322 0.080049
0.723649 0.100311 0.083941
0.738479 0.104848 0.088240
0.753344 0.109488 0.092614
0.767787 0.115881 0.098976
0.782170 0.122525 0.105621
0.794780 0.131068 0.113910
0.807206 0.139806 0.122368
0.818374 0.146195 0.128635
0.829457 0.152426 0.134756
0.841301 0.152115 0.134594
0.853169 0.151594 0.134230
0.000000 0.023058 0.000000
0.010338 0.026945 0.002174
0.020852 0.030832 0.004388
0.036790 0.034769 0.007848
0.052596 0.038578 0.011223
0.066393 0.040477 0.013329
0.080182 0.042358 0.015434
0.093890 0.044056 0.017516
0.107586 0.045732 0.019594
0.121200 0.047250 0.021642
0.134813 0.048776 0.023662
0.148428 0.050336 0.025529
0.162364 0.051871 0.027335
0.177699 0.053299 0.028872
0.192626 0.054697 0.030375
0.206099 0.055987 0.031755
0.219552 0.057235 0.033091
0.232944 0.058356 0.034292
0.246352 0.059448 0.035451
0.259801 0.060463 0.036497
0.273291 0.061440 0.037498
0.286869 0.062329 0.038396
0.300389 0.063184 0.039249
0.313797 0.063973 0.040017
0.327128 0.064731 0.040727
0.340329 0.065437 0.041342
0.353463 0.066092 0.041868
0.366499 0.066673 0.042264
0.379512 0.067245 0.042658
0.392495 0.067804 0.043050
0.405525 0.068399 0.043530
0.418609 0.069035 0.044108
0.431713 0.069684 0.044809
0.444838 0.070344 0.045631
0.457922 0.071017 0.046490
0.470969 0.071700 0.047383
0.485234 0.072461 0.048271
0.500447 0.073283 0.049157
0.514653 0.074287 0.050150
0.528171 0.075415 0.051216
0.541874 0.076734 0.052454
0.555688 0.078169 0.053795
0.569672 0.079754 0.055276
0.583746 0.081416 0.056830
0.597922 0.083307 0.058628
0.612146 0.085302 0.060537
0.626302 0.087664 0.062799
0.640431 0.090168 0.065197
0.654526 0.093044 0.068162
0.668610 0.096044 0.071314
0.683018 0.099551 0.074883
0.697516 0.103201 0.078568
0.712249 0.107260 0.082446
0.727036 0.111415 0.086370
0.741876 0.116098 0.090753
0.756725 0.120879 0.095222
0.770677 0.127572 0.101912
0.784501 0.134539 0.108920
0.796909 0.143440 0.117092
0.809170 0.152541 0.125386
0.821257 0.158494 0.130661
0.833332 0.164237 0.135735
0.844559 0.164072 0.135761
0.855758 0.163715 0.135624
0.000000 0.030733 0.000000
0.008013 0.034084 0.000976
0.016334 0.037512 0.002076
0.034182 0.043322 0.007033
0.051797 0.048896 0.011811
0.065909 0.050937 0.013904
0.080008 0.052950 0.015991
0.093987 0.054688 0.018017
0.107932 0.056378 0.020050
0.121631 0.057736 0.022132
0.135355 0.059108 0.024201
0.149216 0.060556 0.026196
0.163371 0.062001 0.028119
0.178805 0.063440 0.029729
0.193824 0.064826 0.031293
0.207361 0.066019 0.032689
0.220860 0.067181 0.034039
0.234246 0.068245 0.035251
0.247661 0.069296 0.036419
0.261149 0.070314 0.037472
0.274661 0.071280 0.038472
0.288225 0.072131 0.039355
0.301736 0.072952 0.040202
0.315144 0.073711 0.040977
0.328495 0.074454 0.041713
0.341750 0.075168 0.042383
0.354912 0.075831 0.042946
0.367936 0.076421 0.043350
0.380952 0.077005 0.043727
0.393958 0.077579 0.044069
0.407008 0.078189 0.044489
0.420109 0.078839 0.045000
0.433256 0.079514 0.045671
0.446449 0.080213 0.046503
0.459606 0.080913 0.047380
0.472730 0.081616 0.048296
0.487101 0.082396 0.049222
0.502441 0.083236 0.050154
0.516807 0.084294 0.051213
0.530507 0.085500 0.052358
0.544304 0.086861 0.053630
0.558161 0.088315 0.054978
0.572142 0.089852 0.056419
0.586189 0.091432 0.057908
0.600277 0.093237 0.059612
0.614384 0.095145 0.061413
0.628506 0.097503 0.063709
0.642634 0.100037 0.066197
0.656870 0.103050 0.069393
0.671141 0.106222 0.072825
0.685799 0.109998 0.076755
0.700566 0.113942 0.080825
0.715463 0.118187 0.084809
0.730390 0.122501 0.088773
0.745236 0.127326 0.093246
0.760068 0.132246 0.097812
0.773547 0.139312 0.104847
0.786834 0.146685 0.112235
0.799044 0.155869 0.120273
0.811143 0.165241 0.128378
0.824096 0.170715 0.132681
0.837106 0.175929 0.136731
0.847753 0.175919 0.136948
0.858324 0.175741 0.137041
0.000000 0.035647 0.000000
0.005769 0.039297 0.000464
0.011904 0.043029 0.001012
0.029367 0.049280 0.004182
0.046749 0.055401 0.007456
0.062931 0.059592 0.012289
0.078927 0.063579 0.016852
0.093119 0.065601 0.018799
0.107273 0.067557 0.020742
0.121162 0.069056 0.022659
0.135052 0.070524 0.024576
0.148951 0.071822 0.026492
0.163217 0.073092 0.028394
0.179068 0.074240 0.030233
0.194429 0.075344 0.031979
0.208037 0.076294 0.033390
0.221622 0.077250 0.034764
0.235142 0.078228 0.036023
0.248664 0.079192 0.037220
0.262191 0.080124 0.038257
0.275735 0.081025 0.039249
0.289316 0.081861 0.040141
0.302834 0.082673 0.040993
0.316234 0.083441 0.041768
0.329594 0.084192 0.042524
0.342889 0.084913 0.043250
0.356093 0.085591 0.043857
0.369165 0.086205 0.044294
0.382214 0.086805 0.044692
0.395236 0.087387 0.045041
0.408310 0.087997 0.045455
0.421442 0.088640 0.045942
0.434620 0.089318 0.046566
0.447845 0.090033 0.047327
0.461108 0.090783 0.048184
0.474406 0.091564 0.049123
0.488937 0.092409 0.050081
0.504426 0.093305 0.051053
0.518825 0.094357 0.052109
0.532478 0.095516 0.053223
0.546243 0.096830 0.054478
0.560076 0.098237 0.055818
0.574080 0.099747 0.057266
0.588174 0.101311 0.058771
0.602282 0.103122 0.060518
0.616396 0.105045 0.062375
0.630600 0.107493 0.064782
0.644839 0.110145 0.067404
0.659226 0.113311 0.070710
0.673662 0.116649 0.074244
0.688480 0.120547 0.078295
0.703404 0.124601 0.082490
0.718324 0.128931 0.086652
0.733243 0.133324 0.090806
0.748048 0.138241 0.095434
0.762833 0.143255 0.100150
0.776120 0.151780 0.107769
0.789195 0.160807 0.115802
0.801270 0.169147 0.123423
0.813243 0.177416 0.131000
0.826262 0.181751 0.134628
0.839351 0.185823 0.137992
0.849985 0.186136 0.138432
0.860540 0.186328 0.138777
0.000000 0.040803 0.000000
0.003558 0.044634 0.000000
0.007534 0.048553 0.000046
0.024479 0.055203 0.001523
0.041500 0.061826 0.003351
0.059677 0.068033 0.010456
0.077514 0.073888 0.017102
0.092060 0.076323 0.019308
0.106549 0.078661 0.021458
0.120639 0.080324 0.023211
0.134705 0.081912 0.024978
0.148650 0.083099 0.026820
0.163024 0.084232 0.028697
0.179256 0.085137 0.030730
0.194933 0.086000 0.032633
0.208625 0.086719 0.034071
0.222310 0.087474 0.035475
0.235971 0.088337 0.036779
0.249608 0.089188 0.038003
0.263181 0.090009 0.039024
0.276764 0.090823 0.040008
0.290367 0.091622 0.040907
0.303898 0.092407 0.041764
0.317295 0.093168 0.042540
0.330665 0.093916 0.043316
0.343992 0.094642 0.044089
0.357236 0.095334 0.044742
0.370357 0.095976 0.045218
0.383444 0.096596 0.045644
0.396488 0.097190 0.046008
0.409589 0.097804 0.046419
0.422756 0.098440 0.046885
0.435969 0.099123 0.047464
0.449229 0.099851 0.048155
0.462595 0.100644 0.048986
0.476054 0.101494 0.049940
0.490735 0.102398 0.050923
0.506364 0.103343 0.051930
0.520798 0.104390 0.052985
0.534413 0.105507 0.054073
0.548154 0.106783 0.055318
0.561970 0.108153 0.056656
0.576005 0.109651 0.058123
0.590155 0.111217 0.059657
0.604288 0.113043 0.061452
0.618413 0.114988 0.063366
0.632692 0.117516 0.065872
0.647031 0.120272 0.068609
0.661563 0.123580 0.072012
0.676159 0.127071 0.075636
0.691123 0.131081 0.079796
0.706190 0.135237 0.084106
0.721128 0.139716 0.088440
0.736036 0.144269 0.092779
0.750803 0.149298 0.097573
0.765545 0.154416 0.102451
0.778647 0.164227 0.110641
0.791516 0.174708 0.119304
0.803460 0.182235 0.126517
0.815308 0.189457 0.133581
0.828394 0.192715 0.136554
0.841563 0.195710 0.139256
0.852176 0.196346 0.139920
0.862707 0.196907 0.140519
0.000000 0.048306 0.000000
0.001660 0.051169 0.000000
0.003742 0.054149 0.000022
0.018892 0.060799 0.000711
0.034309 0.067468 0.001660
0.053746 0.074416 0.006513
0.072886 0.081097 0.011449
0.089156 0.085201 0.017183
0.105194 0.089047 0.022401
0.119598 0.091089 0.024004
0.133946 0.093035 0.025640
0.147993 0.094474 0.027450
0.162456 0.095853 0.029275
0.178720 0.096978 0.031166
0.194468 0.097991 0.032986
0.208373 0.098608 0.034549
0.222271 0.099190 0.036052
0.236153 0.099667 0.037372
0.249979 0.100145 0.038603
0.263664 0.100627 0.039609
0.277349 0.101132 0.040581
0.291038 0.101687 0.041480
0.304640 0.102261 0.042343
0.318076 0.102873 0.043135
0.331457 0.103518 0.043914
0.344744 0.104221 0.044672
0.357996 0.104924 0.045364
0.371197 0.105629 0.045958
0.384363 0.106305 0.046482
0.397485 0.106946 0.046916
0.410657 0.107592 0.047369
0.423887 0.108245 0.047842
0.437167 0.108931 0.048393
0.450498 0.109651 0.049022
0.463922 0.110428 0.049781
0.477428 0.111255 0.050656
0.492160 0.112144 0.051601
0.507845 0.113081 0.052600
0.522334 0.114134 0.053671
0.536005 0.115267 0.054790
0.549796 0.116588 0.056080
0.563659 0.118021 0.057474
0.577803 0.119649 0.059068
0.592095 0.121380 0.060768
0.606299 0.123312 0.062664
0.620463 0.125336 0.064648
0.634759 0.127864 0.067128
0.649106 0.130588 0.069803
0.663716 0.133911 0.073166
0.678415 0.137434 0.076759
0.693401 0.141470 0.080918
0.708468 0.145650 0.085236
0.723374 0.150900 0.089693
0.738243 0.156398 0.094181
0.753005 0.161734 0.099238
0.767746 0.167041 0.104400
0.780725 0.176469 0.113038
0.793451 0.186486 0.122174
0.805289 0.193499 0.129082
0.817035 0.200200 0.135759
0.830196 0.202991 0.138289
0.843451 0.205521 0.140541
0.853968 0.206486 0.141451
0.864397 0.207401 0.142317
0.000000 0.055758 0.000000
0.000000 0.057721 0.000000
0.000410 0.059827 0.000000
0.013516 0.066355 0.000000
0.027091 0.072953 0.000173
0.047692 0.080604 0.002948
0.068044 0.088073 0.006291
0.085976 0.093769 0.015123
0.103524 0.099072 0.023060
0.118374 0.101624 0.024729
0.133122 0.104046 0.026414
0.147314 0.105776 0.028184
0.161900 0.107433 0.029947
0.178195 0.108778 0.031684
0.194006 0.109952 0.033399
0.208092 0.110514 0.035036
0.222177 0.110975 0.036598
0.236258 0.111137 0.037931
0.250260 0.111295 0.039170
0.264060 0.111441 0.040168
0.277855 0.111636 0.041136
0.291635 0.111937 0.042038
0.305317 0.112284 0.042909
0.318812 0.112718 0.043720
0.332222 0.113233 0.044509
0.345490 0.113884 0.045261
0.358762 0.114575 0.045993
0.372039 0.115326 0.046695
0.385284 0.116043 0.047311
0.398487 0.116719 0.047818
0.411733 0.117389 0.048313
0.425030 0.118053 0.048798
0.438373 0.118741 0.049325
0.451763 0.119451 0.049894
0.465234 0.120208 0.050583
0.478776 0.121007 0.051378
0.493552 0.121879 0.052281
0.509286 0.122806 0.053269
0.523831 0.123867 0.054355
0.537563 0.125020 0.055508
0.551406 0.126383 0.056842
0.565316 0.127873 0.058286
0.579568 0.129627 0.060002
0.593999 0.131519 0.061862
0.608275 0.133561 0.063862
0.622482 0.135670 0.065927
0.636797 0.138204 0.068389
0.651155 0.140903 0.071007
0.665844 0.144337 0.074336
0.680644 0.148016 0.077901
0.695657 0.152110 0.082074
0.710728 0.156320 0.086417
0.725608 0.162167 0.091001
0.740442 0.168392 0.095640
0.755212 0.173985 0.100928
0.769971 0.179459 0.106337
0.782820 0.188612 0.115433
0.795397 0.198289 0.125056
0.807124 0.204776 0.131637
0.818763 0.210933 0.137903
0.831980 0.213257 0.139998
0.845303 0.215324 0.141814
0.855731 0.216610 0.142971
0.866065 0.217872 0.144107
0.000000 0.062858 0.000000
0.000000 0.064404 0.000000
0.000291 0.066074 0.000000
0.009619 0.071626 0.000000
0.019682 0.077336 0.000119
0.040788 0.085437 0.002028
0.061710 0.093411 0.004595
0.080863 0.100163 0.013521
0.099649 0.106568 0.021737
0.115870 0.110552 0.024982
0.131842 0.114272 0.027979
0.146475 0.116569 0.029647
0.161424 0.118728 0.031281
0.177742 0.120294 0.032774
0.193565 0.121700 0.034234
0.207620 0.122537 0.035580
0.221693 0.123251 0.036924
0.235821 0.123594 0.038257
0.249901 0.123793 0.039509
0.263859 0.123624 0.040554
0.277801 0.123502 0.041562
0.291707 0.123480 0.042488
0.305540 0.123488 0.043388
0.319232 0.123552 0.044238
0.332809 0.123741 0.045075
0.346195 0.124140 0.045890
0.359562 0.124653 0.046675
0.372903 0.125333 0.047417
0.386224 0.125986 0.048090
0.399521 0.126606 0.048675
0.412863 0.127240 0.049227
0.426253 0.127889 0.049743
0.439632 0.128556 0.050270
0.452998 0.129243 0.050808
0.466437 0.129960 0.051432
0.479941 0.130704 0.052132
0.494703 0.131538 0.052976
0.510446 0.132441 0.053933
0.525055 0.133521 0.055034
0.538889 0.134721 0.056234
0.552800 0.136112 0.057596
0.566757 0.137618 0.059055
0.581103 0.139465 0.060855
0.595652 0.141492 0.062833
0.610009 0.143667 0.064973
0.624278 0.145910 0.067187
0.638634 0.148492 0.069680
0.653023 0.151207 0.072282
0.667791 0.155418 0.075607
0.682685 0.160129 0.079172
0.697749 0.164510 0.083462
0.712860 0.168799 0.087955
0.727747 0.174015 0.092694
0.742581 0.179445 0.097491
0.757464 0.184933 0.102797
0.772356 0.190431 0.108198
0.785043 0.200055 0.117810
0.797415 0.210268 0.128023
0.808995 0.216156 0.134124
0.820492 0.221597 0.139800
0.833642 0.223454 0.141533
0.846902 0.225073 0.143003
0.857289 0.226627 0.144424
0.867584 0.228180 0.145843
0.000000 0.070001 0.000000
0.000000 0.071148 0.000000
0.000177 0.072402 0.000000
0.005828 0.076996 0.000000
0.012459 0.081826 0.000068
0.033795 0.090217 0.001152
0.055041 0.098549 0.002962
0.075433 0.106318 0.011781
0.095470 0.113787 0.020096
0.113029 0.119154 0.024885
0.130216 0.124146 0.029197
0.145394 0.127110 0.030938
0.160805 0.129866 0.032598
0.177222 0.131715 0.033909
0.193119 0.133402 0.035167
0.207159 0.134508 0.036238
0.221230 0.135468 0.037362
0.235389 0.135990 0.038641
0.249526 0.136259 0.039863
0.263608 0.135880 0.040938
0.277671 0.135520 0.041973
0.291692 0.135205 0.042921
0.305667 0.134908 0.043851
0.319554 0.134650 0.044746
0.333311 0.134533 0.045634
0.346855 0.134655 0.046512
0.360345 0.134956 0.047349
0.373757 0.135517 0.048126
0.387161 0.136071 0.048852
0.400555 0.136616 0.049512
0.413985 0.137191 0.050120
0.427457 0.137799 0.050668
0.440871 0.138424 0.051202
0.454228 0.139066 0.051721
0.467655 0.139737 0.052297
0.481146 0.140432 0.052923
0.495914 0.141237 0.053719
0.511676 0.142128 0.054647
0.526347 0.143282 0.055763
0.540274 0.144618 0.057007
0.554250 0.146111 0.058407
0.568255 0.147698 0.059899
0.582679 0.149647 0.061777
0.597322 0.151785 0.063857
0.611747 0.154083 0.066114
0.626074 0.156454 0.068452
0.640484 0.159100 0.070985
0.654927 0.161854 0.073593
0.669773 0.166621 0.076937
0.684755 0.172059 0.080527
0.699868 0.176660 0.084939
0.715019 0.181027 0.089582
0.729919 0.185722 0.094461
0.744760 0.190493 0.099396
0.759715 0.195930 0.104741
0.774690 0.201490 0.110163
0.787231 0.211557 0.120237
0.799424 0.222267 0.130977
0.810857 0.227545 0.136562
0.822212 0.232260 0.141614
0.835274 0.233641 0.142987
0.848450 0.234800 0.144114
0.858823 0.236621 0.145812
0.869106 0.238463 0.147528
0.000000 0.077379 0.000000
0.000000 0.078227 0.000000
0.000079 0.079165 0.000000
0.002612 0.082900 0.000000
0.006243 0.086891 0.000030
0.026326 0.094715 0.000517
0.046564 0.102609 0.001672
0.068294 0.111189 0.009294
0.089648 0.119507 0.016734
0.108372 0.125992 0.022900
0.126715 0.132117 0.028535
0.143004 0.136294 0.031299
0.159411 0.140152 0.033821
0.176332 0.142632 0.035290
0.192640 0.144861 0.036630
0.206759 0.146195 0.037512
0.220875 0.147369 0.038407
0.234979 0.148065 0.039339
0.249061 0.148556 0.040294
0.263088 0.148523 0.041307
0.277130 0.148360 0.042304
0.291207 0.147910 0.043267
0.305280 0.147502 0.044232
0.319347 0.147172 0.045197
0.333357 0.146858 0.046154
0.347271 0.146571 0.047094
0.361029 0.146475 0.047975
0.374558 0.146658 0.048769
0.388077 0.146920 0.049528
0.401581 0.147284 0.050242
0.415074 0.147682 0.050898
0.428554 0.148117 0.051486
0.442003 0.148577 0.052063
0.455423 0.149061 0.052629
0.468951 0.149649 0.053248
0.482576 0.150329 0.053913
0.497447 0.151153 0.054718
0.513287 0.152091 0.055629
0.528014 0.153625 0.056758
0.541980 0.155566 0.058034
0.556005 0.157562 0.059524
0.570065 0.159591 0.061142
0.584482 0.161686 0.063074
0.599086 0.163816 0.065170
0.613515 0.166177 0.067421
0.627865 0.168642 0.069743
0.642406 0.171434 0.072362
0.657023 0.174353 0.075096
0.671948 0.178476 0.078590
0.686977 0.183001 0.082337
0.702131 0.187458 0.086901
0.717321 0.191895 0.091693
0.732267 0.196668 0.096626
0.747156 0.201518 0.101592
0.761958 0.207193 0.107088
0.776745 0.213021 0.112683
0.789228 0.223376 0.122938
0.801381 0.234377 0.133859
0.812675 0.238983 0.138733
0.823880 0.242927 0.142982
0.836748 0.243773 0.144002
0.849727 0.244412 0.144807
0.860224 0.246491 0.146853
0.870640 0.248617 0.148939
0.000000 0.084801 0.000000
0.000000 0.085342 0.000000
0.000000 0.085959 0.000000
0.000000 0.088923 0.000000
0.001121 0.092152 0.000000
0.019061 0.099344 0.000000
0.037490 0.106727 0.000566
0.060644 0.115960 0.006602
0.083389 0.124981 0.012816
0.103279 0.132529 0.020280
0.122778 0.139758 0.027194
0.140172 0.145270 0.031137
0.157590 0.150356 0.034671
0.175109 0.153595 0.036435
0.191924 0.156482 0.037987
0.206225 0.158106 0.038780
0.220475 0.159549 0.039535
0.234574 0.160451 0.040176
0.248640 0.161183 0.040891
0.262622 0.161482 0.041798
0.276641 0.161537 0.042713
0.290741 0.161060 0.043646
0.304880 0.160630 0.044612
0.319092 0.160290 0.045640
0.333318 0.159832 0.046655
0.347570 0.159179 0.047648
0.361588 0.158703 0.048563
0.375265 0.158487 0.049362
0.388920 0.158423 0.050144
0.402548 0.158553 0.050907
0.416124 0.158746 0.051617
0.429642 0.159011 0.052268
0.443161 0.159315 0.052907
0.456683 0.159659 0.053534
0.470333 0.160158 0.054203
0.484094 0.160795 0.054911
0.499064 0.161603 0.055735
0.514972 0.162546 0.056649
0.529753 0.164299 0.057811
0.543762 0.166608 0.059142
0.557839 0.168926 0.060743
0.571957 0.171251 0.062505
0.586380 0.173446 0.064490
0.600965 0.175573 0.066593
0.615397 0.177983 0.068819
0.629761 0.180522 0.071102
0.644399 0.183438 0.073791
0.659144 0.186500 0.076639
0.674133 0.190115 0.080283
0.689203 0.193914 0.084191
0.704406 0.198275 0.088898
0.719648 0.202794 0.093830
0.734644 0.207646 0.098799
0.749585 0.212574 0.103776
0.764227 0.218529 0.109463
0.778815 0.224673 0.115282
0.791217 0.235162 0.125565
0.803306 0.246272 0.136487
0.814592 0.250295 0.140738
0.825795 0.253586 0.144299
0.838406 0.253947 0.145002
0.851112 0.254112 0.145515
0.861718 0.256462 0.147954
0.872256 0.258883 0.150454
0.000000 0.092412 0.000000
0.000000 0.092614 0.000000
0.000000 0.092891 0.000000
0.000000 0.095462 0.000000
0.000746 0.098265 0.000000
0.012678 0.104543 0.000000
0.025831 0.111095 0.000259
0.050780 0.120296 0.003019
0.075242 0.129393 0.006487
0.096297 0.137760 0.014904
0.116949 0.145972 0.022910
0.135430 0.153349 0.028704
0.153919 0.160199 0.033908
0.172446 0.164761 0.036561
0.190185 0.168803 0.038884
0.205107 0.170986 0.040024
0.219877 0.172936 0.041025
0.234188 0.174184 0.041610
0.248407 0.175241 0.042204
0.262389 0.175807 0.042819
0.276374 0.176182 0.043463
0.290364 0.176138 0.044168
0.304425 0.176078 0.044993
0.318621 0.175990 0.046044
0.332911 0.175622 0.047076
0.347359 0.174787 0.048078
0.361606 0.174005 0.048981
0.375559 0.173302 0.049740
0.389449 0.172759 0.050508
0.403258 0.172425 0.051286
0.417008 0.172298 0.052082
0.430691 0.172405 0.052899
0.444431 0.172595 0.053679
0.458228 0.172868 0.054424
0.472086 0.173250 0.055178
0.485998 0.173729 0.055941
0.501046 0.174367 0.056833
0.516977 0.175129 0.057826
0.531805 0.176411 0.059113
0.545878 0.178050 0.060602
0.560018 0.179911 0.062399
0.574198 0.181906 0.064382
0.588690 0.183997 0.066422
0.603345 0.186139 0.068493
0.617778 0.188544 0.070613
0.632111 0.191067 0.072754
0.646694 0.194012 0.075448
0.661377 0.197122 0.078360
0.676361 0.200813 0.082149
0.691447 0.204699 0.086230
0.706734 0.209177 0.091049
0.722078 0.213823 0.096075
0.737151 0.218762 0.101004
0.752163 0.223769 0.105911
