Plugins/FilmEmulator/Content/LUTs/FE_Kodak_Aerochrome_III_64.cube
TITLE "FE_Kodak_Aerochrome_III_33"
LUT_3D_SIZE 8
0.0005847 0.0004999 0.0004647
0.0083490 0.0123664 0.0000000
0.0330465 0.0456434 0.0000000
0.1035182 0.1059622 0.0000000
0.2095224 0.1713020 0.0000000
0.3404385 0.2285199 0.0000000
0.4780290 0.2781184 0.0000000
0.6109784 0.3233917 0.0000000
0.0001105 0.0009550 0.0038731
0.0043624 0.0244280 0.0113869
0.0255394 0.0832369 0.0180750
0.0967392 0.1835621 0.0243065
0.2058481 0.2857606 0.0315719
0.3349610 0.3623365 0.0409115
0.4774779 0.4214732 0.0537795
0.6066610 0.4619082 0.0657975
0.0000000 0.0002126 0.0338439
0.0000000 0.0418566 0.0785262
0.0108667 0.1242807 0.1077305
0.0841872 0.2461351 0.1329727
0.2012757 0.3562764 0.1518251
0.3384960 0.4327317 0.1681420
0.4806522 0.4846578 0.1811995
0.6143523 0.5202810 0.1937598
0.0000000 0.0000000 0.0619623
0.0000000 0.0503161 0.1301749
0.0081746 0.1448851 0.1731627
0.0865908 0.2750499 0.2072592
0.2094517 0.3864688 0.2290486
0.3514945 0.4615611 0.2442481
0.4949994 0.5098642 0.2542127
0.6320026 0.5431539 0.2631738
0.0000000 0.0000000 0.0793673
0.0000000 0.0565557 0.1547722
0.0112764 0.1566329 0.2032132
0.0960875 0.2912046 0.2391113
0.2260296 0.4017312 0.2610506
0.3672094 0.4745792 0.2748108
0.5142618 0.5216265 0.2839403
0.6482552 0.5524999 0.2909834
0.0000000 0.0006421 0.0910759
0.0000000 0.0617708 0.1683522
0.0169762 0.1667854 0.2202743
0.1090595 0.3024781 0.2565130
0.2422739 0.4124088 0.2777733
0.3900779 0.4844918 0.2909516
0.5349759 0.5290506 0.2994568
0.6725519 0.5593286 0.3054748
0.0000000 0.0022605 0.1005830
0.0000000 0.0670626 0.1773744
0.0237881 0.1764034 0.2307535
0.1223412 0.3140083 0.2664152
0.2648987 0.4237553 0.2871869
0.4095740 0.4906805 0.2990409
0.5570166 0.5345910 0.3068934
0.6912112 0.5636649 0.3122073
0.0000000 0.0047689 0.1092587
0.0000000 0.0726889 0.1844235
0.0322530 0.1861983 0.2379191
0.1391752 0.3249960 0.2725178
0.2842008 0.4315442 0.2920895
0.4357614 0.4978637 0.3035076
0.5798169 0.5398387 0.3106675
0.7092863 0.5668154 0.3153908
0.0125132 0.0101018 0.0118098
0.0887129 0.0713971 0.0208235
0.2513425 0.1844870 0.0261913
0.4606333 0.3125684 0.0307724
0.6460327 0.4038900 0.0387182
0.7987050 0.4616075 0.0501227
0.9239972 0.4993496 0.0639839
1.0000000 0.5251337 0.0769264
0.0122560 0.0161657 0.0762299
0.0872836 0.1001332 0.1202263
0.2542487 0.2372307 0.1468807
0.4657964 0.3770591 0.1629612
0.6547065 0.4700659 0.1759035
0.8043592 0.5230914 0.1866604
0.9318649 0.5555522 0.1977535
1.0000000 0.5757580 0.2088962
0.0150211 0.0189421 0.1292227
0.0953177 0.1144156 0.1922786
0.2707760 0.2618358 0.2285915
0.4850298 0.4070380 0.2470590
0.6685539 0.4961300 0.2571581
0.8186902 0.5468058 0.2633501
0.9408845 0.5757474 0.2687727
1.0000000 0.5941149 0.2740295
0.0191261 0.0223760 0.1568366
0.1066730 0.1235450 0.2244948
0.2914867 0.2782789 0.2628076
0.5027604 0.4203341 0.2798175
0.6875368 0.5078887 0.2886343
0.8364264 0.5562768 0.2940850
0.9596546 0.5845246 0.2977743
1.0000000 0.6013251 0.3009182
0.0241791 0.0263425 0.1739713
0.1201078 0.1321989 0.2422913
0.3115394 0.2899572 0.2805692
0.5287755 0.4326840 0.2977678
0.7073306 0.5162123 0.3053226
0.8565844 0.5630646 0.3097464
0.9735501 0.5897593 0.3123965
1.0000000 0.6055000 0.3148985
0.0302242 0.0309995 0.1860232
0.1356803 0.1412183 0.2529847
0.3332688 0.3008946 0.2900582
0.5489798 0.4405698 0.3061450
0.7283696 0.5227504 0.3129106
0.8694444 0.5664832 0.3167088
0.9943241 0.5933415 0.3191710
1.0000000 0.6085216 0.3208795
0.0361514 0.0353606 0.1942084
0.1495750 0.1487611 0.2593011
0.3559771 0.3111501 0.2952379
0.5751830 0.4483904 0.3104790
0.7497201 0.5280689 0.3166784
0.8900751 0.5706477 0.3200128
1.0000000 0.5955582 0.3221459
1.0000000 0.6105115 0.3236778
0.0442470 0.0408986 0.2021441
0.1685508 0.1587675 0.2649092
0.3752218 0.3209173 0.2984942
0.5983359 0.4577953 0.3130012
0.7706672 0.5328955 0.3187168
0.9101607 0.5735745 0.3218848
1.0000000 0.5984517 0.3239809
1.0000000 0.6120980 0.3254260
0.1685936 0.0606333 0.1210416
0.3894382 0.1879009 0.1512983
0.6701395 0.3524221 0.1679288
0.8984908 0.4700895 0.1794599
1.0000000 0.5350201 0.1892749
1.0000000 0.5706826 0.1997140
1.0000000 0.5930130 0.2106750
1.0000000 0.6052035 0.2191047
0.1834542 0.0682436 0.1925502
0.4082616 0.2072032 0.2334596
0.6831237 0.3762218 0.2536891
0.9111218 0.4946456 0.2615629
1.0000000 0.5576320 0.2674423
1.0000000 0.5909302 0.2717352
1.0000000 0.6099727 0.2754546
1.0000000 0.6207075 0.2801400
0.1983696 0.0750369 0.2243093
0.4305108 0.2203941 0.2668412
0.7088492 0.3915305 0.2868481
0.9330187 0.5064341 0.2945392
1.0000000 0.5671657 0.2979019
1.0000000 0.5988368 0.3011743
1.0000000 0.6170463 0.3035491
1.0000000 0.6269015 0.3055243
0.2146191 0.0823457 0.2416880
0.4546446 0.2327384 0.2849101
0.7352976 0.4039428 0.3042930
0.9498844 0.5142370 0.3108745
1.0000000 0.5735304 0.3138061
1.0000000 0.6033896 0.3158385
1.0000000 0.6209390 0.3176028
1.0000000 0.6299696 0.3185710
0.2304625 0.0892097 0.2520729
0.4762192 0.2448122 0.2943993
0.7536525 0.4118713 0.3125673
0.9675196 0.5204967 0.3183905
1.0000000 0.5769731 0.3208779
1.0000000 0.6067745 0.3222010
1.0000000 0.6234644 0.3233338
1.0000000 0.6319266 0.3240710
0.2474527 0.0965496 0.2585442
0.4989884 0.2543275 0.2994406
0.7824016 0.4228516 0.3167708
0.9915927 0.5265583 0.3220676
1.0000000 0.5808793 0.3240333
1.0000000 0.6088715 0.3251493
1.0000000 0.6246676 0.3259134
1.0000000 0.6334388 0.3265351
0.2655149 0.1042736 0.2635837
0.5261991 0.2668849 0.3030571
0.8051453 0.4325861 0.3190722
1.0000000 0.5318959 0.3239534
1.0000000 0.5850357 0.3258889
1.0000000 0.6113779 0.3268343
1.0000000 0.6261290 0.3276267
1.0000000 0.6342812 0.3282429
0.2842668 0.1124431 0.2683681
0.5545264 0.2797835 0.3065405
0.8236319 0.4393171 0.3211956
1.0000000 0.5368623 0.3258172
1.0000000 0.5872171 0.3277182
1.0000000 0.6132855 0.3287528
1.0000000 0.6276053 0.3294342
1.0000000 0.6355294 0.3300609
0.4687087 0.1426648 0.2296032
0.7896824 0.3178128 0.2544346
1.0000000 0.4678141 0.2644869
1.0000000 0.5534324 0.2687910
1.0000000 0.5945379 0.2734736
1.0000000 0.6173260 0.2768262
1.0000000 0.6287881 0.2803850
1.0000000 0.6352769 0.2836379
0.4874976 0.1515018 0.2614755
0.8132925 0.3318289 0.2881163
1.0000000 0.4819733 0.2967514
1.0000000 0.5635928 0.3003659
1.0000000 0.6029764 0.3024608
1.0000000 0.6242644 0.3049322
1.0000000 0.6346093 0.3066356
1.0000000 0.6405843 0.3083664
0.5106880 0.1622066 0.2791916
0.8372899 0.3434279 0.3052295
1.0000000 0.4907610 0.3136235
1.0000000 0.5685832 0.3162033
1.0000000 0.6074221 0.3173165
1.0000000 0.6279905 0.3186042
1.0000000 0.6378967 0.3195724
1.0000000 0.6432340 0.3204816
0.5354245 0.1734403 0.2888592
0.8620369 0.3543241 0.3133373
1.0000000 0.4980613 0.3210203
1.0000000 0.5730089 0.3229001
1.0000000 0.6105971 0.3238472
1.0000000 0.6301397 0.3243724
1.0000000 0.6393857 0.3248160
1.0000000 0.6447679 0.3254286
0.5576649 0.1828649 0.2940278
0.8870906 0.3650899 0.3174876
1.0000000 0.5060143 0.3243591
1.0000000 0.5771680 0.3260350
1.0000000 0.6125581 0.3266986
1.0000000 0.6313901 0.3270437
1.0000000 0.6406364 0.3273538
1.0000000 0.6455177 0.3276250
0.5800874 0.1922772 0.2975414
0.9124317 0.3756507 0.3199133
1.0000000 0.5116205 0.3262165
1.0000000 0.5811108 0.3277660
1.0000000 0.6147965 0.3283302
1.0000000 0.6332261 0.3287472
1.0000000 0.6414155 0.3289803
1.0000000 0.6461699 0.3292989
0.6034840 0.2021552 0.3009748
0.9382473 0.3863457 0.3223099
1.0000000 0.5173030 0.3281554
1.0000000 0.5847430 0.3295137
1.0000000 0.6165706 0.3301143
1.0000000 0.6343083 0.3305036
1.0000000 0.6427063 0.3307766
1.0000000 0.6470688 0.3311343
0.6319733 0.2151365 0.3048580
0.9648023 0.3973542 0.3247246
1.0000000 0.5230384 0.3300174
1.0000000 0.5871733 0.3314807
1.0000000 0.6191878 0.3320157
1.0000000 0.6357325 0.3325035
1.0000000 0.6435521 0.3327872
1.0000000 0.6477596 0.3332107
0.8331110 0.2551260 0.2843567
1.0000000 0.4323237 0.2978112
1.0000000 0.5432821 0.3012547
1.0000000 0.5981449 0.3037288
1.0000000 0.6246615 0.3053282
1.0000000 0.6382610 0.3068553
1.0000000 0.6449633 0.3090594
1.0000000 0.6484153 0.3106312
0.8637130 0.2692944 0.3016686
1.0000000 0.4447316 0.3140661
1.0000000 0.5506099 0.3171219
1.0000000 0.6038446 0.3183873
1.0000000 0.6288553 0.3193915
1.0000000 0.6414779 0.3198842
1.0000000 0.6474994 0.3206949
1.0000000 0.6507246 0.3215334
0.8844959 0.2795335 0.3099501
1.0000000 0.4552615 0.3215528
1.0000000 0.5567033 0.3240845
1.0000000 0.6064642 0.3245715
1.0000000 0.6307515 0.3248566
1.0000000 0.6429932 0.3253251
1.0000000 0.6487621 0.3256567
1.0000000 0.6518086 0.3259726
0.9154558 0.2932755 0.3145361
1.0000000 0.4621309 0.3250010
1.0000000 0.5610429 0.3270525
1.0000000 0.6093944 0.3274127
1.0000000 0.6330507 0.3275430
1.0000000 0.6442518 0.3276837
1.0000000 0.6495155 0.3278604
1.0000000 0.6524572 0.3280500
0.9414876 0.3039723 0.3171014
1.0000000 0.4722435 0.3268630
1.0000000 0.5654129 0.3286819
1.0000000 0.6108987 0.3290452
1.0000000 0.6342612 0.3292249
1.0000000 0.6450849 0.3294160
1.0000000 0.6501903 0.3296413
1.0000000 0.6530390 0.3297682
0.9620651 0.3138694 0.3195727
1.0000000 0.4791417 0.3287785
1.0000000 0.5695893 0.3304233
1.0000000 0.6134068 0.3307891
1.0000000 0.6354857 0.3309814
1.0000000 0.6460867 0.3311059
1.0000000 0.6510111 0.3313700
1.0000000 0.6536457 0.3316352
0.9930007 0.3273773 0.3224012
1.0000000 0.4853031 0.3307737
1.0000000 0.5740502 0.3323700
1.0000000 0.6161750 0.3328218
1.0000000 0.6372185 0.3329533
1.0000000 0.6468986 0.3332758
1.0000000 0.6517094 0.3334529
1.0000000 0.6544566 0.3336363
1.0000000 0.3378916 0.3251241
1.0000000 0.4942172 0.3330606
1.0000000 0.5783578 0.3345358
1.0000000 0.6177589 0.3350108
1.0000000 0.6385317 0.3351796
1.0000000 0.6476915 0.3353516
1.0000000 0.6523911 0.3356985
1.0000000 0.6551099 0.3358886
1.0000000 0.3760186 0.3128432
1.0000000 0.5177289 0.3175144
1.0000000 0.5909230 0.3188226
1.0000000 0.6247057 0.3196740
1.0000000 0.6419210 0.3203082
1.0000000 0.6495473 0.3207774
1.0000000 0.6531212 0.3215780
1.0000000 0.6555554 0.3223024
1.0000000 0.3872991 0.3202263
1.0000000 0.5263407 0.3244616
1.0000000 0.5952486 0.3250093
1.0000000 0.6267184 0.3253216
1.0000000 0.6436738 0.3254973
1.0000000 0.6508244 0.3257589
1.0000000 0.6541682 0.3261522
1.0000000 0.6564296 0.3263721
1.0000000 0.3983781 0.3237243
1.0000000 0.5320999 0.3274618
1.0000000 0.5974609 0.3278342
1.0000000 0.6290189 0.3278316
1.0000000 0.6447268 0.3278644
1.0000000 0.6515934 0.3279678
1.0000000 0.6547384 0.3281178
1.0000000 0.6570042 0.3282792
1.0000000 0.4096006 0.3257983
1.0000000 0.5375630 0.3291674
1.0000000 0.6006683 0.3294560
1.0000000 0.6303313 0.3295127
1.0000000 0.6460336 0.3295930
1.0000000 0.6522855 0.3297517
1.0000000 0.6552818 0.3299451
1.0000000 0.6575503 0.3300381
1.0000000 0.4204170 0.3278937
1.0000000 0.5426209 0.3309241
1.0000000 0.6037224 0.3311954
1.0000000 0.6325067 0.3312601
1.0000000 0.6468192 0.3313983
1.0000000 0.6528905 0.3314777
1.0000000 0.6558132 0.3317122
1.0000000 0.6580965 0.3318263
1.0000000 0.4307500 0.3300491
1.0000000 0.5474987 0.3327492
1.0000000 0.6056769 0.3332238
1.0000000 0.6338184 0.3332373
1.0000000 0.6476465 0.3334492
1.0000000 0.6535525 0.3335663
1.0000000 0.6564106 0.3338668
1.0000000 0.6587116 0.3340175
1.0000000 0.4379165 0.3323506
1.0000000 0.5526322 0.3349429
1.0000000 0.6088037 0.3354054
1.0000000 0.6359201 0.3354523
1.0000000 0.6485052 0.3356908
1.0000000 0.6542295 0.3358176
1.0000000 0.6570004 0.3359706
1.0000000 0.6593375 0.3362825
1.0000000 0.4488038 0.3346971
1.0000000 0.5576329 0.3369938
1.0000000 0.6119183 0.3374372
1.0000000 0.6371172 0.3375027
1.0000000 0.6496175 0.3375855
1.0000000 0.6548730 0.3378896
1.0000000 0.6575904 0.3380519
1.0000000 0.6599024 0.3382137
1.0000000 0.4783799 0.3242368
1.0000000 0.5746646 0.3254705
1.0000000 0.6191783 0.3255331
1.0000000 0.6409455 0.3257841
1.0000000 0.6511893 0.3259817
1.0000000 0.6555350 0.3261747
1.0000000 0.6580123 0.3263793
1.0000000 0.6601314 0.3267040
1.0000000 0.4883600 0.3273017
1.0000000 0.5790075 0.3282027
1.0000000 0.6217560 0.3281235
1.0000000 0.6428726 0.3280589
1.0000000 0.6519841 0.3281105
1.0000000 0.6563257 0.3282293
1.0000000 0.6585908 0.3283790
1.0000000 0.6606808 0.3285259
1.0000000 0.4944880 0.3290567
1.0000000 0.5832044 0.3298421
1.0000000 0.6231614 0.3297207
1.0000000 0.6437736 0.3297122
1.0000000 0.6528564 0.3298118
1.0000000 0.6568691 0.3299729
1.0000000 0.6590374 0.3301605
1.0000000 0.6612061 0.3302367
1.0000000 0.5035198 0.3308880
1.0000000 0.5855243 0.3315826
1.0000000 0.6256055 0.3314650
1.0000000 0.6447006 0.3315181
1.0000000 0.6535343 0.3316640
1.0000000 0.6573932 0.3317443
1.0000000 0.6594481 0.3319726
1.0000000 0.6617473 0.3320701
1.0000000 0.5097715 0.3328913
1.0000000 0.5891665 0.3334891
1.0000000 0.6271065 0.3335938
1.0000000 0.6461468 0.3335640
1.0000000 0.6542307 0.3336325
1.0000000 0.6579835 0.3339044
1.0000000 0.6600332 0.3340448
1.0000000 0.6621476 0.3343497
1.0000000 0.5161263 0.3350994
1.0000000 0.5927395 0.3356691
1.0000000 0.6293322 0.3356442
1.0000000 0.6471443 0.3358074
1.0000000 0.6549753 0.3358883
1.0000000 0.6585623 0.3360136
1.0000000 0.6606504 0.3363153
1.0000000 0.6627316 0.3364546
1.0000000 0.5216351 0.3371621
1.0000000 0.5962986 0.3376986
1.0000000 0.6306543 0.3376940
1.0000000 0.6480823 0.3377068
1.0000000 0.6555555 0.3379620
1.0000000 0.6591350 0.3381001
1.0000000 0.6612071 0.3382509
1.0000000 0.6632856 0.3383978
1.0000000 0.5295211 0.3391351
1.0000000 0.5998593 0.3396157
1.0000000 0.6328104 0.3396214
1.0000000 0.6495090 0.3396437
1.0000000 0.6562147 0.3397449
1.0000000 0.6596532 0.3398839
1.0000000 0.6617674 0.3401930
1.0000000 0.6638377 0.3403382
1.0000000 0.5493192 0.3283679
1.0000000 0.6084425 0.3283365
1.0000000 0.6371464 0.3281917
1.0000000 0.6510974 0.3281577
1.0000000 0.6570805 0.3282389
1.0000000 0.6596413 0.3283728
1.0000000 0.6617115 0.3285120
1.0000000 0.6636097 0.3286522
1.0000000 0.5542053 0.3300155
1.0000000 0.6114702 0.3300220
1.0000000 0.6390743 0.3299366
1.0000000 0.6521600 0.3298585
1.0000000 0.6576573 0.3299854
1.0000000 0.6601598 0.3301566
1.0000000 0.6621294 0.3303336
1.0000000 0.6641260 0.3304020
1.0000000 0.5591481 0.3317572
1.0000000 0.6145240 0.3317801
1.0000000 0.6401870 0.3316368
1.0000000 0.6529282 0.3317124
1.0000000 0.6582383 0.3317592
1.0000000 0.6606856 0.3319722
1.0000000 0.6626654 0.3321899
1.0000000 0.6646653 0.3322799
1.0000000 0.5641584 0.3336671
1.0000000 0.6162989 0.3337837
1.0000000 0.6419337 0.3336775
1.0000000 0.6537383 0.3338384
1.0000000 0.6587635 0.3339236
1.0000000 0.6611683 0.3342141
1.0000000 0.6632512 0.3343474
1.0000000 0.6651630 0.3344806
1.0000000 0.5692537 0.3358489
1.0000000 0.6194461 0.3359886
1.0000000 0.6431397 0.3359207
1.0000000 0.6544213 0.3359410
1.0000000 0.6594271 0.3361948
1.0000000 0.6617391 0.3363258
1.0000000 0.6638269 0.3364564
1.0000000 0.6656571 0.3367485
1.0000000 0.5734258 0.3378808
1.0000000 0.6218875 0.3378668
1.0000000 0.6443146 0.3379825
1.0000000 0.6555390 0.3380148
1.0000000 0.6600291 0.3381259
1.0000000 0.6622781 0.3382653
1.0000000 0.6644002 0.3385684
1.0000000 0.6662036 0.3387081
1.0000000 0.5775060 0.3397922
1.0000000 0.6233327 0.3398007
1.0000000 0.6461444 0.3397529
1.0000000 0.6563134 0.3399597
1.0000000 0.6606320 0.3400726
1.0000000 0.6628162 0.3402112
1.0000000 0.6648024 0.3403482
1.0000000 0.6667140 0.3404852
1.0000000 0.5816748 0.3414345
1.0000000 0.6257407 0.3414036
1.0000000 0.6472385 0.3413301
1.0000000 0.6569574 0.3413419
1.0000000 0.6611308 0.3414148
1.0000000 0.6631301 0.3415115
1.0000000 0.6652449 0.3417231
1.0000000 0.6671474 0.3418173
