Plugins/FilmEmulator/Content/LUTs/FE_Kodak_Vision2_500T_5260_64.cube
# FilmEmulator LUT (resampled to 64)
LUT_3D_SIZE 4
0.000000 0.000000 0.000000
0.406982 0.065318 0.040955
0.726837 0.084381 0.092458
0.974548 0.124237 0.122253
0.002909 0.138051 0.048126
0.334561 0.295759 0.056488
0.751495 0.347368 0.095608
0.984426 0.383077 0.116455
0.008809 0.368561 0.172079
0.038669 0.544813 0.102827
0.730306 0.677277 0.147159
0.987803 0.684580 0.145202
0.017120 0.578278 0.326843
0.016591 0.635345 0.226389
0.608022 0.848795 0.208547
0.986420 0.912750 0.137665
0.029724 0.062347 0.209117
0.503249 0.057854 0.269453
0.751712 0.084133 0.310405
0.971924 0.133759 0.354034
0.012692 0.255568 0.344537
0.285637 0.299754 0.284431
0.740378 0.362553 0.319589
0.976735 0.381009 0.340024
0.014814 0.461548 0.333896
0.014721 0.517931 0.268062
0.724795 0.675903 0.377620
0.989119 0.661838 0.379734
0.020386 0.615336 0.422130
0.018477 0.626183 0.329851
0.532101 0.844537 0.370242
0.986287 0.918762 0.417531
0.019450 0.101807 0.340332
0.550415 0.056227 0.413812
0.747552 0.076867 0.512230
0.980611 0.127604 0.583517
0.017243 0.307509 0.469940
0.016404 0.225280 0.465060
0.776371 0.329732 0.521170
0.976285 0.369229 0.559886
0.021213 0.486806 0.525814
0.027297 0.551301 0.554317
0.677369 0.695156 0.623931
0.976420 0.680698 0.628804
0.023845 0.647033 0.525126
0.021766 0.648502 0.446235
0.353112 0.836697 0.561212
0.988739 0.928813 0.653951
0.014404 0.189850 0.423584
0.607462 0.060750 0.489146
0.757375 0.081319 0.579356
0.972534 0.147766 0.763611
0.020742 0.367218 0.548015
0.026475 0.183594 0.529422
0.683445 0.241530 0.632975
0.973857 0.367960 0.744395
0.025838 0.494130 0.643127
0.025011 0.455316 0.633016
0.445963 0.497535 0.699843
0.985270 0.633698 0.761587
0.030304 0.653961 0.705078
0.041402 0.697530 0.740255
0.142558 0.777578 0.802572
0.992554 0.968842 0.889526
