Plugins/FilmEmulator/Content/LUTs/FE_Kodak_Ultramax_400_64.cube
TITLE "FE_Kodak_Ultramax_400_33"
LUT_3D_SIZE 8
0.0017057 0.0020110 0.0018263
0.0693987 0.0028267 0.0025711
0.1853551 0.0055629 0.0052732
0.3165367 0.0091078 0.0087881
0.4321234 0.0137517 0.0132716
0.5262958 0.0189196 0.0182500
0.5985534 0.0251065 0.0234959
0.6573278 0.0310771 0.0302563
0.0025605 0.0913184 0.0033373
0.0716189 0.1002696 0.0060870
0.1859885 0.1067402 0.0096947
0.3184870 0.1136174 0.0144401
0.4251800 0.1208874 0.0189889
0.5198685 0.1325576 0.0251221
0.5930933 0.1366600 0.0310139
0.6621705 0.1451929 0.0369807
0.0053595 0.2188511 0.0071269
0.0790557 0.2248924 0.0110661
0.1971305 0.2311924 0.0154284
0.3162111 0.2376516 0.0209872
0.4330755 0.2442435 0.0267551
0.5279787 0.2578230 0.0330599
0.6008976 0.2648422 0.0393466
0.6600145 0.2720075 0.0451704
0.0094062 0.3340463 0.0124938
0.0844633 0.3420748 0.0168620
0.2026863 0.3503519 0.0221821
0.3237328 0.3587634 0.0282822
0.4314985 0.3587478 0.0348416
0.5264677 0.3672699 0.0414392
0.5994275 0.3758843 0.0475577
0.6586336 0.3845869 0.0545347
0.0139735 0.4387089 0.0183580
0.0903767 0.4385188 0.0233027
0.2088840 0.4475987 0.0297046
0.3318214 0.4567530 0.0353729
0.4407721 0.4567311 0.0420076
0.5358473 0.4659463 0.0498714
0.6085183 0.4659356 0.0570764
0.6671550 0.4751867 0.0652985
0.0195648 0.5220481 0.0253321
0.0967394 0.5218825 0.0311291
0.2153620 0.5311118 0.0370430
0.3403136 0.5310718 0.0439559
0.4398319 0.5403481 0.0521653
0.5349957 0.5403301 0.0596598
0.6075836 0.5495880 0.0659977
0.6663738 0.5495771 0.0728754
0.0265558 0.5866402 0.0337582
0.1036768 0.5955618 0.0387556
0.2221391 0.5954913 0.0459429
0.3395554 0.6044571 0.0526745
0.4495804 0.6044328 0.0602314
0.5342465 0.6044192 0.0687838
0.6068621 0.6133446 0.0760245
0.6656991 0.6133344 0.0839653
0.0333368 0.6486780 0.0419212
0.1072504 0.6485658 0.0479746
0.2291431 0.6484966 0.0548913
0.3483389 0.6570098 0.0627998
0.4594845 0.6569841 0.0693452
0.5441561 0.6569717 0.0790991
0.6163054 0.6654088 0.0846316
0.6745163 0.6653994 0.0934474
0.0056447 0.0040150 0.0990873
0.0886473 0.0072849 0.1077286
0.2106707 0.0111672 0.1205672
0.3335871 0.0164221 0.1303276
0.4416507 0.0218067 0.1403642
0.5360907 0.0279441 0.1461471
0.6081382 0.0345863 0.1569042
0.6663710 0.0412192 0.1681121
0.0077697 0.1004662 0.1188066
0.0923072 0.1102615 0.1268245
0.2127194 0.1173122 0.1354633
0.3368972 0.1247741 0.1446877
0.4462104 0.1326532 0.1545446
0.5412288 0.1409602 0.1649737
0.6134560 0.1497334 0.1705724
0.6717553 0.1542961 0.1816995
0.0105585 0.2252302 0.1267213
0.0981807 0.2314104 0.1349337
0.2181726 0.2378309 0.1438854
0.3438653 0.2511362 0.1536380
0.4437316 0.2579758 0.1638238
0.5388265 0.2649847 0.1745691
0.6112601 0.2721446 0.1858973
0.6696967 0.2794285 0.1918592
0.0145884 0.3424602 0.1377656
0.1011563 0.3506114 0.1466495
0.2243128 0.3589767 0.1563096
0.3424892 0.3589353 0.1664113
0.4527073 0.3674390 0.1718221
0.5372782 0.3760455 0.1829986
0.6097720 0.3847399 0.1947565
0.6683060 0.3935139 0.2009390
0.0204127 0.4480397 0.1442489
0.1082663 0.4478545 0.1533742
0.2309569 0.4569671 0.1634381
0.3507800 0.4569213 0.1739147
0.4620566 0.4661186 0.1851696
0.5466028 0.4753526 0.1910928
0.6187531 0.4753350 0.2030254
0.6766818 0.4845982 0.2094074
0.0266642 0.5222111 0.1551478
0.1159111 0.5313519 0.1651533
0.2379802 0.5312694 0.1702378
0.3593719 0.5405177 0.1812727
0.4611787 0.5404886 0.1926944
0.5457220 0.5497355 0.1988050
0.6179111 0.5497180 0.2111037
0.6758978 0.5589424 0.2177092
0.0334549 0.5958441 0.1616207
0.1197956 0.5957064 0.1718142
0.2451591 0.6046331 0.1828600
0.3586661 0.6045895 0.1884601
0.4709941 0.6045583 0.2002227
0.5554652 0.6134726 0.2065161
0.6171740 0.6134593 0.2192162
0.6752113 0.6223159 0.2260084
0.0402690 0.6488039 0.1732891
0.1282919 0.6486828 0.1784783
0.2526469 0.6571621 0.1898731
0.3676615 0.6571253 0.2016829
0.4703341 0.6570965 0.2077576
0.5548148 0.6655292 0.2207339
0.6265126 0.6655105 0.2273016
0.6839855 0.6654946 0.2340223
0.0147422 0.0091016 0.2462757
0.1091400 0.0137450 0.2634910
0.2316418 0.0189199 0.2733835
0.3608096 0.0242466 0.2830287
0.4617532 0.0310962 0.2929747
0.5459061 0.0371310 0.3025496
0.6176012 0.0441938 0.3123023
0.6753044 0.0507512 0.3219301
0.0179339 0.1103653 0.2734702
0.1104089 0.1173736 0.2811858
0.2348680 0.1248243 0.2893924
0.3556313 0.1326999 0.2978580
0.4672773 0.1410071 0.3148796
0.5517216 0.1497822 0.3238622
0.6234241 0.1590272 0.3329995
0.6810175 0.1638196 0.3332194
0.0214383 0.2380820 0.2885514
0.1174863 0.2445537 0.2962858
0.2407262 0.2512318 0.3044825
0.3628840 0.2580589 0.3129137
0.4648741 0.2650636 0.3215379
0.5494251 0.2722197 0.3303225
0.6213356 0.2795025 0.3392493
0.6790829 0.2869107 0.3483138
0.0258669 0.3508373 0.3009813
0.1254153 0.3591194 0.3089592
0.2473892 0.3675871 0.3173749
0.3710966 0.3675428 0.3256980
0.4739259 0.3761400 0.3345137
0.5583836 0.3848285 0.3434841
0.6297989 0.3936003 0.3525899
0.6778103 0.3935865 0.3615135
0.0300558 0.4480928 0.3125397
0.1293820 0.4571230 0.3207349
0.2545087 0.4662760 0.3293263
0.3699678 0.4662310 0.3378315
0.4727109 0.4754577 0.3468154
0.5572852 0.4754329 0.3556223
0.6287558 0.4846930 0.3648796
0.6860557 0.4846709 0.3647866
0.0348567 0.5315766 0.3152272
0.1383055 0.5407124 0.3234907
0.2620153 0.5406389 0.3318217
0.3788176 0.5498653 0.3406798
0.4824405 0.5498329 0.3493785
0.5667562 0.5590504 0.3585437
0.6279144 0.5590325 0.3675210
0.6852835 0.5590146 0.3765945
0.0419292 0.5959072 0.3258314
0.1428581 0.6047728 0.3343030
0.2697607 0.6047024 0.3427781
0.3780951 0.6136003 0.3517986
0.4816677 0.6135696 0.3606337
0.5661025 0.6135460 0.3696028
0.6370476 0.6223985 0.3790180
0.6846075 0.6223850 0.3882194
0.0503128 0.6488608 0.3363127
0.1476443 0.6572934 0.3449834
0.2777421 0.6572280 0.3535927
0.3875674 0.6571918 0.3624200
0.4915746 0.6656132 0.3717098
0.5654472 0.6655948 0.3808109
0.6364279 0.6739262 0.3903379
0.6931491 0.6739070 0.3902420
0.0280067 0.0158462 0.3933349
0.1297737 0.0218001 0.4052353
0.2543346 0.0279423 0.4073743
0.3793159 0.0333867 0.4184682
0.4821643 0.0412317 0.4300692
0.5662135 0.0473705 0.4410560
0.6368892 0.0543538 0.4423737
0.6840762 0.0620076 0.4533139
0.0318780 0.1211417 0.4139475
0.1317619 0.1287663 0.4235772
0.2584843 0.1368436 0.4335674
0.3746863 0.1453725 0.4437411
0.4776689 0.1543848 0.4442649
0.5621031 0.1590613 0.4542350
0.6332263 0.1687761 0.4644995
0.6900942 0.1738068 0.4647480
0.0353572 0.2446955 0.4317176
0.1401178 0.2513202 0.4411385
0.2649014 0.2581278 0.4411642
0.3823597 0.2651250 0.4510407
0.4861100 0.2722770 0.4610128
0.5703800 0.2795583 0.4709423
0.6312594 0.2869647 0.4711974
0.6882814 0.2944945 0.4811917
0.0408338 0.3592917 0.4466240
0.1442911 0.3676963 0.4464051
0.2720091 0.3762574 0.4562013
0.3909276 0.3762167 0.4657897
0.4845508 0.3848988 0.4659931
0.5688412 0.3936678 0.4759396
0.6396340 0.4025146 0.4859293
0.6870208 0.4024973 0.4858447
0.0454727 0.4572982 0.4504692
0.1541342 0.4663902 0.4600485
0.2796800 0.4663216 0.4695588
0.3897668 0.4755367 0.4697137
0.4940173 0.4755042 0.4792776
0.5781565 0.4847612 0.4892563
0.6385949 0.4940373 0.4895132
0.6951529 0.4940188 0.4991825
0.0505751 0.5408879 0.4634081
0.1591156 0.5407532 0.4628784
0.2873558 0.5499557 0.4727553
0.3990341 0.5499154 0.4822950
0.4930125 0.5591247 0.4824997
0.5772802 0.5591001 0.4921256
0.6377698 0.5682889 0.5021567
0.6943854 0.5682672 0.5020552
0.0562395 0.6049301 0.4658559
0.1642932 0.6048126 0.4751955
0.2867317 0.6136866 0.4850070
0.3982890 0.6136448 0.4848043
0.5029347 0.6136141 0.4943989
0.5765200 0.6224662 0.5044146
0.6468975 0.6224424 0.5042959
0.6937196 0.6312379 0.5143499
0.0603143 0.6574378 0.4778143
0.1696650 0.6573277 0.4773293
0.2946909 0.6657188 0.4871463
0.4078423 0.6656834 0.4967117
0.5022624 0.6656552 0.4965579
0.5862210 0.6739825 0.5065584
0.6462847 0.6739671 0.5162350
0.7022305 0.6739479 0.5161332
0.0423153 0.0242475 0.5132737
0.1487369 0.0300071 0.5149105
0.2787437 0.0371323 0.5265788
0.3985218 0.0442005 0.5281888
0.4922100 0.0507633 0.5392482
0.5760475 0.0580680 0.5405385
0.6461193 0.0662155 0.5514901
0.6928015 0.0730184 0.5620593
0.0463738 0.1288327 0.5311377
0.1568292 0.1368848 0.5410191
0.2837083 0.1454037 0.5414056
0.3944614 0.1544164 0.5516230
0.4987506 0.1638921 0.5521513
0.5827940 0.1688041 0.5619966
0.6428938 0.1789983 0.5625915
0.6990145 0.1842741 0.5723996
0.0512878 0.2514332 0.5391799
0.1610221 0.2652327 0.5490840
0.2903084 0.2723594 0.5588241
0.4024039 0.2796279 0.5589774
0.4965517 0.2870305 0.5687826
0.5806327 0.2945532 0.5690014
0.6409522 0.3022034 0.5787833
0.6972202 0.3099663 0.5790346
0.0568467 0.3678353 0.5541896
0.1658270 0.3763486 0.5540478
0.2890431 0.3850025 0.5637867
0.4112416 0.3849616 0.5731522
0.5056879 0.3937241 0.5733539
0.5792192 0.4025715 0.5830958
0.6493284 0.4114851 0.5833310
0.6960810 0.4114712 0.5926975
0.0608396 0.4665370 0.5580703
0.1709980 0.4664197 0.5672497
0.2966753 0.4756114 0.5673125
0.4100596 0.4848530 0.5770298
0.5045708 0.4848204 0.5768787
0.5884710 0.4940934 0.5865833
0.6484039 0.4940717 0.5864843
0.7040862 0.5033611 0.5961620
0.0675597 0.5408959 0.5705098
0.1824370 0.5500493 0.5703987
0.3046208 0.5499898 0.5796754
0.4194843 0.5591877 0.5798279
0.5142735 0.5591591 0.5891481
0.5875999 0.5683406 0.5893821
0.6475883 0.5683228 0.5986929
0.7033315 0.5774657 0.5989421
0.0724685 0.6049419 0.5729512
0.1882192 0.6137725 0.5823914
0.3127780 0.6137124 0.5821202
0.4187339 0.6225491 0.5917441
0.5134905 0.6225187 0.5915946
0.5971955 0.6224952 0.6008574
0.6565048 0.6312837 0.6011069
0.7027708 0.6312700 0.6103500
0.0777392 0.6574455 0.5750400
0.1942076 0.6657987 0.5844852
0.3211599 0.6657467 0.5936572
0.4285445 0.6657112 0.5934758
0.5234113 0.6740346 0.6030554
0.5965445 0.6740132 0.6029407
0.6560014 0.6739978 0.6121537
0.7022019 0.6822257 0.6124170
0.0608404 0.0333934 0.6027560
0.1762746 0.0398237 0.6040514
0.3041270 0.0473756 0.6148183
0.4184027 0.0543633 0.6160163
0.5127896 0.0620223 0.6264006
0.5859414 0.0684220 0.6272838
0.6554237 0.0754357 0.6281667
0.7014754 0.0830382 0.6381494
0.0642519 0.1411585 0.6177080
0.1797479 0.1498994 0.6270962
0.3007567 0.1544456 0.6271658
0.4147128 0.1639195 0.6276373
0.5091907 0.1738731 0.6372423
0.5929573 0.1790236 0.6374435
0.6524439 0.1897085 0.6469910
0.7077808 0.1952291 0.6472215
0.0684405 0.2653309 0.6250477
0.1845585 0.2724242 0.6340584
0.3075651 0.2796789 0.6341337
0.4229026 0.2870737 0.6433041
0.5176785 0.2945945 0.6434934
0.5909229 0.3022425 0.6526394
0.6506162 0.3100064 0.6528744
0.7061065 0.3178835 0.6531091
0.0732076 0.3764696 0.6388164
0.1899210 0.3850794 0.6387263
0.3151098 0.3938176 0.6477807
0.4214944 0.3937797 0.6476089
0.5162275 0.4026171 0.6477982
0.5997341 0.4115316 0.6568804
0.6589928 0.4115107 0.6567880
0.7049855 0.4204990 0.6658148
0.0812576 0.4757972 0.6424374
0.1956782 0.4756932 0.6420450
0.3231352 0.4849163 0.6510633
0.4307800 0.4848759 0.6508920
0.5257012 0.4941455 0.6599214
0.5987626 0.4941201 0.6598136
0.6579857 0.5034101 0.6687869
0.7041384 0.5033914 0.6687113
0.0870480 0.5501665 0.6450637
0.2017154 0.5500710 0.6536014
0.3223639 0.5592538 0.6536922
0.4403474 0.5592139 0.6623188
0.5248084 0.5683916 0.6625200
0.5979058 0.5683703 0.6711233
0.6571728 0.5775136 0.6713533
0.7122073 0.5774918 0.6712629
0.0899792 0.6138846 0.6562521
0.2081377 0.6137898 0.6558805
0.3307896 0.6226085 0.6647551
0.4395791 0.6225709 0.6645869
0.5347078 0.6225405 0.6644487
0.6072903 0.6313289 0.6733482
0.6660770 0.6313087 0.6732582
0.7115635 0.6400209 0.6820818
0.0964088 0.6658999 0.6581864
0.2147867 0.6658151 0.6578298
0.3395215 0.6657672 0.6663587
0.4494042 0.6740800 0.6665138
0.5340452 0.6740586 0.6750517
0.6067522 0.6740371 0.6749464
0.6654794 0.6822650 0.6837320
0.7110972 0.6822491 0.6836581
0.0780954 0.0442136 0.6687263
0.1945511 0.0507711 0.6782733
0.3213638 0.0580776 0.6792908
0.4386986 0.0640952 0.6800410
0.5228822 0.0730349 0.6896318
0.6059350 0.0804380 0.6904221
0.6645149 0.0885025 0.6912380
0.7100154 0.0942837 0.7000871
0.0827157 0.1499509 0.6805835
0.1986602 0.1591683 0.6893080
0.3273146 0.1639470 0.6893728
0.4352881 0.1738987 0.6981696
0.5301915 0.1843342 0.6986385
0.6029970 0.1897311 0.6988371
0.6619633 0.1952548 0.7072605
0.7163913 0.2067884 0.7077702
0.0881632 0.2725110 0.6954396
0.2039302 0.2797385 0.6953979
0.3345475 0.2871167 0.6954678
0.4436860 0.2946356 0.7038772
0.5282025 0.3022785 0.7040644
0.6010815 0.3100435 0.7123949
0.6696241 0.3179184 0.7125939
0.7148361 0.3259099 0.7128208
0.0941818 0.3851819 0.6996958
0.2099003 0.3938870 0.6996685
0.3332792 0.3938357 0.7076520
0.4422593 0.4026665 0.7077966
0.5373178 0.4115741 0.7079690
0.6098015 0.4205563 0.7162362
0.6684248 0.4205352 0.7161530
0.7137344 0.4295826 0.7243096
0.1007804 0.4757983 0.7027113
0.2163013 0.4849937 0.7108502
0.3415496 0.4849353 0.7106354
0.4516590 0.4941936 0.7107784
0.5362123 0.5034762 0.7189845
0.6088380 0.5034510 0.7188873
0.6674243 0.5127404 0.7190982
0.7129021 0.5127254 0.7269148
0.1041709 0.5501757 0.7132342
0.2229933 0.5593263 0.7132204
0.3501241 0.5592691 0.7130072
0.4507842 0.5684427 0.7211481
0.5459758 0.5684106 0.7210235
0.6180310 0.5775502 0.7212197
0.6667292 0.5775361 0.7290005
0.7208301 0.5866302 0.7292069
0.1116394 0.6138856 0.7152848
0.2299132 0.6226736 0.7152847
0.3494267 0.6226268 0.7230390
0.4605525 0.6313968 0.7231794
0.5451971 0.6313702 0.7230691
0.6174002 0.6313504 0.7307912
0.6754134 0.6400555 0.7309974
0.7202823 0.6400385 0.7309301
0.1196248 0.6659009 0.7170351
0.2370653 0.6741745 0.7170488
0.3582987 0.6741316 0.7247748
0.4599971 0.6741003 0.7246372
0.5550508 0.6823184 0.7325910
0.6167600 0.6823000 0.7325103
0.6749167 0.6822817 0.7324300
0.7197394 0.6904036 0.7402957
0.0966445 0.0543810 0.7204717
0.2217835 0.0620344 0.7291331
0.3485801 0.0684346 0.7297713
0.4486889 0.0754513 0.7304789
0.5436180 0.0830568 0.7389229
0.6156350 0.0913617 0.7396478
0.6735796 0.1004173 0.7403848
0.7184063 0.1069067 0.7484165
0.1024776 0.1592163 0.7377547
0.2268128 0.1689036 0.7379984
0.3456489 0.1739235 0.7380858
0.4561031 0.1843590 0.7460884
0.5406871 0.1897550 0.7462543
0.6129262 0.2009854 0.7467059
0.6712517 0.2068132 0.7543387
0.7163395 0.2127677 0.7545421
0.1093016 0.2798136 0.7432491
0.2328967 0.2871706 0.7432352
0.3531897 0.2946795 0.7508332
0.4541332 0.3023172 0.7509761
0.5492347 0.3100738 0.7511319
0.6211529 0.3179531 0.7586656
0.6789047 0.3259423 0.7588566
0.7234056 0.3340420 0.7590598
0.1126856 0.3939789 0.7471027
0.2394786 0.4027628 0.7470890
0.3518786 0.4027193 0.7543563
0.4632515 0.4116200 0.7544857
0.5477923 0.4205956 0.7546536
0.6198810 0.4205751 0.7618520
0.6777220 0.4296158 0.7620422
0.7223173 0.4387035 0.7622440
0.1205544 0.4850826 0.7498183
0.2465219 0.4942986 0.7571977
0.3603744 0.4942492 0.7570326
0.4621436 0.5035205 0.7571735
0.5573074 0.5034919 0.7642968
0.6188203 0.5127816 0.7644851
0.6768341 0.5127596 0.7644112
0.7215064 0.5220523 0.7716945
0.1245289 0.5594180 0.7593232
0.2458712 0.5685424 0.7593347
0.3691693 0.5684900 0.7591582
0.4719626 0.5684579 0.7662289
0.5564219 0.5775938 0.7663918
0.6280320 0.5775691 0.7663059
0.6760430 0.5866670 0.7665058
0.7293802 0.5866489 0.7734770
0.1332639 0.6227568 0.7611590
0.2533692 0.6226839 0.7609174
0.3782187 0.6314414 0.7610079
0.4711838 0.6314149 0.7680539
0.5557568 0.6313882 0.7679560
0.6272942 0.6400902 0.7681308
0.6847081 0.6400735 0.7750685
0.7287530 0.6486948 0.7752637
0.1376972 0.6742519 0.7627372
0.2610211 0.6741842 0.7624962
0.3777035 0.6741457 0.7694641
0.4811305 0.6823562 0.7696007
0.5655627 0.6823320 0.7695033
0.6267738 0.6823170 0.7764121
0.6841207 0.6904325 0.7765949
0.7283037 0.6904170 0.7765353
