Plugins/FilmEmulator/Content/LUTs/FE_Kodak_Vision_800T_5289_64.cube
# FilmEmulator LUT (resampled to 64)
LUT_3D_SIZE 4
0.000000 0.000000 0.000000
0.276306 0.020508 0.066508
0.570628 0.041972 0.153717
0.892883 0.112335 0.241455
0.008626 0.247487 0.125569
0.255073 0.277456 0.144748
0.624122 0.300581 0.186618
0.940918 0.370707 0.277354
0.021189 0.541168 0.243642
0.251767 0.581903 0.246185
0.634281 0.627462 0.292480
0.931193 0.678039 0.359731
0.119965 0.821259 0.359070
0.351959 0.840983 0.376201
0.685557 0.860321 0.425517
0.893707 0.867950 0.458588
0.013743 0.045594 0.191640
0.253377 0.043426 0.334052
0.599596 0.057417 0.305417
0.915385 0.140574 0.376913
0.007985 0.255385 0.302910
0.290918 0.288721 0.319599
0.642639 0.322280 0.358196
0.964677 0.406549 0.441454
0.020020 0.556064 0.382206
0.292190 0.586219 0.411885
0.649139 0.637375 0.467348
0.940186 0.685855 0.512495
0.163076 0.833059 0.488556
0.398421 0.845689 0.523929
0.694224 0.863322 0.571642
0.894226 0.869720 0.594177
0.026103 0.115957 0.429159
0.166463 0.120636 0.632714
0.617940 0.139652 0.642609
0.914185 0.238200 0.644267
0.020182 0.304158 0.534977
0.283201 0.348486 0.662495
0.657924 0.388138 0.656074
0.938609 0.466827 0.685499
0.016334 0.578912 0.625342
0.377391 0.616927 0.657419
0.681433 0.659523 0.669091
0.943078 0.698798 0.716031
0.221293 0.844706 0.685109
0.442919 0.855778 0.711470
0.709805 0.864824 0.744859
0.891266 0.872884 0.755758
0.036133 0.181213 0.724640
0.171051 0.179728 0.860341
0.644125 0.224111 0.895213
0.912476 0.292023 0.902222
0.032115 0.377746 0.846588
0.378872 0.417355 0.908159
0.695757 0.445350 0.911106
0.934031 0.505321 0.918945
0.006175 0.633290 0.894297
0.415775 0.676300 0.921024
0.721568 0.698405 0.911170
0.923920 0.719350 0.891052
0.294952 0.850403 0.876221
0.503805 0.860443 0.882100
0.728770 0.867869 0.886088
0.891632 0.875885 0.883972
