Plugins/FilmEmulator/Content/LUTs/FE_Kodak_Ektachrome_Radiance_III_64.cube
TITLE "FE_Kodak_Ektachrome_Radiance_III_33"
LUT_3D_SIZE 8
0.0035917 0.0053061 0.0050837
0.0684683 0.0115011 0.0066317
0.1480535 0.0180081 0.0144519
0.2349482 0.0264494 0.0271702
0.3311093 0.0393238 0.0412853
0.4327344 0.0567588 0.0574390
0.5201672 0.0726701 0.0723099
0.5863677 0.0893558 0.0876133
0.0001534 0.0445512 0.0066651
0.1162072 0.0914935 0.0047894
0.2329164 0.1177194 0.0073223
0.3419228 0.1409652 0.0195874
0.4522202 0.1608696 0.0341979
0.5549845 0.1759648 0.0502208
0.6346470 0.1867599 0.0657981
0.6884262 0.1955531 0.0807293
0.0007515 0.0961810 0.0104551
0.1365246 0.1725555 0.0094440
0.2722194 0.2174342 0.0126114
0.3976001 0.2503656 0.0177307
0.5223078 0.2786964 0.0248932
0.6339762 0.3057240 0.0413305
0.7225480 0.3259406 0.0580608
0.7841154 0.3424792 0.0742961
0.0001513 0.1573480 0.0184622
0.1500667 0.2556669 0.0180322
0.2957659 0.3138613 0.0208787
0.4328898 0.3553671 0.0255474
0.5665415 0.3924680 0.0323214
0.6898826 0.4225187 0.0388368
0.7843707 0.4457944 0.0480370
0.8444690 0.4683671 0.0653250
0.0019629 0.2221027 0.0291061
0.1583813 0.3310029 0.0277142
0.3151386 0.4017148 0.0310709
0.4588916 0.4535646 0.0357491
0.6039607 0.4982879 0.0412320
0.7298178 0.5336042 0.0477024
0.8235943 0.5587716 0.0542769
0.8859223 0.5769323 0.0627127
0.0089417 0.2799045 0.0404148
0.1677836 0.3924559 0.0401602
0.3272492 0.4682420 0.0435299
0.4770599 0.5250806 0.0475327
0.6251537 0.5732117 0.0520555
0.7560798 0.6117346 0.0573449
0.8503163 0.6396502 0.0649976
0.9121537 0.6583984 0.0724050
0.0193622 0.3274305 0.0530472
0.1764583 0.4366756 0.0534697
0.3377756 0.5140452 0.0562877
0.4915851 0.5730199 0.0593127
0.6400693 0.6227419 0.0638667
0.7723135 0.6629255 0.0691935
0.8625667 0.6908649 0.0770910
0.9244473 0.7100726 0.0842698
0.0313405 0.3647425 0.0658858
0.1847109 0.4677028 0.0663074
0.3479917 0.5459345 0.0693560
0.5041437 0.6060257 0.0724324
0.6567759 0.6573347 0.0770525
0.7840431 0.6965567 0.0825951
0.8733540 0.7235854 0.0890571
0.9305794 0.7432976 0.0988791
0.0114210 0.0093935 0.1023566
0.0935101 0.0198068 0.1334633
0.1822233 0.0306519 0.1563647
0.2783684 0.0473108 0.1787120
0.3826938 0.0652529 0.1991892
0.4811974 0.0825716 0.2194052
0.5602844 0.1006548 0.2380291
0.6215206 0.1179225 0.2570307
0.0000000 0.0923880 0.1361281
0.1224505 0.1403326 0.1616376
0.2418867 0.1650219 0.1791036
0.3553787 0.1828410 0.1966364
0.4691145 0.1987466 0.2131406
0.5728020 0.2103236 0.2303859
0.6483696 0.2196601 0.2464640
0.6987239 0.2249221 0.2631772
0.0000000 0.1664509 0.1474185
0.1327251 0.2420881 0.1679696
0.2702383 0.2848710 0.1860005
0.4003122 0.3163577 0.2030766
0.5275569 0.3443274 0.2192629
0.6407174 0.3646591 0.2342536
0.7237685 0.3794147 0.2528281
0.7789930 0.3893471 0.2701477
0.0000000 0.2377390 0.1515850
0.1429202 0.3349742 0.1689522
0.2908955 0.3919237 0.1856702
0.4323922 0.4350218 0.2018949
0.5667359 0.4703746 0.2196454
0.6884013 0.4984089 0.2343393
0.7759137 0.5186824 0.2530263
0.8326818 0.5322440 0.2706477
0.0000000 0.3037526 0.1524643
0.1517387 0.4151014 0.1689730
0.3049341 0.4824326 0.1847329
0.4534333 0.5347172 0.2002968
0.5971851 0.5779251 0.2152856
0.7236708 0.6127215 0.2319330
0.8094466 0.6365209 0.2506561
0.8685025 0.6526197 0.2656722
0.0000000 0.3533145 0.1510726
0.1607912 0.4699658 0.1658614
0.3211090 0.5449506 0.1806181
0.4747092 0.6029872 0.1954570
0.6189981 0.6508303 0.2122547
0.7434562 0.6884102 0.2287294
0.8348510 0.7151254 0.2446361
0.8904213 0.7329633 0.2623658
0.0030260 0.3879431 0.1500149
0.1740351 0.5054236 0.1638702
0.3331294 0.5817853 0.1782121
0.4882491 0.6424441 0.1926939
0.6359543 0.6932284 0.2091758
0.7617761 0.7327754 0.2254087
0.8480465 0.7595400 0.2413192
0.9036368 0.7783436 0.2590097
0.0151748 0.4117069 0.1469909
0.1867104 0.5275285 0.1600126
0.3494806 0.6057535 0.1737219
0.5057746 0.6682904 0.1898610
0.6512338 0.7183418 0.2038792
0.7771363 0.7595935 0.2222348
0.8574748 0.7855619 0.2381696
0.9123390 0.8047391 0.2557995
0.0305328 0.0148042 0.2294833
0.1224771 0.0306362 0.2744615
0.2205894 0.0500249 0.3067804
0.3219960 0.0679704 0.3342450
0.4250803 0.0871780 0.3605130
0.5226567 0.1067543 0.3826008
0.5970366 0.1234024 0.4065166
0.6510088 0.1403606 0.4266210
0.0144476 0.1222327 0.2891340
0.1432455 0.1632118 0.3242233
0.2628646 0.1862818 0.3472272
0.3799948 0.2049570 0.3654800
0.4935969 0.2189182 0.3860886
0.5942941 0.2295189 0.4029781
0.6642540 0.2381762 0.4235293
0.7121225 0.2426997 0.4400589
0.0048606 0.2169984 0.3120143
0.1507421 0.2815917 0.3435437
0.2871066 0.3210377 0.3654108
0.4200772 0.3514659 0.3860837
0.5457547 0.3755485 0.4028796
0.6549693 0.3971771 0.4236574
0.7352203 0.4102289 0.4405498
0.7846985 0.4184064 0.4576005
0.0000000 0.3021033 0.3271258
0.1547517 0.3848280 0.3530358
0.3009755 0.4401900 0.3739202
0.4439005 0.4816056 0.3938057
0.5804017 0.5155711 0.4138415
0.6970521 0.5413308 0.4303215
0.7773113 0.5584477 0.4471424
0.8293121 0.5703935 0.4687928
0.0000000 0.3801150 0.3344828
0.1594475 0.4760753 0.3578122
0.3158221 0.5400644 0.3773401
0.4664247 0.5900646 0.3964258
0.6065534 0.6340120 0.4160629
0.7286937 0.6655847 0.4321428
0.8062588 0.6860807 0.4531656
0.8599050 0.7001307 0.4707256
0.0000000 0.4353099 0.3371998
0.1673933 0.5386556 0.3587255
0.3269297 0.6084208 0.3773325
0.4807910 0.6635227 0.3957697
0.6258149 0.7088169 0.4147903
0.7449448 0.7431914 0.4347292
0.8278117 0.7660387 0.4514444
0.8801465 0.7811750 0.4689873
0.0071489 0.4710784 0.3372598
0.1784070 0.5770546 0.3574944
0.3381874 0.6496177 0.3789642
0.4929707 0.7069677 0.3971535
0.6419427 0.7542869 0.4120092
0.7615155 0.7902182 0.4316843
0.8394492 0.8129191 0.4482671
0.8906817 0.8294979 0.4702722
0.0172540 0.4956768 0.3360484
0.1880294 0.6015344 0.3585743
0.3505929 0.6749519 0.3762345
0.5104398 0.7346605 0.3939930
0.6557074 0.7824937 0.4125515
0.7698404 0.8168048 0.4280390
0.8475497 0.8409701 0.4488325
0.8982333 0.8569342 0.4663269
0.0551106 0.0277384 0.3778619
0.1544780 0.0485345 0.4291476
0.2558772 0.0680434 0.4626168
0.3590659 0.0884782 0.4953903
0.4645511 0.1088099 0.5214146
0.5582579 0.1275671 0.5443429
0.6260237 0.1437203 0.5647382
0.6746576 0.1601409 0.5844430
0.0403893 0.1451663 0.4480145
0.1674574 0.1807406 0.4875883
0.2900367 0.2029530 0.5120033
0.4087785 0.2197206 0.5329039
0.5201064 0.2346370 0.5567225
0.6172340 0.2446321 0.5740369
0.6797922 0.2505385 0.5898440
0.7241911 0.2564861 0.6055990
0.0275872 0.2521768 0.4838429
0.1720180 0.3085135 0.5166473
0.3095621 0.3482103 0.5402184
0.4426454 0.3775950 0.5647968
0.5686867 0.4010634 0.5836016
0.6727083 0.4183725 0.6007079
0.7452470 0.4297564 0.6167922
0.7915044 0.4369650 0.6324530
0.0182399 0.3492084 0.5025494
0.1748913 0.4236267 0.5327235
0.3215033 0.4737445 0.5592408
0.4637505 0.5128348 0.5785792
0.6006965 0.5492934 0.6020762
0.7114291 0.5730620 0.6189638
0.7837205 0.5879830 0.6350344
0.8320078 0.5980018 0.6509795
0.0144268 0.4336547 0.5136601
0.1785555 0.5243431 0.5463815
0.3315262 0.5836485 0.5673171
0.4845296 0.6328045 0.5906855
0.6241696 0.6712309 0.6083332
0.7337817 0.6988437 0.6250004
0.8091724 0.7171750 0.6409637
0.8583517 0.7293225 0.6569407
0.0148849 0.4932120 0.5226564
0.1840443 0.5881221 0.5488347
0.3417070 0.6541078 0.5738848
0.4977740 0.7072079 0.5919081
0.6414489 0.7505956 0.6141499
0.7519250 0.7807674 0.6306435
0.8276209 0.8008293 0.6465819
0.8734033 0.8133922 0.6626084
0.0221681 0.5310106 0.5233604
0.1921929 0.6286332 0.5528376
0.3535465 0.6971360 0.5727487
0.5097303 0.7528688 0.5951155
0.6507420 0.7964177 0.6120048
0.7617112 0.8281040 0.6285037
0.8371347 0.8490521 0.6442851
0.8830733 0.8622932 0.6602309
0.0330388 0.5571054 0.5266004
0.2031294 0.6531353 0.5502957
0.3660575 0.7236164 0.5746937
0.5217514 0.7789866 0.5918849
0.6641463 0.8254952 0.6136427
0.7737405 0.8574147 0.6300557
0.8436239 0.8774568 0.6457913
0.8894364 0.8910243 0.6617625
0.0792453 0.0440649 0.5125015
0.1841677 0.0669736 0.5574183
0.2875796 0.0888369 0.5918973
0.3976560 0.1088081 0.6206166
0.5010372 0.1292471 0.6424624
0.5900199 0.1475727 0.6628758
0.6524227 0.1643902 0.6775925
0.6965648 0.1798765 0.6937842
0.0664363 0.1631495 0.5856413
0.1958516 0.1945757 0.6216705
0.3162714 0.2169321 0.6437051
0.4374699 0.2336144 0.6648629
0.5483148 0.2463913 0.6797151
0.6364602 0.2573229 0.6950760
0.6970413 0.2630043 0.7045802
0.7368856 0.2665510 0.7129675
0.0528440 0.2802269 0.6255288
0.1987012 0.3321173 0.6597835
0.3351738 0.3674169 0.6835624
0.4702352 0.3956237 0.7001444
0.5951538 0.4181440 0.7181572
0.6920061 0.4366376 0.7298840
0.7582787 0.4468064 0.7425865
0.7987621 0.4527761 0.7509218
0.0428048 0.3859052 0.6539311
0.1990284 0.4540257 0.6858948
0.3471600 0.5014452 0.7048001
0.4908775 0.5395339 0.7241610
0.6206547 0.5691022 0.7374408
0.7229065 0.5905035 0.7522736
0.7934933 0.6082059 0.7618586
0.8363355 0.6167439 0.7737638
0.0378748 0.4772818 0.6735035
0.2006764 0.5567715 0.6995488
0.3569789 0.6143236 0.7211130
0.5061644 0.6594398 0.7356254
0.6428733 0.6959376 0.7523778
0.7481917 0.7212825 0.7633077
0.8154644 0.7370595 0.7756863
0.8599816 0.7471349 0.7839663
0.0396825 0.5384129 0.6804675
0.2060581 0.6246501 0.7092881
0.3631544 0.6865076 0.7299093
0.5186802 0.7370400 0.7439523
0.6597791 0.7776307 0.7603734
0.7609580 0.8040518 0.7709120
0.8288546 0.8209791 0.7795289
0.8738449 0.8325302 0.7914733
0.0471915 0.5787282 0.6872386
0.2149255 0.6670051 0.7148236
0.3754568 0.7312859 0.7309005
0.5305842 0.7838562 0.7484602
0.6747037 0.8262400 0.7604100
0.7698020 0.8527027 0.7749102
0.8406439 0.8711014 0.7834956
0.8826479 0.8820212 0.7916250
0.0570123 0.6035951 0.6868538
0.2266104 0.6926176 0.7139089
0.3887284 0.7584645 0.7337048
0.5486934 0.8124706 0.7469230
0.6812929 0.8526885 0.7625497
0.7816094 0.8805018 0.7729499
0.8466460 0.8983672 0.7855159
0.8882371 0.9094437 0.7936280
0.1033709 0.0629472 0.6026908
0.2122444 0.0872842 0.6442266
0.3188979 0.1090208 0.6732349
0.4284642 0.1290490 0.6958876
0.5350758 0.1496025 0.7153235
0.6146737 0.1682783 0.7306952
0.6746384 0.1854760 0.7436697
0.7147566 0.2009683 0.7547331
0.0938567 0.1792083 0.6717364
0.2244808 0.2086896 0.7024184
0.3456512 0.2288018 0.7227453
0.4642043 0.2466448 0.7392420
0.5732493 0.2591922 0.7516443
0.6574019 0.2677850 0.7613144
0.7123023 0.2751038 0.7694200
0.7482073 0.2783673 0.7758220
0.0830030 0.3020245 0.7187678
0.2268097 0.3489937 0.7467735
0.3665127 0.3859782 0.7667973
0.4972595 0.4125580 0.7815143
0.6199154 0.4341152 0.7931566
0.7079126 0.4481123 0.8020708
0.7670813 0.4569924 0.8093621
0.8066194 0.4627505 0.8157463
0.0745456 0.4159831 0.7480590
0.2285436 0.4779921 0.7763218
0.3756661 0.5231327 0.7941324
0.5235609 0.5607541 0.8083112
0.6506946 0.5889096 0.8189372
0.7429253 0.6075859 0.8273278
0.8037838 0.6193172 0.8343282
0.8426082 0.6266612 0.8405426
0.0694209 0.5087922 0.7687981
0.2317884 0.5820347 0.7925571
0.3868467 0.6360415 0.8091788
0.5395790 0.6805197 0.8226281
0.6666451 0.7130173 0.8325458
0.7630482 0.7393112 0.8409495
0.8256969 0.7534475 0.8477230
0.8656737 0.7623377 0.8538451
0.0713741 0.5727533 0.7812646
0.2385802 0.6523434 0.8035946
0.3938046 0.7100742 0.8191400
0.5526605 0.7597485 0.8320848
0.6821586 0.7954122 0.8415548
0.7744393 0.8189191 0.8491344
0.8379779 0.8344383 0.8557825
0.8799865 0.8445486 0.8618876
0.0795849 0.6120766 0.7856840
0.2454195 0.6927910 0.8094083
0.4068426 0.7560736 0.8248227
0.5644428 0.8069057 0.8371854
0.6899689 0.8428081 0.8462269
0.7865350 0.8683805 0.8537397
0.8461171 0.8835894 0.8602078
0.8875271 0.8940197 0.8662609
0.0883932 0.6383982 0.7902205
0.2543814 0.7190303 0.8101693
0.4162595 0.7814354 0.8248456
0.5706206 0.8319756 0.8367330
0.7019825 0.8705117 0.8488090
0.7926608 0.8949922 0.8560724
0.8521061 0.9101759 0.8598837
0.8926142 0.9206201 0.8658758
0.1284067 0.0821881 0.6609882
0.2401986 0.1070905 0.6977945
0.3516482 0.1291985 0.7241206
0.4632831 0.1503974 0.7446471
0.5643510 0.1701431 0.7598434
0.6413394 0.1891519 0.7731430
0.6945230 0.2060371 0.7837614
0.7316813 0.2228510 0.7918918
0.1229224 0.1934177 0.7250506
0.2514074 0.2207064 0.7506043
0.3746166 0.2424456 0.7698834
0.4963751 0.2586070 0.7841778
0.5979810 0.2701994 0.7930681
0.6757120 0.2803506 0.8012933
0.7261262 0.2852169 0.8069002
0.7601151 0.2883559 0.8101072
0.1146713 0.3231451 0.7721400
0.2592425 0.3673331 0.7971894
0.3977364 0.4000545 0.8144572
0.5313129 0.4263455 0.8274516
0.6438169 0.4456516 0.8354189
0.7241206 0.4582893 0.8422461
0.7802632 0.4698875 0.8482053
0.8170667 0.4751831 0.8511890
0.1084500 0.4386160 0.8040477
0.2607086 0.4955184 0.8267498
0.4088252 0.5389212 0.8427292
0.5537409 0.5782987 0.8539933
0.6741420 0.6044869 0.8625740
0.7581768 0.6213241 0.8688647
0.8132061 0.6317503 0.8723199
0.8514842 0.6388912 0.8765837
0.1039921 0.5348298 0.8255094
0.2660852 0.6028571 0.8448769
0.4169147 0.6564630 0.8598569
0.5644915 0.6983761 0.8713387
0.6903566 0.7299617 0.8793393
0.7772456 0.7499825 0.8837376
0.8340698 0.7626046 0.8884606
0.8729625 0.7710601 0.8925935
0.1086898 0.6012082 0.8367151
0.2711065 0.6734751 0.8561789
0.4300790 0.7299591 0.8701248
0.5775741 0.7746356 0.8808330
0.7061944 0.8090606 0.8868797
0.7886258 0.8296625 0.8923507
0.8457438 0.8433771 0.8969261
0.8849043 0.8524390 0.8994255
0.1136548 0.6391971 0.8435513
0.2792759 0.7144806 0.8622564
0.4391385 0.7728506 0.8755977
0.5900210 0.8197347 0.8839803
0.7142618 0.8562797 0.8917665
0.8007985 0.8787436 0.8971819
0.8560778 0.8923916 0.9000563
0.8922440 0.9012997 0.9039803
0.1241276 0.6660126 0.8482723
0.2892427 0.7412366 0.8660663
0.4543593 0.8017217 0.8771831
0.6022556 0.8484164 0.8870711
0.7260208 0.8834544 0.8944414
0.8069417 0.9048458 0.8996081
0.8612294 0.9185203 0.9024045
0.8970426 0.9275337 0.9062963
0.1548402 0.1014337 0.7003915
0.2683599 0.1264959 0.7325060
0.3832504 0.1498964 0.7555450
0.4940799 0.1717721 0.7744519
0.5916411 0.1917243 0.7883943
0.6624210 0.2104710 0.7996538
0.7112194 0.2267648 0.8075293
0.7471988 0.2429512 0.8150336
0.1524076 0.2073099 0.7571166
0.2812890 0.2351254 0.7807908
0.4057249 0.2547336 0.7974252
0.5243073 0.2702446 0.8090695
0.6209248 0.2812544 0.8182366
0.6915005 0.2907886 0.8242497
0.7373897 0.2952911 0.8275357
0.7688649 0.2982638 0.8305031
0.1489554 0.3410296 0.8046876
0.2896433 0.3814847 0.8261799
0.4275292 0.4128788 0.8403295
0.5560189 0.4406840 0.8523588
0.6680280 0.4597875 0.8599297
0.7399753 0.4711088 0.8655999
0.7923738 0.4788990 0.8686299
0.8241452 0.4834981 0.8712969
0.1439855 0.4619462 0.8369637
0.2936479 0.5146974 0.8564926
0.4406495 0.5561888 0.8692553
0.5793540 0.5895780 0.8797328
0.6937084 0.6139911 0.8862910
0.7734112 0.6297925 0.8916824
0.8250173 0.6437170 0.8948252
0.8585111 0.6498711 0.8966507
0.1397628 0.5602963 0.8581861
0.2976360 0.6230419 0.8752208
0.4553360 0.6736276 0.8882299
0.5968456 0.7123806 0.8964839
0.7152520 0.7414862 0.9035537
0.7927538 0.7591425 0.9073666
0.8446820 0.7705297 0.9106782
0.8790871 0.7778238 0.9123569
0.1445041 0.6245757 0.8704662
0.3045111 0.6916454 0.8861618
0.4647323 0.7463187 0.8983241
0.6106458 0.7889884 0.9060620
0.7252197 0.8192233 0.9125278
0.8042924 0.8386267 0.9161200
0.8561367 0.8508976 0.9192742
0.8911288 0.8618835 0.9211562
0.1511182 0.6630841 0.8761878
0.3140289 0.7329216 0.8922779
0.4747346 0.7892198 0.9038210
0.6231960 0.8339446 0.9112147
0.7372016 0.8648863 0.9161612
0.8155217 0.8849166 0.9207827
0.8635350 0.8986415 0.9232275
0.8980174 0.9069438 0.9254545
0.1634521 0.6892983 0.8807573
0.3252932 0.7587271 0.8959686
0.4854354 0.8151655 0.9058304
0.6295906 0.8593511 0.9139708
0.7433712 0.8919250 0.9188669
0.8209141 0.9121680 0.9233803
0.8686347 0.9240838 0.9255806
0.9027369 0.9324626 0.9277697
