Plugins/FilmEmulator/Content/LUTs/FE_Kodak_Polymax_Pro_64.cube
TITLE "FE_Kodak_Polymax_Pro_33"
LUT_3D_SIZE 4
0.0021468 0.0021468 0.0021468
0.0021468 0.0021468 0.0021468
0.0021557 0.0021557 0.0021557
0.0021802 0.0021802 0.0021802
0.0057431 0.0057431 0.0057431
0.0091327 0.0091327 0.0091327
0.0141680 0.0141680 0.0141680
0.0211950 0.0211950 0.0211950
0.0806212 0.0806212 0.0806212
0.1046152 0.1046152 0.1046152
0.1300885 0.1300885 0.1300885
0.1607059 0.1607059 0.1607059
0.3217247 0.3217247 0.3217247
0.3638258 0.3638258 0.3638258
0.4084752 0.4084752 0.4084752
0.4498823 0.4498823 0.4498823
0.5084492 0.5084492 0.5084492
0.5515683 0.5515683 0.5515683
0.5889792 0.5889792 0.5889792
0.6256511 0.6256511 0.6256511
0.7577913 0.7577913 0.7577913
0.7820268 0.7820268 0.7820268
0.8046783 0.8046783 0.8046783
0.8222758 0.8222758 0.8222758
0.8866495 0.8866495 0.8866495
0.8986903 0.8986903 0.8986903
0.9099192 0.9099192 0.9099192
0.9201651 0.9201651 0.9201651
0.9489903 0.9489903 0.9489903
0.9533508 0.9533508 0.9533508
0.9569058 0.9569058 0.9569058
0.9602012 0.9602012 0.9602012
0.9637558 0.9637558 0.9637558
0.9662650 0.9662650 0.9662650
0.9685544 0.9685544 0.9685544
0.9704508 0.9704508 0.9704508
0.9761049 0.9761049 0.9761049
0.9769213 0.9769213 0.9769213
0.9776525 0.9776525 0.9776525
0.9785925 0.9785925 0.9785925
0.9809828 0.9809828 0.9809828
0.9813666 0.9813666 0.9813666
0.9817427 0.9817427 0.9817427
0.9821113 0.9821113 0.9821113
0.9831221 0.9831221 0.9831221
0.9832579 0.9832579 0.9832579
0.9834597 0.9834597 0.9834597
0.9836589 0.9836589 0.9836589
0.9838392 0.9838392 0.9838392
0.9840127 0.9840127 0.9840127
0.9841273 0.9841273 0.9841273
0.9842978 0.9842978 0.9842978
0.9848273 0.9848273 0.9848273
0.9849653 0.9849653 0.9849653
0.9850550 0.9850550 0.9850550
0.9851444 0.9851444 0.9851444
0.9855120 0.9855120 0.9855120
0.9855763 0.9855763 0.9855763
0.9856403 0.9856403 0.9856403
0.9856896 0.9856896 0.9856896
0.9859073 0.9859073 0.9859073
0.9859499 0.9859499 0.9859499
0.9859923 0.9859923 0.9859923
0.9860346 0.9860346 0.9860346
