Plugins/FilmEmulator/Content/LUTs/FE_Kodak_Vision2_250D_5205_64.cube
# FilmEmulator LUT (resampled to 64)
LUT_3D_SIZE 8
0.000916 0.000916 0.000000
0.077061 0.000000 0.000000
0.191716 0.000000 0.000000
0.314597 0.001613 0.000000
0.421273 0.018533 0.000000
0.515656 0.048122 0.000000
0.600830 0.074816 0.000000
0.685150 0.098450 0.000000
0.010550 0.055476 0.000000
0.106787 0.075400 0.000000
0.245274 0.087711 0.000000
0.381101 0.106537 0.000000
0.483215 0.122690 0.000000
0.565296 0.141198 0.000000
0.639828 0.156904 0.000000
0.719339 0.163321 0.000000
0.067125 0.158630 0.000000
0.183913 0.198705 0.000000
0.302474 0.222740 0.000000
0.435145 0.235595 0.000000
0.540010 0.251501 0.000000
0.617659 0.268643 0.000000
0.688740 0.276426 0.000000
0.762203 0.273145 0.000000
0.203164 0.307111 0.000000
0.299214 0.339293 0.004609
0.366404 0.373834 0.025065
0.455005 0.382809 0.000000
0.560268 0.383415 0.000000
0.650493 0.383265 0.000000
0.724505 0.387046 0.000131
0.795755 0.379172 0.005511
0.315277 0.437312 0.000000
0.377970 0.457145 0.015892
0.416961 0.493180 0.072616
0.481456 0.506259 0.060347
0.557142 0.510418 0.014688
0.638562 0.508068 0.000532
0.731587 0.502764 0.007109
0.818098 0.490805 0.015137
0.369014 0.541011 0.009779
0.420238 0.552244 0.024109
0.458712 0.582786 0.080332
0.520017 0.603241 0.087500
0.568361 0.615518 0.097182
0.634702 0.620441 0.083923
0.723032 0.619003 0.037631
0.809967 0.613342 0.026734
0.398015 0.643319 0.027753
0.441524 0.650299 0.033201
0.485883 0.672113 0.087158
0.564752 0.686758 0.070088
0.635315 0.697872 0.051662
0.693385 0.708831 0.067177
0.729122 0.724508 0.119200
0.807578 0.727265 0.105320
0.436096 0.720795 0.040955
0.473894 0.727199 0.043392
0.527017 0.744638 0.084128
0.600111 0.763310 0.058306
0.663940 0.782305 0.046408
0.727988 0.798057 0.045031
0.795641 0.806972 0.047019
0.855896 0.813965 0.086060
0.010298 0.027135 0.073691
0.066747 0.025067 0.086262
0.189893 0.000000 0.062103
0.306192 0.000000 0.055281
0.408591 0.000000 0.055075
0.500430 0.000000 0.052985
0.586225 0.002069 0.041441
0.673497 0.017129 0.028682
0.004531 0.082128 0.098572
0.097260 0.102169 0.090589
0.238949 0.084642 0.038705
0.363098 0.084383 0.021676
0.460349 0.098647 0.026109
0.549244 0.116650 0.032466
0.631920 0.133390 0.041657
0.719174 0.136316 0.019681
0.032017 0.192806 0.099861
0.158507 0.212087 0.059000
0.264326 0.217228 0.035163
0.401502 0.221636 0.019867
0.513540 0.235521 0.027423
0.601721 0.251143 0.027646
0.682634 0.258255 0.035399
0.762611 0.251486 0.005867
0.150309 0.319793 0.093827
0.255953 0.334139 0.032759
0.344230 0.358226 0.060862
0.421537 0.367768 0.047217
0.543976 0.367391 0.047972
0.636800 0.373585 0.036733
0.720659 0.376799 0.022162
0.797196 0.367618 0.017944
0.256882 0.442850 0.098181
0.344625 0.450436 0.067827
0.427480 0.470072 0.080331
0.457635 0.496593 0.120854
0.541395 0.503201 0.082532
0.629855 0.503285 0.049371
0.732953 0.495723 0.033091
0.820619 0.483250 0.030940
0.326247 0.544626 0.122208
0.392625 0.549590 0.106167
0.469346 0.564233 0.108109
0.531998 0.590239 0.118938
0.576253 0.608842 0.123648
0.629192 0.619491 0.126333
0.725016 0.618710 0.064998
0.816670 0.611044 0.045704
0.365717 0.646969 0.130484
0.420716 0.652041 0.111560
0.496191 0.663051 0.113268
0.570434 0.682726 0.111623
0.638116 0.699181 0.102669
0.702121 0.711072 0.086080
0.734874 0.727515 0.143439
0.812299 0.730329 0.126433
0.411456 0.725595 0.074738
0.457511 0.731340 0.062588
0.530578 0.742976 0.068490
0.597926 0.767013 0.070818
0.661117 0.787770 0.069735
0.730724 0.804877 0.069127
0.800330 0.814381 0.071591
0.865422 0.819349 0.103246
0.002433 0.047215 0.148036
0.021038 0.052771 0.171225
0.177017 0.036775 0.176114
0.314986 0.000000 0.170088
0.415579 0.000000 0.165709
0.507659 0.000000 0.166020
0.592009 0.003560 0.163925
0.672873 0.000815 0.151262
0.000000 0.107580 0.207337
0.038539 0.123288 0.221663
0.218405 0.116770 0.199850
0.357865 0.100467 0.184275
0.455393 0.099168 0.173629
0.542387 0.110406 0.171514
0.622295 0.118474 0.166653
0.705233 0.107429 0.149087
0.000000 0.215159 0.248420
0.096621 0.236605 0.236517
0.260506 0.238177 0.207379
0.383162 0.232932 0.198390
0.487284 0.240907 0.199988
0.580315 0.249889 0.202463
0.666877 0.251028 0.195548
0.755557 0.234604 0.172203
0.062446 0.338966 0.251780
0.197110 0.350919 0.238455
0.320060 0.357537 0.223039
0.409901 0.351782 0.213486
0.519100 0.355316 0.213625
0.612410 0.364476 0.218281
0.702389 0.365607 0.210074
0.792700 0.351593 0.181570
0.188405 0.455338 0.272338
0.275841 0.458014 0.254494
0.375804 0.466619 0.246267
0.451530 0.475104 0.249067
0.538244 0.476634 0.246842
0.637797 0.480563 0.240618
0.732082 0.482451 0.231716
0.822024 0.471921 0.192876
0.263742 0.551218 0.286808
0.334781 0.554687 0.264203
0.424622 0.562977 0.262236
0.504664 0.577346 0.268670
0.568457 0.596531 0.273369
0.631295 0.607917 0.276823
0.732178 0.610824 0.251229
0.829672 0.605881 0.208059
0.313946 0.652271 0.285104
0.372592 0.656910 0.268222
0.462924 0.668481 0.270476
0.540638 0.685229 0.279954
0.619618 0.701398 0.281459
0.695891 0.714578 0.277315
0.737638 0.730301 0.288443
0.826561 0.736925 0.237417
0.367667 0.735739 0.260319
0.418204 0.741309 0.246952
0.504143 0.755637 0.235140
0.576747 0.776805 0.254638
0.650637 0.797045 0.263464
0.728659 0.816285 0.264136
0.805848 0.828586 0.245894
0.881108 0.833361 0.196516
0.000000 0.067775 0.224356
0.000000 0.069300 0.236409
0.106163 0.073736 0.270458
0.280682 0.044208 0.255713
0.410324 0.019538 0.265435
0.505832 0.019429 0.267974
0.592155 0.027119 0.265984
0.679705 0.009238 0.251256
0.000000 0.128024 0.285897
0.003883 0.134490 0.292421
0.141321 0.135435 0.304278
0.321377 0.125957 0.289902
0.445650 0.123155 0.290675
0.540855 0.125212 0.285290
0.626884 0.126881 0.278367
0.713802 0.110127 0.256985
0.000000 0.225174 0.333291
0.042465 0.246625 0.341178
0.213703 0.262570 0.339011
0.368025 0.243926 0.312112
0.481310 0.244591 0.310029
0.576407 0.249004 0.305192
0.664175 0.245173 0.295499
0.752681 0.223174 0.269434
0.001999 0.345635 0.377669
0.109148 0.361375 0.370759
0.273187 0.368084 0.348654
0.402648 0.365310 0.333255
0.503941 0.366405 0.332334
0.603809 0.372650 0.334525
0.699358 0.369784 0.327347
0.791250 0.350199 0.299949
0.087586 0.464369 0.391170
0.192879 0.470012 0.379266
0.337856 0.474885 0.370327
0.441547 0.478518 0.364439
0.530522 0.475808 0.357776
0.630265 0.482044 0.359456
0.731167 0.484292 0.350375
0.823058 0.470249 0.319736
0.171220 0.561418 0.403144
0.262536 0.564462 0.395494
0.380741 0.574366 0.394264
0.476614 0.588323 0.391837
0.563230 0.598779 0.394569
0.649176 0.600494 0.392055
0.753362 0.605038 0.379523
0.849689 0.599677 0.346779
0.244033 0.659376 0.408535
0.317129 0.663155 0.406513
0.419895 0.676676 0.402646
0.519868 0.697481 0.404559
0.603191 0.712079 0.412167
0.690279 0.723489 0.410850
0.748417 0.735619 0.418778
0.850396 0.740157 0.381963
0.309510 0.738691 0.403311
0.366710 0.747310 0.398589
0.455552 0.764283 0.385056
0.555504 0.791822 0.384498
0.634963 0.810760 0.401103
0.723006 0.830107 0.407694
0.808714 0.844326 0.405816
0.882202 0.850577 0.396506
0.000000 0.089962 0.289555
0.000000 0.082860 0.280977
0.044744 0.092151 0.308082
0.222106 0.080823 0.328488
0.365873 0.057468 0.326239
0.483945 0.061445 0.345386
0.586664 0.069583 0.355217
0.678920 0.044996 0.344125
0.000000 0.141268 0.350376
0.000000 0.143108 0.346473
0.067336 0.142459 0.347789
0.252494 0.143112 0.366504
0.399955 0.135880 0.363468
0.520216 0.141282 0.375255
0.619687 0.144316 0.376185
0.714895 0.124600 0.354528
0.000000 0.234140 0.407632
0.010125 0.247056 0.409413
0.160409 0.270306 0.410982
0.306787 0.259761 0.402604
0.450994 0.256956 0.399620
0.567078 0.262514 0.407599
0.663675 0.251912 0.398324
0.757978 0.227085 0.373428
0.000000 0.343729 0.451590
0.060993 0.359007 0.451270
0.225226 0.377485 0.445465
0.374998 0.381456 0.433839
0.489333 0.370923 0.424475
0.595231 0.375649 0.429267
0.696012 0.369902 0.422871
0.790526 0.344650 0.393801
0.035049 0.464295 0.493883
0.128816 0.474885 0.487281
0.280944 0.481292 0.469197
0.416315 0.484281 0.458951
0.524592 0.487121 0.458623
0.620648 0.489256 0.459342
0.729666 0.490286 0.456727
0.829675 0.474568 0.431379
0.107852 0.566680 0.511006
0.182361 0.571759 0.496376
0.328923 0.579846 0.487601
0.452771 0.591036 0.488971
0.557395 0.601150 0.492688
0.647518 0.603533 0.491275
0.758104 0.612360 0.489117
0.860812 0.608428 0.466824
0.147716 0.666595 0.516761
0.227727 0.672096 0.512651
0.366438 0.684362 0.512717
0.484555 0.704647 0.520879
0.590291 0.722770 0.524439
0.684333 0.735330 0.529988
0.771433 0.739971 0.531271
0.883906 0.744594 0.511741
0.224003 0.757948 0.522574
0.293645 0.763270 0.518383
0.404495 0.773818 0.519111
0.512094 0.801201 0.527224
0.618645 0.830807 0.529319
0.714687 0.847554 0.539712
0.811254 0.861955 0.545346
0.885075 0.870357 0.546927
0.000000 0.107784 0.348589
0.000000 0.098007 0.331405
0.005222 0.103966 0.341298
0.158608 0.105442 0.376310
0.314482 0.095443 0.390494
0.436624 0.080625 0.401567
0.561677 0.094144 0.423680
0.674221 0.089042 0.432465
0.000000 0.153610 0.407176
0.000000 0.154134 0.400585
0.013111 0.148496 0.387781
0.182880 0.155957 0.412671
0.342682 0.153876 0.425156
0.467235 0.149975 0.432862
0.593252 0.156683 0.447860
0.708295 0.145511 0.448912
0.000000 0.242277 0.467282
0.005984 0.249424 0.464555
0.095825 0.271018 0.461729
0.234788 0.263160 0.463217
0.388567 0.264436 0.465688
0.521356 0.266665 0.474362
0.640877 0.265314 0.482965
0.753877 0.236959 0.471161
0.000916 0.345508 0.517920
0.027969 0.356896 0.516567
0.176136 0.380754 0.514542
0.326397 0.388884 0.517196
0.440728 0.381963 0.509640
0.570365 0.383924 0.515351
0.683309 0.376840 0.518616
0.791834 0.349479 0.500038
0.013202 0.453325 0.559303
0.085162 0.465505 0.556465
0.228753 0.482640 0.550709
0.377438 0.491386 0.549948
0.495380 0.496590 0.547433
0.601153 0.491168 0.545256
0.716449 0.489822 0.548167
0.825751 0.470650 0.531425
0.060594 0.562261 0.596858
0.137061 0.572056 0.592013
0.271178 0.585403 0.582296
0.418327 0.594192 0.576947
0.533785 0.604072 0.583537
0.640965 0.614427 0.591451
0.751492 0.617183 0.590806
0.869112 0.618006 0.584797
0.109652 0.665871 0.613712
0.173601 0.674758 0.610416
0.298225 0.686658 0.604863
0.437627 0.704657 0.611301
0.565065 0.722008 0.623076
0.675852 0.740222 0.632005
0.781356 0.744546 0.632158
0.902356 0.754539 0.631448
0.154279 0.757900 0.618421
0.204603 0.768206 0.617536
0.320534 0.785014 0.624877
0.454631 0.813265 0.641625
0.580201 0.837784 0.656594
0.698123 0.860538 0.668683
0.809462 0.874874 0.672117
0.903700 0.886863 0.680576
0.000000 0.125043 0.409110
0.000000 0.111519 0.388463
0.000098 0.113351 0.381635
0.092191 0.119847 0.403950
0.242496 0.119929 0.442456
0.382503 0.113742 0.461331
0.512917 0.107556 0.477249
0.645089 0.111873 0.498313
0.000000 0.164853 0.457239
0.000514 0.162208 0.448873
0.009503 0.151832 0.431221
0.095397 0.160073 0.440088
0.258643 0.165989 0.476619
0.405573 0.165820 0.497108
0.538655 0.163634 0.508756
0.672616 0.160014 0.520396
0.000098 0.244905 0.524166
0.009502 0.243654 0.517875
0.027625 0.257933 0.514084
0.125642 0.249022 0.508596
0.295003 0.260762 0.531587
0.447552 0.265742 0.543303
0.584714 0.268661 0.552905
0.721141 0.247967 0.555200
0.006981 0.341556 0.574493
0.020908 0.344984 0.571931
0.077354 0.362080 0.571110
0.224081 0.378193 0.576034
0.351448 0.373145 0.583219
0.497235 0.376851 0.587144
0.635655 0.381624 0.595496
0.766390 0.356535 0.592278
0.014957 0.444623 0.618593
0.037841 0.450551 0.616792
0.150896 0.470589 0.617587
0.293251 0.489463 0.623517
0.424359 0.499506 0.636258
0.549247 0.493955 0.629635
0.682047 0.495822 0.636957
0.810480 0.475826 0.632565
0.033096 0.546993 0.661913
0.083473 0.554158 0.659985
0.200535 0.573780 0.660697
0.345998 0.595503 0.666665
0.479519 0.612641 0.679648
0.605860 0.622229 0.684836
0.729921 0.617877 0.684566
0.856978 0.613094 0.683003
0.073371 0.655826 0.696798
0.129191 0.665599 0.695487
0.237241 0.683500 0.696992
0.377116 0.702359 0.704946
0.514215 0.722873 0.719661
0.643132 0.739558 0.728076
0.772806 0.754383 0.738498
0.907103 0.768041 0.745566
0.107919 0.742833 0.711317
0.153067 0.758609 0.714134
0.248409 0.782644 0.724465
0.377338 0.812202 0.740899
0.516590 0.840118 0.754910
0.656626 0.860927 0.767496
0.802385 0.883586 0.788549
0.927028 0.896537 0.796892
0.000000 0.132538 0.457886
0.000000 0.118831 0.437635
0.004473 0.116215 0.427586
0.013363 0.120200 0.428842
0.141719 0.128666 0.474099
0.288291 0.131248 0.519762
0.437718 0.128100 0.545013
0.592102 0.124756 0.561584
0.000000 0.163060 0.499477
0.003652 0.158273 0.492549
0.013712 0.143445 0.472178
0.025787 0.146590 0.466987
0.132766 0.159751 0.509584
0.300359 0.167447 0.551866
0.456171 0.169367 0.578553
0.615627 0.169129 0.588845
0.004447 0.229444 0.564457
0.013710 0.223548 0.557561
0.030905 0.218710 0.549967
0.048253 0.209649 0.540769
0.121893 0.227134 0.566505
0.319833 0.242089 0.601260
0.493141 0.250323 0.626939
0.656804 0.255715 0.632904
0.013354 0.318037 0.623993
0.025787 0.316307 0.621877
0.048253 0.312740 0.616365
0.075830 0.310502 0.615465
0.119836 0.323163 0.633162
0.349614 0.342235 0.658842
0.539971 0.354935 0.676870
0.705684 0.362213 0.682342
0.022980 0.417968 0.681322
0.038783 0.417932 0.679506
0.066990 0.425493 0.679268
0.105529 0.434312 0.683886
0.225412 0.453047 0.706604
0.397145 0.465158 0.719819
0.589702 0.473275 0.725208
0.759918 0.485120 0.732439
0.032746 0.522387 0.725639
0.052161 0.525881 0.725633
0.090981 0.536026 0.727670
0.180654 0.556068 0.736390
0.329437 0.593626 0.761883
0.502703 0.617203 0.784531
0.657692 0.613307 0.778290
0.825147 0.624485 0.793605
0.058219 0.634247 0.766728
0.086782 0.639480 0.766983
0.149342 0.651831 0.769922
0.239269 0.674412 0.781959
0.384056 0.711931 0.809227
0.570906 0.746183 0.832567
0.745780 0.765830 0.844769
0.887914 0.769854 0.852247
0.084198 0.718414 0.788757
0.118147 0.726785 0.790650
0.175467 0.744263 0.797494
0.261235 0.775722 0.812260
0.395687 0.817614 0.837106
0.578836 0.859052 0.863377
0.771149 0.889078 0.888005
0.937164 0.912292 0.908081
