Plugins/FilmEmulator/Content/LUTs/FE_Kodak_2302_Dev2_64.cube
TITLE "FE_Kodak_2302_Dev2_33"
LUT_3D_SIZE 64
0.0018207 0.0018207 0.0018207
0.0018207 0.0018207 0.0018207
0.0018288 0.0018288 0.0018288
0.0018964 0.0018964 0.0018964
0.0019756 0.0019756 0.0019756
0.0020777 0.0020777 0.0020777
0.0022186 0.0022186 0.0022186
0.0023685 0.0023685 0.0023685
0.0025327 0.0025327 0.0025327
0.0026962 0.0026962 0.0026962
0.0029040 0.0029040 0.0029040
0.0031041 0.0031041 0.0031041
0.0033427 0.0033427 0.0033427
0.0035870 0.0035870 0.0035870
0.0038215 0.0038215 0.0038215
0.0041176 0.0041176 0.0041176
0.0044473 0.0044473 0.0044473
0.0047670 0.0047670 0.0047670
0.0051177 0.0051177 0.0051177
0.0055179 0.0055179 0.0055179
0.0059599 0.0059599 0.0059599
0.0063752 0.0063752 0.0063752
0.0068194 0.0068194 0.0068194
0.0073264 0.0073264 0.0073264
0.0078882 0.0078882 0.0078882
0.0083374 0.0083374 0.0083374
0.0090183 0.0090183 0.0090183
0.0095717 0.0095717 0.0095717
0.0101587 0.0101587 0.0101587
0.0108263 0.0108263 0.0108263
0.0115614 0.0115614 0.0115614
0.0123458 0.0123458 0.0123458
0.0131985 0.0131985 0.0131985
0.0141687 0.0141687 0.0141687
0.0148542 0.0148542 0.0148542
0.0159442 0.0159442 0.0159442
0.0167204 0.0167204 0.0167204
0.0180046 0.0180046 0.0180046
0.0189141 0.0189141 0.0189141
0.0198685 0.0198685 0.0198685
0.0213893 0.0213893 0.0213893
0.0225272 0.0225272 0.0225272
0.0237240 0.0237240 0.0237240
0.0249829 0.0249829 0.0249829
0.0263067 0.0263067 0.0263067
0.0276987 0.0276987 0.0276987
0.0292299 0.0292299 0.0292299
0.0308573 0.0308573 0.0308573
0.0325723 0.0325723 0.0325723
0.0334640 0.0334640 0.0334640
0.0353186 0.0353186 0.0353186
0.0372867 0.0372867 0.0372867
0.0394369 0.0394369 0.0394369
0.0405561 0.0405561 0.0405561
0.0428865 0.0428865 0.0428865
0.0440991 0.0440991 0.0440991
0.0466232 0.0466232 0.0466232
0.0492842 0.0492842 0.0492842
0.0507571 0.0507571 0.0507571
0.0538287 0.0538287 0.0538287
0.0554295 0.0554295 0.0554295
0.0587664 0.0587664 0.0587664
0.0605046 0.0605046 0.0605046
0.0622909 0.0622909 0.0622909
0.0018207 0.0018207 0.0018207
0.0018213 0.0018213 0.0018213
0.0018736 0.0018736 0.0018736
0.0019547 0.0019547 0.0019547
0.0020442 0.0020442 0.0020442
0.0021793 0.0021793 0.0021793
0.0023318 0.0023318 0.0023318
0.0024881 0.0024881 0.0024881
0.0026577 0.0026577 0.0026577
0.0028356 0.0028356 0.0028356
0.0030528 0.0030528 0.0030528
0.0032811 0.0032811 0.0032811
0.0035120 0.0035120 0.0035120
0.0037417 0.0037417 0.0037417
0.0040667 0.0040667 0.0040667
0.0043275 0.0043275 0.0043275
0.0047013 0.0047013 0.0047013
0.0050412 0.0050412 0.0050412
0.0054354 0.0054354 0.0054354
0.0057727 0.0057727 0.0057727
0.0062688 0.0062688 0.0062688
0.0067056 0.0067056 0.0067056
0.0071923 0.0071923 0.0071923
0.0077439 0.0077439 0.0077439
0.0081849 0.0081849 0.0081849
0.0088410 0.0088410 0.0088410
0.0093836 0.0093836 0.0093836
0.0099592 0.0099592 0.0099592
0.0105917 0.0105917 0.0105917
0.0113110 0.0113110 0.0113110
0.0120786 0.0120786 0.0120786
0.0128976 0.0128976 0.0128976
0.0138377 0.0138377 0.0138377
0.0145075 0.0145075 0.0145075
0.0155724 0.0155724 0.0155724
0.0167204 0.0167204 0.0167204
0.0175661 0.0175661 0.0175661
0.0184538 0.0184538 0.0184538
0.0198685 0.0198685 0.0198685
0.0208702 0.0208702 0.0208702
0.0219511 0.0219511 0.0219511
0.0231180 0.0231180 0.0231180
0.0243455 0.0243455 0.0243455
0.0256365 0.0256365 0.0256365
0.0269940 0.0269940 0.0269940
0.0284477 0.0284477 0.0284477
0.0300329 0.0300329 0.0300329
0.0317036 0.0317036 0.0317036
0.0334640 0.0334640 0.0334640
0.0353186 0.0353186 0.0353186
0.0362827 0.0362827 0.0362827
0.0383473 0.0383473 0.0383473
0.0405561 0.0405561 0.0405561
0.0417057 0.0417057 0.0417057
0.0440991 0.0440991 0.0440991
0.0466232 0.0466232 0.0466232
0.0479361 0.0479361 0.0479361
0.0507571 0.0507571 0.0507571
0.0522716 0.0522716 0.0522716
0.0554295 0.0554295 0.0554295
0.0570750 0.0570750 0.0570750
0.0605046 0.0605046 0.0605046
0.0622909 0.0622909 0.0622909
0.0641263 0.0641263 0.0641263
0.0018207 0.0018207 0.0018207
0.0018525 0.0018525 0.0018525
0.0019317 0.0019317 0.0019317
0.0020121 0.0020121 0.0020121
0.0021316 0.0021316 0.0021316
0.0022849 0.0022849 0.0022849
0.0024476 0.0024476 0.0024476
0.0026094 0.0026094 0.0026094
0.0027750 0.0027750 0.0027750
0.0029775 0.0029775 0.0029775
0.0031908 0.0031908 0.0031908
0.0034386 0.0034386 0.0034386
0.0037024 0.0037024 0.0037024
0.0039668 0.0039668 0.0039668
0.0042741 0.0042741 0.0042741
0.0045725 0.0045725 0.0045725
0.0049012 0.0049012 0.0049012
0.0052742 0.0052742 0.0052742
0.0056865 0.0056865 0.0056865
0.0060611 0.0060611 0.0060611
0.0065936 0.0065936 0.0065936
0.0070606 0.0070606 0.0070606
0.0074630 0.0074630 0.0074630
0.0080352 0.0080352 0.0080352
0.0086672 0.0086672 0.0086672
0.0091992 0.0091992 0.0091992
0.0097635 0.0097635 0.0097635
0.0103621 0.0103621 0.0103621
0.0113110 0.0113110 0.0113110
0.0118172 0.0118172 0.0118172
0.0126187 0.0126187 0.0126187
0.0135144 0.0135144 0.0135144
0.0145075 0.0145075 0.0145075
0.0152091 0.0152091 0.0152091
0.0163247 0.0163247 0.0163247
0.0171381 0.0171381 0.0171381
0.0184538 0.0184538 0.0184538
0.0193856 0.0193856 0.0193856
0.0203633 0.0203633 0.0203633
0.0213893 0.0213893 0.0213893
0.0231180 0.0231180 0.0231180
0.0243455 0.0243455 0.0243455
0.0256365 0.0256365 0.0256365
0.0269940 0.0269940 0.0269940
0.0284477 0.0284477 0.0284477
0.0300329 0.0300329 0.0300329
0.0308573 0.0308573 0.0308573
0.0325723 0.0325723 0.0325723
0.0343793 0.0343793 0.0343793
0.0362827 0.0362827 0.0362827
0.0383473 0.0383473 0.0383473
0.0394369 0.0394369 0.0394369
0.0417057 0.0417057 0.0417057
0.0440991 0.0440991 0.0440991
0.0453444 0.0453444 0.0453444
0.0479361 0.0479361 0.0479361
0.0492842 0.0492842 0.0492842
0.0522716 0.0522716 0.0522716
0.0538287 0.0538287 0.0538287
0.0570750 0.0570750 0.0570750
0.0587664 0.0587664 0.0587664
0.0622909 0.0622909 0.0622909
0.0641263 0.0641263 0.0641263
0.0660119 0.0660119 0.0660119
0.0018348 0.0018348 0.0018348
0.0019078 0.0019078 0.0019078
0.0019864 0.0019864 0.0019864
0.0020930 0.0020930 0.0020930
0.0022390 0.0022390 0.0022390
0.0023946 0.0023946 0.0023946
0.0025631 0.0025631 0.0025631
0.0027353 0.0027353 0.0027353
0.0029283 0.0029283 0.0029283
0.0031320 0.0031320 0.0031320
0.0033739 0.0033739 0.0033739
0.0036250 0.0036250 0.0036250
0.0038693 0.0038693 0.0038693
0.0041691 0.0041691 0.0041691
0.0045095 0.0045095 0.0045095
0.0048337 0.0048337 0.0048337
0.0051953 0.0051953 0.0051953
0.0056015 0.0056015 0.0056015
0.0059599 0.0059599 0.0059599
0.0063752 0.0063752 0.0063752
0.0069352 0.0069352 0.0069352
0.0073264 0.0073264 0.0073264
0.0078882 0.0078882 0.0078882
0.0084967 0.0084967 0.0084967
0.0090183 0.0090183 0.0090183
0.0095717 0.0095717 0.0095717
0.0103621 0.0103621 0.0103621
0.0110661 0.0110661 0.0110661
0.0118172 0.0118172 0.0118172
0.0123458 0.0123458 0.0123458
0.0131985 0.0131985 0.0131985
0.0141687 0.0141687 0.0141687
0.0152091 0.0152091 0.0152091
0.0159442 0.0159442 0.0159442
0.0171381 0.0171381 0.0171381
0.0180046 0.0180046 0.0180046
0.0189141 0.0189141 0.0189141
0.0203633 0.0203633 0.0203633
0.0213893 0.0213893 0.0213893
0.0225272 0.0225272 0.0225272
0.0237240 0.0237240 0.0237240
0.0249829 0.0249829 0.0249829
0.0263067 0.0263067 0.0263067
0.0276987 0.0276987 0.0276987
0.0292299 0.0292299 0.0292299
0.0308573 0.0308573 0.0308573
0.0325723 0.0325723 0.0325723
0.0343793 0.0343793 0.0343793
0.0353186 0.0353186 0.0353186
0.0372867 0.0372867 0.0372867
0.0394369 0.0394369 0.0394369
0.0405561 0.0405561 0.0405561
0.0428865 0.0428865 0.0428865
0.0453444 0.0453444 0.0453444
0.0466232 0.0466232 0.0466232
0.0492842 0.0492842 0.0492842
0.0507571 0.0507571 0.0507571
0.0538287 0.0538287 0.0538287
0.0554295 0.0554295 0.0554295
0.0587664 0.0587664 0.0587664
0.0605046 0.0605046 0.0605046
0.0641263 0.0641263 0.0641263
0.0660119 0.0660119 0.0660119
0.0679956 0.0679956 0.0679956
0.0018837 0.0018837 0.0018837
0.0019648 0.0019648 0.0019648
0.0020550 0.0020550 0.0020550
0.0021988 0.0021988 0.0021988
0.0023437 0.0023437 0.0023437
0.0025026 0.0025026 0.0025026
0.0026769 0.0026769 0.0026769
0.0028560 0.0028560 0.0028560
0.0030783 0.0030783 0.0030783
0.0033117 0.0033117 0.0033117
0.0035493 0.0035493 0.0035493
0.0037814 0.0037814 0.0037814
0.0040667 0.0040667 0.0040667
0.0043859 0.0043859 0.0043859
0.0047670 0.0047670 0.0047670
0.0051177 0.0051177 0.0051177
0.0054354 0.0054354 0.0054354
0.0058603 0.0058603 0.0058603
0.0062688 0.0062688 0.0062688
0.0067056 0.0067056 0.0067056
0.0071923 0.0071923 0.0071923
0.0077439 0.0077439 0.0077439
0.0083374 0.0083374 0.0083374
0.0088410 0.0088410 0.0088410
0.0093836 0.0093836 0.0093836
0.0101587 0.0101587 0.0101587
0.0108263 0.0108263 0.0108263
0.0115614 0.0115614 0.0115614
0.0123458 0.0123458 0.0123458
0.0128976 0.0128976 0.0128976
0.0138377 0.0138377 0.0138377
0.0148542 0.0148542 0.0148542
0.0155724 0.0155724 0.0155724
0.0167204 0.0167204 0.0167204
0.0175661 0.0175661 0.0175661
0.0189141 0.0189141 0.0189141
0.0198685 0.0198685 0.0198685
0.0208702 0.0208702 0.0208702
0.0219511 0.0219511 0.0219511
0.0231180 0.0231180 0.0231180
0.0249829 0.0249829 0.0249829
0.0263067 0.0263067 0.0263067
0.0276987 0.0276987 0.0276987
0.0284477 0.0284477 0.0284477
0.0300329 0.0300329 0.0300329
0.0317036 0.0317036 0.0317036
0.0334640 0.0334640 0.0334640
0.0353186 0.0353186 0.0353186
0.0372867 0.0372867 0.0372867
0.0383473 0.0383473 0.0383473
0.0405561 0.0405561 0.0405561
0.0428865 0.0428865 0.0428865
0.0440991 0.0440991 0.0440991
0.0466232 0.0466232 0.0466232
0.0479361 0.0479361 0.0479361
0.0507571 0.0507571 0.0507571
0.0522716 0.0522716 0.0522716
0.0554295 0.0554295 0.0554295
0.0570750 0.0570750 0.0570750
0.0605046 0.0605046 0.0605046
0.0622909 0.0622909 0.0622909
0.0660119 0.0660119 0.0660119
0.0679956 0.0679956 0.0679956
0.0700584 0.0700584 0.0700584
0.0019416 0.0019416 0.0019416
0.0020281 0.0020281 0.0020281
0.0021502 0.0021502 0.0021502
0.0023082 0.0023082 0.0023082
0.0024611 0.0024611 0.0024611
0.0026251 0.0026251 0.0026251
0.0028152 0.0028152 0.0028152
0.0030024 0.0030024 0.0030024
0.0032206 0.0032206 0.0032206
0.0034751 0.0034751 0.0034751
0.0037024 0.0037024 0.0037024
0.0040164 0.0040164 0.0040164
0.0043275 0.0043275 0.0043275
0.0046365 0.0046365 0.0046365
0.0049697 0.0049697 0.0049697
0.0053542 0.0053542 0.0053542
0.0057727 0.0057727 0.0057727
0.0061641 0.0061641 0.0061641
0.0065936 0.0065936 0.0065936
0.0070606 0.0070606 0.0070606
0.0076022 0.0076022 0.0076022
0.0081849 0.0081849 0.0081849
0.0086672 0.0086672 0.0086672
0.0093836 0.0093836 0.0093836
0.0099592 0.0099592 0.0099592
0.0105917 0.0105917 0.0105917
0.0113110 0.0113110 0.0113110
0.0120786 0.0120786 0.0120786
0.0128976 0.0128976 0.0128976
0.0135144 0.0135144 0.0135144
0.0145075 0.0145075 0.0145075
0.0155724 0.0155724 0.0155724
0.0163247 0.0163247 0.0163247
0.0175661 0.0175661 0.0175661
0.0184538 0.0184538 0.0184538
0.0193856 0.0193856 0.0193856
0.0208702 0.0208702 0.0208702
0.0219511 0.0219511 0.0219511
0.0231180 0.0231180 0.0231180
0.0243455 0.0243455 0.0243455
0.0256365 0.0256365 0.0256365
0.0269940 0.0269940 0.0269940
0.0284477 0.0284477 0.0284477
0.0300329 0.0300329 0.0300329
0.0317036 0.0317036 0.0317036
0.0334640 0.0334640 0.0334640
0.0343793 0.0343793 0.0343793
0.0362827 0.0362827 0.0362827
0.0383473 0.0383473 0.0383473
0.0394369 0.0394369 0.0394369
0.0417057 0.0417057 0.0417057
0.0440991 0.0440991 0.0440991
0.0453444 0.0453444 0.0453444
0.0479361 0.0479361 0.0479361
0.0492842 0.0492842 0.0492842
0.0522716 0.0522716 0.0522716
0.0538287 0.0538287 0.0538287
0.0570750 0.0570750 0.0570750
0.0587664 0.0587664 0.0587664
0.0622909 0.0622909 0.0622909
0.0641263 0.0641263 0.0641263
0.0679956 0.0679956 0.0679956
0.0700584 0.0700584 0.0700584
0.0721788 0.0721788 0.0721788
0.0019973 0.0019973 0.0019973
0.0021084 0.0021084 0.0021084
0.0022618 0.0022618 0.0022618
0.0024210 0.0024210 0.0024210
0.0025785 0.0025785 0.0025785
0.0027551 0.0027551 0.0027551
0.0029528 0.0029528 0.0029528
0.0031613 0.0031613 0.0031613
0.0034054 0.0034054 0.0034054
0.0036635 0.0036635 0.0036635
0.0039178 0.0039178 0.0039178
0.0042213 0.0042213 0.0042213
0.0045095 0.0045095 0.0045095
0.0049012 0.0049012 0.0049012
0.0052742 0.0052742 0.0052742
0.0056015 0.0056015 0.0056015
0.0060611 0.0060611 0.0060611
0.0064835 0.0064835 0.0064835
0.0069352 0.0069352 0.0069352
0.0074630 0.0074630 0.0074630
0.0080352 0.0080352 0.0080352
0.0084967 0.0084967 0.0084967
0.0091992 0.0091992 0.0091992
0.0097635 0.0097635 0.0097635
0.0103621 0.0103621 0.0103621
0.0110661 0.0110661 0.0110661
0.0118172 0.0118172 0.0118172
0.0126187 0.0126187 0.0126187
0.0135144 0.0135144 0.0135144
0.0141687 0.0141687 0.0141687
0.0152091 0.0152091 0.0152091
0.0159442 0.0159442 0.0159442
0.0171381 0.0171381 0.0171381
0.0180046 0.0180046 0.0180046
0.0193856 0.0193856 0.0193856
0.0203633 0.0203633 0.0203633
0.0213893 0.0213893 0.0213893
0.0225272 0.0225272 0.0225272
0.0237240 0.0237240 0.0237240
0.0249829 0.0249829 0.0249829
0.0263067 0.0263067 0.0263067
0.0276987 0.0276987 0.0276987
0.0292299 0.0292299 0.0292299
0.0308573 0.0308573 0.0308573
0.0325723 0.0325723 0.0325723
0.0343793 0.0343793 0.0343793
0.0362827 0.0362827 0.0362827
0.0372867 0.0372867 0.0372867
0.0394369 0.0394369 0.0394369
0.0417057 0.0417057 0.0417057
0.0428865 0.0428865 0.0428865
0.0453444 0.0453444 0.0453444
0.0466232 0.0466232 0.0466232
0.0492842 0.0492842 0.0492842
0.0522716 0.0522716 0.0522716
0.0538287 0.0538287 0.0538287
0.0554295 0.0554295 0.0554295
0.0587664 0.0587664 0.0587664
0.0605046 0.0605046 0.0605046
0.0641263 0.0641263 0.0641263
0.0660119 0.0660119 0.0660119
0.0679956 0.0679956 0.0679956
0.0721788 0.0721788 0.0721788
0.0743584 0.0743584 0.0743584
0.0020701 0.0020701 0.0020701
0.0022087 0.0022087 0.0022087
0.0023685 0.0023685 0.0023685
0.0025327 0.0025327 0.0025327
0.0026962 0.0026962 0.0026962
0.0028799 0.0028799 0.0028799
0.0031041 0.0031041 0.0031041
0.0033427 0.0033427 0.0033427
0.0035870 0.0035870 0.0035870
0.0038215 0.0038215 0.0038215
0.0041176 0.0041176 0.0041176
0.0044473 0.0044473 0.0044473
0.0047670 0.0047670 0.0047670
0.0051177 0.0051177 0.0051177
0.0055179 0.0055179 0.0055179
0.0058603 0.0058603 0.0058603
0.0063752 0.0063752 0.0063752
0.0068194 0.0068194 0.0068194
0.0073264 0.0073264 0.0073264
0.0078882 0.0078882 0.0078882
0.0083374 0.0083374 0.0083374
0.0090183 0.0090183 0.0090183
0.0095717 0.0095717 0.0095717
0.0101587 0.0101587 0.0101587
0.0108263 0.0108263 0.0108263
0.0115614 0.0115614 0.0115614
0.0123458 0.0123458 0.0123458
0.0131985 0.0131985 0.0131985
0.0141687 0.0141687 0.0141687
0.0148542 0.0148542 0.0148542
0.0159442 0.0159442 0.0159442
0.0167204 0.0167204 0.0167204
0.0180046 0.0180046 0.0180046
0.0189141 0.0189141 0.0189141
0.0198685 0.0198685 0.0198685
0.0208702 0.0208702 0.0208702
0.0225272 0.0225272 0.0225272
0.0237240 0.0237240 0.0237240
0.0249829 0.0249829 0.0249829
0.0263067 0.0263067 0.0263067
0.0276987 0.0276987 0.0276987
0.0292299 0.0292299 0.0292299
0.0308573 0.0308573 0.0308573
0.0317036 0.0317036 0.0317036
0.0334640 0.0334640 0.0334640
0.0353186 0.0353186 0.0353186
0.0372867 0.0372867 0.0372867
0.0383473 0.0383473 0.0383473
0.0405561 0.0405561 0.0405561
0.0428865 0.0428865 0.0428865
0.0440991 0.0440991 0.0440991
0.0466232 0.0466232 0.0466232
0.0492842 0.0492842 0.0492842
0.0507571 0.0507571 0.0507571
0.0538287 0.0538287 0.0538287
0.0554295 0.0554295 0.0554295
0.0587664 0.0587664 0.0587664
0.0605046 0.0605046 0.0605046
0.0622909 0.0622909 0.0622909
0.0660119 0.0660119 0.0660119
0.0679956 0.0679956 0.0679956
0.0700584 0.0700584 0.0700584
0.0743584 0.0743584 0.0743584
0.0765983 0.0765983 0.0765983
0.0021695 0.0021695 0.0021695
0.0023200 0.0023200 0.0023200
0.0024881 0.0024881 0.0024881
0.0026408 0.0026408 0.0026408
0.0028356 0.0028356 0.0028356
0.0030528 0.0030528 0.0030528
0.0032507 0.0032507 0.0032507
0.0035120 0.0035120 0.0035120
0.0037417 0.0037417 0.0037417
0.0040164 0.0040164 0.0040164
0.0043275 0.0043275 0.0043275
0.0047013 0.0047013 0.0047013
0.0050412 0.0050412 0.0050412
0.0054354 0.0054354 0.0054354
0.0057727 0.0057727 0.0057727
0.0062688 0.0062688 0.0062688
0.0067056 0.0067056 0.0067056
0.0071923 0.0071923 0.0071923
0.0076022 0.0076022 0.0076022
0.0081849 0.0081849 0.0081849
0.0088410 0.0088410 0.0088410
0.0093836 0.0093836 0.0093836
0.0099592 0.0099592 0.0099592
0.0105917 0.0105917 0.0105917
0.0113110 0.0113110 0.0113110
0.0120786 0.0120786 0.0120786
0.0128976 0.0128976 0.0128976
0.0138377 0.0138377 0.0138377
0.0145075 0.0145075 0.0145075
0.0155724 0.0155724 0.0155724
0.0163247 0.0163247 0.0163247
0.0175661 0.0175661 0.0175661
0.0184538 0.0184538 0.0184538
0.0198685 0.0198685 0.0198685
0.0208702 0.0208702 0.0208702
0.0219511 0.0219511 0.0219511
0.0231180 0.0231180 0.0231180
0.0243455 0.0243455 0.0243455
0.0256365 0.0256365 0.0256365
0.0269940 0.0269940 0.0269940
0.0284477 0.0284477 0.0284477
0.0300329 0.0300329 0.0300329
0.0317036 0.0317036 0.0317036
0.0334640 0.0334640 0.0334640
0.0353186 0.0353186 0.0353186
0.0362827 0.0362827 0.0362827
0.0383473 0.0383473 0.0383473
0.0405561 0.0405561 0.0405561
0.0417057 0.0417057 0.0417057
0.0440991 0.0440991 0.0440991
0.0466232 0.0466232 0.0466232
0.0479361 0.0479361 0.0479361
0.0507571 0.0507571 0.0507571
0.0522716 0.0522716 0.0522716
0.0554295 0.0554295 0.0554295
0.0570750 0.0570750 0.0570750
0.0605046 0.0605046 0.0605046
0.0622909 0.0622909 0.0622909
0.0641263 0.0641263 0.0641263
0.0679956 0.0679956 0.0679956
0.0700584 0.0700584 0.0700584
0.0721788 0.0721788 0.0721788
0.0765983 0.0765983 0.0765983
0.0788999 0.0788999 0.0788999
0.0022733 0.0022733 0.0022733
0.0024343 0.0024343 0.0024343
0.0025939 0.0025939 0.0025939
0.0027750 0.0027750 0.0027750
0.0029775 0.0029775 0.0029775
0.0031908 0.0031908 0.0031908
0.0034386 0.0034386 0.0034386
0.0036635 0.0036635 0.0036635
0.0039668 0.0039668 0.0039668
0.0042741 0.0042741 0.0042741
0.0045725 0.0045725 0.0045725
0.0049012 0.0049012 0.0049012
0.0052742 0.0052742 0.0052742
0.0056865 0.0056865 0.0056865
0.0060611 0.0060611 0.0060611
0.0065936 0.0065936 0.0065936
0.0070606 0.0070606 0.0070606
0.0074630 0.0074630 0.0074630
0.0080352 0.0080352 0.0080352
0.0086672 0.0086672 0.0086672
0.0091992 0.0091992 0.0091992
0.0097635 0.0097635 0.0097635
0.0103621 0.0103621 0.0103621
0.0110661 0.0110661 0.0110661
0.0118172 0.0118172 0.0118172
0.0126187 0.0126187 0.0126187
0.0135144 0.0135144 0.0135144
0.0145075 0.0145075 0.0145075
0.0152091 0.0152091 0.0152091
0.0163247 0.0163247 0.0163247
0.0171381 0.0171381 0.0171381
0.0184538 0.0184538 0.0184538
0.0193856 0.0193856 0.0193856
0.0203633 0.0203633 0.0203633
0.0213893 0.0213893 0.0213893
0.0231180 0.0231180 0.0231180
0.0243455 0.0243455 0.0243455
0.0256365 0.0256365 0.0256365
0.0269940 0.0269940 0.0269940
0.0284477 0.0284477 0.0284477
0.0300329 0.0300329 0.0300329
0.0308573 0.0308573 0.0308573
0.0325723 0.0325723 0.0325723
0.0343793 0.0343793 0.0343793
0.0362827 0.0362827 0.0362827
0.0383473 0.0383473 0.0383473
0.0394369 0.0394369 0.0394369
0.0417057 0.0417057 0.0417057
0.0428865 0.0428865 0.0428865
0.0453444 0.0453444 0.0453444
0.0479361 0.0479361 0.0479361
0.0492842 0.0492842 0.0492842
0.0522716 0.0522716 0.0522716
0.0538287 0.0538287 0.0538287
0.0570750 0.0570750 0.0570750
0.0587664 0.0587664 0.0587664
0.0622909 0.0622909 0.0622909
0.0641263 0.0641263 0.0641263
0.0660119 0.0660119 0.0660119
0.0700584 0.0700584 0.0700584
0.0721788 0.0721788 0.0721788
0.0743584 0.0743584 0.0743584
0.0788999 0.0788999 0.0788999
0.0812647 0.0812647 0.0812647
0.0023946 0.0023946 0.0023946
0.0025479 0.0025479 0.0025479
0.0027157 0.0027157 0.0027157
0.0029283 0.0029283 0.0029283
0.0031320 0.0031320 0.0031320
0.0033427 0.0033427 0.0033427
0.0035870 0.0035870 0.0035870
0.0038693 0.0038693 0.0038693
0.0041691 0.0041691 0.0041691
0.0045095 0.0045095 0.0045095
0.0048337 0.0048337 0.0048337
0.0051953 0.0051953 0.0051953
0.0056015 0.0056015 0.0056015
0.0059599 0.0059599 0.0059599
0.0063752 0.0063752 0.0063752
0.0068194 0.0068194 0.0068194
0.0073264 0.0073264 0.0073264
0.0078882 0.0078882 0.0078882
0.0084967 0.0084967 0.0084967
0.0090183 0.0090183 0.0090183
0.0095717 0.0095717 0.0095717
0.0101587 0.0101587 0.0101587
0.0110661 0.0110661 0.0110661
0.0118172 0.0118172 0.0118172
0.0123458 0.0123458 0.0123458
0.0131985 0.0131985 0.0131985
0.0141687 0.0141687 0.0141687
0.0148542 0.0148542 0.0148542
0.0159442 0.0159442 0.0159442
0.0167204 0.0167204 0.0167204
0.0180046 0.0180046 0.0180046
0.0189141 0.0189141 0.0189141
0.0203633 0.0203633 0.0203633
0.0213893 0.0213893 0.0213893
0.0225272 0.0225272 0.0225272
0.0237240 0.0237240 0.0237240
0.0249829 0.0249829 0.0249829
0.0263067 0.0263067 0.0263067
0.0276987 0.0276987 0.0276987
0.0292299 0.0292299 0.0292299
0.0308573 0.0308573 0.0308573
0.0325723 0.0325723 0.0325723
0.0343793 0.0343793 0.0343793
0.0353186 0.0353186 0.0353186
0.0372867 0.0372867 0.0372867
0.0394369 0.0394369 0.0394369
0.0405561 0.0405561 0.0405561
0.0428865 0.0428865 0.0428865
0.0453444 0.0453444 0.0453444
0.0466232 0.0466232 0.0466232
0.0492842 0.0492842 0.0492842
0.0507571 0.0507571 0.0507571
0.0538287 0.0538287 0.0538287
0.0554295 0.0554295 0.0554295
0.0587664 0.0587664 0.0587664
0.0605046 0.0605046 0.0605046
0.0641263 0.0641263 0.0641263
0.0660119 0.0660119 0.0660119
0.0679956 0.0679956 0.0679956
0.0721788 0.0721788 0.0721788
0.0743584 0.0743584 0.0743584
0.0765983 0.0765983 0.0765983
0.0812647 0.0812647 0.0812647
0.0836938 0.0836938 0.0836938
0.0025026 0.0025026 0.0025026
0.0026769 0.0026769 0.0026769
0.0028560 0.0028560 0.0028560
0.0030783 0.0030783 0.0030783
0.0032811 0.0032811 0.0032811
0.0035493 0.0035493 0.0035493
0.0037814 0.0037814 0.0037814
0.0040667 0.0040667 0.0040667
0.0043859 0.0043859 0.0043859
0.0047013 0.0047013 0.0047013
0.0050412 0.0050412 0.0050412
0.0054354 0.0054354 0.0054354
0.0058603 0.0058603 0.0058603
0.0062688 0.0062688 0.0062688
0.0067056 0.0067056 0.0067056
0.0071923 0.0071923 0.0071923
0.0077439 0.0077439 0.0077439
0.0083374 0.0083374 0.0083374
0.0088410 0.0088410 0.0088410
0.0093836 0.0093836 0.0093836
0.0101587 0.0101587 0.0101587
0.0108263 0.0108263 0.0108263
0.0115614 0.0115614 0.0115614
0.0123458 0.0123458 0.0123458
0.0128976 0.0128976 0.0128976
0.0138377 0.0138377 0.0138377
0.0148542 0.0148542 0.0148542
0.0155724 0.0155724 0.0155724
0.0167204 0.0167204 0.0167204
0.0175661 0.0175661 0.0175661
0.0189141 0.0189141 0.0189141
0.0198685 0.0198685 0.0198685
0.0208702 0.0208702 0.0208702
0.0219511 0.0219511 0.0219511
0.0231180 0.0231180 0.0231180
0.0243455 0.0243455 0.0243455
0.0256365 0.0256365 0.0256365
0.0269940 0.0269940 0.0269940
0.0284477 0.0284477 0.0284477
0.0300329 0.0300329 0.0300329
0.0317036 0.0317036 0.0317036
0.0334640 0.0334640 0.0334640
0.0353186 0.0353186 0.0353186
0.0372867 0.0372867 0.0372867
0.0383473 0.0383473 0.0383473
0.0405561 0.0405561 0.0405561
0.0428865 0.0428865 0.0428865
0.0440991 0.0440991 0.0440991
0.0466232 0.0466232 0.0466232
0.0479361 0.0479361 0.0479361
0.0507571 0.0507571 0.0507571
0.0522716 0.0522716 0.0522716
0.0554295 0.0554295 0.0554295
0.0570750 0.0570750 0.0570750
0.0605046 0.0605046 0.0605046
0.0622909 0.0622909 0.0622909
0.0660119 0.0660119 0.0660119
0.0679956 0.0679956 0.0679956
0.0700584 0.0700584 0.0700584
0.0743584 0.0743584 0.0743584
0.0765983 0.0765983 0.0765983
0.0788999 0.0788999 0.0788999
0.0812647 0.0812647 0.0812647
0.0861887 0.0861887 0.0861887
0.0026251 0.0026251 0.0026251
0.0027950 0.0027950 0.0027950
0.0030024 0.0030024 0.0030024
0.0032206 0.0032206 0.0032206
0.0034386 0.0034386 0.0034386
0.0037024 0.0037024 0.0037024
0.0040164 0.0040164 0.0040164
0.0042741 0.0042741 0.0042741
0.0046365 0.0046365 0.0046365
0.0049697 0.0049697 0.0049697
0.0053542 0.0053542 0.0053542
0.0056865 0.0056865 0.0056865
0.0061641 0.0061641 0.0061641
0.0065936 0.0065936 0.0065936
0.0070606 0.0070606 0.0070606
0.0076022 0.0076022 0.0076022
0.0081849 0.0081849 0.0081849
0.0086672 0.0086672 0.0086672
0.0091992 0.0091992 0.0091992
0.0099592 0.0099592 0.0099592
0.0105917 0.0105917 0.0105917
0.0113110 0.0113110 0.0113110
0.0120786 0.0120786 0.0120786
0.0128976 0.0128976 0.0128976
0.0135144 0.0135144 0.0135144
0.0145075 0.0145075 0.0145075
0.0155724 0.0155724 0.0155724
0.0163247 0.0163247 0.0163247
0.0175661 0.0175661 0.0175661
0.0184538 0.0184538 0.0184538
