Plugins/FilmEmulator/Content/LUTs/FE_Kodak_5248_64.cube
TITLE "FE_Kodak_5248_33"
LUT_3D_SIZE 4
0.0007104 0.0015219 0.0003690
0.3029287 0.0041698 0.0077377
0.6415511 0.0123222 0.0291482
0.7954625 0.0236918 0.0558875
0.0024776 0.3291278 0.0051968
0.2433005 0.3242612 0.0139493
0.5906770 0.3223845 0.0280161
0.7641758 0.3211836 0.0482365
0.0094922 0.6201110 0.0203971
0.2266844 0.6097609 0.0315295
0.5675257 0.6080195 0.0479590
0.7465765 0.6139167 0.0658983
0.0209551 0.7685032 0.0422494
0.2148188 0.7611890 0.0516322
0.5589136 0.7599353 0.0704535
0.7401701 0.7592158 0.0880691
0.0138478 0.0072085 0.3517703
0.3656719 0.0168327 0.3779827
0.6684008 0.0284864 0.4172289
0.8059720 0.0446117 0.4503147
0.0106051 0.3559367 0.3600144
0.3194285 0.3613478 0.3828752
0.6276921 0.3602445 0.4122318
0.7799198 0.3595466 0.4432462
0.0205382 0.6291866 0.3555296
0.2930853 0.6266162 0.3790241
0.6074821 0.6254045 0.4161853
0.7708914 0.6246554 0.4472203
0.0349994 0.7707735 0.3568339
0.2791622 0.7692040 0.3814384
0.5998546 0.7682922 0.4106211
0.7584954 0.7677438 0.4416057
0.0537255 0.0222588 0.6740942
0.4390629 0.0344297 0.6863886
0.6975942 0.0523600 0.7008269
0.8179335 0.0745731 0.7159480
0.0401289 0.3968456 0.6782196
0.3865539 0.3945682 0.6887702
0.6636472 0.4024805 0.7089123
0.8019527 0.4018405 0.7225505
0.0398547 0.6413867 0.6814213
0.3666042 0.6392182 0.6920362
0.6456394 0.6382702 0.7048149
0.7882730 0.6447732 0.7182782
0.0586247 0.7741615 0.6753082
0.3508768 0.7727695 0.6941524
0.6386356 0.7720268 0.7068240
0.7831277 0.7764334 0.7202235
0.1135940 0.0432352 0.8206952
0.4979628 0.0615365 0.8297646
0.7207215 0.0839424 0.8345696
0.8356907 0.1056423 0.8448172
0.0902606 0.4342794 0.8272111
0.4589379 0.4324279 0.8351077
0.6995642 0.4315839 0.8390381
0.8175898 0.4310203 0.8435593
0.0812235 0.6609579 0.8292877
0.4387068 0.6592546 0.8320937
0.6824976 0.6584303 0.8409613
0.8108792 0.6578804 0.8454056
0.0847334 0.7828318 0.8253698
0.4223345 0.7815738 0.8334103
0.6683676 0.7809777 0.8373668
0.8005843 0.7805302 0.8466355
