Plugins/FilmEmulator/Content/LUTs/FE_Kodak_5222_64.cube
TITLE "FE_Kodak_5222_33"
LUT_3D_SIZE 4
0.0033839 0.0033839 0.0033839
0.0305315 0.0305315 0.0305315
0.0716199 0.0716199 0.0716199
0.1175904 0.1175904 0.1175904
0.0716199 0.0716199 0.0716199
0.1175904 0.1175904 0.1175904
0.1625395 0.1625395 0.1625395
0.2117217 0.2117217 0.2117217
0.1625395 0.1625395 0.1625395
0.2117217 0.2117217 0.2117217
0.2558310 0.2558310 0.2558310
0.2948676 0.2948676 0.2948676
0.2558310 0.2558310 0.2558310
0.2948676 0.2948676 0.2948676
0.3312819 0.3312819 0.3312819
0.3690788 0.3690788 0.3690788
0.1766676 0.1766676 0.1766676
0.2243863 0.2243863 0.2243863
0.2652871 0.2652871 0.2652871
0.3050338 0.3050338 0.3050338
0.2652871 0.2652871 0.2652871
0.3050338 0.3050338 0.3050338
0.3420945 0.3420945 0.3420945
0.3745819 0.3745819 0.3745819
0.3420945 0.3420945 0.3420945
0.3745819 0.3745819 0.3745819
0.4080006 0.4080006 0.4080006
0.4360014 0.4360014 0.4360014
0.4080006 0.4080006 0.4080006
0.4360014 0.4360014 0.4360014
0.4642681 0.4642681 0.4642681
0.4867288 0.4867288 0.4867288
0.3527775 0.3527775 0.3527775
0.3856845 0.3856845 0.3856845
0.4135591 0.4135591 0.4135591
0.4416570 0.4416570 0.4416570
0.4135591 0.4135591 0.4135591
0.4416570 0.4416570 0.4416570
0.4698733 0.4698733 0.4698733
0.4923561 0.4923561 0.4923561
0.4698733 0.4698733 0.4698733
0.4923561 0.4923561 0.4923561
0.5148698 0.5148698 0.5148698
0.5362281 0.5362281 0.5362281
0.5148698 0.5148698 0.5148698
0.5362281 0.5362281 0.5362281
0.5521642 0.5521642 0.5521642
0.5679941 0.5679941 0.5679941
0.4754861 0.4754861 0.4754861
0.4979853 0.4979853 0.4979853
0.5202175 0.5202175 0.5202175
0.5415500 0.5415500 0.5415500
0.5202175 0.5202175 0.5202175
0.5415500 0.5415500 0.5415500
0.5574542 0.5574542 0.5574542
0.5731412 0.5731412 0.5731412
0.5574542 0.5574542 0.5574542
0.5731412 0.5731412 0.5731412
0.5883345 0.5883345 0.5883345
0.6033614 0.6033614 0.6033614
0.5883345 0.5883345 0.5883345
0.6033614 0.6033614 0.6033614
0.6181957 0.6181957 0.6181957
0.6281175 0.6281175 0.6281175
