Plugins/FilmEmulator/Content/LUTs/FE_Kodak_Vision_500T_5279_64.cube
# FilmEmulator LUT (resampled to 64)
LUT_3D_SIZE 8
0.002136 0.000000 0.000000
0.084930 0.016811 0.010546
0.174700 0.032100 0.022561
0.283814 0.043213 0.038945
0.413278 0.052943 0.055515
0.559562 0.063359 0.074986
0.711757 0.084024 0.093044
0.839020 0.103699 0.117096
0.005537 0.077414 0.013956
0.071675 0.086416 0.023936
0.184077 0.099227 0.042677
0.301468 0.111849 0.055347
0.435674 0.126433 0.067239
0.585197 0.143759 0.087165
0.741396 0.173043 0.110923
0.870004 0.206491 0.135786
0.001194 0.155504 0.029759
0.035322 0.163447 0.036095
0.168947 0.179095 0.046738
0.307157 0.197187 0.062746
0.460876 0.216534 0.088710
0.614962 0.245205 0.108471
0.773756 0.282964 0.131278
0.898167 0.325509 0.163574
0.002106 0.256745 0.058005
0.015818 0.264228 0.064737
0.117432 0.282754 0.071534
0.303966 0.306957 0.081982
0.474452 0.338518 0.102617
0.639446 0.374571 0.126068
0.807349 0.417700 0.162218
0.926666 0.460772 0.200488
0.002738 0.378457 0.084386
0.015894 0.383999 0.085093
0.059996 0.402519 0.097661
0.289890 0.433364 0.113795
0.480066 0.467729 0.129814
0.665982 0.508650 0.162429
0.823329 0.555065 0.198334
0.939767 0.595071 0.248321
0.003806 0.509630 0.124037
0.017602 0.516290 0.125726
0.037423 0.526682 0.129251
0.240389 0.570526 0.154871
0.488432 0.604658 0.181418
0.678632 0.640667 0.207421
0.835457 0.676838 0.250892
0.944684 0.713933 0.282889
0.006317 0.642905 0.186153
0.020764 0.648771 0.189346
0.041813 0.660558 0.197076
0.160520 0.698247 0.219755
0.497931 0.732981 0.238112
0.689925 0.758175 0.267640
0.836931 0.782889 0.292092
0.949101 0.805878 0.331325
0.011108 0.761719 0.257233
0.025853 0.767687 0.260585
0.048048 0.777082 0.268158
0.201577 0.806645 0.308528
0.514134 0.836147 0.338954
0.703975 0.852242 0.339817
0.842664 0.870069 0.352474
0.948578 0.885498 0.378693
0.004251 0.003435 0.051313
0.075609 0.017494 0.093357
0.186793 0.031748 0.089398
0.290666 0.045606 0.105116
0.422448 0.057255 0.125367
0.566331 0.068070 0.147348
0.723025 0.090171 0.172657
0.849993 0.114646 0.198259
0.001486 0.081845 0.096044
0.067571 0.089783 0.112038
0.192313 0.101308 0.107551
0.306757 0.114279 0.123987
0.442253 0.131769 0.143745
0.592220 0.152328 0.165258
0.754647 0.182553 0.194932
0.883511 0.221946 0.224449
0.001618 0.163420 0.102357
0.030835 0.172433 0.105999
0.175830 0.186348 0.121800
0.319218 0.202738 0.147320
0.466174 0.224893 0.170118
0.620217 0.252628 0.187414
0.786162 0.294177 0.219749
0.911518 0.340683 0.260223
0.002495 0.265183 0.123883
0.015724 0.271237 0.130042
0.106338 0.292733 0.148267
0.308686 0.320761 0.169031
0.483564 0.352921 0.192264
0.658845 0.386289 0.226445
0.818938 0.424449 0.264589
0.931755 0.466448 0.302681
0.002887 0.386547 0.157599
0.015986 0.390448 0.162371
0.046556 0.407880 0.180407
0.290526 0.446095 0.208134
0.489278 0.481395 0.229148
0.672457 0.520948 0.263160
0.830234 0.563894 0.306786
0.943199 0.600683 0.349169
0.003875 0.517051 0.192728
0.017500 0.522355 0.197189
0.034390 0.530646 0.205533
0.239146 0.577935 0.248069
0.493919 0.615258 0.281440
0.676718 0.647113 0.307395
0.835480 0.683676 0.352067
0.943604 0.719496 0.387819
0.006228 0.650283 0.247601
0.020739 0.656986 0.252706
0.039435 0.665466 0.257045
0.125703 0.696079 0.290130
0.495659 0.739977 0.340327
0.685939 0.764030 0.369225
0.833668 0.786505 0.391145
0.947676 0.810258 0.431304
0.011256 0.769762 0.316446
0.026071 0.776067 0.322461
0.045639 0.784734 0.332306
0.149313 0.805777 0.369891
0.489535 0.837503 0.412903
0.702631 0.857024 0.419769
0.841537 0.872941 0.437670
0.947828 0.888833 0.470363
0.004478 0.015307 0.124543
0.045323 0.027349 0.172779
0.168834 0.035769 0.199463
0.310216 0.044374 0.181813
0.443730 0.060834 0.205323
0.584931 0.070480 0.228338
0.738933 0.099120 0.257764
0.863490 0.124402 0.287127
0.000934 0.084298 0.176892
0.033713 0.092830 0.212529
0.180333 0.100522 0.207214
0.322799 0.117610 0.203239
0.458790 0.138131 0.224583
0.608979 0.159501 0.251420
0.765957 0.194044 0.283619
0.891767 0.235564 0.322630
0.001511 0.170612 0.189119
0.022360 0.181039 0.211395
0.175469 0.191345 0.226225
0.333593 0.208657 0.225743
0.476545 0.229978 0.251741
0.632226 0.263535 0.281780
0.795438 0.309400 0.319465
0.918850 0.355421 0.358516
0.002711 0.277080 0.207519
0.016368 0.286495 0.212250
0.056667 0.306999 0.229872
0.327146 0.336781 0.262066
0.499471 0.364587 0.293741
0.667513 0.398490 0.330787
0.825446 0.436999 0.359727
0.936474 0.476415 0.394423
0.003453 0.400182 0.241787
0.016569 0.406535 0.247476
0.038915 0.419800 0.261105
0.300662 0.465839 0.307529
0.502209 0.498573 0.333706
0.677735 0.533934 0.363393
0.840816 0.569904 0.407809
0.947361 0.603536 0.444289
0.004272 0.534443 0.286360
0.017693 0.537765 0.290067
0.032985 0.545903 0.298578
0.217822 0.588474 0.348155
0.501525 0.629500 0.382858
0.681326 0.656433 0.405490
0.836279 0.692637 0.446688
0.944625 0.724850 0.484807
0.007004 0.666661 0.333429
0.021348 0.670284 0.335725
0.038413 0.677911 0.343260
0.107789 0.701297 0.377339
0.490239 0.745979 0.432926
0.684062 0.770933 0.461383
0.834567 0.792250 0.481930
0.947855 0.815852 0.518583
0.012817 0.782675 0.387778
0.026945 0.787184 0.394449
0.044465 0.795487 0.406688
0.101336 0.808451 0.429205
0.466158 0.838381 0.481384
0.700614 0.861608 0.500885
0.840908 0.877487 0.519947
0.947279 0.892552 0.552979
0.002345 0.024863 0.211718
0.038174 0.033222 0.257936
0.081732 0.040452 0.327715
0.305170 0.048660 0.313472
0.463631 0.062043 0.304093
0.615777 0.072771 0.328281
0.767154 0.106768 0.361876
0.883449 0.138777 0.388855
0.001335 0.090306 0.269033
0.028170 0.097985 0.307359
0.085979 0.106716 0.338686
0.314028 0.124583 0.333621
0.487022 0.142059 0.324136
0.642589 0.168777 0.355138
0.791388 0.207322 0.387601
0.906766 0.248497 0.421753
0.001620 0.176964 0.304951
0.021809 0.188365 0.335375
0.072061 0.196129 0.354656
0.330747 0.211238 0.345424
0.503710 0.239729 0.350779
0.657817 0.275198 0.380793
0.813914 0.320605 0.421627
0.925079 0.366041 0.457093
0.003213 0.291874 0.311801
0.017293 0.305418 0.326144
0.045244 0.324253 0.355442
0.332944 0.345170 0.379505
0.519067 0.376525 0.389706
0.680803 0.407933 0.425256
0.833099 0.447288 0.460385
0.939375 0.491707 0.493869
0.003885 0.416900 0.340732
0.017118 0.426341 0.348394
0.037740 0.444373 0.363600
0.277295 0.485210 0.407075
0.521516 0.516445 0.440751
0.696401 0.544516 0.472161
0.845081 0.577952 0.509665
0.944549 0.611008 0.533173
0.004896 0.550724 0.387619
0.019159 0.557599 0.392745
0.034285 0.568194 0.402660
0.212713 0.602604 0.437372
0.507634 0.642509 0.476845
0.691189 0.668971 0.505799
0.838917 0.701116 0.537153
0.945202 0.731513 0.574973
0.008545 0.684040 0.428168
0.023397 0.691716 0.437935
0.038364 0.698356 0.446208
0.104720 0.717986 0.473119
0.476877 0.752640 0.523121
0.686421 0.780254 0.552866
0.838548 0.798512 0.571850
0.947695 0.822571 0.603047
0.014631 0.802555 0.490574
0.028864 0.806715 0.496096
0.044720 0.812272 0.504006
0.084583 0.820704 0.518897
0.457303 0.843018 0.564806
0.696889 0.867786 0.589643
0.841245 0.882606 0.604692
0.947130 0.895778 0.631762
0.000401 0.030491 0.314152
0.025735 0.035004 0.360561
0.074425 0.040584 0.424941
0.278168 0.054874 0.449932
0.481146 0.060814 0.439762
0.637276 0.082034 0.433686
0.790082 0.106118 0.461236
0.904563 0.150251 0.493112
0.001756 0.095575 0.374048
0.027956 0.102954 0.411121
0.072496 0.114335 0.444749
0.292698 0.134350 0.466959
0.503353 0.155203 0.462479
0.666598 0.179952 0.459929
0.819345 0.219170 0.491405
0.923216 0.261074 0.522713
0.003014 0.185619 0.420506
0.021457 0.197737 0.451510
0.053926 0.211320 0.472148
0.298397 0.227518 0.486173
0.517027 0.260444 0.482904
0.692832 0.295110 0.488638
0.837462 0.334555 0.522681
0.934958 0.375441 0.551793
0.004482 0.309505 0.437834
0.018573 0.323951 0.455217
0.063277 0.345738 0.489211
0.285909 0.357119 0.515614
0.527756 0.381135 0.506619
0.703741 0.417968 0.520308
0.848730 0.455496 0.551810
0.945225 0.496698 0.584257
0.004503 0.437853 0.450484
0.018545 0.451862 0.460633
0.040275 0.473180 0.479782
0.244775 0.499395 0.520364
0.531835 0.522385 0.538436
0.709357 0.553606 0.559830
0.851727 0.583801 0.592598
0.947398 0.617387 0.620811
0.005882 0.570140 0.483956
0.020372 0.577778 0.490619
0.036117 0.590819 0.502737
0.127957 0.624837 0.536783
0.500043 0.656404 0.576604
0.702116 0.682788 0.604084
0.848964 0.707650 0.631840
0.945997 0.735542 0.663626
0.009344 0.699788 0.534968
0.024724 0.708809 0.544536
0.040332 0.719996 0.555366
0.085641 0.736743 0.571265
0.478683 0.761632 0.604981
0.691746 0.789553 0.639198
0.845034 0.806710 0.657527
0.949130 0.828381 0.685126
0.015525 0.814710 0.574162
0.030232 0.821365 0.584719
0.045131 0.828617 0.596291
0.070443 0.835658 0.608539
0.439061 0.850708 0.642001
0.686031 0.872045 0.676051
0.844100 0.888462 0.686191
0.947941 0.899008 0.709582
0.000327 0.031473 0.432586
0.020940 0.034897 0.467416
0.066523 0.042447 0.525016
0.285731 0.056341 0.561712
0.478359 0.072161 0.577578
0.669525 0.091946 0.566130
0.809817 0.109719 0.566834
0.915937 0.159895 0.589264
0.002801 0.101169 0.492059
0.026245 0.108944 0.528231
0.062158 0.120503 0.550510
0.314798 0.143624 0.578406
0.511192 0.171078 0.600127
0.692737 0.198874 0.593808
0.837088 0.232427 0.595882
0.932826 0.274296 0.619033
0.004740 0.198312 0.543313
0.023448 0.212712 0.568109
0.061414 0.229972 0.586581
0.319705 0.251309 0.602855
0.518608 0.281315 0.617008
0.710015 0.319249 0.617670
0.854493 0.349925 0.621905
0.942587 0.390453 0.644724
0.005991 0.324600 0.570812
0.020169 0.341337 0.585615
0.061299 0.366202 0.613279
0.312755 0.381277 0.630686
0.521047 0.398398 0.635157
0.716227 0.436087 0.637428
0.863375 0.471457 0.648377
0.951270 0.505796 0.670571
0.005657 0.464791 0.574131
0.021106 0.481919 0.588982
0.047001 0.505417 0.614261
0.294624 0.521180 0.642516
0.509324 0.527097 0.658232
0.711410 0.556465 0.657109
0.864647 0.590266 0.674438
0.953508 0.620004 0.697215
0.006951 0.596139 0.594410
0.022217 0.606723 0.603806
0.039446 0.623512 0.619486
0.159002 0.648448 0.643584
0.502301 0.665554 0.670080
0.710254 0.685983 0.685537
0.855419 0.714209 0.706965
0.949002 0.737459 0.732055
0.010981 0.721323 0.626800
0.026449 0.729207 0.634628
0.041833 0.737841 0.643599
0.082070 0.752163 0.658019
0.457034 0.773670 0.687729
0.690919 0.796115 0.724193
0.849755 0.814635 0.741610
0.952327 0.831618 0.761646
0.016706 0.826883 0.666578
0.031409 0.833020 0.674371
0.045973 0.839479 0.684010
0.069820 0.846749 0.693828
0.453514 0.860427 0.719184
0.696535 0.875990 0.747939
0.845147 0.892820 0.761615
0.949275 0.901432 0.775966
0.001103 0.031982 0.549787
0.020439 0.037707 0.585920
0.049358 0.045977 0.625953
0.304530 0.057773 0.661226
0.496152 0.082085 0.682634
0.671027 0.094913 0.691665
0.830565 0.133136 0.684949
0.927769 0.171670 0.688267
0.004059 0.105766 0.611609
0.025310 0.112747 0.642640
0.077342 0.124773 0.655843
0.334638 0.150693 0.682251
0.524844 0.183267 0.704767
0.703648 0.212933 0.709087
0.854436 0.251558 0.709592
0.939011 0.286881 0.715087
0.006802 0.214115 0.663019
0.025983 0.232614 0.682548
0.084857 0.250649 0.699952
0.345276 0.267125 0.705131
0.541618 0.296367 0.717696
0.714629 0.332809 0.727504
0.864636 0.369161 0.731026
0.946894 0.402620 0.734364
0.007660 0.348232 0.687369
0.022851 0.364941 0.700757
0.087635 0.391200 0.723973
0.347743 0.405371 0.736791
0.543584 0.420565 0.737890
0.716154 0.447655 0.743396
0.867513 0.486900 0.749129
0.954059 0.516922 0.756989
0.008165 0.484621 0.693099
0.023722 0.503040 0.708321
0.075871 0.528834 0.733705
0.310201 0.541701 0.752126
0.534764 0.549927 0.759877
0.714146 0.565061 0.758500
0.868000 0.600134 0.763642
0.954496 0.628784 0.774501
0.009733 0.624151 0.709984
0.025994 0.639188 0.721869
0.043798 0.653457 0.734086
0.233799 0.674400 0.755227
0.530720 0.683122 0.767132
0.700749 0.687706 0.774814
0.856655 0.714006 0.780252
0.953249 0.738284 0.792748
0.012995 0.745975 0.731180
0.028763 0.754527 0.738253
0.045795 0.763189 0.744635
0.132337 0.777615 0.754792
0.496453 0.789980 0.773296
0.705923 0.798771 0.788130
0.853644 0.816107 0.800004
0.952870 0.834285 0.815539
0.018245 0.845376 0.753152
0.032754 0.850668 0.758519
0.048676 0.855083 0.763798
0.080364 0.859934 0.768996
0.470157 0.867759 0.781196
0.702192 0.879173 0.804816
0.843455 0.894349 0.823782
0.947845 0.903578 0.834503
0.002045 0.036713 0.684265
0.020996 0.038649 0.710545
0.063089 0.043784 0.727156
0.329912 0.066197 0.751648
0.521153 0.078870 0.771131
0.682839 0.101593 0.779680
0.834573 0.150142 0.784223
0.931824 0.193451 0.787170
0.005524 0.105674 0.733329
0.027188 0.118149 0.746636
0.103076 0.133189 0.756704
0.353844 0.158253 0.771293
0.543478 0.189019 0.787225
0.709714 0.224071 0.796112
0.852335 0.265800 0.801497
0.941188 0.308319 0.802137
0.009334 0.237410 0.770382
0.029210 0.257330 0.784875
0.151041 0.275155 0.795981
0.389347 0.283066 0.793495
0.561806 0.308192 0.799472
0.723610 0.347393 0.808975
0.869487 0.385558 0.814400
0.949934 0.422555 0.820348
0.009831 0.373940 0.788605
0.026599 0.390919 0.798635
0.135246 0.416402 0.815911
0.386701 0.425168 0.818561
0.568068 0.434593 0.816460
0.732032 0.459761 0.819748
0.869143 0.496406 0.823877
0.953513 0.528277 0.832725
0.010040 0.504813 0.795828
0.030242 0.525438 0.808306
0.089940 0.548124 0.822070
0.355743 0.563083 0.836750
0.563909 0.569521 0.838387
0.729676 0.583552 0.834602
0.868396 0.607714 0.836754
0.954219 0.638288 0.844539
0.012019 0.644688 0.801322
0.029518 0.657619 0.808762
0.068786 0.673043 0.820212
0.302695 0.692204 0.838902
0.547082 0.696762 0.847593
0.721819 0.702953 0.851613
0.863183 0.717054 0.847970
0.952380 0.740766 0.854039
0.015839 0.768707 0.817575
0.031405 0.777623 0.824742
0.053879 0.785854 0.830769
0.154541 0.797284 0.840442
0.535318 0.806780 0.851583
0.726840 0.809937 0.855924
0.850115 0.813987 0.860358
0.950488 0.830562 0.868457
0.019379 0.861725 0.832886
0.034498 0.866651 0.837546
0.059810 0.871901 0.842852
0.145386 0.876077 0.844029
0.539381 0.882329 0.850935
0.723912 0.886474 0.862806
0.852430 0.890459 0.870971
0.950195 0.902008 0.879242
