Plugins/FilmEmulator/Content/LUTs/FE_Kodak_8mm_64.cube
# FilmEmulator LUT (resampled to 64)
LUT_3D_SIZE 4
0.000610 0.000610 0.000000
0.223328 0.021098 0.026510
0.487935 0.042053 0.053101
0.740021 0.075684 0.093628
0.047567 0.132558 0.043762
0.299971 0.260355 0.036753
0.629656 0.294966 0.096843
0.886902 0.317790 0.143748
0.090871 0.274912 0.055969
0.383582 0.483849 0.102614
0.723792 0.597985 0.128964
0.987529 0.626393 0.167735
0.155670 0.408203 0.090454
0.496317 0.653178 0.171682
0.822022 0.818248 0.184286
1.000000 0.879700 0.170959
0.049662 0.059651 0.179240
0.218994 0.044909 0.261458
0.516134 0.062944 0.292097
0.758301 0.092540 0.319509
0.086860 0.206773 0.278761
0.323718 0.315898 0.330043
0.651650 0.364046 0.383322
0.907891 0.392629 0.411177
0.159678 0.386587 0.320316
0.409249 0.583652 0.392490
0.743162 0.666756 0.392616
1.000000 0.699605 0.415293
0.239115 0.537425 0.420502
0.493808 0.794234 0.493225
0.840701 0.926202 0.470530
1.000000 0.968160 0.450582
0.071055 0.088135 0.351919
0.188467 0.115014 0.443339
0.482029 0.098569 0.530436
0.760315 0.109049 0.576711
0.153497 0.281443 0.518273
0.323285 0.399120 0.626058
0.636839 0.415792 0.667617
0.897983 0.426405 0.696116
0.212664 0.460232 0.584313
0.366509 0.649114 0.691766
0.732140 0.717333 0.728874
0.995009 0.742906 0.735104
0.274658 0.596374 0.672404
0.429762 0.850098 0.765225
0.815888 0.962894 0.776622
1.000000 0.994049 0.755707
0.109344 0.135986 0.497437
0.201966 0.174377 0.610545
0.449768 0.180572 0.700602
0.707397 0.160736 0.779419
0.203939 0.359181 0.705790
0.309018 0.481272 0.848463
0.657447 0.527707 0.923472
0.876394 0.502940 0.954803
0.263265 0.524282 0.786438
0.357249 0.704325 0.922187
0.740282 0.795814 0.991082
0.962321 0.783722 0.993001
0.300629 0.632019 0.827454
0.376608 0.865987 0.936483
0.782623 0.986877 1.000000
1.000000 1.000000 1.000000
