Plugins/FilmEmulator/Content/LUTs/FE_Kodak_Polymax_Grade_2_64.cube
TITLE "FE_Kodak_Polymax_Grade_2_33"
LUT_3D_SIZE 64
0.0021400 0.0021400 0.0021400
0.0021400 0.0021400 0.0021400
0.0021400 0.0021400 0.0021400
0.0021400 0.0021400 0.0021400
0.0021400 0.0021400 0.0021400
0.0021400 0.0021400 0.0021400
0.0021400 0.0021400 0.0021400
0.0021400 0.0021400 0.0021400
0.0021400 0.0021400 0.0021400
0.0021400 0.0021400 0.0021400
0.0021400 0.0021400 0.0021400
0.0021400 0.0021400 0.0021400
0.0021400 0.0021400 0.0021400
0.0021400 0.0021400 0.0021400
0.0021400 0.0021400 0.0021400
0.0021400 0.0021400 0.0021400
0.0021400 0.0021400 0.0021400
0.0021400 0.0021400 0.0021400
0.0021400 0.0021400 0.0021400
0.0021400 0.0021400 0.0021400
0.0021400 0.0021400 0.0021400
0.0021400 0.0021400 0.0021400
0.0021400 0.0021400 0.0021400
0.0021400 0.0021400 0.0021400
0.0021400 0.0021400 0.0021400
0.0021400 0.0021400 0.0021400
0.0021401 0.0021401 0.0021401
0.0021406 0.0021406 0.0021406
0.0021415 0.0021415 0.0021415
0.0021425 0.0021425 0.0021425
0.0021439 0.0021439 0.0021439
0.0021454 0.0021454 0.0021454
0.0021472 0.0021472 0.0021472
0.0021487 0.0021487 0.0021487
0.0021505 0.0021505 0.0021505
0.0021524 0.0021524 0.0021524
0.0021543 0.0021543 0.0021543
0.0021566 0.0021566 0.0021566
0.0021592 0.0021592 0.0021592
0.0021614 0.0021614 0.0021614
0.0021645 0.0021645 0.0021645
0.0021670 0.0021670 0.0021670
0.0021700 0.0021700 0.0021700
0.0021736 0.0021736 0.0021736
0.0021768 0.0021768 0.0021768
0.0021801 0.0021801 0.0021801
0.0021835 0.0021835 0.0021835
0.0021862 0.0021862 0.0021862
0.0021899 0.0021899 0.0021899
0.0021938 0.0021938 0.0021938
0.0021980 0.0021980 0.0021980
0.0022012 0.0022012 0.0022012
0.0022059 0.0022059 0.0022059
0.0022098 0.0022098 0.0022098
0.0022138 0.0022138 0.0022138
0.0022195 0.0022195 0.0022195
0.0022244 0.0022244 0.0022244
0.0022293 0.0022293 0.0022293
0.0022343 0.0022343 0.0022343
0.0022403 0.0022403 0.0022403
0.0022463 0.0022463 0.0022463
0.0022524 0.0022524 0.0022524
0.0022594 0.0022594 0.0022594
0.0022670 0.0022670 0.0022670
0.0021400 0.0021400 0.0021400
0.0021400 0.0021400 0.0021400
0.0021400 0.0021400 0.0021400
0.0021400 0.0021400 0.0021400
0.0021400 0.0021400 0.0021400
0.0021400 0.0021400 0.0021400
0.0021400 0.0021400 0.0021400
0.0021400 0.0021400 0.0021400
0.0021400 0.0021400 0.0021400
0.0021400 0.0021400 0.0021400
0.0021400 0.0021400 0.0021400
0.0021400 0.0021400 0.0021400
0.0021400 0.0021400 0.0021400
0.0021400 0.0021400 0.0021400
0.0021400 0.0021400 0.0021400
0.0021400 0.0021400 0.0021400
0.0021400 0.0021400 0.0021400
0.0021400 0.0021400 0.0021400
0.0021400 0.0021400 0.0021400
0.0021402 0.0021402 0.0021402
0.0021407 0.0021407 0.0021407
0.0021416 0.0021416 0.0021416
0.0021430 0.0021430 0.0021430
0.0021444 0.0021444 0.0021444
0.0021457 0.0021457 0.0021457
0.0021475 0.0021475 0.0021475
0.0021493 0.0021493 0.0021493
0.0021509 0.0021509 0.0021509
0.0021527 0.0021527 0.0021527
0.0021547 0.0021547 0.0021547
0.0021571 0.0021571 0.0021571
0.0021597 0.0021597 0.0021597
0.0021620 0.0021620 0.0021620
0.0021651 0.0021651 0.0021651
0.0021678 0.0021678 0.0021678
0.0021707 0.0021707 0.0021707
0.0021743 0.0021743 0.0021743
0.0021776 0.0021776 0.0021776
0.0021809 0.0021809 0.0021809
0.0021844 0.0021844 0.0021844
0.0021871 0.0021871 0.0021871
0.0021908 0.0021908 0.0021908
0.0021948 0.0021948 0.0021948
0.0021980 0.0021980 0.0021980
0.0022022 0.0022022 0.0022022
0.0022059 0.0022059 0.0022059
0.0022111 0.0022111 0.0022111
0.0022151 0.0022151 0.0022151
0.0022195 0.0022195 0.0022195
0.0022244 0.0022244 0.0022244
0.0022309 0.0022309 0.0022309
0.0022363 0.0022363 0.0022363
0.0022423 0.0022423 0.0022423
0.0022483 0.0022483 0.0022483
0.0022544 0.0022544 0.0022544
0.0022619 0.0022619 0.0022619
0.0022670 0.0022670 0.0022670
0.0022746 0.0022746 0.0022746
0.0022830 0.0022830 0.0022830
0.0022943 0.0022943 0.0022943
0.0023018 0.0023018 0.0023018
0.0023132 0.0023132 0.0023132
0.0023264 0.0023264 0.0023264
0.0023369 0.0023369 0.0023369
0.0021400 0.0021400 0.0021400
0.0021400 0.0021400 0.0021400
0.0021400 0.0021400 0.0021400
0.0021400 0.0021400 0.0021400
0.0021400 0.0021400 0.0021400
0.0021400 0.0021400 0.0021400
0.0021400 0.0021400 0.0021400
0.0021400 0.0021400 0.0021400
0.0021400 0.0021400 0.0021400
0.0021400 0.0021400 0.0021400
0.0021400 0.0021400 0.0021400
0.0021400 0.0021400 0.0021400
0.0021403 0.0021403 0.0021403
0.0021410 0.0021410 0.0021410
0.0021420 0.0021420 0.0021420
0.0021432 0.0021432 0.0021432
0.0021446 0.0021446 0.0021446
0.0021463 0.0021463 0.0021463
0.0021477 0.0021477 0.0021477
0.0021496 0.0021496 0.0021496
0.0021512 0.0021512 0.0021512
0.0021531 0.0021531 0.0021531
0.0021551 0.0021551 0.0021551
0.0021576 0.0021576 0.0021576
0.0021602 0.0021602 0.0021602
0.0021626 0.0021626 0.0021626
0.0021658 0.0021658 0.0021658
0.0021685 0.0021685 0.0021685
0.0021714 0.0021714 0.0021714
0.0021743 0.0021743 0.0021743
0.0021785 0.0021785 0.0021785
0.0021818 0.0021818 0.0021818
0.0021844 0.0021844 0.0021844
0.0021881 0.0021881 0.0021881
0.0021917 0.0021917 0.0021917
0.0021959 0.0021959 0.0021959
0.0021990 0.0021990 0.0021990
0.0022033 0.0022033 0.0022033
0.0022072 0.0022072 0.0022072
0.0022111 0.0022111 0.0022111
0.0022164 0.0022164 0.0022164
0.0022211 0.0022211 0.0022211
0.0022260 0.0022260 0.0022260
0.0022309 0.0022309 0.0022309
0.0022363 0.0022363 0.0022363
0.0022423 0.0022423 0.0022423
0.0022483 0.0022483 0.0022483
0.0022544 0.0022544 0.0022544
0.0022619 0.0022619 0.0022619
0.0022695 0.0022695 0.0022695
0.0022771 0.0022771 0.0022771
0.0022868 0.0022868 0.0022868
0.0022943 0.0022943 0.0022943
0.0023056 0.0023056 0.0023056
0.0023170 0.0023170 0.0023170
0.0023264 0.0023264 0.0023264
0.0023421 0.0023421 0.0023421
0.0023527 0.0023527 0.0023527
0.0023686 0.0023686 0.0023686
0.0023806 0.0023806 0.0023806
0.0024011 0.0024011 0.0024011
0.0024148 0.0024148 0.0024148
0.0024286 0.0024286 0.0024286
0.0024521 0.0024521 0.0024521
0.0021400 0.0021400 0.0021400
0.0021400 0.0021400 0.0021400
0.0021400 0.0021400 0.0021400
0.0021400 0.0021400 0.0021400
0.0021400 0.0021400 0.0021400
0.0021404 0.0021404 0.0021404
0.0021411 0.0021411 0.0021411
0.0021421 0.0021421 0.0021421
0.0021434 0.0021434 0.0021434
0.0021449 0.0021449 0.0021449
0.0021466 0.0021466 0.0021466
0.0021484 0.0021484 0.0021484
0.0021499 0.0021499 0.0021499
0.0021516 0.0021516 0.0021516
0.0021535 0.0021535 0.0021535
0.0021556 0.0021556 0.0021556
0.0021581 0.0021581 0.0021581
0.0021608 0.0021608 0.0021608
0.0021633 0.0021633 0.0021633
0.0021664 0.0021664 0.0021664
0.0021692 0.0021692 0.0021692
0.0021721 0.0021721 0.0021721
0.0021752 0.0021752 0.0021752
0.0021785 0.0021785 0.0021785
0.0021818 0.0021818 0.0021818
0.0021853 0.0021853 0.0021853
0.0021890 0.0021890 0.0021890
0.0021927 0.0021927 0.0021927
0.0021959 0.0021959 0.0021959
0.0022001 0.0022001 0.0022001
0.0022033 0.0022033 0.0022033
0.0022085 0.0022085 0.0022085
0.0022124 0.0022124 0.0022124
0.0022179 0.0022179 0.0022179
0.0022228 0.0022228 0.0022228
0.0022276 0.0022276 0.0022276
0.0022325 0.0022325 0.0022325
0.0022383 0.0022383 0.0022383
0.0022443 0.0022443 0.0022443
0.0022504 0.0022504 0.0022504
0.0022569 0.0022569 0.0022569
0.0022645 0.0022645 0.0022645
0.0022721 0.0022721 0.0022721
0.0022771 0.0022771 0.0022771
0.0022868 0.0022868 0.0022868
0.0022980 0.0022980 0.0022980
0.0023094 0.0023094 0.0023094
0.0023170 0.0023170 0.0023170
0.0023317 0.0023317 0.0023317
0.0023421 0.0023421 0.0023421
0.0023580 0.0023580 0.0023580
0.0023686 0.0023686 0.0023686
0.0023874 0.0023874 0.0023874
0.0024011 0.0024011 0.0024011
0.0024217 0.0024217 0.0024217
0.0024355 0.0024355 0.0024355
0.0024521 0.0024521 0.0024521
0.0024741 0.0024741 0.0024741
0.0025074 0.0025074 0.0025074
0.0025299 0.0025299 0.0025299
0.0025526 0.0025526 0.0025526
0.0025812 0.0025812 0.0025812
0.0026130 0.0026130 0.0026130
0.0026615 0.0026615 0.0026615
0.0021425 0.0021425 0.0021425
0.0021439 0.0021439 0.0021439
0.0021454 0.0021454 0.0021454
0.0021469 0.0021469 0.0021469
0.0021487 0.0021487 0.0021487
0.0021502 0.0021502 0.0021502
0.0021520 0.0021520 0.0021520
0.0021539 0.0021539 0.0021539
0.0021561 0.0021561 0.0021561
0.0021587 0.0021587 0.0021587
0.0021614 0.0021614 0.0021614
0.0021639 0.0021639 0.0021639
0.0021670 0.0021670 0.0021670
0.0021700 0.0021700 0.0021700
0.0021729 0.0021729 0.0021729
0.0021760 0.0021760 0.0021760
0.0021793 0.0021793 0.0021793
0.0021826 0.0021826 0.0021826
0.0021862 0.0021862 0.0021862
0.0021899 0.0021899 0.0021899
0.0021938 0.0021938 0.0021938
0.0021969 0.0021969 0.0021969
0.0022012 0.0022012 0.0022012
0.0022046 0.0022046 0.0022046
0.0022098 0.0022098 0.0022098
0.0022138 0.0022138 0.0022138
0.0022179 0.0022179 0.0022179
0.0022228 0.0022228 0.0022228
0.0022293 0.0022293 0.0022293
0.0022343 0.0022343 0.0022343
0.0022403 0.0022403 0.0022403
0.0022463 0.0022463 0.0022463
0.0022524 0.0022524 0.0022524
0.0022594 0.0022594 0.0022594
0.0022670 0.0022670 0.0022670
0.0022721 0.0022721 0.0022721
0.0022797 0.0022797 0.0022797
0.0022905 0.0022905 0.0022905
0.0023018 0.0023018 0.0023018
0.0023094 0.0023094 0.0023094
0.0023212 0.0023212 0.0023212
0.0023317 0.0023317 0.0023317
0.0023474 0.0023474 0.0023474
0.0023580 0.0023580 0.0023580
0.0023739 0.0023739 0.0023739
0.0023874 0.0023874 0.0023874
0.0024079 0.0024079 0.0024079
0.0024217 0.0024217 0.0024217
0.0024355 0.0024355 0.0024355
0.0024630 0.0024630 0.0024630
0.0024851 0.0024851 0.0024851
0.0025074 0.0025074 0.0025074
0.0025299 0.0025299 0.0025299
0.0025654 0.0025654 0.0025654
0.0025971 0.0025971 0.0025971
0.0026291 0.0026291 0.0026291
0.0026615 0.0026615 0.0026615
0.0026943 0.0026943 0.0026943
0.0027275 0.0027275 0.0027275
0.0027671 0.0027671 0.0027671
0.0028072 0.0028072 0.0028072
0.0028480 0.0028480 0.0028480
0.0028893 0.0028893 0.0028893
0.0029312 0.0029312 0.0029312
0.0021547 0.0021547 0.0021547
0.0021566 0.0021566 0.0021566
0.0021592 0.0021592 0.0021592
0.0021620 0.0021620 0.0021620
0.0021645 0.0021645 0.0021645
0.0021678 0.0021678 0.0021678
0.0021707 0.0021707 0.0021707
0.0021736 0.0021736 0.0021736
0.0021768 0.0021768 0.0021768
0.0021801 0.0021801 0.0021801
0.0021835 0.0021835 0.0021835
0.0021871 0.0021871 0.0021871
0.0021908 0.0021908 0.0021908
0.0021938 0.0021938 0.0021938
0.0021980 0.0021980 0.0021980
0.0022022 0.0022022 0.0022022
0.0022059 0.0022059 0.0022059
0.0022098 0.0022098 0.0022098
0.0022151 0.0022151 0.0022151
0.0022195 0.0022195 0.0022195
0.0022244 0.0022244 0.0022244
0.0022293 0.0022293 0.0022293
0.0022343 0.0022343 0.0022343
0.0022423 0.0022423 0.0022423
0.0022463 0.0022463 0.0022463
0.0022524 0.0022524 0.0022524
0.0022594 0.0022594 0.0022594
0.0022670 0.0022670 0.0022670
0.0022746 0.0022746 0.0022746
0.0022830 0.0022830 0.0022830
0.0022905 0.0022905 0.0022905
0.0023018 0.0023018 0.0023018
0.0023132 0.0023132 0.0023132
0.0023212 0.0023212 0.0023212
0.0023369 0.0023369 0.0023369
0.0023474 0.0023474 0.0023474
0.0023633 0.0023633 0.0023633
0.0023739 0.0023739 0.0023739
0.0023942 0.0023942 0.0023942
0.0024079 0.0024079 0.0024079
0.0024286 0.0024286 0.0024286
0.0024425 0.0024425 0.0024425
0.0024630 0.0024630 0.0024630
0.0024851 0.0024851 0.0024851
0.0025186 0.0025186 0.0025186
0.0025412 0.0025412 0.0025412
0.0025654 0.0025654 0.0025654
0.0025971 0.0025971 0.0025971
0.0026291 0.0026291 0.0026291
0.0026779 0.0026779 0.0026779
0.0027109 0.0027109 0.0027109
0.0027473 0.0027473 0.0027473
0.0027871 0.0027871 0.0027871
0.0028275 0.0028275 0.0028275
0.0028685 0.0028685 0.0028685
0.0029101 0.0029101 0.0029101
0.0029553 0.0029553 0.0029553
0.0030073 0.0030073 0.0030073
0.0030336 0.0030336 0.0030336
0.0030869 0.0030869 0.0030869
0.0031411 0.0031411 0.0031411
0.0031963 0.0031963 0.0031963
0.0032568 0.0032568 0.0032568
0.0033207 0.0033207 0.0033207
0.0021743 0.0021743 0.0021743
0.0021776 0.0021776 0.0021776
0.0021809 0.0021809 0.0021809
0.0021844 0.0021844 0.0021844
0.0021881 0.0021881 0.0021881
0.0021917 0.0021917 0.0021917
0.0021948 0.0021948 0.0021948
0.0021990 0.0021990 0.0021990
0.0022022 0.0022022 0.0022022
0.0022072 0.0022072 0.0022072
0.0022111 0.0022111 0.0022111
0.0022151 0.0022151 0.0022151
0.0022211 0.0022211 0.0022211
0.0022260 0.0022260 0.0022260
0.0022309 0.0022309 0.0022309
0.0022363 0.0022363 0.0022363
0.0022423 0.0022423 0.0022423
0.0022483 0.0022483 0.0022483
0.0022544 0.0022544 0.0022544
0.0022619 0.0022619 0.0022619
0.0022695 0.0022695 0.0022695
0.0022771 0.0022771 0.0022771
0.0022830 0.0022830 0.0022830
0.0022943 0.0022943 0.0022943
0.0023056 0.0023056 0.0023056
0.0023132 0.0023132 0.0023132
0.0023264 0.0023264 0.0023264
0.0023421 0.0023421 0.0023421
0.0023527 0.0023527 0.0023527
0.0023686 0.0023686 0.0023686
0.0023806 0.0023806 0.0023806
0.0023942 0.0023942 0.0023942
0.0024148 0.0024148 0.0024148
0.0024286 0.0024286 0.0024286
0.0024425 0.0024425 0.0024425
0.0024741 0.0024741 0.0024741
0.0024963 0.0024963 0.0024963
0.0025186 0.0025186 0.0025186
0.0025412 0.0025412 0.0025412
0.0025812 0.0025812 0.0025812
0.0026130 0.0026130 0.0026130
0.0026453 0.0026453 0.0026453
0.0026779 0.0026779 0.0026779
0.0027109 0.0027109 0.0027109
0.0027473 0.0027473 0.0027473
0.0027871 0.0027871 0.0027871
0.0028275 0.0028275 0.0028275
0.0028685 0.0028685 0.0028685
0.0029101 0.0029101 0.0029101
0.0029553 0.0029553 0.0029553
0.0030073 0.0030073 0.0030073
0.0030601 0.0030601 0.0030601
0.0031139 0.0031139 0.0031139
0.0031686 0.0031686 0.0031686
0.0031963 0.0031963 0.0031963
0.0032568 0.0032568 0.0032568
0.0033207 0.0033207 0.0033207
0.0033858 0.0033858 0.0033858
0.0034522 0.0034522 0.0034522
0.0034859 0.0034859 0.0034859
0.0035543 0.0035543 0.0035543
0.0036281 0.0036281 0.0036281
0.0037034 0.0037034 0.0037034
0.0037416 0.0037416 0.0037416
0.0022001 0.0022001 0.0022001
0.0022033 0.0022033 0.0022033
0.0022085 0.0022085 0.0022085
0.0022124 0.0022124 0.0022124
0.0022164 0.0022164 0.0022164
0.0022211 0.0022211 0.0022211
0.0022276 0.0022276 0.0022276
0.0022325 0.0022325 0.0022325
0.0022383 0.0022383 0.0022383
0.0022443 0.0022443 0.0022443
0.0022504 0.0022504 0.0022504
0.0022569 0.0022569 0.0022569
0.0022645 0.0022645 0.0022645
0.0022695 0.0022695 0.0022695
0.0022771 0.0022771 0.0022771
0.0022868 0.0022868 0.0022868
0.0022980 0.0022980 0.0022980
0.0023056 0.0023056 0.0023056
0.0023170 0.0023170 0.0023170
0.0023317 0.0023317 0.0023317
0.0023421 0.0023421 0.0023421
0.0023580 0.0023580 0.0023580
0.0023686 0.0023686 0.0023686
0.0023874 0.0023874 0.0023874
0.0024011 0.0024011 0.0024011
0.0024148 0.0024148 0.0024148
0.0024355 0.0024355 0.0024355
0.0024521 0.0024521 0.0024521
0.0024741 0.0024741 0.0024741
0.0025074 0.0025074 0.0025074
0.0025299 0.0025299 0.0025299
0.0025526 0.0025526 0.0025526
0.0025812 0.0025812 0.0025812
0.0026130 0.0026130 0.0026130
0.0026453 0.0026453 0.0026453
0.0026943 0.0026943 0.0026943
0.0027275 0.0027275 0.0027275
0.0027671 0.0027671 0.0027671
0.0028072 0.0028072 0.0028072
0.0028480 0.0028480 0.0028480
0.0028893 0.0028893 0.0028893
0.0029312 0.0029312 0.0029312
0.0029812 0.0029812 0.0029812
0.0030073 0.0030073 0.0030073
0.0030601 0.0030601 0.0030601
0.0031139 0.0031139 0.0031139
0.0031686 0.0031686 0.0031686
0.0032253 0.0032253 0.0032253
0.0032886 0.0032886 0.0032886
0.0033531 0.0033531 0.0033531
0.0033858 0.0033858 0.0033858
0.0034522 0.0034522 0.0034522
0.0035199 0.0035199 0.0035199
0.0035910 0.0035910 0.0035910
0.0036281 0.0036281 0.0036281
0.0037034 0.0037034 0.0037034
0.0037802 0.0037802 0.0037802
0.0038193 0.0038193 0.0038193
0.0038985 0.0038985 0.0038985
0.0039816 0.0039816 0.0039816
0.0040261 0.0040261 0.0040261
0.0041164 0.0041164 0.0041164
0.0041623 0.0041623 0.0041623
0.0042557 0.0042557 0.0042557
0.0022343 0.0022343 0.0022343
0.0022403 0.0022403 0.0022403
0.0022463 0.0022463 0.0022463
0.0022524 0.0022524 0.0022524
0.0022569 0.0022569 0.0022569
0.0022645 0.0022645 0.0022645
0.0022721 0.0022721 0.0022721
0.0022797 0.0022797 0.0022797
0.0022905 0.0022905 0.0022905
0.0022980 0.0022980 0.0022980
0.0023094 0.0023094 0.0023094
0.0023212 0.0023212 0.0023212
0.0023317 0.0023317 0.0023317
0.0023474 0.0023474 0.0023474
0.0023580 0.0023580 0.0023580
0.0023739 0.0023739 0.0023739
0.0023874 0.0023874 0.0023874
0.0024079 0.0024079 0.0024079
0.0024217 0.0024217 0.0024217
0.0024355 0.0024355 0.0024355
0.0024630 0.0024630 0.0024630
0.0024851 0.0024851 0.0024851
0.0025074 0.0025074 0.0025074
0.0025299 0.0025299 0.0025299
0.0025526 0.0025526 0.0025526
0.0025971 0.0025971 0.0025971
0.0026291 0.0026291 0.0026291
0.0026615 0.0026615 0.0026615
0.0026943 0.0026943 0.0026943
0.0027275 0.0027275 0.0027275
0.0027671 0.0027671 0.0027671
0.0028072 0.0028072 0.0028072
0.0028480 0.0028480 0.0028480
0.0028893 0.0028893 0.0028893
0.0029312 0.0029312 0.0029312
0.0029812 0.0029812 0.0029812
0.0030336 0.0030336 0.0030336
0.0030869 0.0030869 0.0030869
0.0031411 0.0031411 0.0031411
0.0031963 0.0031963 0.0031963
0.0032253 0.0032253 0.0032253
0.0032886 0.0032886 0.0032886
0.0033531 0.0033531 0.0033531
0.0034189 0.0034189 0.0034189
0.0034522 0.0034522 0.0034522
0.0035199 0.0035199 0.0035199
0.0035910 0.0035910 0.0035910
0.0036655 0.0036655 0.0036655
0.0037034 0.0037034 0.0037034
0.0037802 0.0037802 0.0037802
0.0038587 0.0038587 0.0038587
0.0038985 0.0038985 0.0038985
0.0039816 0.0039816 0.0039816
0.0040710 0.0040710 0.0040710
0.0041164 0.0041164 0.0041164
0.0042088 0.0042088 0.0042088
0.0042557 0.0042557 0.0042557
0.0043512 0.0043512 0.0043512
0.0043998 0.0043998 0.0043998
0.0045040 0.0045040 0.0045040
0.0046134 0.0046134 0.0046134
0.0046691 0.0046691 0.0046691
0.0047826 0.0047826 0.0047826
0.0048403 0.0048403 0.0048403
0.0022830 0.0022830 0.0022830
0.0022905 0.0022905 0.0022905
0.0023018 0.0023018 0.0023018
0.0023132 0.0023132 0.0023132
0.0023212 0.0023212 0.0023212
0.0023369 0.0023369 0.0023369
0.0023474 0.0023474 0.0023474
0.0023633 0.0023633 0.0023633
0.0023739 0.0023739 0.0023739
0.0023942 0.0023942 0.0023942
0.0024079 0.0024079 0.0024079
0.0024217 0.0024217 0.0024217
0.0024425 0.0024425 0.0024425
0.0024630 0.0024630 0.0024630
0.0024851 0.0024851 0.0024851
0.0025186 0.0025186 0.0025186
0.0025412 0.0025412 0.0025412
0.0025654 0.0025654 0.0025654
0.0025971 0.0025971 0.0025971
0.0026291 0.0026291 0.0026291
0.0026615 0.0026615 0.0026615
0.0026943 0.0026943 0.0026943
0.0027473 0.0027473 0.0027473
0.0027871 0.0027871 0.0027871
0.0028275 0.0028275 0.0028275
0.0028685 0.0028685 0.0028685
0.0029101 0.0029101 0.0029101
0.0029312 0.0029312 0.0029312
0.0029812 0.0029812 0.0029812
0.0030336 0.0030336 0.0030336
0.0030869 0.0030869 0.0030869
0.0031411 0.0031411 0.0031411
0.0031963 0.0031963 0.0031963
0.0032568 0.0032568 0.0032568
0.0033207 0.0033207 0.0033207
0.0033531 0.0033531 0.0033531
0.0034189 0.0034189 0.0034189
0.0034859 0.0034859 0.0034859
0.0035543 0.0035543 0.0035543
0.0035910 0.0035910 0.0035910
0.0036655 0.0036655 0.0036655
0.0037416 0.0037416 0.0037416
0.0037802 0.0037802 0.0037802
0.0038587 0.0038587 0.0038587
0.0039388 0.0039388 0.0039388
0.0039816 0.0039816 0.0039816
0.0040710 0.0040710 0.0040710
0.0041623 0.0041623 0.0041623
0.0042088 0.0042088 0.0042088
0.0043032 0.0043032 0.0043032
0.0043512 0.0043512 0.0043512
0.0044502 0.0044502 0.0044502
0.0045040 0.0045040 0.0045040
0.0046134 0.0046134 0.0046134
0.0046691 0.0046691 0.0046691
0.0047826 0.0047826 0.0047826
0.0048403 0.0048403 0.0048403
0.0049579 0.0049579 0.0049579
0.0050178 0.0050178 0.0050178
0.0051490 0.0051490 0.0051490
0.0052158 0.0052158 0.0052158
0.0053522 0.0053522 0.0053522
0.0054216 0.0054216 0.0054216
0.0054920 0.0054920 0.0054920
0.0023633 0.0023633 0.0023633
0.0023806 0.0023806 0.0023806
0.0023942 0.0023942 0.0023942
0.0024148 0.0024148 0.0024148
0.0024286 0.0024286 0.0024286
0.0024425 0.0024425 0.0024425
0.0024741 0.0024741 0.0024741
0.0024963 0.0024963 0.0024963
0.0025186 0.0025186 0.0025186
0.0025412 0.0025412 0.0025412
0.0025654 0.0025654 0.0025654
0.0026130 0.0026130 0.0026130
0.0026453 0.0026453 0.0026453
0.0026779 0.0026779 0.0026779
0.0027109 0.0027109 0.0027109
0.0027473 0.0027473 0.0027473
0.0027871 0.0027871 0.0027871
0.0028275 0.0028275 0.0028275
0.0028685 0.0028685 0.0028685
0.0029101 0.0029101 0.0029101
0.0029553 0.0029553 0.0029553
0.0030073 0.0030073 0.0030073
0.0030601 0.0030601 0.0030601
0.0031139 0.0031139 0.0031139
0.0031686 0.0031686 0.0031686
0.0031963 0.0031963 0.0031963
0.0032568 0.0032568 0.0032568
0.0033207 0.0033207 0.0033207
0.0033858 0.0033858 0.0033858
0.0034522 0.0034522 0.0034522
0.0034859 0.0034859 0.0034859
0.0035543 0.0035543 0.0035543
0.0036281 0.0036281 0.0036281
0.0036655 0.0036655 0.0036655
0.0037416 0.0037416 0.0037416
0.0038193 0.0038193 0.0038193
0.0038587 0.0038587 0.0038587
0.0039388 0.0039388 0.0039388
0.0040261 0.0040261 0.0040261
0.0040710 0.0040710 0.0040710
0.0041623 0.0041623 0.0041623
0.0042557 0.0042557 0.0042557
0.0043032 0.0043032 0.0043032
0.0043998 0.0043998 0.0043998
0.0044502 0.0044502 0.0044502
0.0045584 0.0045584 0.0045584
0.0046134 0.0046134 0.0046134
0.0047255 0.0047255 0.0047255
0.0047826 0.0047826 0.0047826
0.0048988 0.0048988 0.0048988
0.0049579 0.0049579 0.0049579
0.0050829 0.0050829 0.0050829
0.0051490 0.0051490 0.0051490
0.0052158 0.0052158 0.0052158
0.0053522 0.0053522 0.0053522
0.0054216 0.0054216 0.0054216
0.0055633 0.0055633 0.0055633
0.0056355 0.0056355 0.0056355
0.0057087 0.0057087 0.0057087
0.0058668 0.0058668 0.0058668
0.0059485 0.0059485 0.0059485
0.0061151 0.0061151 0.0061151
0.0062001 0.0062001 0.0062001
0.0062864 0.0062864 0.0062864
0.0024963 0.0024963 0.0024963
0.0025299 0.0025299 0.0025299
0.0025526 0.0025526 0.0025526
0.0025812 0.0025812 0.0025812
0.0026130 0.0026130 0.0026130
0.0026453 0.0026453 0.0026453
0.0026779 0.0026779 0.0026779
0.0027109 0.0027109 0.0027109
0.0027473 0.0027473 0.0027473
0.0027871 0.0027871 0.0027871
0.0028275 0.0028275 0.0028275
0.0028685 0.0028685 0.0028685
0.0029101 0.0029101 0.0029101
0.0029553 0.0029553 0.0029553
0.0030073 0.0030073 0.0030073
0.0030601 0.0030601 0.0030601
0.0031139 0.0031139 0.0031139
0.0031686 0.0031686 0.0031686
0.0032253 0.0032253 0.0032253
0.0032886 0.0032886 0.0032886
0.0033207 0.0033207 0.0033207
0.0033858 0.0033858 0.0033858
0.0034522 0.0034522 0.0034522
0.0035199 0.0035199 0.0035199
0.0035543 0.0035543 0.0035543
0.0036281 0.0036281 0.0036281
0.0037034 0.0037034 0.0037034
0.0037802 0.0037802 0.0037802
0.0038193 0.0038193 0.0038193
0.0038985 0.0038985 0.0038985
0.0039388 0.0039388 0.0039388
0.0040261 0.0040261 0.0040261
0.0041164 0.0041164 0.0041164
0.0041623 0.0041623 0.0041623
0.0042557 0.0042557 0.0042557
0.0043032 0.0043032 0.0043032
0.0043998 0.0043998 0.0043998
0.0045040 0.0045040 0.0045040
0.0045584 0.0045584 0.0045584
0.0046691 0.0046691 0.0046691
0.0047255 0.0047255 0.0047255
0.0048403 0.0048403 0.0048403
0.0048988 0.0048988 0.0048988
0.0050178 0.0050178 0.0050178
0.0050829 0.0050829 0.0050829
0.0051490 0.0051490 0.0051490
0.0052836 0.0052836 0.0052836
0.0053522 0.0053522 0.0053522
0.0054920 0.0054920 0.0054920
0.0055633 0.0055633 0.0055633
0.0056355 0.0056355 0.0056355
0.0057863 0.0057863 0.0057863
0.0058668 0.0058668 0.0058668
0.0060312 0.0060312 0.0060312
0.0061151 0.0061151 0.0061151
0.0062001 0.0062001 0.0062001
0.0063738 0.0063738 0.0063738
0.0064624 0.0064624 0.0064624
0.0065522 0.0065522 0.0065522
0.0066467 0.0066467 0.0066467
0.0068536 0.0068536 0.0068536
0.0069595 0.0069595 0.0069595
0.0070669 0.0070669 0.0070669
0.0071760 0.0071760 0.0071760
0.0027275 0.0027275 0.0027275
0.0027671 0.0027671 0.0027671
0.0028072 0.0028072 0.0028072
0.0028480 0.0028480 0.0028480
0.0028893 0.0028893 0.0028893
0.0029312 0.0029312 0.0029312
0.0029812 0.0029812 0.0029812
0.0030336 0.0030336 0.0030336
0.0030869 0.0030869 0.0030869
0.0031411 0.0031411 0.0031411
0.0031686 0.0031686 0.0031686
0.0032253 0.0032253 0.0032253
0.0032886 0.0032886 0.0032886
0.0033531 0.0033531 0.0033531
0.0034189 0.0034189 0.0034189
0.0034522 0.0034522 0.0034522
0.0035199 0.0035199 0.0035199
0.0035910 0.0035910 0.0035910
0.0036655 0.0036655 0.0036655
0.0037034 0.0037034 0.0037034
0.0037802 0.0037802 0.0037802
0.0038587 0.0038587 0.0038587
0.0038985 0.0038985 0.0038985
0.0039816 0.0039816 0.0039816
0.0040261 0.0040261 0.0040261
0.0041164 0.0041164 0.0041164
0.0042088 0.0042088 0.0042088
0.0042557 0.0042557 0.0042557
0.0043512 0.0043512 0.0043512
0.0043998 0.0043998 0.0043998
