Plugins/FilmEmulator/Content/LUTs/FE_Kodak_Vision2_50D_5201_64.cube
# FilmEmulator LUT (resampled to 64)
LUT_3D_SIZE 4
0.001190 0.003326 0.007111
0.214366 0.004639 0.000000
0.387044 0.005483 0.000000
0.534027 0.015137 0.000000
0.122691 0.256022 0.099243
0.350210 0.281752 0.048231
0.605360 0.226658 0.005527
0.735707 0.218567 0.033956
0.400655 0.519287 0.175883
0.524088 0.527205 0.160838
0.709398 0.521094 0.119185
0.843760 0.503438 0.142395
0.492065 0.672699 0.327850
0.604227 0.698323 0.343821
0.781698 0.688029 0.263977
0.907654 0.696991 0.301971
0.012034 0.039774 0.144654
0.101020 0.042250 0.182407
0.348996 0.021410 0.080698
0.542307 0.043722 0.079041
0.070313 0.299292 0.330716
0.295619 0.344926 0.335783
0.569038 0.319092 0.256265
0.737634 0.320411 0.265106
0.285427 0.545424 0.395986
0.465752 0.579442 0.424306
0.642131 0.580600 0.390224
0.814284 0.578654 0.379157
0.416117 0.680094 0.452545
0.516106 0.709642 0.507063
0.731394 0.735701 0.484009
0.874919 0.753998 0.527211
0.042989 0.123250 0.346364
0.083615 0.121135 0.366228
0.270704 0.090169 0.302165
0.451233 0.086660 0.263255
0.095127 0.360260 0.513546
0.233127 0.408557 0.554360
0.445993 0.386596 0.504345
0.659305 0.368015 0.461592
0.227858 0.582523 0.615485
0.384508 0.612023 0.614144
0.579977 0.620129 0.604357
0.771901 0.624691 0.578810
0.314636 0.703481 0.637645
0.430183 0.730988 0.653612
0.656877 0.764883 0.659322
0.847087 0.800059 0.708465
0.050110 0.180511 0.491974
0.069946 0.184336 0.506734
0.246999 0.166575 0.462494
0.396484 0.137451 0.405487
0.110311 0.384613 0.624166
0.207540 0.442288 0.660221
0.390767 0.433502 0.627997
0.566274 0.384471 0.561259
0.212290 0.590373 0.702932
0.319678 0.626062 0.722826
0.537926 0.657566 0.723622
0.703135 0.637217 0.695567
0.290222 0.711456 0.740265
0.392893 0.736725 0.752573
0.609456 0.779267 0.766937
0.859924 0.825226 0.817139
