Plugins/FilmEmulator/Content/LUTs/FE_Kodak_EXR_5248_64.cube
TITLE "FE_Kodak_EXR_5248_33"
LUT_3D_SIZE 4
0.0010210 0.0007672 0.0010671
0.2258158 0.0046963 0.0055789
0.4773830 0.0134800 0.0150786
0.6388307 0.0248419 0.0267572
0.0142948 0.2845627 0.0218811
0.2458675 0.3011603 0.0249268
0.4771007 0.3173065 0.0327437
0.6350175 0.3337863 0.0472409
0.0380040 0.5548067 0.0580801
0.2745164 0.5655169 0.0624705
0.4967396 0.5753632 0.0659103
0.6458127 0.5849448 0.0697292
0.0664430 0.7025360 0.1035564
0.3083807 0.7103297 0.1051215
0.5200853 0.7175459 0.1107423
0.6596016 0.7178577 0.1134943
0.0150082 0.0080853 0.2893740
0.2573826 0.0177601 0.2946514
0.4983853 0.0295777 0.2955502
0.6524566 0.0428604 0.3035977
0.0378645 0.3020052 0.3546740
0.2805355 0.3186537 0.3501786
0.5041058 0.3351045 0.3563659
0.6523396 0.3517714 0.3555268
0.0653637 0.5661994 0.4000328
0.3119825 0.5765435 0.3960559
0.5243245 0.5862375 0.3943399
0.6631773 0.5957087 0.4015189
0.0996809 0.7107853 0.4362652
0.3484882 0.7183019 0.4328435
0.5383368 0.7253252 0.4397396
0.6765459 0.7256129 0.4384328
0.0398329 0.0240079 0.5470508
0.2965899 0.0362016 0.5530707
0.5217401 0.0506948 0.5532416
0.6667948 0.0661728 0.5537563
0.0650576 0.3262545 0.5912420
0.3181600 0.3434319 0.5957935
0.5315773 0.3521417 0.5940354
0.6694580 0.3691889 0.5932140
0.0980169 0.5854995 0.6220011
0.3437969 0.5955478 0.6187171
0.5423793 0.6046576 0.6171483
0.6801208 0.6050227 0.6241521
0.1312180 0.7181659 0.6411605
0.3736824 0.7254888 0.6464374
0.5661771 0.7258781 0.6447760
0.6923157 0.7326472 0.6438241
0.0695148 0.0441406 0.7018403
0.3325092 0.0598286 0.6998522
0.5463876 0.0754802 0.6995397
0.6813754 0.0948384 0.6998485
0.0975531 0.3430080 0.7282710
0.3503542 0.3604297 0.7256111
0.5493673 0.3777947 0.7244783
0.6860303 0.3867047 0.7235948
0.1330459 0.5952016 0.7392710
0.3774907 0.6046690 0.7431751
0.5699508 0.6134849 0.7419576
0.6955898 0.6220902 0.7411700
0.1666468 0.7252396 0.7539531
0.4085474 0.7323641 0.7519277
0.5845747 0.7327312 0.7567218
0.7076982 0.7393929 0.7559569
