Plugins/FilmEmulator/Content/LUTs/FE_Kodak_TriX_400_Dev7_64.cube
TITLE "FE_Kodak_TriX_400_Dev7_33"
LUT_3D_SIZE 8
0.0037964 0.0037964 0.0037964
0.0146022 0.0146022 0.0146022
0.0330273 0.0330273 0.0330273
0.0532221 0.0532221 0.0532221
0.0741308 0.0741308 0.0741308
0.0955295 0.0955295 0.0955295
0.1195765 0.1195765 0.1195765
0.1418998 0.1418998 0.1418998
0.0330273 0.0330273 0.0330273
0.0532221 0.0532221 0.0532221
0.0741308 0.0741308 0.0741308
0.0955295 0.0955295 0.0955295
0.1195765 0.1195765 0.1195765
0.1418998 0.1418998 0.1418998
0.1639055 0.1639055 0.1639055
0.1886572 0.1886572 0.1886572
0.0741308 0.0741308 0.0741308
0.0955295 0.0955295 0.0955295
0.1195765 0.1195765 0.1195765
0.1418998 0.1418998 0.1418998
0.1639055 0.1639055 0.1639055
0.1886572 0.1886572 0.1886572
0.2115505 0.2115505 0.2115505
0.2312831 0.2312831 0.2312831
0.1195765 0.1195765 0.1195765
0.1418998 0.1418998 0.1418998
0.1639055 0.1639055 0.1639055
0.1886572 0.1886572 0.1886572
0.2115505 0.2115505 0.2115505
0.2312831 0.2312831 0.2312831
0.2522837 0.2522837 0.2522837
0.2745190 0.2745190 0.2745190
0.1639055 0.1639055 0.1639055
0.1886572 0.1886572 0.1886572
0.2115505 0.2115505 0.2115505
0.2312831 0.2312831 0.2312831
0.2522837 0.2522837 0.2522837
0.2745190 0.2745190 0.2745190
0.2979252 0.2979252 0.2979252
0.3161430 0.3161430 0.3161430
0.2115505 0.2115505 0.2115505
0.2312831 0.2312831 0.2312831
0.2522837 0.2522837 0.2522837
0.2745190 0.2745190 0.2745190
0.2979252 0.2979252 0.2979252
0.3161430 0.3161430 0.3161430
0.3349431 0.3349431 0.3349431
0.3542820 0.3542820 0.3542820
0.2522837 0.2522837 0.2522837
0.2745190 0.2745190 0.2745190
0.2979252 0.2979252 0.2979252
0.3161430 0.3161430 0.3161430
0.3349431 0.3349431 0.3349431
0.3542820 0.3542820 0.3542820
0.3674522 0.3674522 0.3674522
0.3875824 0.3875824 0.3875824
0.2979252 0.2979252 0.2979252
0.3161430 0.3161430 0.3161430
0.3349431 0.3349431 0.3349431
0.3542820 0.3542820 0.3542820
0.3674522 0.3674522 0.3674522
0.3875824 0.3875824 0.3875824
0.4012236 0.4012236 0.4012236
0.4150199 0.4150199 0.4150199
0.0546026 0.0546026 0.0546026
0.0760484 0.0760484 0.0760484
0.0979675 0.0979675 0.0979675
0.1225688 0.1225688 0.1225688
0.1453586 0.1453586 0.1453586
0.1678415 0.1678415 0.1678415
0.1886572 0.1886572 0.1886572
0.2115505 0.2115505 0.2115505
0.0979675 0.0979675 0.0979675
0.1225688 0.1225688 0.1225688
0.1453586 0.1453586 0.1453586
0.1678415 0.1678415 0.1678415
0.1886572 0.1886572 0.1886572
0.2115505 0.2115505 0.2115505
0.2364125 0.2364125 0.2364125
0.2577291 0.2577291 0.2577291
0.1453586 0.1453586 0.1453586
0.1678415 0.1678415 0.1678415
0.1886572 0.1886572 0.1886572
0.2115505 0.2115505 0.2115505
0.2364125 0.2364125 0.2364125
0.2577291 0.2577291 0.2577291
0.2745190 0.2745190 0.2745190
0.2979252 0.2979252 0.2979252
0.1886572 0.1886572 0.1886572
0.2115505 0.2115505 0.2115505
0.2364125 0.2364125 0.2364125
0.2577291 0.2577291 0.2577291
0.2745190 0.2745190 0.2745190
0.2979252 0.2979252 0.2979252
0.3161430 0.3161430 0.3161430
0.3349431 0.3349431 0.3349431
0.2364125 0.2364125 0.2364125
0.2577291 0.2577291 0.2577291
0.2745190 0.2745190 0.2745190
0.2979252 0.2979252 0.2979252
0.3161430 0.3161430 0.3161430
0.3349431 0.3349431 0.3349431
0.3542820 0.3542820 0.3542820
0.3674522 0.3674522 0.3674522
0.2745190 0.2745190 0.2745190
0.2979252 0.2979252 0.2979252
0.3161430 0.3161430 0.3161430
0.3349431 0.3349431 0.3349431
0.3542820 0.3542820 0.3542820
0.3674522 0.3674522 0.3674522
0.3875824 0.3875824 0.3875824
0.4012236 0.4012236 0.4012236
0.3161430 0.3161430 0.3161430
0.3349431 0.3349431 0.3349431
0.3542820 0.3542820 0.3542820
0.3674522 0.3674522 0.3674522
0.3875824 0.3875824 0.3875824
0.4012236 0.4012236 0.4012236
0.4219697 0.4219697 0.4219697
0.4359674 0.4359674 0.4359674
0.3542820 0.3542820 0.3542820
0.3674522 0.3674522 0.3674522
0.3875824 0.3875824 0.3875824
0.4012236 0.4012236 0.4012236
0.4219697 0.4219697 0.4219697
0.4359674 0.4359674 0.4359674
0.4500830 0.4500830 0.4500830
0.4642794 0.4642794 0.4642794
0.1225688 0.1225688 0.1225688
0.1453586 0.1453586 0.1453586
0.1678415 0.1678415 0.1678415
0.1930788 0.1930788 0.1930788
0.2115505 0.2115505 0.2115505
0.2364125 0.2364125 0.2364125
0.2577291 0.2577291 0.2577291
0.2802644 0.2802644 0.2802644
0.1678415 0.1678415 0.1678415
0.1930788 0.1930788 0.1930788
0.2163656 0.2163656 0.2163656
0.2364125 0.2364125 0.2364125
0.2577291 0.2577291 0.2577291
0.2802644 0.2802644 0.2802644
0.2979252 0.2979252 0.2979252
0.3161430 0.3161430 0.3161430
0.2163656 0.2163656 0.2163656
0.2364125 0.2364125 0.2364125
0.2577291 0.2577291 0.2577291
0.2802644 0.2802644 0.2802644
0.2979252 0.2979252 0.2979252
0.3161430 0.3161430 0.3161430
0.3349431 0.3349431 0.3349431
0.3542820 0.3542820 0.3542820
0.2577291 0.2577291 0.2577291
0.2802644 0.2802644 0.2802644
0.2979252 0.2979252 0.2979252
0.3161430 0.3161430 0.3161430
0.3349431 0.3349431 0.3349431
0.3542820 0.3542820 0.3542820
0.3741148 0.3741148 0.3741148
0.3875824 0.3875824 0.3875824
0.2979252 0.2979252 0.2979252
0.3161430 0.3161430 0.3161430
0.3349431 0.3349431 0.3349431
0.3542820 0.3542820 0.3542820
0.3741148 0.3741148 0.3741148
0.3875824 0.3875824 0.3875824
0.4081036 0.4081036 0.4081036
0.4219697 0.4219697 0.4219697
0.3349431 0.3349431 0.3349431
0.3542820 0.3542820 0.3542820
0.3741148 0.3741148 0.3741148
0.3875824 0.3875824 0.3875824
0.4081036 0.4081036 0.4081036
0.4219697 0.4219697 0.4219697
0.4359674 0.4359674 0.4359674
0.4500830 0.4500830 0.4500830
0.3741148 0.3741148 0.3741148
0.3875824 0.3875824 0.3875824
0.4081036 0.4081036 0.4081036
0.4219697 0.4219697 0.4219697
0.4359674 0.4359674 0.4359674
0.4500830 0.4500830 0.4500830
0.4642794 0.4642794 0.4642794
0.4785338 0.4785338 0.4785338
0.4081036 0.4081036 0.4081036
0.4219697 0.4219697 0.4219697
0.4359674 0.4359674 0.4359674
0.4500830 0.4500830 0.4500830
0.4642794 0.4642794 0.4642794
0.4785338 0.4785338 0.4785338
0.4928233 0.4928233 0.4928233
0.4999740 0.4999740 0.4999740
0.1930788 0.1930788 0.1930788
0.2163656 0.2163656 0.2163656
0.2364125 0.2364125 0.2364125
0.2577291 0.2577291 0.2577291
0.2802644 0.2802644 0.2802644
0.2979252 0.2979252 0.2979252
0.3161430 0.3161430 0.3161430
0.3349431 0.3349431 0.3349431
0.2364125 0.2364125 0.2364125
0.2577291 0.2577291 0.2577291
0.2802644 0.2802644 0.2802644
0.2979252 0.2979252 0.2979252
0.3161430 0.3161430 0.3161430
0.3349431 0.3349431 0.3349431
0.3542820 0.3542820 0.3542820
0.3741148 0.3741148 0.3741148
0.2802644 0.2802644 0.2802644
0.2979252 0.2979252 0.2979252
0.3161430 0.3161430 0.3161430
0.3349431 0.3349431 0.3349431
0.3542820 0.3542820 0.3542820
0.3741148 0.3741148 0.3741148
0.3875824 0.3875824 0.3875824
0.4081036 0.4081036 0.4081036
0.3161430 0.3161430 0.3161430
0.3349431 0.3349431 0.3349431
0.3542820 0.3542820 0.3542820
0.3741148 0.3741148 0.3741148
0.3875824 0.3875824 0.3875824
0.4081036 0.4081036 0.4081036
0.4219697 0.4219697 0.4219697
0.4359674 0.4359674 0.4359674
0.3542820 0.3542820 0.3542820
0.3741148 0.3741148 0.3741148
0.3875824 0.3875824 0.3875824
0.4081036 0.4081036 0.4081036
0.4219697 0.4219697 0.4219697
0.4359674 0.4359674 0.4359674
0.4500830 0.4500830 0.4500830
0.4642794 0.4642794 0.4642794
0.3875824 0.3875824 0.3875824
0.4081036 0.4081036 0.4081036
0.4219697 0.4219697 0.4219697
0.4359674 0.4359674 0.4359674
0.4500830 0.4500830 0.4500830
0.4642794 0.4642794 0.4642794
0.4785338 0.4785338 0.4785338
0.4928233 0.4928233 0.4928233
0.4219697 0.4219697 0.4219697
0.4359674 0.4359674 0.4359674
0.4500830 0.4500830 0.4500830
0.4642794 0.4642794 0.4642794
0.4785338 0.4785338 0.4785338
0.4928233 0.4928233 0.4928233
0.5070982 0.5070982 0.5070982
0.5141667 0.5141667 0.5141667
0.4500830 0.4500830 0.4500830
0.4642794 0.4642794 0.4642794
0.4785338 0.4785338 0.4785338
0.4928233 0.4928233 0.4928233
0.5070982 0.5070982 0.5070982
0.5141667 0.5141667 0.5141667
0.5282836 0.5282836 0.5282836
0.5353267 0.5353267 0.5353267
0.2577291 0.2577291 0.2577291
0.2802644 0.2802644 0.2802644
0.3039305 0.3039305 0.3039305
0.3223468 0.3223468 0.3223468
0.3413320 0.3413320 0.3413320
0.3542820 0.3542820 0.3542820
0.3741148 0.3741148 0.3741148
0.3875824 0.3875824 0.3875824
0.3039305 0.3039305 0.3039305
0.3223468 0.3223468 0.3223468
0.3413320 0.3413320 0.3413320
0.3542820 0.3542820 0.3542820
0.3741148 0.3741148 0.3741148
0.3875824 0.3875824 0.3875824
0.4081036 0.4081036 0.4081036
0.4219697 0.4219697 0.4219697
0.3413320 0.3413320 0.3413320
0.3542820 0.3542820 0.3542820
0.3741148 0.3741148 0.3741148
0.3943825 0.3943825 0.3943825
0.4081036 0.4081036 0.4081036
0.4219697 0.4219697 0.4219697
0.4359674 0.4359674 0.4359674
0.4500830 0.4500830 0.4500830
0.3741148 0.3741148 0.3741148
0.3943825 0.3943825 0.3943825
0.4081036 0.4081036 0.4081036
0.4219697 0.4219697 0.4219697
0.4359674 0.4359674 0.4359674
0.4500830 0.4500830 0.4500830
0.4642794 0.4642794 0.4642794
0.4785338 0.4785338 0.4785338
0.4081036 0.4081036 0.4081036
0.4219697 0.4219697 0.4219697
0.4359674 0.4359674 0.4359674
0.4500830 0.4500830 0.4500830
0.4642794 0.4642794 0.4642794
0.4785338 0.4785338 0.4785338
0.4928233 0.4928233 0.4928233
0.5070982 0.5070982 0.5070982
0.4359674 0.4359674 0.4359674
0.4500830 0.4500830 0.4500830
0.4642794 0.4642794 0.4642794
0.4785338 0.4785338 0.4785338
0.4928233 0.4928233 0.4928233
0.5070982 0.5070982 0.5070982
0.5141667 0.5141667 0.5141667
0.5282836 0.5282836 0.5282836
0.4642794 0.4642794 0.4642794
0.4785338 0.4785338 0.4785338
0.4928233 0.4928233 0.4928233
0.5070982 0.5070982 0.5070982
0.5141667 0.5141667 0.5141667
0.5282836 0.5282836 0.5282836
0.5423557 0.5423557 0.5423557
0.5493677 0.5493677 0.5493677
0.4928233 0.4928233 0.4928233
0.5070982 0.5070982 0.5070982
0.5141667 0.5141667 0.5141667
0.5282836 0.5282836 0.5282836
0.5423557 0.5423557 0.5423557
0.5493677 0.5493677 0.5493677
0.5633307 0.5633307 0.5633307
0.5702761 0.5702761 0.5702761
0.3223468 0.3223468 0.3223468
0.3413320 0.3413320 0.3413320
0.3608397 0.3608397 0.3608397
0.3741148 0.3741148 0.3741148
0.3943825 0.3943825 0.3943825
0.4081036 0.4081036 0.4081036
0.4219697 0.4219697 0.4219697
0.4359674 0.4359674 0.4359674
0.3608397 0.3608397 0.3608397
0.3741148 0.3741148 0.3741148
0.3943825 0.3943825 0.3943825
0.4081036 0.4081036 0.4081036
0.4219697 0.4219697 0.4219697
0.4359674 0.4359674 0.4359674
0.4500830 0.4500830 0.4500830
0.4642794 0.4642794 0.4642794
0.3943825 0.3943825 0.3943825
0.4081036 0.4081036 0.4081036
0.4219697 0.4219697 0.4219697
0.4359674 0.4359674 0.4359674
0.4500830 0.4500830 0.4500830
0.4642794 0.4642794 0.4642794
0.4785338 0.4785338 0.4785338
0.4928233 0.4928233 0.4928233
0.4219697 0.4219697 0.4219697
0.4359674 0.4359674 0.4359674
0.4500830 0.4500830 0.4500830
0.4642794 0.4642794 0.4642794
0.4785338 0.4785338 0.4785338
0.4928233 0.4928233 0.4928233
0.5070982 0.5070982 0.5070982
0.5141667 0.5141667 0.5141667
0.4500830 0.4500830 0.4500830
0.4642794 0.4642794 0.4642794
0.4785338 0.4785338 0.4785338
0.4928233 0.4928233 0.4928233
0.5070982 0.5070982 0.5070982
0.5141667 0.5141667 0.5141667
0.5282836 0.5282836 0.5282836
0.5423557 0.5423557 0.5423557
0.4785338 0.4785338 0.4785338
0.4928233 0.4928233 0.4928233
0.5070982 0.5070982 0.5070982
0.5141667 0.5141667 0.5141667
0.5282836 0.5282836 0.5282836
0.5423557 0.5423557 0.5423557
0.5493677 0.5493677 0.5493677
0.5633307 0.5633307 0.5633307
0.5070982 0.5070982 0.5070982
0.5141667 0.5141667 0.5141667
0.5282836 0.5282836 0.5282836
0.5423557 0.5423557 0.5423557
0.5493677 0.5493677 0.5493677
0.5633307 0.5633307 0.5633307
0.5702761 0.5702761 0.5702761
0.5771940 0.5771940 0.5771940
0.5282836 0.5282836 0.5282836
0.5423557 0.5423557 0.5423557
0.5493677 0.5493677 0.5493677
0.5633307 0.5633307 0.5633307
0.5702761 0.5702761 0.5702761
0.5771940 0.5771940 0.5771940
0.5906404 0.5906404 0.5906404
0.5973143 0.5973143 0.5973143
0.3741148 0.3741148 0.3741148
0.3943825 0.3943825 0.3943825
0.4081036 0.4081036 0.4081036
0.4219697 0.4219697 0.4219697
0.4430136 0.4430136 0.4430136
0.4571725 0.4571725 0.4571725
0.4714007 0.4714007 0.4714007
0.4785338 0.4785338 0.4785338
0.4081036 0.4081036 0.4081036
0.4219697 0.4219697 0.4219697
0.4430136 0.4430136 0.4430136
0.4571725 0.4571725 0.4571725
0.4714007 0.4714007 0.4714007
0.4785338 0.4785338 0.4785338
0.4928233 0.4928233 0.4928233
0.5070982 0.5070982 0.5070982
0.4430136 0.4430136 0.4430136
0.4571725 0.4571725 0.4571725
0.4714007 0.4714007 0.4714007
0.4785338 0.4785338 0.4785338
0.4928233 0.4928233 0.4928233
0.5070982 0.5070982 0.5070982
0.5212293 0.5212293 0.5212293
0.5282836 0.5282836 0.5282836
0.4714007 0.4714007 0.4714007
0.4785338 0.4785338 0.4785338
0.4928233 0.4928233 0.4928233
0.5070982 0.5070982 0.5070982
0.5212293 0.5212293 0.5212293
0.5282836 0.5282836 0.5282836
0.5423557 0.5423557 0.5423557
0.5493677 0.5493677 0.5493677
0.4928233 0.4928233 0.4928233
0.5070982 0.5070982 0.5070982
0.5212293 0.5212293 0.5212293
0.5282836 0.5282836 0.5282836
0.5423557 0.5423557 0.5423557
0.5493677 0.5493677 0.5493677
0.5633307 0.5633307 0.5633307
0.5702761 0.5702761 0.5702761
0.5212293 0.5212293 0.5212293
0.5282836 0.5282836 0.5282836
0.5423557 0.5423557 0.5423557
0.5493677 0.5493677 0.5493677
0.5633307 0.5633307 0.5633307
0.5702761 0.5702761 0.5702761
0.5839327 0.5839327 0.5839327
0.5906404 0.5906404 0.5906404
0.5423557 0.5423557 0.5423557
0.5493677 0.5493677 0.5493677
0.5633307 0.5633307 0.5633307
0.5702761 0.5702761 0.5702761
0.5839327 0.5839327 0.5839327
0.5906404 0.5906404 0.5906404
0.5973143 0.5973143 0.5973143
0.6039526 0.6039526 0.6039526
0.5633307 0.5633307 0.5633307
0.5702761 0.5702761 0.5702761
0.5839327 0.5839327 0.5839327
0.5906404 0.5906404 0.5906404
0.5973143 0.5973143 0.5973143
0.6039526 0.6039526 0.6039526
0.6171125 0.6171125 0.6171125
0.6236300 0.6236300 0.6236300
0.4289507 0.4289507 0.4289507
0.4430136 0.4430136 0.4430136
0.4571725 0.4571725 0.4571725
0.4714007 0.4714007 0.4714007
0.4856757 0.4856757 0.4856757
0.4928233 0.4928233 0.4928233
0.5070982 0.5070982 0.5070982
0.5212293 0.5212293 0.5212293
0.4571725 0.4571725 0.4571725
0.4714007 0.4714007 0.4714007
0.4856757 0.4856757 0.4856757
0.4928233 0.4928233 0.4928233
0.5070982 0.5070982 0.5070982
0.5212293 0.5212293 0.5212293
0.5282836 0.5282836 0.5282836
0.5423557 0.5423557 0.5423557
0.4856757 0.4856757 0.4856757
0.4928233 0.4928233 0.4928233
0.5070982 0.5070982 0.5070982
0.5212293 0.5212293 0.5212293
0.5282836 0.5282836 0.5282836
0.5423557 0.5423557 0.5423557
0.5493677 0.5493677 0.5493677
0.5633307 0.5633307 0.5633307
0.5070982 0.5070982 0.5070982
0.5212293 0.5212293 0.5212293
0.5282836 0.5282836 0.5282836
0.5423557 0.5423557 0.5423557
0.5493677 0.5493677 0.5493677
0.5633307 0.5633307 0.5633307
0.5702761 0.5702761 0.5702761
0.5839327 0.5839327 0.5839327
0.5282836 0.5282836 0.5282836
0.5423557 0.5423557 0.5423557
0.5493677 0.5493677 0.5493677
0.5633307 0.5633307 0.5633307
0.5702761 0.5702761 0.5702761
0.5839327 0.5839327 0.5839327
0.5906404 0.5906404 0.5906404
0.5973143 0.5973143 0.5973143
0.5493677 0.5493677 0.5493677
0.5633307 0.5633307 0.5633307
0.5702761 0.5702761 0.5702761
0.5839327 0.5839327 0.5839327
0.5906404 0.5906404 0.5906404
0.5973143 0.5973143 0.5973143
0.6105525 0.6105525 0.6105525
0.6171125 0.6171125 0.6171125
0.5702761 0.5702761 0.5702761
0.5839327 0.5839327 0.5839327
0.5906404 0.5906404 0.5906404
0.5973143 0.5973143 0.5973143
0.6105525 0.6105525 0.6105525
0.6171125 0.6171125 0.6171125
0.6236300 0.6236300 0.6236300
0.6301029 0.6301029 0.6301029
0.5906404 0.5906404 0.5906404
0.5973143 0.5973143 0.5973143
0.6105525 0.6105525 0.6105525
0.6171125 0.6171125 0.6171125
0.6236300 0.6236300 0.6236300
0.6301029 0.6301029 0.6301029
0.6365294 0.6365294 0.6365294
0.6429076 0.6429076 0.6429076
