Plugins/FilmEmulator/Content/LUTs/FE_Kodak_Vision2_500T_Expression_5229_64.cube
# FilmEmulator LUT (resampled to 64)
LUT_3D_SIZE 8
0.000793 0.002380 0.003174
0.096941 0.003871 0.000314
0.226593 0.004403 0.000000
0.349257 0.007642 0.000501
0.433807 0.007141 0.000000
0.522500 0.009277 0.000000
0.601902 0.012761 0.000000
0.672729 0.019989 0.000000
0.016806 0.128762 0.019496
0.120231 0.100722 0.010901
0.283779 0.116051 0.000456
0.404424 0.097766 0.000602
0.501340 0.082670 0.000000
0.587027 0.077476 0.000000
0.666204 0.078927 0.000000
0.730534 0.081356 0.000383
0.047433 0.287096 0.038504
0.142260 0.244174 0.022143
0.289121 0.213607 0.016730
0.458627 0.231315 0.001606
0.571128 0.231354 0.000062
0.663556 0.210575 0.000571
0.738868 0.202135 0.000637
0.804566 0.192483 0.000845
0.105630 0.435142 0.048893
0.175796 0.374914 0.030211
0.294128 0.359949 0.019316
0.450984 0.330426 0.023619
0.623090 0.337193 0.017986
0.717110 0.376184 0.008611
0.803556 0.350556 0.009474
0.871386 0.331909 0.015063
0.151576 0.574681 0.064536
0.224574 0.508822 0.040465
0.306945 0.471370 0.027958
0.435621 0.477559 0.023563
0.589063 0.431837 0.032664
0.744473 0.443498 0.039098
0.841145 0.480775 0.037190
0.940901 0.497685 0.038343
0.197379 0.703522 0.079172
0.266264 0.640616 0.053921
0.337569 0.590946 0.037672
0.445910 0.584149 0.031822
0.572698 0.589809 0.024748
0.703130 0.522474 0.044965
0.846104 0.541497 0.067173
0.941380 0.571176 0.087795
0.256234 0.820348 0.081172
0.305807 0.767951 0.070651
0.368502 0.711025 0.048076
0.459085 0.685356 0.036848
0.580266 0.690940 0.031052
0.697108 0.702196 0.030261
0.807101 0.620467 0.068334
0.936728 0.626478 0.108507
0.283234 0.918457 0.085052
0.353049 0.885511 0.078121
0.395826 0.829620 0.063141
0.477085 0.792131 0.045898
0.586264 0.791591 0.039176
0.697649 0.802590 0.040937
0.817688 0.809252 0.043671
0.912476 0.692932 0.096588
0.000000 0.001229 0.038579
0.035032 0.000793 0.018739
0.118361 0.000793 0.011463
0.246392 0.000793 0.009490
0.366628 0.000780 0.012266
0.449614 0.000763 0.014078
0.533891 0.000750 0.013987
0.604850 0.000732 0.013833
0.026781 0.111977 0.099645
0.093484 0.104103 0.095756
0.228929 0.098829 0.072924
0.361216 0.094614 0.052130
0.473466 0.092398 0.044495
0.570337 0.090110 0.040817
0.651359 0.091634 0.041526
0.721142 0.096219 0.046896
0.083146 0.308668 0.151980
0.145232 0.271887 0.141528
0.275580 0.227986 0.104116
0.429293 0.247749 0.104377
0.551539 0.234296 0.088365
0.650668 0.222773 0.080193
0.740315 0.225813 0.082419
0.810072 0.218747 0.086091
0.134515 0.445038 0.151512
0.196726 0.419368 0.151730
0.299060 0.381565 0.137970
0.434532 0.345483 0.110137
0.603108 0.355838 0.096374
0.704498 0.378062 0.112978
0.795334 0.359594 0.108476
0.871376 0.346320 0.110815
0.161382 0.568682 0.152638
0.241147 0.561485 0.165310
0.329448 0.510516 0.151014
0.437146 0.491079 0.137641
0.578305 0.454137 0.118711
0.734306 0.463544 0.116198
0.834182 0.498347 0.132951
0.932752 0.503376 0.141887
0.184887 0.695260 0.169005
0.276721 0.690997 0.180283
0.363941 0.643041 0.166592
0.451660 0.605333 0.149860
0.569943 0.605335 0.140303
0.699353 0.550420 0.131055
0.844742 0.572103 0.159375
0.945857 0.597820 0.181131
0.222766 0.813741 0.161348
0.332347 0.814457 0.186226
0.399382 0.766949 0.180019
0.470036 0.718772 0.160921
0.576618 0.707120 0.150355
0.695511 0.718392 0.147485
0.803769 0.646534 0.160023
0.940785 0.659062 0.193295
0.252154 0.916961 0.160819
0.365337 0.923131 0.190042
0.438609 0.886581 0.189350
0.494647 0.835427 0.173935
0.584882 0.812994 0.163688
0.695482 0.818265 0.160036
0.818196 0.825254 0.158645
0.917572 0.722342 0.185795
0.000000 0.002354 0.073556
0.016500 0.001636 0.055309
0.058647 0.000793 0.031225
0.143878 0.000793 0.028033
0.263337 0.001506 0.027167
0.383340 0.001485 0.027705
0.485644 0.000840 0.027704
0.576795 0.000902 0.030373
0.007694 0.054720 0.099781
0.051050 0.085117 0.144033
0.149071 0.086574 0.115816
0.260018 0.081543 0.095639
0.390480 0.076371 0.085364
0.506080 0.073307 0.074579
0.589390 0.070124 0.069853
0.670107 0.073360 0.075273
0.048657 0.284890 0.228852
0.069535 0.249813 0.226905
0.242385 0.242566 0.222450
0.381498 0.240236 0.203389
0.518057 0.240739 0.186363
0.623434 0.237471 0.178619
0.714653 0.239051 0.178377
0.787686 0.237886 0.182313
0.174788 0.475978 0.277006
0.186786 0.443483 0.268238
0.301225 0.417078 0.276376
0.420923 0.376211 0.248632
0.569203 0.386596 0.241520
0.686039 0.387904 0.241362
0.782622 0.378677 0.234104
0.863400 0.371019 0.232128
0.240483 0.612786 0.290904
0.238227 0.570385 0.269181
0.339766 0.557386 0.286534
0.440977 0.520307 0.280282
0.568233 0.488226 0.253683
0.708603 0.493383 0.245762
0.826147 0.526674 0.266423
0.922203 0.516215 0.265392
0.248435 0.711585 0.274973
0.267840 0.687224 0.269176
0.373060 0.692812 0.299625
0.464456 0.645105 0.292494
0.569936 0.628577 0.280520
0.681840 0.581181 0.261336
0.830431 0.602775 0.275124
0.940889 0.625580 0.289025
0.263681 0.813513 0.256812
0.328485 0.807890 0.271690
0.420350 0.818049 0.307322
0.492897 0.769509 0.305458
0.577484 0.734858 0.292703
0.688504 0.739020 0.287622
0.799172 0.676617 0.280711
0.942308 0.692320 0.304121
0.271349 0.902714 0.244651
0.362032 0.915936 0.272456
0.452473 0.930549 0.312990
0.530636 0.892252 0.314115
0.593175 0.844421 0.302567
0.695818 0.838349 0.295717
0.818186 0.845309 0.290267
0.915401 0.764038 0.305755
0.000793 0.009007 0.095873
0.011996 0.005751 0.094329
0.044064 0.001586 0.063294
0.088665 0.000793 0.044523
0.171477 0.000793 0.043002
0.282141 0.002241 0.044035
0.390863 0.002350 0.048007
0.496416 0.001587 0.049600
0.001047 0.018289 0.065543
0.044819 0.082833 0.184623
0.116162 0.094639 0.169984
0.183547 0.082728 0.130195
0.284417 0.079027 0.118884
0.404212 0.078415 0.116484
0.532063 0.081098 0.115593
0.632265 0.077245 0.119916
0.035387 0.176602 0.223443
0.036962 0.162355 0.240136
0.154145 0.216731 0.286899
0.307047 0.228632 0.257103
0.422201 0.228440 0.238293
0.557661 0.222630 0.225658
0.658168 0.220854 0.221501
0.739199 0.216300 0.219444
0.116939 0.442656 0.359272
0.099789 0.408091 0.357242
0.187555 0.395326 0.366910
0.402394 0.405880 0.382569
0.537604 0.404949 0.369645
0.653010 0.405759 0.361098
0.750146 0.405203 0.353528
0.829352 0.401122 0.352526
0.216093 0.605046 0.398797
0.211998 0.585885 0.395300
0.326544 0.578076 0.401103
0.445931 0.561278 0.424634
0.560413 0.528078 0.410264
0.689249 0.535575 0.407495
0.808211 0.544075 0.407946
0.900681 0.536957 0.408176
0.297851 0.727048 0.398394
0.292822 0.710972 0.393358
0.357580 0.686168 0.392739
0.471791 0.691240 0.434202
0.570909 0.657172 0.431789
0.672959 0.626452 0.426693
0.814605 0.638303 0.428620
0.941458 0.664204 0.427324
0.340137 0.832539 0.383802
0.362777 0.814433 0.376925
0.435022 0.806027 0.391343
0.514095 0.821555 0.440545
0.590897 0.779205 0.443992
0.685829 0.763901 0.438686
0.794046 0.714998 0.435660
0.941760 0.734838 0.442249
0.315160 0.882503 0.355901
0.384652 0.890507 0.353793
0.467936 0.911633 0.389524
0.547791 0.936559 0.441514
0.625894 0.900001 0.450595
0.703127 0.863226 0.442977
0.817781 0.868877 0.438106
0.921112 0.802360 0.441088
0.000793 0.018580 0.110831
0.004827 0.019403 0.141865
0.035873 0.006576 0.107600
0.076460 0.001652 0.075830
0.125045 0.000793 0.057667
0.199236 0.000793 0.054982
0.304344 0.002857 0.058442
0.401812 0.003143 0.068660
0.000793 0.012006 0.072096
0.032962 0.090393 0.227523
0.101633 0.107142 0.227579
0.154204 0.091192 0.179706
0.223311 0.081462 0.145477
0.313152 0.077354 0.138855
0.420493 0.079579 0.138930
0.533747 0.086102 0.147280
0.025715 0.105774 0.180718
0.031906 0.119871 0.226732
0.147306 0.214232 0.328385
0.267265 0.239143 0.314007
0.340792 0.225181 0.274725
0.447979 0.225726 0.265619
0.567614 0.222074 0.257791
0.678873 0.222928 0.265394
0.056389 0.338209 0.356912
0.044349 0.296484 0.355585
0.062104 0.292584 0.388968
0.321358 0.377091 0.435849
0.467057 0.401644 0.423803
0.574193 0.399563 0.410245
0.686069 0.396179 0.402626
0.779028 0.386072 0.394548
0.178947 0.587422 0.474207
0.159136 0.557495 0.473738
0.171901 0.530118 0.475419
0.341939 0.537164 0.508929
0.541252 0.552966 0.531981
0.660213 0.554590 0.526778
0.766161 0.555689 0.522604
0.857767 0.555281 0.517643
0.249483 0.716006 0.498699
0.242238 0.704957 0.508135
0.307676 0.699446 0.514979
0.455842 0.699401 0.541054
0.569353 0.695806 0.568678
0.665792 0.657540 0.562873
0.805718 0.667329 0.554269
0.935532 0.680754 0.556114
0.321637 0.815343 0.485436
0.350449 0.817776 0.497215
0.448816 0.820633 0.509004
0.537352 0.811654 0.527434
0.610794 0.824264 0.572430
0.697547 0.790427 0.574244
0.798909 0.751771 0.568790
0.939363 0.763989 0.564094
0.354689 0.848327 0.465581
0.406759 0.853858 0.467436
0.485828 0.871675 0.474537
0.567092 0.909253 0.514686
0.645654 0.944499 0.570575
0.726457 0.908067 0.580988
0.824987 0.892221 0.575245
0.932866 0.841919 0.568900
0.003034 0.025011 0.142478
0.004681 0.026938 0.171785
0.024909 0.019026 0.151286
0.065636 0.007816 0.121140
0.104864 0.001360 0.087113
0.148943 0.000793 0.069355
0.224660 0.000842 0.070763
0.325483 0.004046 0.076695
0.000793 0.016865 0.092919
0.030142 0.100899 0.262293
0.085070 0.122042 0.277528
0.137111 0.103966 0.232556
0.192316 0.089688 0.191898
0.257667 0.081460 0.161236
0.333740 0.075118 0.157812
0.438402 0.081256 0.160451
0.011500 0.061338 0.138394
0.029324 0.106643 0.233504
0.123209 0.219657 0.373498
0.242178 0.248364 0.366872
0.304037 0.236092 0.327448
0.378713 0.226141 0.293235
0.471645 0.225148 0.287084
0.577293 0.223640 0.287439
0.037734 0.231133 0.312666
0.039835 0.221401 0.325321
0.061831 0.252919 0.389272
0.309005 0.370820 0.472568
0.422622 0.400307 0.469288
0.497665 0.400479 0.445123
0.593497 0.397543 0.434181
0.694622 0.395854 0.433032
0.116694 0.488722 0.469734
0.095821 0.444399 0.463437
0.085585 0.415072 0.477984
0.176889 0.432877 0.527952
0.474361 0.515043 0.567930
0.592544 0.546304 0.566892
0.691079 0.550026 0.567913
0.802820 0.547999 0.560238
0.222892 0.711059 0.575335
0.210012 0.687200 0.582853
0.204138 0.663471 0.587514
0.287128 0.652511 0.600608
0.480480 0.653308 0.622373
0.647031 0.669853 0.656816
0.784096 0.677402 0.656837
0.888305 0.679620 0.646981
0.281098 0.808995 0.573021
0.286610 0.803138 0.588782
0.372272 0.803176 0.605936
0.484833 0.816213 0.633834
0.598343 0.816042 0.658091
0.711687 0.826261 0.696498
0.804483 0.782000 0.683630
0.944005 0.796930 0.684066
0.310948 0.853088 0.555852
0.349803 0.858062 0.573841
0.438634 0.865929 0.588603
0.543061 0.882088 0.610568
0.652981 0.904438 0.629584
0.745152 0.952493 0.695336
0.837687 0.921457 0.703378
0.944362 0.877524 0.683433
0.006657 0.035265 0.167158
0.007257 0.037325 0.196789
0.018523 0.028174 0.193355
0.052725 0.016713 0.155194
0.093859 0.006414 0.124693
0.135289 0.000842 0.090793
0.184110 0.000793 0.080822
0.256304 0.000793 0.081098
0.002461 0.025248 0.127141
0.031635 0.112456 0.289739
0.067783 0.129718 0.321948
0.125059 0.116597 0.278734
0.172361 0.101394 0.238682
0.228132 0.087041 0.197101
0.291102 0.078230 0.173978
0.363618 0.074017 0.171200
0.002750 0.029297 0.103033
0.030526 0.112427 0.258112
0.096715 0.228009 0.414595
0.221702 0.258735 0.411825
0.277060 0.245227 0.372418
0.338934 0.234352 0.336750
0.413765 0.228165 0.306569
0.495379 0.223093 0.305079
0.038088 0.181064 0.283490
0.037922 0.173516 0.292629
0.059705 0.236302 0.398982
0.294369 0.370994 0.511233
0.396038 0.399092 0.507254
0.453878 0.398885 0.482750
0.527669 0.399085 0.462698
0.611357 0.396264 0.456608
0.069208 0.368404 0.428725
0.064761 0.351194 0.439756
0.066218 0.349522 0.470360
0.159906 0.392019 0.536565
0.466069 0.503383 0.591682
0.555296 0.535013 0.600884
0.618421 0.543940 0.586656
0.706258 0.546769 0.595221
0.173437 0.622178 0.576391
0.151497 0.581358 0.566581
0.133322 0.548851 0.574315
0.159702 0.540994 0.608495
0.368555 0.558437 0.631525
0.598527 0.626872 0.674681
0.710189 0.663772 0.688915
0.814520 0.669099 0.690413
0.254724 0.805864 0.643541
0.246862 0.787973 0.655357
0.250499 0.770888 0.664668
0.315186 0.758263 0.680231
0.471514 0.757270 0.696488
0.615427 0.762982 0.727049
0.786223 0.795991 0.779166
0.924550 0.804475 0.786658
0.279567 0.860421 0.639099
0.294348 0.861699 0.654355
0.360847 0.863326 0.673669
0.469965 0.875958 0.697037
0.584984 0.892372 0.730476
0.706325 0.912675 0.761729
0.847894 0.956229 0.822634
0.960597 0.915894 0.806358
0.011841 0.054932 0.197784
0.012634 0.055847 0.225516
0.014413 0.043352 0.235051
0.052229 0.025125 0.192344
0.089486 0.013520 0.159554
0.123225 0.001814 0.119315
0.162310 0.000793 0.095468
0.211182 0.001587 0.091339
0.006657 0.036726 0.160984
0.033938 0.125622 0.318847
0.049299 0.143114 0.362525
0.119498 0.129113 0.325794
0.167609 0.113616 0.281051
0.217349 0.097420 0.238084
0.262198 0.083609 0.197717
0.314980 0.075845 0.183214
0.001696 0.024811 0.117955
0.033351 0.123861 0.288514
0.067745 0.232103 0.449564
0.199058 0.264550 0.457890
0.262929 0.252144 0.411856
0.317112 0.242708 0.375884
0.374765 0.227868 0.336953
0.444707 0.228542 0.317021
0.032440 0.136400 0.248104
0.033941 0.136116 0.269935
0.048844 0.235751 0.430566
0.273366 0.370429 0.545629
0.377442 0.393709 0.539261
0.430039 0.397927 0.513884
0.488256 0.397276 0.488557
0.559675 0.399833 0.475020
0.046055 0.303122 0.404214
0.048416 0.304405 0.424839
0.052098 0.304829 0.456019
0.187244 0.379329 0.554017
0.455233 0.495721 0.616700
0.537805 0.526858 0.623940
0.581460 0.534208 0.610701
0.643773 0.547886 0.600974
0.112492 0.493853 0.532035
0.103385 0.473844 0.542654
0.101149 0.464577 0.566293
0.119685 0.477908 0.617799
0.359335 0.522415 0.642673
0.595179 0.614620 0.695806
0.669948 0.648678 0.714129
0.732971 0.665366 0.709421
0.214081 0.723031 0.656721
0.198031 0.691276 0.653090
0.183891 0.664774 0.654551
0.184755 0.652548 0.681345
0.349586 0.653272 0.700212
0.510903 0.658473 0.716296
0.716568 0.741808 0.806650
0.829629 0.791338 0.818560
0.253845 0.835449 0.708801
0.248208 0.825753 0.715441
0.243430 0.815774 0.721296
0.272526 0.810695 0.736808
0.452017 0.824397 0.752642
0.587463 0.840628 0.785100
0.732370 0.874869 0.841745
0.961670 0.955688 0.953918
