Plugins/FilmEmulator/Content/LUTs/FE_Kodak_5222_Dev12_64.cube
TITLE "FE_Kodak_5222_Dev12_33"
LUT_3D_SIZE 8
0.0002598 0.0002598 0.0002598
0.0018448 0.0018448 0.0018448
0.0082823 0.0082823 0.0082823
0.0194602 0.0194602 0.0194602
0.0339354 0.0339354 0.0339354
0.0520636 0.0520636 0.0520636
0.0753958 0.0753958 0.0753958
0.1007212 0.1007212 0.1007212
0.0082823 0.0082823 0.0082823
0.0194602 0.0194602 0.0194602
0.0339354 0.0339354 0.0339354
0.0520636 0.0520636 0.0520636
0.0753958 0.0753958 0.0753958
0.1007212 0.1007212 0.1007212
0.1271724 0.1271724 0.1271724
0.1559796 0.1559796 0.1559796
0.0339354 0.0339354 0.0339354
0.0520636 0.0520636 0.0520636
0.0753958 0.0753958 0.0753958
0.1007212 0.1007212 0.1007212
0.1271724 0.1271724 0.1271724
0.1559796 0.1559796 0.1559796
0.1896356 0.1896356 0.1896356
0.2190685 0.2190685 0.2190685
0.0753958 0.0753958 0.0753958
0.1007212 0.1007212 0.1007212
0.1271724 0.1271724 0.1271724
0.1559796 0.1559796 0.1559796
0.1896356 0.1896356 0.1896356
0.2190685 0.2190685 0.2190685
0.2514949 0.2514949 0.2514949
0.2816594 0.2816594 0.2816594
0.1271724 0.1271724 0.1271724
0.1559796 0.1559796 0.1559796
0.1896356 0.1896356 0.1896356
0.2190685 0.2190685 0.2190685
0.2514949 0.2514949 0.2514949
0.2816594 0.2816594 0.2816594
0.3138457 0.3138457 0.3138457
0.3419596 0.3419596 0.3419596
0.1896356 0.1896356 0.1896356
0.2190685 0.2190685 0.2190685
0.2514949 0.2514949 0.2514949
0.2816594 0.2816594 0.2816594
0.3138457 0.3138457 0.3138457
0.3419596 0.3419596 0.3419596
0.3710316 0.3710316 0.3710316
0.4007007 0.4007007 0.4007007
0.2514949 0.2514949 0.2514949
0.2816594 0.2816594 0.2816594
0.3138457 0.3138457 0.3138457
0.3419596 0.3419596 0.3419596
0.3710316 0.3710316 0.3710316
0.4007007 0.4007007 0.4007007
0.4245341 0.4245341 0.4245341
0.4547357 0.4547357 0.4547357
0.3138457 0.3138457 0.3138457
0.3419596 0.3419596 0.3419596
0.3710316 0.3710316 0.3710316
0.4007007 0.4007007 0.4007007
0.4245341 0.4245341 0.4245341
0.4547357 0.4547357 0.4547357
0.4787422 0.4787422 0.4787422
0.4968179 0.4968179 0.4968179
0.0385944 0.0385944 0.0385944
0.0589219 0.0589219 0.0589219
0.0811709 0.0811709 0.0811709
0.1080514 0.1080514 0.1080514
0.1362486 0.1362486 0.1362486
0.1666704 0.1666704 0.1666704
0.1977231 0.1977231 0.1977231
0.2280336 0.2280336 0.2280336
0.0811709 0.0811709 0.0811709
0.1080514 0.1080514 0.1080514
0.1362486 0.1362486 0.1362486
0.1666704 0.1666704 0.1666704
0.1977231 0.1977231 0.1977231
0.2280336 0.2280336 0.2280336
0.2613163 0.2613163 0.2613163
0.2921641 0.2921641 0.2921641
0.1362486 0.1362486 0.1362486
0.1666704 0.1666704 0.1666704
0.1977231 0.1977231 0.1977231
0.2280336 0.2280336 0.2280336
0.2613163 0.2613163 0.2613163
0.2921641 0.2921641 0.2921641
0.3194008 0.3194008 0.3194008
0.3534606 0.3534606 0.3534606
0.1977231 0.1977231 0.1977231
0.2280336 0.2280336 0.2280336
0.2613163 0.2613163 0.2613163
0.2921641 0.2921641 0.2921641
0.3194008 0.3194008 0.3194008
0.3534606 0.3534606 0.3534606
0.3829415 0.3829415 0.3829415
0.4066197 0.4066197 0.4066197
0.2613163 0.2613163 0.2613163
0.2921641 0.2921641 0.2921641
0.3194008 0.3194008 0.3194008
0.3534606 0.3534606 0.3534606
0.3829415 0.3829415 0.3829415
0.4066197 0.4066197 0.4066197
0.4365910 0.4365910 0.4365910
0.4607220 0.4607220 0.4607220
0.3194008 0.3194008 0.3194008
0.3534606 0.3534606 0.3534606
0.3829415 0.3829415 0.3829415
0.4066197 0.4066197 0.4066197
0.4365910 0.4365910 0.4365910
0.4607220 0.4607220 0.4607220
0.4847637 0.4847637 0.4847637
0.5028471 0.5028471 0.5028471
0.3829415 0.3829415 0.3829415
0.4066197 0.4066197 0.4066197
0.4365910 0.4365910 0.4365910
0.4607220 0.4607220 0.4607220
0.4847637 0.4847637 0.4847637
0.5028471 0.5028471 0.5028471
0.5266935 0.5266935 0.5266935
0.5443737 0.5443737 0.5443737
0.4365910 0.4365910 0.4365910
0.4607220 0.4607220 0.4607220
0.4847637 0.4847637 0.4847637
0.5088757 0.5088757 0.5088757
0.5266935 0.5266935 0.5266935
0.5502446 0.5502446 0.5502446
0.5677670 0.5677670 0.5677670
0.5849039 0.5849039 0.5849039
0.1425980 0.1425980 0.1425980
0.1741182 0.1741182 0.1741182
0.2060678 0.2060678 0.2060678
0.2372292 0.2372292 0.2372292
0.2663189 0.2663189 0.2663189
0.2975017 0.2975017 0.2975017
0.3306415 0.3306415 0.3306415
0.3592765 0.3592765 0.3592765
0.2060678 0.2060678 0.2060678
0.2372292 0.2372292 0.2372292
0.2663189 0.2663189 0.2663189
0.2975017 0.2975017 0.2975017
0.3306415 0.3306415 0.3306415
0.3592765 0.3592765 0.3592765
0.3889506 0.3889506 0.3889506
0.4125661 0.4125661 0.4125661
0.2663189 0.2663189 0.2663189
0.2975017 0.2975017 0.2975017
0.3306415 0.3306415 0.3306415
0.3592765 0.3592765 0.3592765
0.3889506 0.3889506 0.3889506
0.4185380 0.4185380 0.4185380
0.4426488 0.4426488 0.4426488
0.4667197 0.4667197 0.4667197
0.3306415 0.3306415 0.3306415
0.3592765 0.3592765 0.3592765
0.3889506 0.3889506 0.3889506
0.4185380 0.4185380 0.4185380
0.4426488 0.4426488 0.4426488
0.4667197 0.4667197 0.4667197
0.4907894 0.4907894 0.4907894
0.5148666 0.5148666 0.5148666
0.3889506 0.3889506 0.3889506
0.4185380 0.4185380 0.4185380
0.4426488 0.4426488 0.4426488
0.4667197 0.4667197 0.4667197
0.4907894 0.4907894 0.4907894
0.5148666 0.5148666 0.5148666
0.5325965 0.5325965 0.5325965
0.5502446 0.5502446 0.5502446
0.4426488 0.4426488 0.4426488
0.4667197 0.4667197 0.4667197
0.4907894 0.4907894 0.4907894
0.5148666 0.5148666 0.5148666
0.5325965 0.5325965 0.5325965
0.5502446 0.5502446 0.5502446
0.5735725 0.5735725 0.5735725
0.5905369 0.5905369 0.5905369
0.4907894 0.4907894 0.4907894
0.5148666 0.5148666 0.5148666
0.5325965 0.5325965 0.5325965
0.5502446 0.5502446 0.5502446
0.5735725 0.5735725 0.5735725
0.5905369 0.5905369 0.5905369
0.6072887 0.6072887 0.6072887
0.6237915 0.6237915 0.6237915
0.5325965 0.5325965 0.5325965
0.5502446 0.5502446 0.5502446
0.5735725 0.5735725 0.5735725
0.5905369 0.5905369 0.5905369
0.6072887 0.6072887 0.6072887
0.6237915 0.6237915 0.6237915
0.6344942 0.6344942 0.6344942
0.6498745 0.6498745 0.6498745
0.2764941 0.2764941 0.2764941
0.3083435 0.3083435 0.3083435
0.3362772 0.3362772 0.3362772
0.3651339 0.3651339 0.3651339
0.3948104 0.3948104 0.3948104
0.4245341 0.4245341 0.4245341
0.4487236 0.4487236 0.4487236
0.4727270 0.4727270 0.4727270
0.3362772 0.3362772 0.3362772
0.3651339 0.3651339 0.3651339
0.3948104 0.3948104 0.3948104
0.4245341 0.4245341 0.4245341
0.4487236 0.4487236 0.4487236
0.4727270 0.4727270 0.4727270
0.4968179 0.4968179 0.4968179
0.5207830 0.5207830 0.5207830
0.3948104 0.3948104 0.3948104
0.4245341 0.4245341 0.4245341
0.4487236 0.4487236 0.4487236
0.4727270 0.4727270 0.4727270
0.4968179 0.4968179 0.4968179
0.5207830 0.5207830 0.5207830
0.5384905 0.5384905 0.5384905
0.5561014 0.5561014 0.5561014
0.4487236 0.4487236 0.4487236
0.4727270 0.4727270 0.4727270
0.4968179 0.4968179 0.4968179
0.5207830 0.5207830 0.5207830
0.5384905 0.5384905 0.5384905
0.5561014 0.5561014 0.5561014
0.5792487 0.5792487 0.5792487
0.5961463 0.5961463 0.5961463
0.4968179 0.4968179 0.4968179
0.5207830 0.5207830 0.5207830
0.5384905 0.5384905 0.5384905
0.5561014 0.5561014 0.5561014
0.5792487 0.5792487 0.5792487
0.5961463 0.5961463 0.5961463
0.6128189 0.6128189 0.6128189
0.6237915 0.6237915 0.6237915
0.5384905 0.5384905 0.5384905
0.5561014 0.5561014 0.5561014
0.5792487 0.5792487 0.5792487
0.5961463 0.5961463 0.5961463
0.6128189 0.6128189 0.6128189
0.6237915 0.6237915 0.6237915
0.6396533 0.6396533 0.6396533
0.6549346 0.6549346 0.6549346
0.5792487 0.5792487 0.5792487
0.5961463 0.5961463 0.5961463
0.6128189 0.6128189 0.6128189
0.6237915 0.6237915 0.6237915
0.6396533 0.6396533 0.6396533
0.6549346 0.6549346 0.6549346
0.6649494 0.6649494 0.6649494
0.6796952 0.6796952 0.6796952
0.6128189 0.6128189 0.6128189
0.6237915 0.6237915 0.6237915
0.6396533 0.6396533 0.6396533
0.6549346 0.6549346 0.6549346
0.6649494 0.6649494 0.6649494
0.6796952 0.6796952 0.6796952
0.6891716 0.6891716 0.6891716
0.7029746 0.7029746 0.7029746
0.4066197 0.4066197 0.4066197
0.4305524 0.4305524 0.4305524
0.4547357 0.4547357 0.4547357
0.4787422 0.4787422 0.4787422
0.5028471 0.5028471 0.5028471
0.5266935 0.5266935 0.5266935
0.5443737 0.5443737 0.5443737
0.5619426 0.5619426 0.5619426
0.4547357 0.4547357 0.4547357
0.4787422 0.4787422 0.4787422
0.5028471 0.5028471 0.5028471
0.5266935 0.5266935 0.5266935
0.5443737 0.5443737 0.5443737
0.5619426 0.5619426 0.5619426
0.5792487 0.5792487 0.5792487
0.5961463 0.5961463 0.5961463
0.5028471 0.5028471 0.5028471
0.5266935 0.5266935 0.5266935
0.5443737 0.5443737 0.5443737
0.5619426 0.5619426 0.5619426
0.5792487 0.5792487 0.5792487
0.6017306 0.6017306 0.6017306
0.6128189 0.6128189 0.6128189
0.6292313 0.6292313 0.6292313
0.5443737 0.5443737 0.5443737
0.5619426 0.5619426 0.5619426
0.5792487 0.5792487 0.5792487
0.6017306 0.6017306 0.6017306
0.6128189 0.6128189 0.6128189
0.6292313 0.6292313 0.6292313
0.6447805 0.6447805 0.6447805
0.6599600 0.6599600 0.6599600
0.5792487 0.5792487 0.5792487
0.6017306 0.6017306 0.6017306
0.6128189 0.6128189 0.6128189
0.6292313 0.6292313 0.6292313
0.6447805 0.6447805 0.6447805
0.6599600 0.6599600 0.6599600
0.6699023 0.6699023 0.6699023
0.6844932 0.6844932 0.6844932
0.6128189 0.6128189 0.6128189
0.6292313 0.6292313 0.6292313
0.6447805 0.6447805 0.6447805
0.6599600 0.6599600 0.6599600
0.6699023 0.6699023 0.6699023
0.6844932 0.6844932 0.6844932
0.6938118 0.6938118 0.6938118
0.7029746 0.7029746 0.7029746
0.6447805 0.6447805 0.6447805
0.6599600 0.6599600 0.6599600
0.6699023 0.6699023 0.6699023
0.6844932 0.6844932 0.6844932
0.6938118 0.6938118 0.6938118
0.7029746 0.7029746 0.7029746
0.7164166 0.7164166 0.7164166
0.7251709 0.7251709 0.7251709
0.6699023 0.6699023 0.6699023
0.6844932 0.6844932 0.6844932
0.6938118 0.6938118 0.6938118
0.7029746 0.7029746 0.7029746
0.7164166 0.7164166 0.7164166
0.7251709 0.7251709 0.7251709
0.7336389 0.7336389 0.7336389
0.7418242 0.7418242 0.7418242
0.5088757 0.5088757 0.5088757
0.5325965 0.5325965 0.5325965
0.5502446 0.5502446 0.5502446
0.5677670 0.5677670 0.5677670
0.5849039 0.5849039 0.5849039
0.6017306 0.6017306 0.6017306
0.6183202 0.6183202 0.6183202
0.6344942 0.6344942 0.6344942
0.5502446 0.5502446 0.5502446
0.5677670 0.5677670 0.5677670
0.5849039 0.5849039 0.5849039
0.6017306 0.6017306 0.6017306
0.6183202 0.6183202 0.6183202
0.6344942 0.6344942 0.6344942
0.6498745 0.6498745 0.6498745
0.6599600 0.6599600 0.6599600
0.5849039 0.5849039 0.5849039
0.6017306 0.6017306 0.6017306
0.6183202 0.6183202 0.6183202
0.6344942 0.6344942 0.6344942
0.6498745 0.6498745 0.6498745
0.6599600 0.6599600 0.6599600
0.6748180 0.6748180 0.6748180
0.6844932 0.6844932 0.6844932
0.6183202 0.6183202 0.6183202
0.6344942 0.6344942 0.6344942
0.6498745 0.6498745 0.6498745
0.6599600 0.6599600 0.6599600
0.6748180 0.6748180 0.6748180
0.6844932 0.6844932 0.6844932
0.6984129 0.6984129 0.6984129
0.7074960 0.7074960 0.7074960
0.6498745 0.6498745 0.6498745
0.6599600 0.6599600 0.6599600
0.6748180 0.6748180 0.6748180
0.6844932 0.6844932 0.6844932
0.6984129 0.6984129 0.6984129
0.7074960 0.7074960 0.7074960
0.7164166 0.7164166 0.7164166
0.7251709 0.7251709 0.7251709
0.6748180 0.6748180 0.6748180
0.6844932 0.6844932 0.6844932
0.6984129 0.6984129 0.6984129
0.7074960 0.7074960 0.7074960
0.7164166 0.7164166 0.7164166
0.7251709 0.7251709 0.7251709
0.7377521 0.7377521 0.7377521
0.7458549 0.7458549 0.7458549
0.6984129 0.6984129 0.6984129
0.7074960 0.7074960 0.7074960
0.7164166 0.7164166 0.7164166
0.7251709 0.7251709 0.7251709
0.7377521 0.7377521 0.7377521
0.7458549 0.7458549 0.7458549
0.7537910 0.7537910 0.7537910
0.7615585 0.7615585 0.7615585
0.7164166 0.7164166 0.7164166
0.7251709 0.7251709 0.7251709
0.7377521 0.7377521 0.7377521
0.7458549 0.7458549 0.7458549
0.7537910 0.7537910 0.7537910
0.7615585 0.7615585 0.7615585
0.7653786 0.7653786 0.7653786
0.7727928 0.7727928 0.7727928
0.5905369 0.5905369 0.5905369
0.6072887 0.6072887 0.6072887
0.6237915 0.6237915 0.6237915
0.6396533 0.6396533 0.6396533
0.6498745 0.6498745 0.6498745
0.6649494 0.6649494 0.6649494
0.6796952 0.6796952 0.6796952
0.6891716 0.6891716 0.6891716
0.6237915 0.6237915 0.6237915
0.6396533 0.6396533 0.6396533
0.6498745 0.6498745 0.6498745
0.6649494 0.6649494 0.6649494
0.6796952 0.6796952 0.6796952
0.6891716 0.6891716 0.6891716
0.6984129 0.6984129 0.6984129
0.7119769 0.7119769 0.7119769
0.6498745 0.6498745 0.6498745
0.6649494 0.6649494 0.6649494
0.6796952 0.6796952 0.6796952
0.6891716 0.6891716 0.6891716
0.6984129 0.6984129 0.6984129
0.7119769 0.7119769 0.7119769
0.7208147 0.7208147 0.7208147
0.7294846 0.7294846 0.7294846
0.6796952 0.6796952 0.6796952
0.6891716 0.6891716 0.6891716
0.6984129 0.6984129 0.6984129
0.7119769 0.7119769 0.7119769
0.7208147 0.7208147 0.7208147
0.7294846 0.7294846 0.7294846
0.7377521 0.7377521 0.7377521
0.7458549 0.7458549 0.7458549
0.6984129 0.6984129 0.6984129
0.7119769 0.7119769 0.7119769
0.7208147 0.7208147 0.7208147
0.7294846 0.7294846 0.7294846
0.7377521 0.7377521 0.7377521
0.7458549 0.7458549 0.7458549
0.7537910 0.7537910 0.7537910
0.7615585 0.7615585 0.7615585
0.7208147 0.7208147 0.7208147
0.7294846 0.7294846 0.7294846
0.7377521 0.7377521 0.7377521
0.7458549 0.7458549 0.7458549
0.7537910 0.7537910 0.7537910
0.7615585 0.7615585 0.7615585
0.7691560 0.7691560 0.7691560
0.7763407 0.7763407 0.7763407
0.7377521 0.7377521 0.7377521
0.7458549 0.7458549 0.7458549
0.7537910 0.7537910 0.7537910
0.7615585 0.7615585 0.7615585
0.7691560 0.7691560 0.7691560
0.7763407 0.7763407 0.7763407
0.7833175 0.7833175 0.7833175
0.7867464 0.7867464 0.7867464
0.7537910 0.7537910 0.7537910
0.7615585 0.7615585 0.7615585
0.7691560 0.7691560 0.7691560
0.7763407 0.7763407 0.7763407
0.7833175 0.7833175 0.7833175
0.7867464 0.7867464 0.7867464
0.7934847 0.7934847 0.7934847
0.8000646 0.8000646 0.8000646
0.6549346 0.6549346 0.6549346
0.6699023 0.6699023 0.6699023
0.6796952 0.6796952 0.6796952
0.6938118 0.6938118 0.6938118
0.7029746 0.7029746 0.7029746
0.7119769 0.7119769 0.7119769
0.7208147 0.7208147 0.7208147
0.7336389 0.7336389 0.7336389
0.6796952 0.6796952 0.6796952
0.6938118 0.6938118 0.6938118
0.7029746 0.7029746 0.7029746
0.7119769 0.7119769 0.7119769
0.7208147 0.7208147 0.7208147
0.7336389 0.7336389 0.7336389
0.7418242 0.7418242 0.7418242
0.7498440 0.7498440 0.7498440
0.7029746 0.7029746 0.7029746
0.7119769 0.7119769 0.7119769
0.7208147 0.7208147 0.7208147
0.7336389 0.7336389 0.7336389
0.7418242 0.7418242 0.7418242
0.7498440 0.7498440 0.7498440
0.7576959 0.7576959 0.7576959
0.7653786 0.7653786 0.7653786
0.7208147 0.7208147 0.7208147
0.7336389 0.7336389 0.7336389
0.7418242 0.7418242 0.7418242
0.7498440 0.7498440 0.7498440
0.7576959 0.7576959 0.7576959
0.7653786 0.7653786 0.7653786
0.7691560 0.7691560 0.7691560
0.7763407 0.7763407 0.7763407
0.7418242 0.7418242 0.7418242
0.7498440 0.7498440 0.7498440
0.7576959 0.7576959 0.7576959
0.7653786 0.7653786 0.7653786
0.7727928 0.7727928 0.7727928
0.7763407 0.7763407 0.7763407
0.7833175 0.7833175 0.7833175
0.7901354 0.7901354 0.7901354
0.7576959 0.7576959 0.7576959
0.7653786 0.7653786 0.7653786
0.7727928 0.7727928 0.7727928
0.7763407 0.7763407 0.7763407
0.7833175 0.7833175 0.7833175
0.7901354 0.7901354 0.7901354
0.7967945 0.7967945 0.7967945
0.8000646 0.8000646 0.8000646
0.7727928 0.7727928 0.7727928
0.7763407 0.7763407 0.7763407
0.7833175 0.7833175 0.7833175
0.7901354 0.7901354 0.7901354
0.7967945 0.7967945 0.7967945
0.8000646 0.8000646 0.8000646
0.8064361 0.8064361 0.8064361
0.8124102 0.8124102 0.8124102
0.7833175 0.7833175 0.7833175
0.7901354 0.7901354 0.7901354
0.7967945 0.7967945 0.7967945
0.8000646 0.8000646 0.8000646
0.8064361 0.8064361 0.8064361
0.8124102 0.8124102 0.8124102
0.8153435 0.8153435 0.8153435
0.8211036 0.8211036 0.8211036
