Plugins/FilmEmulator/Content/LUTs/FE_Kodak_5207_64.cube
TITLE "FE_Kodak_5207_33"
LUT_3D_SIZE 4
0.0016864 0.0010798 0.0015275
0.2260494 0.0069731 0.0082291
0.4331658 0.0190572 0.0223206
0.5771125 0.0343014 0.0386757
0.0099824 0.2654217 0.0107233
0.2156594 0.2843035 0.0239978
0.4235311 0.3102404 0.0394915
0.5613907 0.3282262 0.0561498
0.0243306 0.5141692 0.0289820
0.2178002 0.5268793 0.0437115
0.4181329 0.5381608 0.0598040
0.5652381 0.5490055 0.0768315
0.0413448 0.6605190 0.0497585
0.2216544 0.6713643 0.0632620
0.4237512 0.6813532 0.0809905
0.5617781 0.6908740 0.1005401
0.0279326 0.0114947 0.2826235
0.2680321 0.0240730 0.2978349
0.4660111 0.0387552 0.3149657
0.5926641 0.0556943 0.3325050
0.0305273 0.2867965 0.3155232
0.2615986 0.3048614 0.3268312
0.4508460 0.3310729 0.3419614
0.5795500 0.3491955 0.3578124
0.0433503 0.5293941 0.3380700
0.2571712 0.5411159 0.3503126
0.4455237 0.5518160 0.3653498
0.5835443 0.5622390 0.3813195
0.0619191 0.6733565 0.3498725
0.2614541 0.6835458 0.3630851
0.4514185 0.6842584 0.3780646
0.5803022 0.6934575 0.3943430
0.0678705 0.0299502 0.5161797
0.3095302 0.0465665 0.5250043
0.4906754 0.0645108 0.5352827
0.6081666 0.0828348 0.5455417
0.0684169 0.3049513 0.5392486
0.2979300 0.3231353 0.5448779
0.4782006 0.3501148 0.5620319
0.6061756 0.3686791 0.5704431
0.0715702 0.5412274 0.5564414
0.3009093 0.5525935 0.5617620
0.4730441 0.5631031 0.5693496
0.6014160 0.5733851 0.5773993
0.0832516 0.6837440 0.5699669
0.3058525 0.6849402 0.5752484
0.4789968 0.6942337 0.5827854
0.5982111 0.7031969 0.5908556
0.1125305 0.0537040 0.6513547
0.3391599 0.0718485 0.6591035
0.5162828 0.0922038 0.6678794
0.6240739 0.1098362 0.6765392
0.1110892 0.3230198 0.6761658
0.3371078 0.3414676 0.6738994
0.5059006 0.3599537 0.6810699
0.6236761 0.3787213 0.6885945
0.1160634 0.5524346 0.6831398
0.3323501 0.5634365 0.6886283
0.5007291 0.5738662 0.6953381
0.6189901 0.5840013 0.6947017
0.1184262 0.6847978 0.6950084
0.3375657 0.6944708 0.6926678
0.5066971 0.7035850 0.6993331
0.6158303 0.7123668 0.7064101
