Plugins/FilmEmulator/Content/LUTs/FE_Kodak_5222_Dev5_64.cube
TITLE "FE_Kodak_5222_Dev5_33"
LUT_3D_SIZE 8
0.0069229 0.0069229 0.0069229
0.0160469 0.0160469 0.0160469
0.0323317 0.0323317 0.0323317
0.0495139 0.0495139 0.0495139
0.0663192 0.0663192 0.0663192
0.0835903 0.0835903 0.0835903
0.1009872 0.1009872 0.1009872
0.1193692 0.1193692 0.1193692
0.0323317 0.0323317 0.0323317
0.0495139 0.0495139 0.0495139
0.0663192 0.0663192 0.0663192
0.0835903 0.0835903 0.0835903
0.1009872 0.1009872 0.1009872
0.1193692 0.1193692 0.1193692
0.1379465 0.1379465 0.1379465
0.1555739 0.1555739 0.1555739
0.0663192 0.0663192 0.0663192
0.0835903 0.0835903 0.0835903
0.1009872 0.1009872 0.1009872
0.1193692 0.1193692 0.1193692
0.1379465 0.1379465 0.1379465
0.1555739 0.1555739 0.1555739
0.1714729 0.1714729 0.1714729
0.1886828 0.1886828 0.1886828
0.1009872 0.1009872 0.1009872
0.1193692 0.1193692 0.1193692
0.1379465 0.1379465 0.1379465
0.1555739 0.1555739 0.1555739
0.1714729 0.1714729 0.1714729
0.1886828 0.1886828 0.1886828
0.2034190 0.2034190 0.2034190
0.2189709 0.2189709 0.2189709
0.1379465 0.1379465 0.1379465
0.1555739 0.1555739 0.1555739
0.1714729 0.1714729 0.1714729
0.1886828 0.1886828 0.1886828
0.2034190 0.2034190 0.2034190
0.2189709 0.2189709 0.2189709
0.2350784 0.2350784 0.2350784
0.2476864 0.2476864 0.2476864
0.1714729 0.1714729 0.1714729
0.1886828 0.1886828 0.1886828
0.2034190 0.2034190 0.2034190
0.2189709 0.2189709 0.2189709
0.2350784 0.2350784 0.2350784
0.2476864 0.2476864 0.2476864
0.2607401 0.2607401 0.2607401
0.2738649 0.2738649 0.2738649
0.2034190 0.2034190 0.2034190
0.2189709 0.2189709 0.2189709
0.2350784 0.2350784 0.2350784
0.2476864 0.2476864 0.2476864
0.2607401 0.2607401 0.2607401
0.2738649 0.2738649 0.2738649
0.2873935 0.2873935 0.2873935
0.3013131 0.3013131 0.3013131
0.2350784 0.2350784 0.2350784
0.2476864 0.2476864 0.2476864
0.2607401 0.2607401 0.2607401
0.2738649 0.2738649 0.2738649
0.2873935 0.2873935 0.2873935
0.3013131 0.3013131 0.3013131
0.3107689 0.3107689 0.3107689
0.3251490 0.3251490 0.3251490
0.0721390 0.0721390 0.0721390
0.0890287 0.0890287 0.0890287
0.1075634 0.1075634 0.1075634
0.1244445 0.1244445 0.1244445
0.1407902 0.1407902 0.1407902
0.1586545 0.1586545 0.1586545
0.1748031 0.1748031 0.1748031
0.1922884 0.1922884 0.1922884
0.1075634 0.1075634 0.1075634
0.1244445 0.1244445 0.1244445
0.1407902 0.1407902 0.1407902
0.1586545 0.1586545 0.1586545
0.1748031 0.1748031 0.1748031
0.1922884 0.1922884 0.1922884
0.2072341 0.2072341 0.2072341
0.2229220 0.2229220 0.2229220
0.1407902 0.1407902 0.1407902
0.1586545 0.1586545 0.1586545
0.1748031 0.1748031 0.1748031
0.1922884 0.1922884 0.1922884
0.2072341 0.2072341 0.2072341
0.2229220 0.2229220 0.2229220
0.2392312 0.2392312 0.2392312
0.2519884 0.2519884 0.2519884
0.1748031 0.1748031 0.1748031
0.1922884 0.1922884 0.1922884
0.2072341 0.2072341 0.2072341
0.2229220 0.2229220 0.2229220
0.2392312 0.2392312 0.2392312
0.2519884 0.2519884 0.2519884
0.2650695 0.2650695 0.2650695
0.2783301 0.2783301 0.2783301
0.2072341 0.2072341 0.2072341
0.2229220 0.2229220 0.2229220
0.2392312 0.2392312 0.2392312
0.2519884 0.2519884 0.2519884
0.2650695 0.2650695 0.2650695
0.2783301 0.2783301 0.2783301
0.2919906 0.2919906 0.2919906
0.3060372 0.3060372 0.3060372
0.2392312 0.2392312 0.2392312
0.2519884 0.2519884 0.2519884
0.2650695 0.2650695 0.2650695
0.2783301 0.2783301 0.2783301
0.2919906 0.2919906 0.2919906
0.3060372 0.3060372 0.3060372
0.3155236 0.3155236 0.3155236
0.3251490 0.3251490 0.3251490
0.2650695 0.2650695 0.2650695
0.2783301 0.2783301 0.2783301
0.2919906 0.2919906 0.2919906
0.3060372 0.3060372 0.3060372
0.3155236 0.3155236 0.3155236
0.3300183 0.3300183 0.3300183
0.3398663 0.3398663 0.3398663
0.3498549 0.3498549 0.3498549
0.2919906 0.2919906 0.2919906
0.3060372 0.3060372 0.3060372
0.3155236 0.3155236 0.3155236
0.3300183 0.3300183 0.3300183
0.3398663 0.3398663 0.3398663
0.3498549 0.3498549 0.3498549
0.3599197 0.3599197 0.3599197
0.3698209 0.3698209 0.3698209
0.1466246 0.1466246 0.1466246
0.1649638 0.1649638 0.1649638
0.1816280 0.1816280 0.1816280
0.1959461 0.1959461 0.1959461
0.2111019 0.2111019 0.2111019
0.2269237 0.2269237 0.2269237
0.2434338 0.2434338 0.2434338
0.2563398 0.2563398 0.2563398
0.1816280 0.1816280 0.1816280
0.1959461 0.1959461 0.1959461
0.2111019 0.2111019 0.2111019
0.2269237 0.2269237 0.2269237
0.2434338 0.2434338 0.2434338
0.2563398 0.2563398 0.2563398
0.2694445 0.2694445 0.2694445
0.2828398 0.2828398 0.2828398
0.2111019 0.2111019 0.2111019
0.2269237 0.2269237 0.2269237
0.2434338 0.2434338 0.2434338
0.2563398 0.2563398 0.2563398
0.2694445 0.2694445 0.2694445
0.2828398 0.2828398 0.2828398
0.2966306 0.2966306 0.2966306
0.3060372 0.3060372 0.3060372
0.2434338 0.2434338 0.2434338
0.2563398 0.2563398 0.2563398
0.2694445 0.2694445 0.2694445
0.2828398 0.2828398 0.2828398
0.2966306 0.2966306 0.2966306
0.3060372 0.3060372 0.3060372
0.3203172 0.3203172 0.3203172
0.3300183 0.3300183 0.3300183
0.2694445 0.2694445 0.2694445
0.2828398 0.2828398 0.2828398
0.2966306 0.2966306 0.2966306
0.3060372 0.3060372 0.3060372
0.3203172 0.3203172 0.3203172
0.3300183 0.3300183 0.3300183
0.3398663 0.3398663 0.3398663
0.3548997 0.3548997 0.3548997
0.2966306 0.2966306 0.2966306
0.3060372 0.3060372 0.3060372
0.3203172 0.3203172 0.3203172
0.3300183 0.3300183 0.3300183
0.3398663 0.3398663 0.3398663
0.3548997 0.3548997 0.3548997
0.3648561 0.3648561 0.3648561
0.3748133 0.3748133 0.3748133
0.3203172 0.3203172 0.3203172
0.3300183 0.3300183 0.3300183
0.3398663 0.3398663 0.3398663
0.3548997 0.3548997 0.3548997
0.3648561 0.3648561 0.3648561
0.3748133 0.3748133 0.3748133
0.3848778 0.3848778 0.3848778
0.3899478 0.3899478 0.3899478
0.3398663 0.3398663 0.3398663
0.3548997 0.3548997 0.3548997
0.3648561 0.3648561 0.3648561
0.3748133 0.3748133 0.3748133
0.3848778 0.3848778 0.3848778
0.3899478 0.3899478 0.3899478
0.4001585 0.4001585 0.4001585
0.4104566 0.4104566 0.4104566
0.2150223 0.2150223 0.2150223
0.2309759 0.2309759 0.2309759
0.2476864 0.2476864 0.2476864
0.2607401 0.2607401 0.2607401
0.2738649 0.2738649 0.2738649
0.2873935 0.2873935 0.2873935
0.2966306 0.2966306 0.2966306
0.3107689 0.3107689 0.3107689
0.2476864 0.2476864 0.2476864
0.2607401 0.2607401 0.2607401
0.2738649 0.2738649 0.2738649
0.2873935 0.2873935 0.2873935
0.2966306 0.2966306 0.2966306
0.3107689 0.3107689 0.3107689
0.3203172 0.3203172 0.3203172
0.3349244 0.3349244 0.3349244
0.2738649 0.2738649 0.2738649
0.2873935 0.2873935 0.2873935
0.2966306 0.2966306 0.2966306
0.3107689 0.3107689 0.3107689
0.3203172 0.3203172 0.3203172
0.3349244 0.3349244 0.3349244
0.3448434 0.3448434 0.3448434
0.3548997 0.3548997 0.3548997
0.2966306 0.2966306 0.2966306
0.3107689 0.3107689 0.3107689
0.3203172 0.3203172 0.3203172
0.3349244 0.3349244 0.3349244
0.3448434 0.3448434 0.3448434
0.3548997 0.3548997 0.3548997
0.3648561 0.3648561 0.3648561
0.3748133 0.3748133 0.3748133
0.3203172 0.3203172 0.3203172
0.3349244 0.3349244 0.3349244
0.3448434 0.3448434 0.3448434
0.3548997 0.3548997 0.3548997
0.3648561 0.3648561 0.3648561
0.3748133 0.3748133 0.3748133
0.3848778 0.3848778 0.3848778
0.3950417 0.3950417 0.3950417
0.3448434 0.3448434 0.3448434
0.3548997 0.3548997 0.3548997
0.3648561 0.3648561 0.3648561
0.3748133 0.3748133 0.3748133
0.3848778 0.3848778 0.3848778
0.3950417 0.3950417 0.3950417
0.4052972 0.4052972 0.4052972
0.4104566 0.4104566 0.4104566
0.3648561 0.3648561 0.3648561
0.3748133 0.3748133 0.3748133
0.3848778 0.3848778 0.3848778
0.3950417 0.3950417 0.3950417
0.4052972 0.4052972 0.4052972
0.4104566 0.4104566 0.4104566
0.4206038 0.4206038 0.4206038
0.4308186 0.4308186 0.4308186
0.3848778 0.3848778 0.3848778
0.3950417 0.3950417 0.3950417
0.4052972 0.4052972 0.4052972
0.4104566 0.4104566 0.4104566
0.4206038 0.4206038 0.4206038
0.4308186 0.4308186 0.4308186
0.4359486 0.4359486 0.4359486
0.4462491 0.4462491 0.4462491
0.2783301 0.2783301 0.2783301
0.2919906 0.2919906 0.2919906
0.3013131 0.3013131 0.3013131
0.3155236 0.3155236 0.3155236
0.3251490 0.3251490 0.3251490
0.3349244 0.3349244 0.3349244
0.3498549 0.3498549 0.3498549
0.3599197 0.3599197 0.3599197
0.3013131 0.3013131 0.3013131
0.3155236 0.3155236 0.3155236
0.3251490 0.3251490 0.3251490
0.3349244 0.3349244 0.3349244
0.3498549 0.3498549 0.3498549
0.3599197 0.3599197 0.3599197
0.3698209 0.3698209 0.3698209
0.3798326 0.3798326 0.3798326
0.3251490 0.3251490 0.3251490
0.3349244 0.3349244 0.3349244
0.3498549 0.3498549 0.3498549
0.3599197 0.3599197 0.3599197
0.3698209 0.3698209 0.3698209
0.3798326 0.3798326 0.3798326
0.3899478 0.3899478 0.3899478
0.3950417 0.3950417 0.3950417
0.3498549 0.3498549 0.3498549
0.3599197 0.3599197 0.3599197
0.3698209 0.3698209 0.3698209
0.3798326 0.3798326 0.3798326
0.3899478 0.3899478 0.3899478
0.3950417 0.3950417 0.3950417
0.4052972 0.4052972 0.4052972
0.4155212 0.4155212 0.4155212
0.3698209 0.3698209 0.3698209
0.3798326 0.3798326 0.3798326
0.3899478 0.3899478 0.3899478
0.3950417 0.3950417 0.3950417
0.4052972 0.4052972 0.4052972
0.4155212 0.4155212 0.4155212
0.4206038 0.4206038 0.4206038
0.4308186 0.4308186 0.4308186
0.3899478 0.3899478 0.3899478
0.3950417 0.3950417 0.3950417
0.4052972 0.4052972 0.4052972
0.4155212 0.4155212 0.4155212
0.4206038 0.4206038 0.4206038
0.4308186 0.4308186 0.4308186
0.4410926 0.4410926 0.4410926
0.4462491 0.4462491 0.4462491
0.4052972 0.4052972 0.4052972
0.4155212 0.4155212 0.4155212
0.4206038 0.4206038 0.4206038
0.4308186 0.4308186 0.4308186
0.4410926 0.4410926 0.4410926
0.4462491 0.4462491 0.4462491
0.4514171 0.4514171 0.4514171
0.4617837 0.4617837 0.4617837
0.4206038 0.4206038 0.4206038
0.4308186 0.4308186 0.4308186
0.4410926 0.4410926 0.4410926
0.4462491 0.4462491 0.4462491
0.4514171 0.4514171 0.4514171
0.4617837 0.4617837 0.4617837
0.4667745 0.4667745 0.4667745
0.4765688 0.4765688 0.4765688
0.3300183 0.3300183 0.3300183
0.3398663 0.3398663 0.3398663
0.3498549 0.3498549 0.3498549
0.3599197 0.3599197 0.3599197
0.3698209 0.3698209 0.3698209
0.3798326 0.3798326 0.3798326
0.3899478 0.3899478 0.3899478
0.4001585 0.4001585 0.4001585
0.3498549 0.3498549 0.3498549
0.3599197 0.3599197 0.3599197
0.3698209 0.3698209 0.3698209
0.3798326 0.3798326 0.3798326
0.3899478 0.3899478 0.3899478
0.4001585 0.4001585 0.4001585
0.4104566 0.4104566 0.4104566
0.4155212 0.4155212 0.4155212
0.3698209 0.3698209 0.3698209
0.3798326 0.3798326 0.3798326
0.3899478 0.3899478 0.3899478
0.4001585 0.4001585 0.4001585
0.4104566 0.4104566 0.4104566
0.4155212 0.4155212 0.4155212
0.4257031 0.4257031 0.4257031
0.4308186 0.4308186 0.4308186
0.3899478 0.3899478 0.3899478
0.4001585 0.4001585 0.4001585
0.4104566 0.4104566 0.4104566
0.4155212 0.4155212 0.4155212
0.4257031 0.4257031 0.4257031
0.4308186 0.4308186 0.4308186
0.4410926 0.4410926 0.4410926
0.4462491 0.4462491 0.4462491
0.4104566 0.4104566 0.4104566
0.4155212 0.4155212 0.4155212
0.4257031 0.4257031 0.4257031
0.4308186 0.4308186 0.4308186
0.4410926 0.4410926 0.4410926
0.4462491 0.4462491 0.4462491
0.4565958 0.4565958 0.4565958
0.4617837 0.4617837 0.4617837
0.4257031 0.4257031 0.4257031
0.4308186 0.4308186 0.4308186
0.4410926 0.4410926 0.4410926
0.4462491 0.4462491 0.4462491
0.4565958 0.4565958 0.4565958
0.4617837 0.4617837 0.4617837
0.4716690 0.4716690 0.4716690
0.4765688 0.4765688 0.4765688
0.4410926 0.4410926 0.4410926
0.4462491 0.4462491 0.4462491
0.4565958 0.4565958 0.4565958
0.4617837 0.4617837 0.4617837
0.4716690 0.4716690 0.4716690
0.4765688 0.4765688 0.4765688
0.4814731 0.4814731 0.4814731
0.4863812 0.4863812 0.4863812
0.4565958 0.4565958 0.4565958
0.4617837 0.4617837 0.4617837
0.4716690 0.4716690 0.4716690
0.4765688 0.4765688 0.4765688
0.4814731 0.4814731 0.4814731
0.4863812 0.4863812 0.4863812
0.4962039 0.4962039 0.4962039
0.5011169 0.5011169 0.5011169
0.3748133 0.3748133 0.3748133
0.3848778 0.3848778 0.3848778
0.3950417 0.3950417 0.3950417
0.4001585 0.4001585 0.4001585
0.4104566 0.4104566 0.4104566
0.4206038 0.4206038 0.4206038
0.4257031 0.4257031 0.4257031
0.4359486 0.4359486 0.4359486
0.3950417 0.3950417 0.3950417
0.4001585 0.4001585 0.4001585
0.4104566 0.4104566 0.4104566
0.4206038 0.4206038 0.4206038
0.4257031 0.4257031 0.4257031
0.4359486 0.4359486 0.4359486
0.4410926 0.4410926 0.4410926
0.4514171 0.4514171 0.4514171
0.4104566 0.4104566 0.4104566
0.4206038 0.4206038 0.4206038
0.4257031 0.4257031 0.4257031
0.4359486 0.4359486 0.4359486
0.4410926 0.4410926 0.4410926
0.4514171 0.4514171 0.4514171
0.4565958 0.4565958 0.4565958
0.4667745 0.4667745 0.4667745
0.4257031 0.4257031 0.4257031
0.4359486 0.4359486 0.4359486
0.4410926 0.4410926 0.4410926
0.4514171 0.4514171 0.4514171
0.4565958 0.4565958 0.4565958
0.4667745 0.4667745 0.4667745
0.4716690 0.4716690 0.4716690
0.4765688 0.4765688 0.4765688
0.4410926 0.4410926 0.4410926
0.4514171 0.4514171 0.4514171
0.4565958 0.4565958 0.4565958
0.4667745 0.4667745 0.4667745
0.4716690 0.4716690 0.4716690
0.4765688 0.4765688 0.4765688
0.4863812 0.4863812 0.4863812
0.4912918 0.4912918 0.4912918
0.4565958 0.4565958 0.4565958
0.4667745 0.4667745 0.4667745
0.4716690 0.4716690 0.4716690
0.4765688 0.4765688 0.4765688
0.4863812 0.4863812 0.4863812
0.4912918 0.4912918 0.4912918
0.4962039 0.4962039 0.4962039
0.5011169 0.5011169 0.5011169
0.4716690 0.4716690 0.4716690
0.4765688 0.4765688 0.4765688
0.4863812 0.4863812 0.4863812
0.4912918 0.4912918 0.4912918
0.4962039 0.4962039 0.4962039
0.5011169 0.5011169 0.5011169
0.5060297 0.5060297 0.5060297
0.5109414 0.5109414 0.5109414
0.4863812 0.4863812 0.4863812
0.4912918 0.4912918 0.4912918
0.4962039 0.4962039 0.4962039
0.5011169 0.5011169 0.5011169
0.5060297 0.5060297 0.5060297
0.5157863 0.5157863 0.5157863
0.5204991 0.5204991 0.5204991
0.5252082 0.5252082 0.5252082
0.4155212 0.4155212 0.4155212
0.4206038 0.4206038 0.4206038
0.4308186 0.4308186 0.4308186
0.4359486 0.4359486 0.4359486
0.4462491 0.4462491 0.4462491
0.4514171 0.4514171 0.4514171
0.4617837 0.4617837 0.4617837
0.4667745 0.4667745 0.4667745
0.4308186 0.4308186 0.4308186
0.4359486 0.4359486 0.4359486
0.4462491 0.4462491 0.4462491
0.4514171 0.4514171 0.4514171
0.4617837 0.4617837 0.4617837
0.4667745 0.4667745 0.4667745
0.4716690 0.4716690 0.4716690
0.4814731 0.4814731 0.4814731
0.4462491 0.4462491 0.4462491
0.4514171 0.4514171 0.4514171
0.4617837 0.4617837 0.4617837
0.4667745 0.4667745 0.4667745
0.4716690 0.4716690 0.4716690
0.4814731 0.4814731 0.4814731
0.4863812 0.4863812 0.4863812
0.4912918 0.4912918 0.4912918
0.4617837 0.4617837 0.4617837
0.4667745 0.4667745 0.4667745
0.4716690 0.4716690 0.4716690
0.4814731 0.4814731 0.4814731
0.4863812 0.4863812 0.4863812
0.4912918 0.4912918 0.4912918
0.4962039 0.4962039 0.4962039
0.5060297 0.5060297 0.5060297
0.4716690 0.4716690 0.4716690
0.4814731 0.4814731 0.4814731
0.4863812 0.4863812 0.4863812
0.4912918 0.4912918 0.4912918
0.4962039 0.4962039 0.4962039
0.5060297 0.5060297 0.5060297
0.5109414 0.5109414 0.5109414
0.5157863 0.5157863 0.5157863
0.4863812 0.4863812 0.4863812
0.4912918 0.4912918 0.4912918
0.4962039 0.4962039 0.4962039
0.5060297 0.5060297 0.5060297
0.5109414 0.5109414 0.5109414
0.5157863 0.5157863 0.5157863
0.5204991 0.5204991 0.5204991
0.5252082 0.5252082 0.5252082
0.4962039 0.4962039 0.4962039
0.5060297 0.5060297 0.5060297
0.5109414 0.5109414 0.5109414
0.5157863 0.5157863 0.5157863
0.5204991 0.5204991 0.5204991
0.5252082 0.5252082 0.5252082
0.5299129 0.5299129 0.5299129
0.5346122 0.5346122 0.5346122
0.5109414 0.5109414 0.5109414
0.5157863 0.5157863 0.5157863
0.5204991 0.5204991 0.5204991
0.5252082 0.5252082 0.5252082
0.5299129 0.5299129 0.5299129
0.5346122 0.5346122 0.5346122
0.5393054 0.5393054 0.5393054
0.5439915 0.5439915 0.5439915
