Plugins/FilmEmulator/Content/LUTs/FE_Kodak_Portra_800_At1600_64.cube
TITLE "FE_Kodak_Portra_800_At1600_33"
LUT_3D_SIZE 4
0.0005262 0.0009172 0.0000993
0.2602575 0.0032993 0.0010924
0.5801940 0.0114881 0.0052594
0.7587544 0.0230158 0.0119467
0.0027233 0.2857625 0.0016847
0.2668890 0.3107576 0.0060237
0.5792540 0.3375182 0.0133779
0.7600582 0.3556519 0.0251968
0.0098258 0.5803826 0.0075724
0.2829133 0.5892951 0.0152841
0.5870372 0.5985672 0.0274437
0.7576506 0.6171401 0.0430756
0.0215328 0.7274681 0.0181350
0.3008087 0.7345417 0.0295201
0.5960381 0.7417414 0.0462328
0.7650658 0.7488605 0.0695194
0.0105040 0.0070239 0.4295642
0.3254583 0.0170024 0.4774579
0.6215138 0.0297821 0.5100709
0.7750778 0.0445337 0.5413095
0.0162045 0.3201025 0.4972388
0.3366278 0.3468013 0.5381752
0.6231301 0.3744083 0.5660871
0.7774519 0.3933294 0.5933359
0.0237268 0.5992442 0.5353974
0.3549857 0.6081302 0.5617934
0.6308783 0.6172780 0.6018767
0.7835560 0.6355299 0.6279458
0.0397651 0.7422006 0.5684539
0.3640423 0.7490772 0.5946250
0.6395614 0.7560263 0.6205329
0.7822524 0.7628868 0.6457900
0.0386058 0.0230102 0.8083025
0.3880360 0.0369990 0.8187427
0.6516951 0.0516323 0.8283184
0.7984265 0.0702733 0.8374467
0.0482307 0.3562946 0.8343977
0.4012258 0.3840103 0.8417495
0.6546198 0.4030797 0.8489598
0.7936143 0.4225171 0.8559632
0.0591535 0.6177735 0.8470270
0.4092308 0.6266357 0.8535619
0.6621985 0.6356313 0.8601326
0.7996082 0.6531857 0.8666807
0.0727842 0.7493237 0.8566891
0.4295817 0.7561275 0.8629012
0.6706574 0.7629592 0.8691210
0.8064774 0.7696845 0.8751472
0.0831468 0.0445660 0.9147821
0.4529778 0.0625614 0.9196569
0.6907240 0.0820069 0.9242236
0.8132473 0.1038014 0.9280387
0.0957308 0.3938499 0.9262557
0.4568187 0.4129328 0.9298080
0.6847568 0.4324842 0.9328842
0.8170231 0.4520270 0.9330100
0.1120794 0.6360193 0.9322330
0.4652410 0.6446527 0.9350163
0.6921091 0.6532728 0.9350204
0.8153076 0.6703731 0.9378961
0.1261927 0.7632394 0.9336735
0.4861871 0.7630429 0.9363195
0.7002740 0.7697512 0.9390375
0.8218349 0.7763458 0.9416645
