Plugins/FilmEmulator/Content/LUTs/FE_Kodak_5381_64.cube
TITLE "FE_Kodak_5381_33"
LUT_3D_SIZE 8
0.0000000 0.1718453 0.1992958
0.0885199 0.1825970 0.2040673
0.6189814 0.2732152 0.2467207
0.9054921 0.3599765 0.2889594
1.0000000 0.4167414 0.3580893
1.0000000 0.4549090 0.4266809
1.0000000 0.4957979 0.5054139
1.0000000 0.5416100 0.5922576
0.0436629 0.4308591 0.2795898
0.1369234 0.4554420 0.2907791
0.6175185 0.5308728 0.3377029
0.8676717 0.5993953 0.3796040
0.9505955 0.6438457 0.4393440
0.9903107 0.6800156 0.5040668
1.0000000 0.7110768 0.5713593
1.0000000 0.7401237 0.6449737
0.1391376 0.7035837 0.4025358
0.2325513 0.7179792 0.4137702
0.6461456 0.7583845 0.4542664
0.8504869 0.7967396 0.4946824
0.9209479 0.8226014 0.5410877
0.9555986 0.8436919 0.5957051
0.9740678 0.8616447 0.6507913
0.9843309 0.8766942 0.7092843
0.2615815 0.8726419 0.5277121
0.3475400 0.8766044 0.5309498
0.6943200 0.8907154 0.5651711
0.8585660 0.9065735 0.6032879
0.9160200 0.9169398 0.6343150
0.9460180 0.9251400 0.6716008
0.9630359 0.9319469 0.7129585
0.9734426 0.9380041 0.7575707
0.3339210 0.9324849 0.5920328
0.4234560 0.9334450 0.6004401
0.7326663 0.9386809 0.6365814
0.8708159 0.9468443 0.6746688
0.9204531 0.9525430 0.7020437
0.9462384 0.9568835 0.7249398
0.9615748 0.9603733 0.7494905
0.9710172 0.9633889 0.7865406
0.3946502 0.9640040 0.6490391
0.4827372 0.9635181 0.6608040
0.7623190 0.9637105 0.6963971
0.8834146 0.9677986 0.7287194
0.9264297 0.9711896 0.7527201
0.9487852 0.9735339 0.7728828
0.9624508 0.9754179 0.7917459
0.9711445 0.9771606 0.8104739
0.4441482 0.9806757 0.6992447
0.5272266 0.9790662 0.7086110
0.7852847 0.9769089 0.7403564
0.8932067 0.9790146 0.7691540
0.9314722 0.9808807 0.7911479
0.9521314 0.9823957 0.8103035
0.9642169 0.9835578 0.8284566
0.9721177 0.9845104 0.8451861
0.4885620 0.9902520 0.7392198
0.5628514 0.9881628 0.7463621
0.8039243 0.9846258 0.7759598
0.9014591 0.9855560 0.8027972
0.9365218 0.9867004 0.8237546
0.9550618 0.9875129 0.8417287
0.9661918 0.9882767 0.8583718
0.9734635 0.9889070 0.8729530
0.2466419 0.4536152 0.7211828
0.7009461 0.5586733 0.7743067
0.8623812 0.6309295 0.8167759
0.9248672 0.6788073 0.8497487
0.9584673 0.7163235 0.8742613
0.9763043 0.7479159 0.8957738
0.9865251 0.7737299 0.9118814
0.9936837 0.7946304 0.9245701
0.3250406 0.6823682 0.7487617
0.7223482 0.7461346 0.7994612
0.8610433 0.7911580 0.8377299
0.9147540 0.8207065 0.8669866
0.9445485 0.8439853 0.8897255
0.9608499 0.8626952 0.9084488
0.9713596 0.8781382 0.9226931
0.9781978 0.8905432 0.9343776
0.4380335 0.8597172 0.7947645
0.7645990 0.8855627 0.8366417
0.8750671 0.9039972 0.8671018
0.9193307 0.9172907 0.8915967
0.9438515 0.9274945 0.9098744
0.9584655 0.9356971 0.9247664
0.9678727 0.9419342 0.9361030
0.9742417 0.9472065 0.9454790
0.5092861 0.9211130 0.8202705
0.7947238 0.9334063 0.8575879
0.8886354 0.9433492 0.8838443
0.9270714 0.9507802 0.9047779
0.9483557 0.9562616 0.9205824
0.9612268 0.9609668 0.9333332
0.9693096 0.9645517 0.9437384
0.9750543 0.9675913 0.9519026
0.5634102 0.9530193 0.8391017
0.8170514 0.9582373 0.8720291
0.9003421 0.9641432 0.8963634
0.9342702 0.9684685 0.9151582
0.9530470 0.9716787 0.9291061
0.9642122 0.9744213 0.9401853
0.9717021 0.9767720 0.9495051
0.9768352 0.9785761 0.9567333
0.6030157 0.9701869 0.8523193
0.8350533 0.9718099 0.8828461
0.9097465 0.9752113 0.9048223
0.9398346 0.9778283 0.9214975
0.9568942 0.9800024 0.9349247
0.9670442 0.9818829 0.9450206
0.9736507 0.9833366 0.9533669
0.9783648 0.9846067 0.9603799
0.6335708 0.9804257 0.8617503
0.8487071 0.9798122 0.8904645
0.9165857 0.9819238 0.9109294
0.9443786 0.9837128 0.9263738
0.9598473 0.9852133 0.9388159
0.9694040 0.9864719 0.9485571
0.9755033 0.9875094 0.9562972
0.9798642 0.9884275 0.9628828
0.6582408 0.9871094 0.8688686
0.8587780 0.9852098 0.8956872
0.9221975 0.9864451 0.9156483
0.9480306 0.9875605 0.9299374
0.9624799 0.9886304 0.9421085
0.9712068 0.9895308 0.9512574
0.9768886 0.9902177 0.9584116
0.9809924 0.9909008 0.9646880
0.7664387 0.7627727 0.9499184
0.8660070 0.7973998 0.9553968
0.9120383 0.8219435 0.9605280
0.9388452 0.8418387 0.9652653
0.9549486 0.8576101 0.9694881
0.9657931 0.8709378 0.9728180
0.9732584 0.8833534 0.9759549
0.9787102 0.8941674 0.9784026
0.8035718 0.8829789 0.9538677
0.8836548 0.9027070 0.9600217
0.9210919 0.9158491 0.9648680
0.9430270 0.9267607 0.9692405
0.9562964 0.9347821 0.9729506
0.9652882 0.9414028 0.9761835
0.9717561 0.9468505 0.9786896
0.9765514 0.9514492 0.9808389
0.8341626 0.9364709 0.9594266
0.9004844 0.9459184 0.9648747
0.9316175 0.9525916 0.9690973
0.9495092 0.9578145 0.9728047
0.9607610 0.9620064 0.9759667
0.9683998 0.9652760 0.9787403
0.9739818 0.9682789 0.9809579
0.9781582 0.9708722 0.9828607
0.8560185 0.9597189 0.9635444
0.9128892 0.9654760 0.9685383
0.9399708 0.9696668 0.9723402
0.9554717 0.9729278 0.9756381
0.9652104 0.9755147 0.9784036
0.9718798 0.9776902 0.9809119
0.9767094 0.9795099 0.9828902
0.9802824 0.9809517 0.9846801
0.8715148 0.9724482 0.9667350
0.9222287 0.9760627 0.9713270
0.9463955 0.9789037 0.9748004
0.9600904 0.9809929 0.9777419
0.9686929 0.9826568 0.9801810
0.9744866 0.9841466 0.9824691
0.9787703 0.9853296 0.9843986
0.9820238 0.9864236 0.9859336
0.8832917 0.9795143 0.9686296
0.9290215 0.9820659 0.9730712
0.9510504 0.9840718 0.9765242
0.9635580 0.9856374 0.9792594
0.9712221 0.9868639 0.9814867
0.9766820 0.9880075 0.9836379
0.9805878 0.9889058 0.9854491
0.9834166 0.9896522 0.9868509
0.8920837 0.9842483 0.9704142
0.9345170 0.9860910 0.9746662
0.9545266 0.9875054 0.9778942
0.9661756 0.9887249 0.9804727
0.9734631 0.9897040 0.9825782
0.9784545 0.9905316 0.9845400
0.9819549 0.9912268 0.9862487
0.9846408 0.9917737 0.9875658
0.8998047 0.9874653 0.9718038
0.9388996 0.9888231 0.9759057
0.9576491 0.9899303 0.9790149
0.9685265 0.9909039 0.9814674
0.9752642 0.9916303 0.9834236
0.9798015 0.9922860 0.9852540
0.9831913 0.9928634 0.9868980
0.9856078 0.9933032 0.9882607
0.8890152 0.8910957 0.9851979
0.9223154 0.9049709 0.9860973
0.9422653 0.9160590 0.9871533
0.9549733 0.9249679 0.9880773
0.9639968 0.9327683 0.9890054
0.9702672 0.9394018 0.9899363
0.9750827 0.9448164 0.9907948
0.9788988 0.9499397 0.9914811
0.9085541 0.9453879 0.9854840
0.9350872 0.9518976 0.9867244
0.9509768 0.9569322 0.9878407
0.9612130 0.9611535 0.9887775
0.9682693 0.9644470 0.9896749
0.9735850 0.9673265 0.9905409
0.9775730 0.9698149 0.9913393
0.9806201 0.9719366 0.9919798
0.9209390 0.9654132 0.9865083
0.9438619 0.9696780 0.9877443
0.9571648 0.9727057 0.9887055
0.9658858 0.9751801 0.9896685
0.9721281 0.9772592 0.9905015
0.9765378 0.9790049 0.9912878
0.9799973 0.9805393 0.9919339
0.9827384 0.9819326 0.9926100
0.9304940 0.9764617 0.9874074
0.9506038 0.9792436 0.9886044
0.9623067 0.9813727 0.9896379
0.9698851 0.9829363 0.9904212
0.9752173 0.9843584 0.9911957
0.9791883 0.9854890 0.9919053
0.9822189 0.9865649 0.9925828
0.9844922 0.9873957 0.9931841
0.9373816 0.9826346 0.9882576
0.9554661 0.9845620 0.9893820
0.9659477 0.9860288 0.9902602
0.9728618 0.9873130 0.9911008
0.9776060 0.9882874 0.9918018
0.9810708 0.9891171 0.9924558
0.9837799 0.9898543 0.9930736
0.9858469 0.9904732 0.9935703
0.9426131 0.9864781 0.9888245
0.9590111 0.9879469 0.9899254
0.9687030 0.9891052 0.9908609
0.9750108 0.9900287 0.9915686
0.9793879 0.9908072 0.9922960
0.9826798 0.9914740 0.9929107
0.9850299 0.9919696 0.9934100
0.9870130 0.9924861 0.9939451
0.9469091 0.9891747 0.9894171
0.9620646 0.9902654 0.9904576
0.9710551 0.9911838 0.9912674
0.9769062 0.9919369 0.9920289
0.9809095 0.9925050 0.9926309
0.9838668 0.9930359 0.9932127
0.9861434 0.9934644 0.9937521
0.9879099 0.9938766 0.9942564
0.9503210 0.9910365 0.9897900
0.9646592 0.9919844 0.9908323
0.9730150 0.9926971 0.9916847
0.9783632 0.9933130 0.9924172
0.9821277 0.9937871 0.9929880
0.9849969 0.9942437 0.9935482
0.9870421 0.9945892 0.9940547
0.9887655 0.9949433 0.9945384
0.9376394 0.9485555 0.9938271
0.9517221 0.9536485 0.9940944
0.9611622 0.9581516 0.9945253
0.9679486 0.9616040 0.9948318
0.9731461 0.9647729 0.9950627
0.9770477 0.9672787 0.9952826
0.9801676 0.9697567 0.9955581
0.9826289 0.9717636 0.9958219
0.9467338 0.9683536 0.9936504
0.9585776 0.9714225 0.9940540
0.9665424 0.9741262 0.9945180
0.9722465 0.9761943 0.9948721
0.9764863 0.9780649 0.9951352
0.9797879 0.9795603 0.9953758
0.9824153 0.9809098 0.9956483
0.9845194 0.9821116 0.9959088
0.9537530 0.9789044 0.9939017
0.9638132 0.9809347 0.9943039
0.9708615 0.9826618 0.9947562
0.9756584 0.9840435 0.9951240
0.9793752 0.9851344 0.9953779
0.9822459 0.9861745 0.9956203
0.9845306 0.9871087 0.9958845
0.9862462 0.9878210 0.9961205
0.9585432 0.9846152 0.9942016
0.9677774 0.9861138 0.9945853
0.9738416 0.9872617 0.9950143
0.9782287 0.9882335 0.9953786
0.9814332 0.9890233 0.9956248
0.9840054 0.9897928 0.9958618
0.9860175 0.9904135 0.9961076
0.9876315 0.9909595 0.9963253
0.9623729 0.9881325 0.9944789
0.9707274 0.9892286 0.9948403
0.9762616 0.9901302 0.9952503
0.9801320 0.9908618 0.9955730
0.9831579 0.9915043 0.9958521
0.9854545 0.9920495 0.9960756
0.9872078 0.9925233 0.9963091
0.9886818 0.9929514 0.9965103
0.9654338 0.9905109 0.9947290
0.9729801 0.9913721 0.9950813
0.9780581 0.9920419 0.9954568
0.9817581 0.9926510 0.9957740
0.9844517 0.9931594 0.9960496
0.9865397 0.9935567 0.9962595
0.9882306 0.9939521 0.9964839
0.9895236 0.9942852 0.9966687
0.9679201 0.9921886 0.9949478
0.9748973 0.9928508 0.9952830
0.9796875 0.9934522 0.9956446
0.9829848 0.9939042 0.9959424
0.9855943 0.9943445 0.9962222
0.9874617 0.9946669 0.9964234
0.9890430 0.9950001 0.9966414
0.9902822 0.9952567 0.9968106
0.9699783 0.9934188 0.9951376
0.9765910 0.9940130 0.9954733
0.9809128 0.9944654 0.9958035
0.9841187 0.9948579 0.9960933
0.9864770 0.9952164 0.9963721
0.9883019 0.9954976 0.9965675
0.9896912 0.9957398 0.9967703
0.9908788 0.9959828 0.9969389
0.9595854 0.9695315 0.9970098
0.9668654 0.9721699 0.9970747
0.9723068 0.9742415 0.9971275
0.9763274 0.9761984 0.9972534
0.9795485 0.9779348 0.9973493
0.9820697 0.9793571 0.9974964
0.9842288 0.9807741 0.9976087
0.9859139 0.9818941 0.9977220
0.9650337 0.9800732 0.9968392
0.9714429 0.9817939 0.9969541
0.9759765 0.9831840 0.9970459
0.9795260 0.9844322 0.9971886
0.9822474 0.9854953 0.9973058
0.9844139 0.9864476 0.9974586
0.9861527 0.9872710 0.9975831
0.9876090 0.9880180 0.9977032
0.9692923 0.9859195 0.9968617
0.9747661 0.9871010 0.9970023
0.9788340 0.9880370 0.9971362
0.9817946 0.9888060 0.9972488
0.9841945 0.9895695 0.9974014
0.9860763 0.9901661 0.9975179
0.9875882 0.9906975 0.9976406
0.9888822 0.9912382 0.9977602
0.9721966 0.9892460 0.9969405
0.9772503 0.9901093 0.9970883
0.9808140 0.9908154 0.9972259
0.9835964 0.9914279 0.9973375
0.9857273 0.9919678 0.9974855
0.9874287 0.9924374 0.9976008
0.9887943 0.9928545 0.9977197
0.9899382 0.9932430 0.9978601
0.9745935 0.9914314 0.9970306
0.9791129 0.9921118 0.9971855
0.9824597 0.9926486 0.9973193
0.9849232 0.9931312 0.9974298
0.9868888 0.9935703 0.9975739
0.9884542 0.9939502 0.9976873
0.9896838 0.9942556 0.9978227
0.9907374 0.9945629 0.9979332
0.9765428 0.9929738 0.9971532
0.9806856 0.9934874 0.9972758
0.9837405 0.9939632 0.9974128
0.9860005 0.9943327 0.9975417
0.9878302 0.9946925 0.9976568
0.9892600 0.9949765 0.9977644
0.9904330 0.9952655 0.9978970
0.9914134 0.9955227 0.9980047
0.9780347 0.9940945 0.9972382
0.9819800 0.9945638 0.9973652
0.9848953 0.9949406 0.9975001
0.9870024 0.9952521 0.9976263
0.9887056 0.9955543 0.9977368
0.9900373 0.9957981 0.9978633
0.9911249 0.9960344 0.9979681
0.9920136 0.9962246 0.9980692
0.9793712 0.9949269 0.9973126
0.9830487 0.9952989 0.9974350
0.9857522 0.9956441 0.9975752
0.9877472 0.9959131 0.9976988
0.9893302 0.9961486 0.9978011
0.9905919 0.9963605 0.9979244
0.9916205 0.9965647 0.9980249
0.9924612 0.9967299 0.9981233
0.9717590 0.9805931 0.9983554
0.9762015 0.9820777 0.9983662
0.9794490 0.9832985 0.9983721
0.9821554 0.9844478 0.9984248
0.9842342 0.9854485 0.9984871
0.9859830 0.9863553 0.9985471
0.9873807 0.9871284 0.9985795
0.9885653 0.9878435 0.9986341
0.9754214 0.9865537 0.9982129
0.9791697 0.9875789 0.9982533
0.9820645 0.9883947 0.9983035
0.9843283 0.9891661 0.9983466
0.9861048 0.9897857 0.9984198
0.9876291 0.9904099 0.9984922
0.9888176 0.9908764 0.9985343
0.9899120 0.9913900 0.9985943
0.9779408 0.9898969 0.9981846
0.9813707 0.9906248 0.9982360
0.9838697 0.9912292 0.9982959
0.9858677 0.9917669 0.9983658
0.9875410 0.9922482 0.9984187
0.9888433 0.9927109 0.9984947
0.9899679 0.9930919 0.9985592
0.9908727 0.9934170 0.9986041
0.9799582 0.9920139 0.9981952
0.9829879 0.9925799 0.9982544
0.9852778 0.9930630 0.9983183
0.9871781 0.9935021 0.9983869
0.9886321 0.9938782 0.9984630
0.9898524 0.9942122 0.9985179
0.9908017 0.9944724 0.9985842
0.9916320 0.9947429 0.9986448
0.9814848 0.9934817 0.9982438
0.9842937 0.9939441 0.9983053
0.9864922 0.9943506 0.9983697
0.9881400 0.9946585 0.9984174
0.9894906 0.9949719 0.9984935
0.9905987 0.9952248 0.9985651
0.9915023 0.9954680 0.9986168
0.9922718 0.9956930 0.9986770
0.9828818 0.9945881 0.9982793
0.9854560 0.9949441 0.9983408
0.9874313 0.9952793 0.9984071
0.9889740 0.9955454 0.9984720
0.9902899 0.9958141 0.9985290
0.9912678 0.9960189 0.9985996
0.9921337 0.9962113 0.9986652
0.9928460 0.9963961 0.9987108
0.9838867 0.9953547 0.9983135
0.9863511 0.9956851 0.9983777
0.9882473 0.9959519 0.9984418
0.9896924 0.9961791 0.9985056
0.9908723 0.9964038 0.9985775
0.9918377 0.9965827 0.9986304
0.9926072 0.9967416 0.9986967
0.9932606 0.9968842 0.9987524
0.9848499 0.9959712 0.9983479
0.9871465 0.9962368 0.9984105
0.9888753 0.9964637 0.9984749
0.9902493 0.9966639 0.9985383
0.9913473 0.9968410 0.9986051
0.9922869 0.9970212 0.9986748
0.9930147 0.9971571 0.9987248
0.9936340 0.9972827 0.9987813
0.9793203 0.9867704 0.9990166
0.9821185 0.9876831 0.9990041
0.9842688 0.9884796 0.9990075
0.9860815 0.9892047 0.9990167
0.9874938 0.9897789 0.9990499
0.9887208 0.9903593 0.9990667
0.9897383 0.9908197 0.9990875
0.9906288 0.9913039 0.9991088
0.9817012 0.9902598 0.9989104
0.9840927 0.9909240 0.9989148
0.9860458 0.9914801 0.9989468
0.9875453 0.9919443 0.9989683
0.9888678 0.9923800 0.9989914
0.9899555 0.9928122 0.9990159
0.9908067 0.9931443 0.9990430
0.9915778 0.9934592 0.9990699
0.9834548 0.9924560 0.9988706
0.9856679 0.9929470 0.9988976
0.9873233 0.9933156 0.9989206
0.9887520 0.9936969 0.9989462
0.9898904 0.9940298 0.9989746
0.9908542 0.9943388 0.9990160
0.9916749 0.9946136 0.9990444
0.9923714 0.9948629 0.9990731
0.9847983 0.9938948 0.9988742
0.9868036 0.9942527 0.9988912
0.9883643 0.9945921 0.9989172
0.9896792 0.9949073 0.9989593
0.9906994 0.9951448 0.9989888
0.9915852 0.9953902 0.9990188
0.9923396 0.9956135 0.9990487
0.9929608 0.9957884 0.9990779
0.9859595 0.9949192 0.9988761
0.9877846 0.9952431 0.9988982
0.9892716 0.9955129 0.9989372
0.9904346 0.9957653 0.9989682
0.9914326 0.9959751 0.9989986
0.9922098 0.9961751 0.9990304
0.9928929 0.9963439 0.9990709
0.9934712 0.9964926 0.9991000
0.9868650 0.9956836 0.9988863
0.9886448 0.9959699 0.9989220
0.9899709 0.9961858 0.9989495
0.9910864 0.9963837 0.9989802
0.9919937 0.9965795 0.9990238
0.9927402 0.9967336 0.9990543
0.9933755 0.9968735 0.9990839
0.9938963 0.9970118 0.9991142
0.9876687 0.9962552 0.9989098
0.9892823 0.9964939 0.9989357
0.9905942 0.9966907 0.9989629
0.9915985 0.9968606 0.9990057
0.9924366 0.9970109 0.9990370
0.9931446 0.9971473 0.9990681
0.9937632 0.9972878 0.9990990
0.9942724 0.9974015 0.9991373
0.9882972 0.9967017 0.9989234
0.9898695 0.9969015 0.9989491
0.9910651 0.9970731 0.9989876
0.9920426 0.9972392 0.9990205
0.9928802 0.9973786 0.9990520
0.9935144 0.9974965 0.9990930
0.9940863 0.9976063 0.9991224
0.9945699 0.9977053 0.9991511
