Plugins/FilmEmulator/Content/LUTs/FE_Kodak_5277_64.cube
TITLE "FE_Kodak_5277_33"
LUT_3D_SIZE 4
0.0018127 0.0013597 0.0016405
0.2250030 0.0085267 0.0098386
0.4171644 0.0201350 0.0220833
0.5580066 0.0318701 0.0363692
0.0162793 0.2631542 0.0133156
0.2323551 0.2805752 0.0256675
0.4068176 0.2967234 0.0406777
0.5511798 0.3132571 0.0570458
0.0360358 0.5012180 0.0303078
0.2519474 0.5130782 0.0463663
0.4224218 0.5232925 0.0621335
0.5513396 0.5331329 0.0777818
0.0579658 0.6385874 0.0526936
0.2757866 0.6484801 0.0670567
0.4354465 0.6569487 0.0837991
0.5632456 0.6576681 0.0995778
0.0229409 0.0136173 0.2828269
0.2538677 0.0254874 0.2965669
0.4320955 0.0393358 0.3212548
0.5667564 0.0546909 0.3386542
0.0415180 0.2824286 0.3266786
0.2623982 0.3069765 0.3391427
0.4270772 0.3236008 0.3546333
0.5642195 0.3405379 0.3708799
0.0640192 0.5149947 0.3487014
0.2774011 0.5257912 0.3619145
0.4376295 0.5355573 0.3776802
0.5652862 0.5451048 0.3934456
0.0882822 0.6500292 0.3685774
0.2987058 0.6589481 0.3826641
0.4519879 0.6668955 0.3981408
0.5773962 0.6673834 0.4053912
0.0523301 0.0310730 0.5115165
0.2839670 0.0464481 0.5177468
0.4518202 0.0623577 0.5262029
0.5789510 0.0783571 0.5426258
0.0719260 0.3066748 0.5389650
0.2887034 0.3240287 0.5432650
0.4531282 0.3410690 0.5499757
0.5791630 0.3584060 0.5649515
0.0950147 0.5256014 0.5528888
0.3081521 0.5360870 0.5652946
0.4650832 0.5457327 0.5717627
0.5805869 0.5551480 0.5786914
0.1190748 0.6588946 0.5719674
0.3240895 0.6673348 0.5769527
0.4799503 0.6679530 0.5831479
0.5844903 0.6755366 0.5901013
0.0839570 0.0527329 0.6362622
0.3079813 0.0709889 0.6420386
0.4673714 0.0862893 0.6490642
0.5920073 0.1048375 0.6564439
0.1033304 0.3235219 0.6581821
0.3135638 0.3411362 0.6625469
0.4711218 0.3585799 0.6684414
0.5865465 0.3675526 0.6677203
0.1281872 0.5356091 0.6704952
0.3271852 0.5546988 0.6751568
0.4832408 0.5642237 0.6740300
0.5957946 0.5735542 0.6800178
0.1508756 0.6670046 0.6804681
0.3444777 0.6680068 0.6848217
0.4985047 0.6757406 0.6837231
0.5999849 0.6832235 0.6896823
