Plugins/FilmEmulator/Content/LUTs/FE_Kodachrome_64_64.cube
TITLE "FE_Kodachrome_64_33"
LUT_3D_SIZE 8
0.0023751 0.0011192 0.0009992
0.0380021 0.0017697 0.0012595
0.1059416 0.0031764 0.0030210
0.1904700 0.0070051 0.0071197
0.2734651 0.0133250 0.0134078
0.3460778 0.0220949 0.0223905
0.4107925 0.0328963 0.0321830
0.4684297 0.0445319 0.0435218
0.0083433 0.0709204 0.0006776
0.1236665 0.1083410 0.0002483
0.2478443 0.1330085 0.0040973
0.3641165 0.1538137 0.0108294
0.4620761 0.1726127 0.0199707
0.5373057 0.1894573 0.0304255
0.5985501 0.2057567 0.0420386
0.6512960 0.2224222 0.0568713
0.0062599 0.1910383 0.0003176
0.1571513 0.2547662 0.0009169
0.3066207 0.2914174 0.0074196
0.4399311 0.3184592 0.0172062
0.5449762 0.3406711 0.0285804
0.6244529 0.3580535 0.0405745
0.6880262 0.3763373 0.0540252
0.7407899 0.3917014 0.0685635
0.0073914 0.3014999 0.0049211
0.1686665 0.3700185 0.0074520
0.3312922 0.4095128 0.0167147
0.4721756 0.4357379 0.0274794
0.5818294 0.4555890 0.0398473
0.6639041 0.4724907 0.0540206
0.7257024 0.4877863 0.0693347
0.7795380 0.5019235 0.0836780
0.0138203 0.3919024 0.0143005
0.1725979 0.4590397 0.0189256
0.3445413 0.5010599 0.0287245
0.4930774 0.5282397 0.0401920
0.6040288 0.5481493 0.0545457
0.6882482 0.5637294 0.0692416
0.7512413 0.5772460 0.0850494
0.8052951 0.5896261 0.1010228
0.0238598 0.4677596 0.0272799
0.1745204 0.5272570 0.0317081
0.3518677 0.5698752 0.0431512
0.5032687 0.5980569 0.0563042
0.6168962 0.6160209 0.0709182
0.7026947 0.6316081 0.0868381
0.7667182 0.6427358 0.1020738
0.8188834 0.6527668 0.1185443
0.0379739 0.5274407 0.0411506
0.1753596 0.5788123 0.0470653
0.3584940 0.6226692 0.0594793
0.5117372 0.6496017 0.0735327
0.6249873 0.6675658 0.0882382
0.7117058 0.6816191 0.1047093
0.7745596 0.6925653 0.1198682
0.8300088 0.7022902 0.1345977
0.0527343 0.5791621 0.0571786
0.1761866 0.6238812 0.0637130
0.3619148 0.6685098 0.0771174
0.5162988 0.6955213 0.0913019
0.6310589 0.7120817 0.1065087
0.7166315 0.7257650 0.1224781
0.7830119 0.7364439 0.1361473
0.8391061 0.7459708 0.1503419
0.0048551 0.0005951 0.0537290
0.0566579 0.0023851 0.0754419
0.1326778 0.0051800 0.0942612
0.2162576 0.0095528 0.1119535
0.2938355 0.0155893 0.1285970
0.3642278 0.0252791 0.1473393
0.4274992 0.0374856 0.1659626
0.4820918 0.0496133 0.1824014
0.0000000 0.1023719 0.1379851
0.1262935 0.1380953 0.1651329
0.2511992 0.1595815 0.1815371
0.3676927 0.1790923 0.1961347
0.4634898 0.1966300 0.2098834
0.5371957 0.2120370 0.2239998
0.5957037 0.2273199 0.2379732
0.6493595 0.2431537 0.2495700
0.0000000 0.2488697 0.1718382
0.1489158 0.3058743 0.1973314
0.2998724 0.3358582 0.2122506
0.4334623 0.3583320 0.2263739
0.5361581 0.3768956 0.2400152
0.6124870 0.3916613 0.2538727
0.6755993 0.4074444 0.2677045
0.7277182 0.4205751 0.2783798
0.0000000 0.3678063 0.1904706
0.1572127 0.4276623 0.2111125
0.3199114 0.4583255 0.2258008
0.4628869 0.4812557 0.2400832
0.5699505 0.4969365 0.2540597
0.6483685 0.5081409 0.2678277
0.7124342 0.5204880 0.2811130
0.7652693 0.5320751 0.2918705
0.0000000 0.4588261 0.2021215
0.1617925 0.5183816 0.2207717
0.3336232 0.5519189 0.2359052
0.4808942 0.5734643 0.2491866
0.5890154 0.5885894 0.2635868
0.6722677 0.6006321 0.2776126
0.7352798 0.6109807 0.2905100
0.7887326 0.6204341 0.3010998
0.0002733 0.5292437 0.2110487
0.1654700 0.5833612 0.2267396
0.3433527 0.6192587 0.2421960
0.4925807 0.6398544 0.2559737
0.6031321 0.6551241 0.2705745
0.6875703 0.6653765 0.2847921
0.7517641 0.6752483 0.2958035
0.8053410 0.6823329 0.3062662
0.0163132 0.5832835 0.2169878
0.1674898 0.6308470 0.2314882
0.3486054 0.6666484 0.2472100
0.5011395 0.6901089 0.2616796
0.6132528 0.7043449 0.2762925
0.6964840 0.7148828 0.2905202
0.7612269 0.7231944 0.3013274
0.8155305 0.7305205 0.3116552
0.0340661 0.6293006 0.2234425
0.1711265 0.6716407 0.2358847
0.3555500 0.7089583 0.2518880
0.5081110 0.7313657 0.2668937
0.6216486 0.7460440 0.2815550
0.7055109 0.7551273 0.2953196
0.7709081 0.7635836 0.3063309
0.8255805 0.7709433 0.3164799
0.0138498 0.0021524 0.1213132
0.0833176 0.0068178 0.1551533
0.1676787 0.0118565 0.1794875
0.2542019 0.0181297 0.2003157
0.3318723 0.0263831 0.2207242
0.3973083 0.0357100 0.2394200
0.4521781 0.0460027 0.2556112
0.5020311 0.0562928 0.2703643
0.0112337 0.1156820 0.2449009
0.1462639 0.1473648 0.2780873
0.2722422 0.1687519 0.2974337
0.3857403 0.1870380 0.3135027
0.4757926 0.2047742 0.3280395
0.5474594 0.2201600 0.3398510
0.6061302 0.2355459 0.3523402
0.6567364 0.2501816 0.3629919
0.0000000 0.2725231 0.2995963
0.1690648 0.3236793 0.3323975
0.3171491 0.3511868 0.3500366
0.4465731 0.3725951 0.3627793
0.5442346 0.3881831 0.3750005
0.6210416 0.4047396 0.3870274
0.6817364 0.4178413 0.3962654
0.7312353 0.4304046 0.4054042
0.0000000 0.3939781 0.3269182
0.1757437 0.4478091 0.3560894
0.3378758 0.4756380 0.3729181
0.4732395 0.4945396 0.3862111
0.5757263 0.5090299 0.3963146
0.6522975 0.5216950 0.4073689
0.7147138 0.5334666 0.4162210
0.7671954 0.5446676 0.4250358
0.0000000 0.4865998 0.3458627
0.1804688 0.5405144 0.3704979
0.3487852 0.5701325 0.3871279
0.4902154 0.5894794 0.4002617
0.5960925 0.6030316 0.4101645
0.6743734 0.6139070 0.4208854
0.7379879 0.6235263 0.4294671
0.7888144 0.6323096 0.4378716
0.0090081 0.5580955 0.3582535
0.1827115 0.6075693 0.3799992
0.3582790 0.6393981 0.3966561
0.5013233 0.6572699 0.4095433
0.6095665 0.6708893 0.4194574
0.6888102 0.6797347 0.4298924
0.7512537 0.6888728 0.4384657
0.8041453 0.6952270 0.4465685
0.0239739 0.6128402 0.3692062
0.1864970 0.6571440 0.3888196
0.3633968 0.6880018 0.4032997
0.5096024 0.7087122 0.4164876
0.6191278 0.7212315 0.4280636
0.6972094 0.7301592 0.4366888
0.7625678 0.7377784 0.4451942
0.8138129 0.7443440 0.4532625
0.0414066 0.6574852 0.3768513
0.1887647 0.6989954 0.3947066
0.3702833 0.7315031 0.4110412
0.5162787 0.7507374 0.4222197
0.6244201 0.7617801 0.4335563
0.7057559 0.7710545 0.4422888
0.7695028 0.7786528 0.4508522
0.8230749 0.7853397 0.4588850
0.0285723 0.0078517 0.1927844
0.1101868 0.0146178 0.2275939
0.2012284 0.0215299 0.2536616
0.2910827 0.0303145 0.2767030
0.3652136 0.0395934 0.2960693
0.4287513 0.0499065 0.3138629
0.4826137 0.0601992 0.3296425
0.5302893 0.0718508 0.3452342
0.0342744 0.1260724 0.3265355
0.1691707 0.1550421 0.3596890
0.2934217 0.1764856 0.3806856
0.4045805 0.1950438 0.3962709
0.4918810 0.2109939 0.4092005
0.5591758 0.2265269 0.4224872
0.6166012 0.2424972 0.4339952
0.6659398 0.2577219 0.4448967
0.0227534 0.2907298 0.3947534
0.1928822 0.3357818 0.4265023
0.3403668 0.3620524 0.4448125
0.4632066 0.3801217 0.4569178
0.5589828 0.3979431 0.4678187
0.6299899 0.4115576 0.4770663
0.6890982 0.4247324 0.4859577
0.7368106 0.4368127 0.4962406
0.0116708 0.4128520 0.4269958
0.2006129 0.4605352 0.4565822
0.3588575 0.4860113 0.4735054
0.4894509 0.5037717 0.4848129
0.5867261 0.5178159 0.4942492
0.6625046 0.5302658 0.5028740
0.7210671 0.5418133 0.5110685
0.7709543 0.5505086 0.5187262
0.0137403 0.5038450 0.4476910
0.2045734 0.5554662 0.4752829
0.3700080 0.5824149 0.4902364
0.5060674 0.6002496 0.5029344
0.6063926 0.6129150 0.5119284
0.6816783 0.6233200 0.5200467
0.7434868 0.6327256 0.5278425
0.7918332 0.6389324 0.5350685
0.0260312 0.5760039 0.4632964
0.2093093 0.6222171 0.4873773
0.3796323 0.6504887 0.5021412
0.5169249 0.6683970 0.5129089
0.6190435 0.6793413 0.5234224
0.6952863 0.6875648 0.5312105
0.7580503 0.6964213 0.5389415
0.8066659 0.7023517 0.5461701
0.0409222 0.6292106 0.4746119
0.2120681 0.6723083 0.4961380
0.3849158 0.6999649 0.5106209
0.5246435 0.7169842 0.5212170
0.6285743 0.7301065 0.5301214
0.7058082 0.7386256 0.5379308
0.7667016 0.7458325 0.5474089
0.8159890 0.7521033 0.5547322
0.0559260 0.6749716 0.4840435
0.2148263 0.7150664 0.5034875
0.3895350 0.7436739 0.5179682
0.5313405 0.7596443 0.5283936
0.6362424 0.7712945 0.5371074
0.7118086 0.7798162 0.5449184
0.7757992 0.7871296 0.5524920
0.8229400 0.7915267 0.5595869
0.0471822 0.0166375 0.2595217
0.1383040 0.0257996 0.2947456
0.2348199 0.0348244 0.3214639
0.3239486 0.0442557 0.3426148
0.3968097 0.0538427 0.3611442
0.4570317 0.0649133 0.3777725
0.5110788 0.0774625 0.3949695
0.5573779 0.0901612 0.4094804
0.0584377 0.1363460 0.3918529
0.1918341 0.1625369 0.4236800
0.3160753 0.1826233 0.4447318
0.4235131 0.2013690 0.4603598
0.5065937 0.2170865 0.4737460
0.5715226 0.2327615 0.4847592
0.6293193 0.2493889 0.4967863
0.6731364 0.2633656 0.5056344
0.0525979 0.3063655 0.4685094
0.2178325 0.3439610 0.4994060
0.3616578 0.3689804 0.5174709
0.4818229 0.3887559 0.5294487
0.5721054 0.4038709 0.5398881
0.6402732 0.4172812 0.5476670
0.6980050 0.4324908 0.5555034
0.7440156 0.4442942 0.5632703
0.0451031 0.4298047 0.5052762
0.2270858 0.4706023 0.5345544
0.3830408 0.4942998 0.5493673
0.5074766 0.5111918 0.5608918
0.5995123 0.5248336 0.5687746
0.6722898 0.5371502 0.5771936
0.7303457 0.5461951 0.5829472
0.7752427 0.5570762 0.5886684
0.0401653 0.5206898 0.5275451
0.2321918 0.5652565 0.5546196
0.3944372 0.5900435 0.5703257
0.5237951 0.6063707 0.5798292
0.6185439 0.6184049 0.5885734
0.6906713 0.6284651 0.5947554
0.7502387 0.6375760 0.6017755
0.7972281 0.6456311 0.6068002
0.0450950 0.5890752 0.5420426
0.2359079 0.6345179 0.5689071
0.4018792 0.6583381 0.5824182
0.5345246 0.6750774 0.5932642
0.6309997 0.6851262 0.5999920
0.7040051 0.6929704 0.6072768
0.7646157 0.7014255 0.6125212
0.8096054 0.7070331 0.6170376
0.0589820 0.6420968 0.5547407
0.2393602 0.6834080 0.5786289
0.4073634 0.7084076 0.5920331
0.5422017 0.7241157 0.6026068
0.6400110 0.7345613 0.6093246
0.7117423 0.7424625 0.6149458
0.7728219 0.7493945 0.6214159
0.8202254 0.7553680 0.6259981
0.0728794 0.6877496 0.5653408
0.2428102 0.7266805 0.5854567
0.4148306 0.7511654 0.6001340
0.5489199 0.7670570 0.6089774
0.6477304 0.7778453 0.6172922
0.7202024 0.7858655 0.6227750
0.7818207 0.7910353 0.6274638
0.8272473 0.7967950 0.6335115
0.0684525 0.0286826 0.3158123
0.1659258 0.0391713 0.3485216
0.2651798 0.0492545 0.3729899
0.3543781 0.0595867 0.3932674
0.4255211 0.0706660 0.4108973
0.4848835 0.0831483 0.4275499
0.5380430 0.0952167 0.4421144
0.5809769 0.1083175 0.4560225
0.0833056 0.1452026 0.4372403
0.2156125 0.1704810 0.4677999
0.3382345 0.1905890 0.4878200
0.4422075 0.2073938 0.5027941
0.5211748 0.2233054 0.5152586
0.5840513 0.2393699 0.5266041
0.6396084 0.2546651 0.5368087
0.6830673 0.2713901 0.5468934
0.0831832 0.3196704 0.5207019
0.2444635 0.3536605 0.5482233
0.3846785 0.3773854 0.5646496
0.4982117 0.3944352 0.5759749
0.5861031 0.4113942 0.5856886
0.6518131 0.4249352 0.5934247
0.7069634 0.4372621 0.6003276
0.7496195 0.4491206 0.6067191
0.0787315 0.4433188 0.5584646
0.2535775 0.4789642 0.5839372
0.4041738 0.5011147 0.5984527
0.5241600 0.5174692 0.6085420
0.6124425 0.5285347 0.6158354
0.6802902 0.5406073 0.6225272
0.7391850 0.5519828 0.6286551
0.7815147 0.5604483 0.6337516
0.0753745 0.5342051 0.5818946
0.2598855 0.5728418 0.6067663
0.4184874 0.5958043 0.6207818
0.5403202 0.6109337 0.6300423
0.6314700 0.6225235 0.6371292
0.7007074 0.6323624 0.6429866
0.7583488 0.6411552 0.6482875
0.8015084 0.6490648 0.6530970
0.0726687 0.6011477 0.5961732
0.2645959 0.6425400 0.6207694
0.4263679 0.6643469 0.6340580
0.5511443 0.6798081 0.6431010
0.6439767 0.6893820 0.6496346
0.7140477 0.6968858 0.6549271
0.7725465 0.7050759 0.6599989
0.8153271 0.7105529 0.6642786
0.0782587 0.6519986 0.6080379
0.2687175 0.6919626 0.6311609
0.4322029 0.7148256 0.6443242
0.5588466 0.7291034 0.6530119
0.6530792 0.7390452 0.6594555
0.7217038 0.7466336 0.6646611
0.7807142 0.7533252 0.6694326
0.8241068 0.7590355 0.6723869
0.0927255 0.6977602 0.6178004
0.2727837 0.7340004 0.6384429
0.4372686 0.7574887 0.6514061
0.5655489 0.7722493 0.6600377
0.6584150 0.7822837 0.6663623
0.7299843 0.7883621 0.6713306
0.7894188 0.7950755 0.6760606
0.8327010 0.8004680 0.6802719
0.0901237 0.0424827 0.3638671
0.1939862 0.0541574 0.3948981
0.2953987 0.0651399 0.4174857
0.3819123 0.0762033 0.4367907
0.4533873 0.0893171 0.4551825
0.5105515 0.1018127 0.4698123
0.5613849 0.1135260 0.4833916
0.6016060 0.1257096 0.4960617
0.1069934 0.1539004 0.4728954
0.2381101 0.1771882 0.5007538
0.3606306 0.1973012 0.5211598
0.4589289 0.2137296 0.5361444
0.5359042 0.2296840 0.5489909
0.5967754 0.2463626 0.5598587
0.6506423 0.2623712 0.5707766
0.6903095 0.2775039 0.5804949
0.1114888 0.3312276 0.5586206
0.2696769 0.3606052 0.5840244
0.4082091 0.3833572 0.6005095
0.5174652 0.4023487 0.6115338
0.5978028 0.4164637 0.6205775
0.6630247 0.4299164 0.6286777
0.7157686 0.4419066 0.6346069
0.7566076 0.4537809 0.6412915
0.1107255 0.4526975 0.5983905
0.2823330 0.4847834 0.6212711
0.4284346 0.5055334 0.6356328
0.5404362 0.5210984 0.6457084
0.6263084 0.5342765 0.6525044
0.6914366 0.5461589 0.6594482
0.7471027 0.5550959 0.6653512
0.7867182 0.5659453 0.6698998
0.1084652 0.5470335 0.6224975
0.2879474 0.5815939 0.6458787
0.4411774 0.6027019 0.6583816
0.5571803 0.6170737 0.6676806
0.6452607 0.6283832 0.6749467
0.7118202 0.6379479 0.6797376
0.7661743 0.6443074 0.6848395
0.8075125 0.6521576 0.6898121
0.1076969 0.6129389 0.6372707
0.2935606 0.6494663 0.6603001
0.4492436 0.6693864 0.6733714
0.5679342 0.6839290 0.6824664
0.6550406 0.6929373 0.6877037
0.7227094 0.7019843 0.6936054
0.7801069 0.7082437 0.6986087
0.8195548 0.7135388 0.7016410
0.1080799 0.6627675 0.6488308
0.2984644 0.6993408 0.6713554
0.4554307 0.7201132 0.6829295
0.5759010 0.7333964 0.6916248
0.6640486 0.7427534 0.6981873
0.7324314 0.7502025 0.7023371
0.7882944 0.7566925 0.7072874
0.8298995 0.7622984 0.7117112
0.1124135 0.7045259 0.6572846
0.3008584 0.7413564 0.6789771
0.4606888 0.7630260 0.6918698
0.5827982 0.7766966 0.6991407
0.6715859 0.7844924 0.7053622
0.7406760 0.7920612 0.7108797
0.7969609 0.7983616 0.7143387
0.8367633 0.8035683 0.7186317
0.1142718 0.0572556 0.4072222
0.2206568 0.0696764 0.4360438
0.3238075 0.0820332 0.4582621
0.4093070 0.0947869 0.4767735
0.4768066 0.1074656 0.4932463
0.5334193 0.1190514 0.5062079
0.5826656 0.1316647 0.5194264
0.6210630 0.1452986 0.5313675
0.1313483 0.1612448 0.5034788
0.2610779 0.1855512 0.5312087
0.3813756 0.2037325 0.5504087
0.4738266 0.2201792 0.5643100
0.5483716 0.2363582 0.5772815
0.6088311 0.2516924 0.5876325
0.6605681 0.2683195 0.5985504
0.6989915 0.2839022 0.6073078
0.1399467 0.3399830 0.5915062
0.2949526 0.3694104 0.6161380
0.4304016 0.3915811 0.6312668
0.5317900 0.4073979 0.6423045
0.6112347 0.4215617 0.6503211
0.6722683 0.4344292 0.6569925
0.7244226 0.4465212 0.6638495
0.7621087 0.4579904 0.6690529
0.1409161 0.4626357 0.6326633
0.3069408 0.4918523 0.6539895
0.4509791 0.5118397 0.6681329
0.5574008 0.5268741 0.6768089
0.6377014 0.5398006 0.6835297
0.7023556 0.5491975 0.6896339
0.7557548 0.5604773 0.6946268
0.7931439 0.5688908 0.6995112
0.1408647 0.5564306 0.6575259
0.3158474 0.5876274 0.6781884
0.4640723 0.6072184 0.6914421
0.5740435 0.6208117 0.6992390
0.6563106 0.6316878 0.7062157
0.7205077 0.6409491 0.7107918
0.7745854 0.6493778 0.7158783
0.8122019 0.6549628 0.7188867
0.1416469 0.6230676 0.6730673
0.3224001 0.6557330 0.6944881
0.4725490 0.6740041 0.7057925
0.5849490 0.6876894 0.7145608
0.6684823 0.6963191 0.7196587
0.7337041 0.7050459 0.7250299
0.7881103 0.7110935 0.7284381
0.8257985 0.7163026 0.7312728
0.1432551 0.6734177 0.6850773
0.3256887 0.7056644 0.7045916
0.4789603 0.7250068 0.7170991
0.5930147 0.7373202 0.7241976
0.6752617 0.7460997 0.7291468
0.7411501 0.7533674 0.7341608
0.7963077 0.7597401 0.7375585
0.8344344 0.7650955 0.7414736
0.1437717 0.7145383 0.6933240
0.3310293 0.7482677 0.7140324
0.4844664 0.7680400 0.7250817
0.5998108 0.7789799 0.7318029
0.6828430 0.7879340 0.7377907
0.7494703 0.7952330 0.7416493
0.8049265 0.8013239 0.7460519
0.8426861 0.8047161 0.7484711
