Plugins/FilmEmulator/Content/LUTs/FE_Kodak_Portra_800_At1600_64.cube
TITLE "FE_Kodak_Portra_800_At1600_33"
LUT_3D_SIZE 64
0.0005262 0.0009172 0.0000993
0.0011685 0.0009168 0.0000992
0.0033152 0.0009162 0.0000995
0.0071891 0.0009234 0.0001078
0.0122203 0.0009435 0.0001166
0.0189571 0.0009711 0.0001274
0.0268913 0.0010099 0.0001450
0.0364582 0.0010635 0.0001677
0.0472689 0.0011216 0.0001930
0.0585905 0.0012202 0.0002255
0.0694938 0.0013274 0.0002633
0.0858792 0.0014439 0.0003068
0.0974945 0.0015723 0.0003583
0.1152411 0.0016812 0.0004034
0.1303649 0.0018347 0.0004817
0.1473156 0.0020022 0.0005508
0.1660858 0.0021849 0.0006031
0.1867594 0.0024096 0.0006967
0.2015769 0.0025813 0.0008079
0.2171645 0.0028611 0.0008938
0.2423926 0.0030655 0.0009876
0.2602575 0.0032993 0.0010924
0.2789616 0.0035846 0.0012116
0.2980465 0.0038945 0.0013436
0.3178952 0.0042310 0.0014901
0.3279833 0.0045956 0.0016524
0.3490126 0.0047909 0.0018295
0.3705380 0.0052160 0.0019295
0.3813983 0.0056838 0.0021389
0.4030981 0.0059347 0.0022522
0.4138433 0.0064668 0.0024967
0.4359829 0.0067519 0.0026288
0.4469741 0.0073569 0.0029141
0.4695196 0.0076809 0.0030683
0.4808006 0.0079968 0.0032232
0.4921218 0.0083257 0.0035514
0.5032199 0.0090232 0.0037363
0.5254363 0.0093949 0.0039249
0.5364628 0.0097808 0.0041230
0.5474616 0.0101824 0.0043310
0.5584211 0.0106003 0.0045495
0.5693431 0.0110354 0.0050125
0.5801940 0.0114881 0.0052594
0.5909761 0.0119525 0.0055153
0.6016796 0.0124320 0.0057835
0.6122931 0.0129306 0.0060647
0.6229350 0.0134490 0.0063595
0.6334659 0.0139880 0.0066686
0.6438668 0.0145482 0.0066784
0.6541495 0.0151307 0.0070029
0.6642966 0.0157363 0.0073431
0.6742998 0.0163657 0.0076998
0.6841514 0.0170201 0.0080737
0.6840476 0.0176908 0.0084710
0.6938577 0.0176914 0.0088852
0.7033833 0.0183700 0.0088976
0.7127493 0.0190745 0.0093459
0.7222329 0.0198055 0.0098166
0.7221391 0.0205638 0.0103113
0.7316781 0.0205642 0.0108149
0.7409031 0.0213514 0.0108298
0.7499328 0.0221683 0.0113747
0.7499417 0.0221683 0.0119303
0.7587544 0.0230158 0.0119467
0.0005213 0.0019370 0.0001021
0.0012221 0.0021123 0.0001032
0.0034152 0.0023157 0.0001117
0.0071013 0.0024798 0.0001197
0.0126033 0.0027488 0.0001324
0.0187003 0.0029443 0.0001509
0.0265193 0.0031539 0.0001706
0.0359445 0.0034191 0.0001965
0.0465918 0.0037156 0.0002279
0.0577600 0.0040377 0.0002662
0.0715032 0.0043878 0.0003078
0.0846918 0.0047680 0.0003595
0.1003655 0.0049736 0.0004199
0.1137228 0.0054222 0.0004802
0.1287317 0.0056619 0.0005482
0.1455028 0.0061724 0.0006268
0.1641669 0.0064453 0.0007227
0.1846654 0.0070259 0.0007991
0.1993997 0.0073358 0.0008820
0.2230807 0.0079750 0.0010235
0.2400182 0.0083044 0.0011309
0.2578464 0.0086474 0.0012522
0.2765489 0.0090044 0.0013865
0.2956482 0.0093759 0.0015353
0.3154105 0.0101635 0.0017025
0.3360072 0.0105824 0.0017930
0.3465201 0.0110176 0.0019845
0.3681228 0.0114713 0.0021964
0.3899901 0.0119367 0.0023124
0.4007581 0.0124165 0.0025589
0.4226928 0.0129161 0.0026941
0.4337363 0.0134348 0.0028362
0.4448664 0.0139741 0.0031385
0.4674033 0.0145355 0.0032969
0.4786807 0.0151183 0.0034633
0.4900004 0.0157243 0.0038158
0.5125384 0.0157258 0.0040023
0.5235868 0.0163556 0.0042041
0.5346195 0.0170104 0.0044161
0.5456282 0.0176820 0.0046387
0.5566029 0.0183611 0.0048722
0.5675302 0.0190660 0.0051175
0.5785237 0.0190666 0.0053615
0.5893233 0.0197981 0.0056219
0.6000446 0.0205572 0.0058950
0.6106773 0.0213448 0.0061812
0.6214604 0.0213454 0.0064721
0.6320121 0.0221627 0.0067863
0.6424451 0.0230107 0.0071156
0.6527507 0.0238905 0.0074609
0.6630362 0.0238910 0.0078116
0.6730621 0.0248037 0.0081905
0.6829376 0.0257507 0.0085929
0.6829376 0.0257507 0.0085929
0.6926601 0.0267042 0.0090256
0.7023234 0.0267045 0.0094667
0.7117118 0.0276926 0.0099431
0.7212186 0.0287164 0.0104433
0.7212186 0.0287164 0.0104433
0.7306784 0.0297770 0.0109684
0.7399373 0.0308759 0.0115198
0.7490855 0.0308760 0.0120818
0.7489914 0.0320143 0.0120986
0.7579297 0.0320143 0.0126887
0.0005221 0.0059190 0.0001093
0.0012784 0.0064488 0.0001174
0.0035134 0.0067287 0.0001268
0.0073241 0.0073316 0.0001394
0.0124448 0.0076524 0.0001564
0.0192998 0.0079666 0.0001807
0.0273779 0.0082942 0.0002078
0.0355265 0.0089916 0.0002427
0.0460777 0.0093617 0.0002746
0.0571575 0.0097472 0.0003170
0.0708029 0.0101486 0.0003696
0.0839114 0.0105665 0.0004150
0.0994576 0.0110017 0.0004929
0.1127662 0.0114546 0.0005627
0.1276650 0.0119193 0.0006150
0.1443928 0.0123994 0.0007054
0.1629458 0.0128987 0.0008173
0.1834129 0.0134179 0.0009022
0.1980765 0.0139575 0.0009956
0.2217394 0.0145190 0.0011548
0.2386067 0.0151023 0.0012786
0.2563649 0.0157088 0.0014158
0.2749897 0.0163393 0.0014910
0.2940246 0.0169948 0.0016509
0.3138422 0.0176672 0.0018279
0.3345130 0.0176684 0.0020203
0.3449985 0.0183478 0.0021268
0.3665641 0.0190536 0.0023536
0.3883989 0.0197860 0.0024778
0.3991552 0.0205454 0.0027418
0.4211891 0.0205466 0.0028822
0.4322383 0.0213347 0.0031893
0.4433515 0.0221524 0.0033501
0.4660048 0.0221536 0.0035139
0.4772827 0.0230020 0.0036910
0.4886044 0.0238823 0.0040664
0.5110136 0.0247960 0.0042713
0.5221950 0.0247966 0.0044800
0.5332354 0.0257440 0.0047056
0.5442553 0.0266979 0.0049423
0.5553607 0.0266985 0.0051837
0.5662975 0.0276870 0.0054384
0.5772978 0.0276875 0.0056944
0.5881093 0.0287117 0.0059708
0.5988435 0.0297729 0.0062605
0.6096082 0.0297733 0.0065550
0.6202850 0.0308727 0.0068730
0.6309683 0.0308730 0.0071962
0.6414171 0.0320119 0.0075451
0.6517390 0.0331916 0.0079108
0.6620380 0.0331918 0.0082826
0.6720819 0.0344137 0.0086891
0.6820738 0.0344138 0.0086888
0.6819761 0.0356793 0.0091266
0.6918203 0.0356795 0.0095727
0.7013939 0.0369900 0.0100544
0.7108919 0.0369900 0.0100540
0.7204126 0.0383782 0.0105601
0.7204221 0.0383783 0.0110762
0.7298951 0.0398329 0.0116335
0.7392578 0.0398327 0.0116329
0.7483245 0.0413405 0.0122179
0.7483333 0.0413406 0.0128144
0.7571919 0.0429034 0.0134583
0.0005542 0.0124296 0.0001226
0.0013443 0.0129223 0.0001315
0.0036346 0.0134336 0.0001451
0.0075954 0.0139675 0.0001627
0.0129038 0.0145244 0.0001892
0.0191490 0.0151047 0.0002126
0.0271659 0.0157085 0.0002479
0.0368598 0.0157064 0.0002886
0.0457730 0.0163354 0.0003356
0.0567823 0.0169893 0.0003768
0.0703449 0.0176603 0.0004401
0.0833788 0.0183392 0.0005024
0.0988349 0.0190439 0.0005735
0.1121211 0.0190437 0.0006536
0.1323170 0.0197753 0.0007179
0.1495645 0.0205348 0.0008317
0.1620650 0.0213230 0.0009179
0.1825199 0.0213233 0.0010116
0.1971311 0.0221413 0.0011164
0.2207055 0.0229902 0.0012355
0.2375199 0.0238709 0.0013680
0.2553209 0.0238715 0.0015125
0.2739095 0.0247853 0.0016746
0.2929022 0.0257334 0.0018541
0.3127757 0.0257341 0.0019495
0.3333003 0.0266888 0.0021573
0.3438904 0.0266893 0.0023839
0.3654157 0.0276785 0.0025095
0.3872368 0.0287036 0.0027770
0.3980901 0.0287040 0.0029191
0.4199850 0.0297660 0.0030729
0.4310285 0.0308659 0.0033928
0.4422587 0.0308663 0.0035587
0.4647785 0.0320060 0.0037379
0.4761786 0.0320065 0.0039207
0.4875014 0.0331868 0.0043193
0.5100357 0.0331874 0.0045303
0.5210946 0.0344098 0.0047583
0.5322636 0.0344102 0.0049907
0.5432857 0.0356763 0.0052418
0.5542727 0.0369874 0.0054993
0.5653358 0.0369877 0.0057582
0.5762182 0.0383765 0.0060378
0.5871571 0.0383767 0.0063220
0.5978942 0.0398320 0.0066290
0.6086672 0.0398322 0.0069409
0.6193491 0.0413406 0.0072778
0.6300424 0.0413407 0.0076200
0.6404982 0.0429042 0.0079897
0.6509447 0.0429042 0.0083652
0.6612443 0.0429041 0.0083649
0.6712958 0.0445243 0.0087759
0.6813102 0.0445242 0.0092049
0.6910555 0.0462032 0.0096687
0.6910656 0.0462034 0.0101415
0.7006387 0.0479428 0.0101557
0.7101602 0.0479427 0.0106517
0.7196937 0.0497449 0.0111878
0.7197034 0.0497451 0.0117344
0.7292838 0.0497447 0.0117339
0.7385694 0.0516114 0.0123239
0.7477489 0.0516111 0.0129249
0.7476513 0.0535451 0.0129434
0.7566211 0.0535447 0.0135743
0.0005867 0.0205935 0.0001367
0.0014177 0.0205817 0.0001501
0.0037706 0.0213587 0.0001682
0.0075522 0.0221688 0.0001924
0.0128371 0.0221618 0.0002224
0.0199037 0.0230059 0.0002593
0.0270281 0.0238836 0.0002932
0.0366571 0.0247943 0.0003410
0.0475551 0.0247913 0.0003970
0.0589932 0.0257375 0.0004464
0.0700042 0.0266907 0.0005095
0.0830169 0.0266892 0.0005808
0.0984134 0.0276772 0.0006629
0.1163984 0.0276760 0.0007631
0.1317745 0.0287003 0.0008422
0.1489581 0.0297617 0.0009295
0.1614895 0.0297615 0.0010753
0.1818150 0.0308613 0.0011880
0.2040967 0.0308611 0.0013136
0.2199695 0.0320007 0.0013833
0.2367461 0.0331813 0.0015315
0.2545071 0.0331814 0.0016933
0.2730596 0.0344043 0.0018747
0.2921088 0.0344044 0.0019712
0.3118567 0.0356711 0.0021813
0.3324460 0.0356713 0.0022932
0.3536326 0.0369832 0.0025376
0.3645219 0.0369833 0.0026675
0.3863179 0.0383729 0.0029519
0.3971614 0.0383731 0.0031030
0.4190353 0.0398290 0.0032666
0.4301912 0.0398293 0.0035938
0.4525721 0.0413384 0.0037750
0.4639230 0.0413386 0.0039596
0.4751933 0.0429026 0.0041591
0.4866366 0.0429029 0.0045755
0.5090419 0.0445238 0.0048060
0.5202246 0.0445239 0.0050407
0.5312681 0.0462036 0.0052946
0.5424153 0.0462037 0.0055470
0.5534009 0.0479440 0.0058165
0.5644683 0.0479440 0.0060903
0.5754792 0.0479440 0.0063769
0.5862984 0.0497470 0.0066866
0.5971656 0.0497469 0.0070011
0.6078225 0.0516146 0.0073410
0.6186336 0.0516144 0.0076862
0.6292146 0.0535489 0.0080591
0.6397880 0.0535485 0.0080588
0.6502432 0.0535484 0.0084376
0.6604449 0.0555990 0.0088524
0.6706221 0.0555987 0.0092852
0.6805268 0.0578221 0.0097540
0.6903847 0.0578216 0.0097536
0.6903950 0.0578217 0.0102305
0.6999817 0.0601293 0.0107467
0.7095153 0.0601287 0.0112714
0.7190444 0.0625229 0.0112882
0.7190540 0.0625230 0.0118396
0.7286574 0.0625225 0.0124172
0.7379495 0.0650066 0.0130427
0.7471340 0.0650057 0.0130420
0.7471427 0.0650059 0.0136783
0.7560226 0.0675825 0.0143667
0.0006228 0.0287861 0.0001573
0.0014533 0.0298356 0.0001738
0.0039164 0.0309196 0.0001996
0.0078623 0.0309062 0.0002254
0.0133544 0.0320380 0.0002627
0.0198236 0.0320306 0.0003073
0.0281217 0.0332066 0.0003582
0.0365289 0.0332019 0.0004014
0.0473694 0.0344218 0.0004715
0.0587928 0.0344182 0.0005374
0.0697687 0.0356833 0.0006133
0.0863234 0.0369928 0.0006703
0.0980884 0.0369910 0.0007716
0.1159665 0.0383791 0.0008516
0.1313528 0.0383776 0.0009852
0.1484878 0.0398330 0.0010873
0.1675396 0.0398316 0.0011996
0.1812522 0.0413409 0.0013283
0.2034806 0.0413398 0.0014687
0.2193230 0.0429042 0.0016262
0.2361426 0.0429035 0.0017100
0.2538723 0.0429031 0.0018906
0.2723909 0.0445244 0.0020927
0.2914110 0.0445240 0.0022000
0.3111279 0.0462042 0.0024347
0.3316910 0.0462038 0.0025595
0.3528386 0.0479445 0.0026945
0.3637277 0.0479446 0.0029774
0.3854909 0.0497481 0.0031344
0.3963254 0.0497480 0.0032949
0.4183182 0.0497479 0.0036250
0.4293328 0.0516162 0.0038077
0.4518290 0.0516159 0.0039939
0.4630498 0.0535511 0.0041952
0.4744439 0.0535509 0.0044002
0.4971031 0.0556023 0.0048479
0.5082862 0.0556021 0.0050847
0.5194694 0.0556020 0.0053331
0.5305048 0.0578262 0.0055959
0.5416537 0.0578260 0.0058594
0.5526333 0.0601344 0.0061446
0.5637042 0.0601342 0.0064338
0.5747193 0.0601338 0.0067366
0.5855349 0.0625291 0.0070643
0.5964078 0.0625287 0.0073966
0.6071933 0.0625283 0.0077444
0.6178703 0.0650132 0.0077561
0.6285794 0.0650128 0.0081207
0.6390435 0.0675903 0.0085154
0.6495083 0.0675898 0.0089209
0.6598382 0.0675892 0.0093571
0.6699023 0.0702624 0.0098295
0.6799277 0.0702616 0.0098291
0.6898056 0.0702609 0.0103093
0.6896977 0.0730336 0.0108299
0.6994123 0.0730328 0.0113586
0.7089462 0.0730319 0.0113581
0.7184962 0.0759051 0.0119307
0.7281110 0.0759043 0.0125127
0.7281110 0.0759043 0.0125127
0.7374148 0.0788823 0.0131429
0.7466202 0.0788813 0.0137834
0.7466291 0.0788815 0.0144556
0.7555120 0.0819672 0.0144770
0.0006630 0.0384943 0.0001841
0.0015360 0.0399346 0.0002066
0.0040736 0.0399099 0.0002349
0.0081893 0.0414055 0.0002737
0.0133127 0.0413933 0.0003105
0.0206358 0.0429498 0.0003619
0.0280342 0.0429423 0.0004212
0.0380188 0.0445587 0.0004762
0.0472229 0.0445536 0.0005428
0.0585859 0.0462311 0.0006195
0.0725836 0.0462262 0.0007061
0.0860640 0.0479652 0.0007794
0.0977973 0.0479626 0.0009016
0.1156781 0.0479591 0.0009937
0.1309697 0.0497620 0.0010967
0.1481250 0.0497596 0.0012099
0.1670697 0.0516272 0.0013398
0.1808250 0.0516259 0.0014813
0.2029323 0.0535605 0.0016403
0.2188198 0.0535592 0.0017248
0.2356203 0.0535582 0.0019070
0.2532260 0.0556100 0.0021109
0.2718033 0.0556088 0.0022191
0.2906968 0.0578336 0.0024561
0.3104827 0.0578325 0.0025820
0.3310329 0.0578317 0.0028532
0.3521516 0.0601404 0.0030040
0.3630196 0.0601400 0.0031578
0.3847674 0.0625358 0.0034872
0.3955937 0.0625353 0.0036577
0.4175613 0.0625344 0.0038366
0.4285616 0.0650204 0.0040304
0.4510478 0.0650195 0.0042274
0.4624033 0.0650192 0.0046507
0.4736591 0.0675977 0.0048855
0.4964338 0.0675967 0.0051241
0.5076163 0.0675962 0.0053744
0.5186636 0.0702704 0.0056393
0.5298360 0.0702699 0.0059048
0.5408511 0.0730428 0.0061923
0.5519684 0.0730422 0.0064837
0.5630422 0.0730416 0.0067888
0.5848701 0.0759151 0.0071189
0.5957369 0.0759142 0.0071187
0.6065282 0.0759136 0.0074535
0.6172220 0.0788927 0.0078159
0.6172326 0.0788930 0.0081836
0.6279485 0.0788921 0.0085682
0.6384202 0.0819791 0.0089901
0.6488931 0.0819783 0.0094296
0.6592205 0.0819772 0.0094292
0.6694149 0.0819763 0.0098900
0.6793338 0.0852913 0.0103897
0.6892216 0.0852903 0.0108972
0.6892216 0.0852903 0.0108972
0.6988241 0.0887280 0.0114473
0.7083782 0.0887269 0.0120060
0.7180508 0.0887258 0.0125916
0.7275522 0.0922895 0.0126110
0.7275615 0.0922899 0.0132265
0.7369843 0.0922885 0.0138711
0.7460818 0.0959822 0.0138923
0.7460908 0.0959825 0.0145698
0.7550976 0.0959810 0.0153009
0.0007128 0.0499136 0.0002185
0.0016431 0.0517622 0.0002450
0.0042368 0.0517314 0.0002764
0.0085366 0.0517091 0.0003255
0.0138667 0.0536335 0.0003652
0.0205800 0.0536210 0.0004250
0.0291898 0.0556656 0.0004805
0.0379163 0.0556575 0.0005476
0.0470966 0.0556509 0.0006241
0.0584288 0.0578725 0.0007124
0.0723893 0.0578660 0.0007851
0.0858373 0.0601730 0.0009097
0.1017471 0.0601680 0.0010025
0.1153775 0.0601646 0.0011048
0.1306308 0.0625595 0.0012208
0.1477486 0.0625562 0.0013498
0.1667226 0.0625530 0.0014925
0.1803763 0.0650392 0.0016528
0.2025217 0.0650362 0.0018274
0.2182942 0.0676148 0.0019245
0.2350654 0.0676131 0.0021272
0.2618921 0.0676101 0.0022363
0.2805638 0.0702846 0.0024751
0.2901542 0.0702839 0.0026019
0.3099284 0.0702824 0.0028752
0.3303287 0.0730553 0.0030272
0.3515477 0.0730536 0.0031822
0.3624177 0.0730531 0.0035087
0.3841390 0.0759276 0.0036860
0.4058791 0.0759260 0.0038663
0.4169139 0.0759253 0.0040553
0.4279204 0.0789058 0.0044684
0.4503985 0.0789041 0.0046867
0.4617390 0.0789034 0.0049157
0.4729928 0.0819915 0.0051639
0.4957645 0.0819898 0.0054160
0.5069466 0.0819890 0.0056742
0.5179886 0.0853052 0.0059509
0.5291621 0.0853044 0.0062310
0.5403146 0.0853035 0.0065243
0.5512937 0.0887425 0.0068422
0.5733819 0.0887405 0.0071638
0.5843282 0.0887393 0.0071636
0.5950731 0.0923045 0.0075125
0.6058701 0.0923035 0.0078657
0.6166999 0.0923025 0.0082355
0.6274212 0.0923014 0.0086225
0.6272989 0.0959981 0.0090478
0.6378942 0.0959965 0.0090475
0.6483737 0.0959954 0.0094898
0.6585904 0.0998241 0.0099694
0.6687941 0.0998228 0.0104565
0.6788470 0.0998216 0.0109671
0.6887321 0.0998200 0.0109667
0.6886198 0.1037875 0.0115208
0.6983528 0.1037862 0.0120830
0.7079155 0.1037847 0.0126724
0.7174715 0.1078912 0.0126919
0.7271079 0.1078895 0.0133107
0.7271172 0.1078898 0.0139600
0.7365401 0.1078878 0.0139593
0.7456567 0.1121390 0.0146625
0.7456658 0.1121393 0.0153990
0.7546734 0.1121372 0.0153982
0.0007920 0.0627473 0.0002628
0.0016981 0.0627174 0.0002875
0.0044080 0.0651736 0.0003289
0.0085121 0.0651474 0.0003825
0.0138336 0.0651282 0.0004285
0.0205209 0.0676973 0.0005060
0.0291209 0.0676835 0.0005766
0.0378274 0.0676735 0.0006570
0.0490317 0.0703425 0.0007180
0.0608572 0.0703344 0.0008306
0.0721879 0.0731052 0.0009168
0.0856389 0.0730987 0.0010103
0.1015196 0.0730925 0.0011688
0.1150697 0.0759666 0.0012936
0.1303423 0.0759618 0.0013603
0.1474281 0.0759574 0.0015041
0.1662946 0.0789362 0.0016656
0.1871604 0.0789320 0.0018416
0.2021078 0.0789295 0.0020359
0.2178562 0.0820175 0.0021436
0.2433068 0.0820135 0.0023690
0.2613938 0.0820110 0.0024904
0.2800386 0.0853274 0.0027565
0.2993864 0.0853250 0.0028977
0.3093601 0.0853239 0.0030461
0.3298696 0.0853218 0.0033660
0.3509460 0.0887606 0.0035363
0.3617962 0.0887595 0.0037093
0.3836292 0.0887572 0.0038907
0.4052348 0.0923228 0.0042873
0.4162639 0.0923217 0.0044968
0.4273864 0.0923207 0.0047166
0.4497185 0.0960160 0.0049550
0.4610560 0.0960148 0.0051971
0.4724424 0.0960138 0.0054509
0.4952116 0.0960114 0.0057107
0.5062519 0.0998413 0.0059891
0.5174356 0.0998403 0.0062711
0.5286098 0.0998391 0.0065662
0.5396226 0.1038063 0.0068862
0.5507444 0.1038052 0.0072101
0.5728378 0.1038025 0.0075490
0.5837877 0.1038009 0.0075488
0.5945365 0.1079088 0.0079163
0.6053380 0.1079075 0.0082884
0.6161727 0.1079061 0.0086779
0.6267667 0.1121586 0.0091056
0.6267778 0.1121590 0.0095512
0.6373789 0.1121572 0.0095508
0.6478647 0.1121557 0.0100175
0.6580882 0.1165563 0.0105236
0.6682991 0.1165547 0.0110376
0.6783490 0.1165527 0.0110371
0.6882526 0.1165511 0.0115759
0.6978712 0.1211032 0.0121601
0.6978712 0.1211032 0.0121601
0.7074425 0.1211015 0.0127532
0.7171331 0.1210997 0.0133749
0.7266630 0.1257959 0.0140489
0.7266630 0.1257959 0.0140489
0.7361050 0.1257938 0.0147331
0.7453309 0.1257914 0.0147323
0.7542495 0.1306399 0.0154959
0.7542585 0.1306402 0.0162738
0.0008708 0.0761854 0.0003083
0.0018179 0.0761508 0.0003443
0.0045882 0.0790965 0.0003859
0.0088754 0.0790649 0.0004488
0.0144205 0.0790419 0.0005094
0.0213892 0.0821183 0.0005813
0.0290510 0.0821038 0.0006624
0.0394145 0.0820895 0.0007585
0.0489158 0.0854018 0.0008372
0.0607122 0.0853915 0.0009226
0.0720557 0.0853839 0.0010673
0.0854416 0.0888204 0.0011781
0.1012853 0.0888125 0.0013018
0.1148611 0.0888069 0.0014394
0.1300532 0.0923717 0.0015941
0.1471008 0.0923658 0.0016762
0.1660062 0.0923604 0.0018533
0.1868433 0.0923552 0.0020489
0.2016747 0.0960516 0.0021574
0.2174965 0.0960483 0.0023842
0.2429083 0.0960431 0.0025064
0.2608777 0.0998731 0.0027742
0.2796008 0.0998698 0.0029163
0.2989302 0.0998666 0.0030657
0.3190495 0.0998638 0.0033877
0.3292638 0.1038325 0.0035591
0.3504479 0.1038293 0.0037332
0.3722757 0.1038262 0.0039157
0.3829894 0.1079361 0.0043149
0.4047055 0.1079329 0.0045258
0.4157296 0.1079315 0.0047470
0.4380383 0.1079285 0.0049789
0.4491732 0.1121826 0.0052305
0.4605079 0.1121811 0.0054860
0.4833033 0.1121780 0.0057474
0.4946584 0.1121765 0.0060180
0.5056985 0.1165785 0.0063114
0.5168825 0.1165770 0.0066084
0.5280572 0.1165755 0.0069194
0.5390714 0.1211293 0.0072565
0.5612652 0.1211257 0.0075975
0.5722936 0.1211243 0.0079548
0.5832469 0.1211223 0.0079545
0.5940002 0.1258200 0.0083417
0.6048059 0.1258183 0.0087337
0.6156458 0.1258166 0.0091496
0.6263786 0.1258149 0.0095969
0.6368532 0.1306645 0.0096117
0.6368640 0.1306649 0.0100818
0.6473563 0.1306629 0.0105743
0.6577149 0.1306611 0.0110907
0.6679206 0.1306588 0.0110903
0.6778625 0.1356695 0.0116501
0.6877734 0.1356675 0.0122186
0.6975108 0.1356651 0.0122180
0.6975209 0.1356656 0.0128145
0.7069805 0.1408404 0.0134605
0.7166706 0.1408378 0.0134598
0.7263232 0.1408355 0.0141157
0.7263326 0.1408358 0.0148039
0.7356614 0.1461773 0.0148265
0.7449066 0.1461749 0.0155704
0.7539410 0.1461724 0.0163511
0.7539410 0.1461724 0.0163511
0.0009549 0.0926368 0.0003609
0.0019460 0.0925967 0.0004040
0.0047778 0.0925461 0.0004522
0.0088531 0.0962181 0.0005139
0.0143844 0.0961904 0.0005854
0.0213469 0.0961682 0.0006669
0.0302847 0.0961489 0.0007637
0.0393160 0.0999718 0.0008428
0.0488217 0.0999600 0.0009749
0.0605967 0.0999479 0.0010743
0.0750023 0.1039099 0.0011858
0.0852793 0.1039029 0.0013103
0.1010958 0.1038935 0.0014488
0.1195098 0.1038844 0.0016018
0.1352898 0.1079915 0.0017739
0.1529158 0.1079845 0.0018653
0.1657156 0.1079805 0.0020621
0.1864329 0.1122318 0.0021713
0.2013354 0.1122278 0.0023995
0.2253692 0.1122215 0.0026517
0.2425191 0.1122173 0.0027876
0.2604597 0.1166189 0.0029351
0.2791731 0.1166151 0.0032434
0.2984843 0.1166112 0.0034095
0.3185755 0.1166072 0.0035763
0.3287817 0.1211625 0.0037572
0.3499605 0.1211589 0.0041337
0.3717746 0.1211550 0.0043357
0.3826035 0.1211532 0.0045477
0.4041765 0.1258504 0.0047775
0.4151958 0.1258488 0.0050110
0.4374965 0.1258450 0.0052557
0.4487673 0.1258433 0.0055125
0.4599606 0.1306948 0.0057845
0.4827520 0.1306908 0.0060567
0.4941063 0.1306891 0.0063418
0.5052872 0.1306873 0.0066403
0.5163302 0.1356997 0.0069638
0.5275059 0.1356978 0.0072914
0.5497757 0.1356937 0.0076341
0.5608593 0.1356918 0.0079931
0.5717402 0.1408679 0.0080055
0.5827080 0.1408659 0.0083818
0.5936016 0.1408638 0.0087757
0.6044109 0.1408619 0.0091936
0.6151206 0.1462054 0.0096584
0.6258479 0.1462028 0.0096580
0.6364704 0.1462007 0.0101299
0.6364813 0.1462011 0.0106252
0.6469783 0.1461990 0.0111441
0.6572033 0.1517124 0.0111613
0.6674265 0.1517102 0.0117061
0.6774998 0.1517078 0.0122773
0.6874170 0.1517055 0.0128761
0.6970403 0.1573920 0.0128959
0.6970502 0.1573924 0.0135252
0.7066360 0.1573900 0.0141842
0.7163330 0.1573869 0.0141835
0.7259924 0.1573842 0.0148743
0.7258791 0.1632495 0.0148978
0.7353382 0.1632467 0.0156452
0.7445903 0.1632440 0.0164296
0.7536230 0.1632406 0.0164287
0.7536321 0.1632413 0.0172529
0.0010746 0.1082940 0.0004392
0.0020119 0.1082532 0.0004743
0.0049753 0.1081946 0.0005399
0.0092352 0.1124199 0.0006158
0.0150011 0.1123881 0.0007015
0.0222593 0.1123622 0.0007689
0.0302256 0.1123428 0.0008893
0.0392397 0.1167364 0.0009815
0.0508759 0.1167193 0.0010815
0.0604787 0.1167083 0.0011917
0.0748584 0.1212556 0.0013189
0.0888356 0.1212445 0.0014582
0.1009066 0.1212364 0.0016123
0.1192902 0.1212257 0.0017826
0.1350398 0.1259218 0.0018774
0.1526444 0.1259140 0.0020755
0.1654255 0.1259090 0.0022936
0.1861973 0.1259011 0.0024112
0.2009970 0.1307524 0.0026689
0.2249926 0.1307445 0.0028056
0.2421222 0.1307396 0.0029493
0.2601586 0.1307350 0.0032591
0.2787370 0.1357467 0.0034314
0.2980294 0.1357419 0.0035993
0.3181131 0.1357375 0.0039600
0.3284342 0.1357354 0.0041536
0.3495912 0.1357307 0.0043566
0.3712647 0.1409062 0.0045769
0.3820872 0.1409041 0.0048006
0.4037839 0.1408996 0.0050351
0.4147999 0.1408976 0.0052811
0.4369566 0.1462402 0.0055478
0.4482240 0.1462382 0.0058123
0.4595535 0.1462360 0.0060860
0.4823422 0.1462314 0.0063724
0.4935554 0.1517468 0.0066829
0.5047355 0.1517448 0.0069974
0.5159197 0.1517426 0.0073265
0.5270957 0.1517404 0.0076711
0.5493678 0.1517357 0.0080316
0.5603139 0.1574241 0.0084225
0.5713361 0.1574215 0.0084222
0.5823062 0.1574191 0.0088180
0.5932030 0.1574169 0.0092379
0.6038805 0.1632812 0.0097049
0.6147292 0.1632787 0.0101791
0.6254604 0.1632759 0.0101787
0.6360872 0.1632734 0.0106759
0.6465891 0.1632709 0.0111973
0.6464702 0.1693166 0.0117630
0.6568298 0.1693135 0.0117625
0.6670583 0.1693110 0.0123364
0.6771374 0.1693083 0.0129380
0.6870503 0.1693053 0.0129374
0.6966895 0.1755284 0.0135896
0.6966993 0.1755290 0.0142524
0.7062816 0.1755256 0.0142517
0.7159950 0.1755228 0.0149457
0.7256618 0.1755197 0.0156955
0.7255500 0.1818412 0.0157200
0.7350158 0.1818382 0.0165081
0.7442662 0.1818345 0.0165072
0.7533154 0.1818315 0.0173343
0.7533244 0.1818320 0.0182033
0.0011610 0.1262648 0.0004992
0.0020799 0.1262215 0.0005442
0.0051808 0.1261538 0.0006194
0.0096383 0.1261082 0.0007054
0.0149708 0.1309386 0.0007743
0.0222156 0.1309093 0.0008955
0.0301653 0.1308866 0.0009865
0.0391823 0.1308673 0.0010870
0.0507763 0.1358695 0.0011996
0.0630116 0.1358534 0.0013255
0.0747528 0.1358409 0.0014655
0.0887118 0.1358285 0.0016202
0.1050502 0.1410001 0.0017942
0.1190718 0.1409910 0.0019837
0.1348601 0.1409816 0.0020856
0.1524449 0.1409727 0.0023048
0.1718271 0.1463138 0.0024268
0.1858797 0.1463082 0.0026818
0.2085028 0.1462991 0.0028191
0.2247214 0.1462937 0.0031153
0.2418363 0.1462881 0.0032748
0.2597428 0.1518025 0.0034480
0.2784220 0.1517973 0.0037936
0.2977009 0.1517918 0.0039791
0.3177620 0.1517863 0.0041736
0.3384346 0.1574738 0.0043847
0.3490956 0.1574712 0.0045990
0.3708850 0.1574657 0.0048237
0.3817028 0.1574632 0.0050594
0.4033916 0.1574580 0.0053066
