Plugins/FilmEmulator/Content/LUTs/FE_Kodak_Endura_Premier_64.cube
TITLE "FE_Kodak_Endura_Premier_33"
LUT_3D_SIZE 8
0.0143539 0.0063850 0.0096231
0.0887913 0.0157908 0.0080512
0.6082862 0.1193603 0.0163811
0.9958944 0.2595751 0.0430357
1.0000000 0.3748324 0.0820855
1.0000000 0.4416081 0.1086251
1.0000000 0.4866911 0.1290590
1.0000000 0.5122701 0.1432385
0.0478119 0.4865417 0.0699972
0.1309776 0.4646354 0.0646930
0.5960428 0.4988000 0.0756613
0.9351002 0.5537840 0.1009251
1.0000000 0.6043041 0.1308283
1.0000000 0.6300185 0.1522214
1.0000000 0.6440424 0.1697075
1.0000000 0.6476110 0.1817881
0.2189428 0.9552572 0.2614833
0.2934813 0.9475380 0.2533146
0.6405977 0.9469094 0.2648214
0.8717228 0.9515334 0.2888972
0.9594977 0.9564955 0.3169340
0.9891981 0.9582260 0.3373045
1.0000000 0.9597878 0.3549621
1.0000000 0.9579046 0.3642498
0.3061989 1.0000000 0.3848606
0.3935767 1.0000000 0.3731554
0.6966439 1.0000000 0.3819427
0.8812382 1.0000000 0.4032383
0.9451421 1.0000000 0.4241282
0.9672105 1.0000000 0.4437876
0.9770189 1.0000000 0.4628236
0.9814073 1.0000000 0.4762822
0.3420223 1.0000000 0.4795254
0.4367607 1.0000000 0.4610916
0.7267550 1.0000000 0.4638911
0.8933643 1.0000000 0.4760323
0.9476832 1.0000000 0.4895273
0.9661469 1.0000000 0.4969246
0.9745045 1.0000000 0.5061832
0.9784622 1.0000000 0.5233225
0.3713495 1.0000000 0.5909439
0.4729649 1.0000000 0.5648488
0.7536181 1.0000000 0.5597432
0.9042255 1.0000000 0.5667570
0.9530943 1.0000000 0.5685830
0.9696455 1.0000000 0.5703777
0.9764255 1.0000000 0.5703346
0.9787899 1.0000000 0.5652896
0.4067426 1.0000000 0.6927879
0.5039535 1.0000000 0.6672560
0.7780616 1.0000000 0.6593609
0.9164941 1.0000000 0.6624207
0.9591886 1.0000000 0.6609454
0.9746197 1.0000000 0.6588668
0.9804496 1.0000000 0.6511675
0.9825601 1.0000000 0.6444921
0.4500265 1.0000000 0.7741776
0.5344818 1.0000000 0.7478430
0.8005756 1.0000000 0.7423913
0.9254621 1.0000000 0.7416090
0.9651818 1.0000000 0.7417089
0.9792529 1.0000000 0.7400326
0.9847161 1.0000000 0.7332236
0.9865903 1.0000000 0.7258128
0.1345787 0.1169402 0.6842525
0.6647797 0.2261362 0.6543887
0.9940997 0.3532853 0.6384968
1.0000000 0.4432464 0.6289942
1.0000000 0.5000168 0.6228920
1.0000000 0.5386157 0.6163399
1.0000000 0.5585214 0.6069827
1.0000000 0.5716199 0.5931978
0.2394875 0.6734281 0.7882950
0.6759248 0.6940273 0.7711645
0.9295583 0.7277064 0.7598633
1.0000000 0.7506946 0.7473814
1.0000000 0.7638845 0.7397666
1.0000000 0.7691200 0.7265208
1.0000000 0.7659690 0.7148712
1.0000000 0.7580387 0.6986243
0.4281317 0.9536255 0.8768466
0.7486967 0.9525744 0.8669797
0.9174299 0.9579554 0.8642639
0.9733127 0.9617496 0.8599024
0.9937430 0.9636383 0.8552356
1.0000000 0.9650544 0.8471718
1.0000000 0.9644647 0.8397233
1.0000000 0.9632073 0.8315532
0.5159262 0.9883611 0.9249180
0.7954028 0.9842680 0.9176563
0.9285839 0.9851658 0.9140167
0.9718698 0.9870500 0.9132841
0.9874802 0.9882990 0.9102389
0.9940571 0.9890978 0.9064831
0.9967235 0.9894723 0.9017962
0.9981409 0.9896708 0.8963708
0.5573838 0.9932947 0.9489483
0.8162476 0.9888002 0.9443985
0.9371116 0.9891243 0.9413015
0.9741653 0.9903412 0.9403808
0.9877271 0.9913521 0.9393282
0.9934856 0.9920725 0.9364583
0.9957380 0.9924220 0.9327478
0.9969687 0.9926761 0.9301949
0.5867403 0.9948029 0.9647106
0.8345854 0.9903197 0.9605606
0.9425052 0.9904932 0.9580356
0.9756501 0.9915524 0.9573126
0.9885634 0.9924474 0.9566545
0.9935431 0.9929984 0.9556405
0.9956216 0.9933271 0.9531494
0.9967562 0.9935374 0.9514176
0.6132029 0.9950462 0.9740209
0.8469603 0.9908915 0.9702328
0.9468983 0.9910798 0.9687296
0.9775079 0.9920668 0.9681165
0.9890757 0.9928586 0.9675826
0.9935673 0.9933333 0.9668129
0.9955815 0.9936085 0.9657996
0.9966829 0.9937948 0.9638113
0.6387503 0.9948898 0.9811380
0.8582312 0.9911393 0.9772870
0.9506990 0.9914180 0.9756972
0.9791222 0.9923788 0.9751974
0.9895292 0.9931026 0.9747883
0.9937074 0.9935383 0.9742321
0.9956074 0.9937924 0.9735082
0.9966114 0.9939427 0.9726522
0.6879932 0.4342223 1.0000000
0.9425770 0.5325257 0.9929525
1.0000000 0.5951052 0.9841953
1.0000000 0.6393280 0.9783397
1.0000000 0.6681403 0.9752629
1.0000000 0.6838340 0.9724032
1.0000000 0.6954696 0.9709032
1.0000000 0.7040564 0.9686846
0.7464758 0.8497645 0.9875513
0.9221060 0.8692235 0.9818275
0.9820637 0.8809727 0.9795823
1.0000000 0.8868545 0.9778246
1.0000000 0.8865910 0.9764949
1.0000000 0.8841027 0.9750754
1.0000000 0.8780006 0.9736236
1.0000000 0.8716986 0.9729074
0.8207037 0.9729892 0.9871401
0.9370607 0.9754189 0.9847522
0.9744545 0.9778783 0.9840952
0.9892685 0.9788882 0.9834931
0.9955538 0.9794660 0.9829900
0.9984681 0.9791771 0.9826362
1.0000000 0.9789008 0.9819161
1.0000000 0.9780422 0.9810930
0.8480046 0.9866530 0.9893402
0.9465975 0.9878899 0.9878904
0.9773916 0.9893129 0.9874020
0.9888039 0.9902635 0.9873442
0.9936098 0.9908501 0.9871488
0.9957159 0.9910495 0.9867977
0.9968429 0.9911243 0.9866256
0.9975055 0.9910866 0.9861946
0.8634580 0.9898802 0.9907102
0.9517142 0.9905419 0.9893418
0.9788924 0.9916515 0.9890967
0.9892618 0.9924600 0.9890847
0.9934063 0.9928646 0.9889274
0.9953175 0.9931089 0.9888768
0.9963417 0.9932283 0.9886563
0.9969107 0.9932510 0.9885401
0.8771325 0.9909955 0.9915265
0.9555297 0.9916129 0.9904546
0.9805110 0.9925959 0.9901462
0.9897298 0.9932929 0.9901321
0.9934769 0.9936988 0.9901327
0.9952673 0.9939243 0.9900041
0.9961946 0.9940537 0.9899526
0.9966973 0.9941097 0.9897721
0.8879132 0.9914959 0.9921126
0.9587376 0.9921312 0.9911457
0.9813269 0.9930314 0.9908809
0.9901548 0.9936963 0.9908851
0.9936033 0.9940674 0.9909006
0.9952300 0.9942785 0.9908933
0.9961238 0.9943982 0.9907901
0.9966260 0.9944701 0.9907452
0.8951436 0.9917187 0.9925122
0.9615313 0.9923889 0.9915695
0.9820596 0.9932469 0.9914172
0.9904800 0.9938928 0.9914361
0.9936513 0.9942424 0.9914640
0.9952967 0.9944556 0.9914255
0.9960927 0.9945714 0.9914082
0.9965799 0.9946435 0.9913661
0.9478567 0.6347808 1.0000000
1.0000000 0.6787743 1.0000000
1.0000000 0.7052020 1.0000000
1.0000000 0.7197664 1.0000000
1.0000000 0.7363397 0.9999560
1.0000000 0.7483641 0.9989312
1.0000000 0.7583109 0.9981222
1.0000000 0.7671653 0.9974220
0.9408517 0.9260536 0.9925786
0.9800947 0.9313375 0.9914111
0.9970759 0.9349431 0.9908363
1.0000000 0.9345675 0.9906185
1.0000000 0.9323947 0.9905338
1.0000000 0.9294272 0.9904432
1.0000000 0.9259391 0.9904385
1.0000000 0.9218426 0.9904591
0.9537094 0.9831404 0.9917825
0.9792667 0.9850194 0.9914083
0.9901028 0.9861191 0.9912922
0.9942077 0.9862558 0.9912255
0.9963953 0.9863387 0.9911785
0.9975568 0.9861715 0.9910781
0.9983147 0.9858593 0.9910104
0.9989615 0.9850763 0.9909067
0.9595958 0.9895523 0.9923449
0.9813312 0.9907818 0.9920785
0.9903080 0.9916137 0.9920492
0.9937171 0.9920192 0.9920536
0.9954268 0.9922777 0.9920583
0.9963642 0.9923793 0.9920445
0.9968729 0.9924446 0.9920251
0.9972360 0.9924396 0.9919942
0.9623032 0.9915136 0.9926839
0.9824190 0.9924918 0.9925004
0.9905064 0.9931795 0.9924956
0.9937791 0.9935625 0.9925184
0.9953364 0.9937751 0.9925308
0.9961354 0.9938636 0.9925238
0.9966258 0.9939288 0.9925115
0.9969346 0.9939579 0.9924576
0.9649336 0.9922655 0.9929061
0.9832415 0.9931384 0.9927570
0.9908620 0.9937699 0.9927619
0.9938276 0.9941090 0.9927850
0.9953206 0.9943113 0.9927994
0.9960739 0.9944205 0.9927987
0.9965392 0.9944884 0.9927898
0.9968306 0.9945282 0.9927744
0.9671732 0.9926349 0.9930656
0.9843016 0.9934713 0.9929366
0.9911922 0.9940552 0.9929501
0.9939815 0.9943758 0.9929783
0.9953403 0.9945611 0.9929956
0.9960945 0.9946737 0.9930013
0.9965080 0.9947368 0.9929965
0.9967906 0.9947798 0.9929870
0.9692194 0.9928375 0.9931681
0.9850013 0.9936370 0.9930632
0.9915050 0.9941933 0.9930850
0.9941220 0.9945007 0.9931126
0.9954133 0.9946781 0.9931289
0.9961043 0.9947819 0.9931329
0.9965015 0.9948462 0.9931501
0.9967777 0.9948925 0.9931416
1.0000000 0.7571874 1.0000000
1.0000000 0.7702954 1.0000000
1.0000000 0.7750534 1.0000000
1.0000000 0.7749642 1.0000000
1.0000000 0.7729518 1.0000000
1.0000000 0.7833577 0.9999749
1.0000000 0.7935875 0.9992423
1.0000000 0.8025029 0.9986237
0.9824702 0.9583024 0.9923858
0.9945559 0.9592664 0.9921103
0.9997584 0.9592358 0.9919840
1.0000000 0.9583223 0.9919201
1.0000000 0.9558485 0.9919038
1.0000000 0.9538583 0.9918947
1.0000000 0.9507208 0.9919146
1.0000000 0.9481726 0.9919334
0.9829097 0.9877552 0.9927199
0.9911885 0.9886889 0.9926607
0.9943399 0.9890646 0.9926479
0.9960831 0.9891174 0.9926286
0.9969762 0.9891140 0.9926119
0.9975547 0.9890344 0.9925895
0.9979239 0.9888937 0.9925600
0.9982070 0.9886494 0.9925388
0.9841947 0.9916200 0.9930957
0.9914305 0.9923202 0.9930852
0.9941332 0.9926827 0.9931036
0.9955535 0.9928604 0.9931132
0.9963444 0.9929802 0.9931194
0.9967835 0.9930008 0.9931118
0.9970843 0.9930331 0.9931184
0.9972610 0.9930002 0.9931023
0.9851393 0.9929796 0.9932857
0.9916033 0.9935808 0.9933086
0.9942007 0.9939000 0.9933382
0.9954910 0.9940817 0.9933597
0.9961917 0.9941664 0.9933681
0.9965910 0.9942214 0.9933693
0.9968711 0.9942583 0.9933783
0.9970223 0.9942648 0.9933689
0.9861918 0.9935018 0.9933918
0.9918799 0.9940256 0.9934125
0.9942495 0.9943133 0.9934521
0.9954873 0.9944867 0.9934752
0.9961559 0.9945869 0.9934878
0.9965415 0.9946446 0.9934927
0.9968072 0.9946833 0.9934937
0.9969488 0.9947000 0.9934984
0.9868347 0.9937574 0.9934573
0.9921402 0.9942515 0.9934860
0.9943860 0.9945247 0.9935211
0.9955509 0.9946896 0.9935477
0.9961518 0.9947870 0.9935692
0.9965283 0.9948458 0.9935747
0.9967819 0.9948853 0.9935762
0.9969190 0.9949046 0.9935728
0.9874263 0.9938934 0.9934938
0.9923900 0.9943621 0.9935250
0.9944524 0.9946151 0.9935641
0.9955825 0.9947791 0.9935911
0.9961914 0.9948732 0.9936071
0.9965349 0.9949282 0.9936153
0.9967775 0.9949683 0.9936256
0.9969094 0.9949918 0.9936265
1.0000000 0.8393832 0.9980397
1.0000000 0.8386161 0.9978185
1.0000000 0.8349749 0.9978690
1.0000000 0.8302031 0.9980484
1.0000000 0.8245316 0.9983245
1.0000000 0.8184824 0.9986354
1.0000000 0.8270302 0.9980925
1.0000000 0.8368013 0.9975108
0.9939158 0.9730820 0.9924248
0.9976245 0.9729123 0.9923566
0.9997973 0.9722251 0.9923208
1.0000000 0.9711525 0.9922930
1.0000000 0.9697980 0.9922723
1.0000000 0.9682412 0.9922561
1.0000000 0.9664957 0.9922541
1.0000000 0.9645706 0.9922517
0.9922029 0.9902836 0.9930711
0.9946557 0.9906464 0.9930819
0.9960362 0.9907583 0.9930870
0.9968057 0.9907436 0.9930800
0.9972754 0.9906587 0.9930670
0.9975946 0.9905354 0.9930548
0.9978103 0.9903797 0.9930353
0.9979602 0.9902011 0.9930137
0.9922467 0.9928811 0.9933714
0.9945530 0.9931469 0.9933923
0.9957501 0.9933197 0.9934159
0.9963780 0.9933649 0.9934199
0.9967756 0.9934089 0.9934243
0.9970341 0.9933882 0.9934227
0.9971941 0.9933849 0.9934193
0.9972991 0.9933402 0.9934095
0.9924971 0.9938371 0.9935172
0.9945516 0.9941005 0.9935488
0.9956756 0.9942641 0.9935768
0.9962559 0.9943497 0.9935909
0.9966301 0.9944012 0.9935994
0.9968597 0.9944282 0.9936059
0.9969974 0.9944378 0.9936060
0.9970986 0.9944230 0.9936008
0.9927406 0.9942128 0.9935871
0.9946721 0.9944589 0.9936206
0.9956791 0.9946043 0.9936479
0.9962602 0.9946920 0.9936638
0.9965957 0.9947420 0.9936726
0.9968129 0.9947731 0.9936804
0.9969438 0.9947884 0.9936817
0.9970307 0.9947957 0.9936811
0.9929649 0.9943826 0.9936247
0.9947870 0.9946210 0.9936602
0.9957436 0.9947619 0.9936879
0.9962645 0.9948439 0.9937038
0.9965886 0.9948965 0.9937134
0.9967981 0.9949309 0.9937219
0.9969237 0.9949504 0.9937241
0.9970068 0.9949656 0.9937251
0.9930647 0.9944750 0.9936469
0.9948428 0.9947032 0.9936841
0.9957698 0.9948383 0.9937091
0.9962791 0.9949216 0.9937277
0.9965937 0.9949719 0.9937376
0.9967975 0.9950044 0.9937437
0.9969190 0.9950231 0.9937485
0.9970000 0.9950378 0.9937502
1.0000000 0.8891458 0.9951733
1.0000000 0.8868558 0.9951849
1.0000000 0.8815575 0.9953976
1.0000000 0.8756104 0.9956610
1.0000000 0.8702550 0.9959119
1.0000000 0.8636813 0.9962469
1.0000000 0.8591024 0.9964798
1.0000000 0.8656878 0.9961151
0.9967436 0.9806716 0.9925912
0.9983205 0.9802189 0.9925607
0.9992412 0.9798801 0.9925394
1.0000000 0.9790096 0.9925108
1.0000000 0.9780003 0.9924806
1.0000000 0.9772905 0.9924605
1.0000000 0.9760740 0.9924367
1.0000000 0.9747097 0.9924121
0.9949990 0.9917485 0.9932813
0.9960980 0.9918488 0.9932882
0.9967117 0.9918602 0.9932894
0.9971318 0.9917902 0.9932800
0.9973998 0.9916830 0.9932664
0.9975758 0.9915506 0.9932516
0.9976880 0.9914900 0.9932431
0.9977968 0.9913353 0.9932260
0.9949365 0.9935538 0.9935202
0.9959089 0.9936899 0.9935410
0.9964472 0.9937585 0.9935516
0.9967875 0.9937590 0.9935534
0.9970070 0.9937709 0.9935549
0.9971474 0.9937293 0.9935477
0.9972394 0.9937129 0.9935459
0.9973106 0.9936917 0.9935414
0.9949344 0.9942812 0.9936410
0.9958517 0.9944146 0.9936637
0.9963648 0.9944769 0.9936752
0.9966783 0.9945213 0.9936852
0.9968823 0.9945467 0.9936898
0.9970046 0.9945571 0.9936928
0.9970869 0.9945598 0.9936925
0.9971504 0.9945590 0.9936929
0.9950343 0.9945651 0.9936940
0.9958543 0.9946855 0.9937161
0.9963495 0.9947619 0.9937328
0.9966502 0.9948080 0.9937421
0.9968452 0.9948368 0.9937493
0.9969611 0.9948513 0.9937516
0.9970391 0.9948590 0.9937540
0.9970999 0.9948628 0.9937538
0.9950843 0.9946886 0.9937204
0.9959083 0.9948125 0.9937454
0.9963552 0.9948836 0.9937599
0.9966480 0.9949313 0.9937698
0.9968356 0.9949654 0.9937781
0.9969453 0.9949822 0.9937810
0.9970156 0.9949920 0.9937837
0.9970753 0.9949997 0.9937844
0.9951953 0.9947793 0.9937414
0.9959332 0.9948894 0.9937643
0.9963663 0.9949573 0.9937784
0.9966530 0.9950073 0.9937903
0.9968355 0.9950362 0.9937963
0.9969398 0.9950517 0.9938004
0.9970092 0.9950608 0.9938015
0.9970670 0.9950717 0.9938043
1.0000000 0.9263048 0.9934750
1.0000000 0.9227605 0.9935771
1.0000000 0.9189193 0.9937046
1.0000000 0.9133222 0.9939200
1.0000000 0.9084269 0.9941178
1.0000000 0.9016616 0.9944132
1.0000000 0.8950157 0.9947141
1.0000000 0.8911459 0.9948946
0.9973836 0.9858370 0.9928352
0.9982139 0.9851367 0.9927931
0.9987505 0.9846440 0.9927632
0.9991643 0.9840822 0.9927346
0.9995516 0.9831941 0.9926918
0.9998676 0.9823596 0.9926575
1.0000000 0.9817878 0.9926332
1.0000000 0.9808668 0.9926013
0.9961894 0.9925144 0.9934115
0.9967256 0.9925512 0.9934169
0.9970531 0.9925802 0.9934196
0.9972808 0.9925151 0.9934120
0.9974171 0.9924266 0.9933991
0.9975133 0.9923896 0.9933948
0.9976035 0.9922877 0.9933802
0.9976792 0.9921808 0.9933671
0.9960457 0.9939911 0.9936284
0.9965012 0.9940313 0.9936367
0.9968030 0.9940680 0.9936424
0.9969972 0.9940785 0.9936455
0.9971102 0.9940363 0.9936375
0.9971947 0.9940214 0.9936358
0.9972615 0.9940025 0.9936312
0.9973204 0.9939485 0.9936230
0.9960108 0.9945170 0.9937230
0.9964392 0.9945819 0.9937367
0.9967279 0.9946244 0.9937440
0.9969071 0.9946482 0.9937498
0.9970052 0.9946566 0.9937500
0.9970828 0.9946596 0.9937513
0.9971433 0.9946581 0.9937497
0.9971902 0.9946542 0.9937494
0.9960141 0.9947590 0.9937736
0.9964251 0.9948242 0.9937880
0.9967058 0.9948676 0.9937959
0.9968742 0.9948916 0.9938020
0.9969690 0.9949020 0.9938024
0.9970440 0.9949092 0.9938046
0.9971018 0.9949129 0.9938036
0.9971465 0.9949144 0.9938043
0.9960353 0.9948559 0.9937987
0.9964535 0.9949232 0.9938115
0.9967065 0.9949680 0.9938222
0.9968655 0.9949936 0.9938262
0.9969572 0.9950075 0.9938298
0.9970302 0.9950181 0.9938326
0.9970816 0.9950241 0.9938320
0.9971249 0.9950324 0.9938341
0.9960850 0.9949362 0.9938212
0.9964632 0.9949995 0.9938333
0.9967117 0.9950393 0.9938431
0.9968621 0.9950623 0.9938466
0.9969513 0.9950787 0.9938508
0.9970180 0.9950870 0.9938507
0.9970735 0.9950938 0.9938527
0.9971163 0.9951016 0.9938524
