Plugins/FilmEmulator/Content/LUTs/FE_Kodak_Vision2_500T_5260_64.cube
# FilmEmulator LUT (resampled to 64)
LUT_3D_SIZE 8
0.000000 0.000000 0.000000
0.173322 0.042188 0.013524
0.352888 0.061633 0.026864
0.510263 0.063224 0.067845
0.643751 0.079812 0.082345
0.768079 0.087947 0.098035
0.879364 0.105905 0.110748
0.974548 0.124237 0.122253
0.002468 0.047760 0.010045
0.105088 0.100764 0.016080
0.308848 0.125698 0.036196
0.495490 0.141868 0.068113
0.650452 0.163027 0.083443
0.781922 0.179766 0.097792
0.891420 0.197496 0.106993
0.978542 0.213453 0.116333
0.002773 0.115056 0.034009
0.005630 0.150744 0.015804
0.268859 0.240743 0.046439
0.482685 0.262079 0.066611
0.654365 0.283776 0.086391
0.792911 0.304338 0.101676
0.902473 0.317563 0.109660
0.983769 0.334656 0.121495
0.003728 0.193050 0.077340
0.003503 0.196036 0.051134
0.116584 0.353159 0.040934
0.451133 0.407240 0.074268
0.651106 0.427060 0.093922
0.796778 0.445823 0.098385
0.904334 0.457382 0.107317
0.985574 0.471806 0.107971
0.006479 0.297145 0.132712
0.005597 0.294066 0.092566
0.016667 0.422844 0.070245
0.358174 0.544329 0.065652
0.619381 0.573483 0.107163
0.798840 0.586101 0.130700
0.907647 0.595351 0.131741
0.986529 0.595751 0.131139
0.009975 0.401031 0.189610
0.009034 0.406297 0.137585
0.012461 0.504454 0.127057
0.286082 0.653721 0.130719
0.587086 0.707529 0.151173
0.779487 0.721948 0.166116
0.904728 0.726641 0.156805
0.988477 0.729418 0.147818
0.012630 0.474261 0.231319
0.011826 0.486239 0.174491
0.013385 0.556371 0.168724
0.221775 0.711533 0.180189
0.587946 0.783837 0.213639
0.761348 0.812617 0.212117
0.893063 0.825383 0.171389
0.993011 0.833156 0.127515
0.017120 0.578278 0.326843
0.016261 0.587215 0.268463
0.016327 0.616512 0.238321
0.043671 0.717747 0.219901
0.393346 0.805128 0.229401
0.686536 0.866123 0.199912
0.862248 0.896144 0.181632
0.986420 0.912750 0.137665
0.005058 0.006740 0.071455
0.245133 0.047811 0.114935
0.380422 0.052849 0.112797
0.525771 0.063027 0.139090
0.651469 0.081240 0.154644
0.768535 0.094384 0.166235
0.876725 0.097782 0.186174
0.970751 0.121390 0.206473
0.006477 0.090171 0.147477
0.093176 0.102875 0.114755
0.314749 0.134741 0.110306
0.496789 0.153850 0.135199
0.649560 0.173768 0.153909
0.778675 0.187072 0.167388
0.887240 0.200107 0.183410
0.973607 0.221291 0.196072
0.005242 0.173822 0.165448
0.005471 0.172717 0.096371
0.281986 0.249626 0.121369
0.492004 0.268113 0.144082
0.659486 0.287603 0.162274
0.798103 0.301743 0.174707
0.904628 0.313035 0.182077
0.981362 0.325049 0.192524
0.006960 0.266001 0.172396
0.005253 0.237276 0.119259
0.062712 0.352869 0.114665
0.457023 0.406031 0.150707
0.656693 0.418882 0.170755
0.805232 0.432699 0.180566
0.911077 0.443277 0.189209
0.985158 0.450661 0.197155
0.010043 0.366704 0.222697
0.008221 0.347192 0.168670
0.010172 0.413572 0.116857
0.326981 0.540862 0.131440
0.628058 0.563620 0.191233
0.804372 0.573710 0.207338
0.917229 0.581931 0.210140
0.987128 0.577709 0.209032
0.013027 0.454981 0.266822
0.011685 0.452202 0.213026
0.011507 0.491924 0.152562
0.134270 0.645010 0.171018
0.575656 0.708239 0.221139
0.790982 0.720593 0.261908
0.919003 0.725048 0.257513
0.992147 0.721313 0.247201
0.014941 0.511578 0.293868
0.013813 0.517274 0.237542
0.013520 0.544852 0.186524
0.057698 0.700402 0.204161
0.559464 0.786693 0.257934
0.765849 0.817809 0.293262
0.904869 0.831393 0.278748
0.993946 0.836406 0.252267
0.018651 0.595254 0.369672
0.017399 0.597823 0.314340
0.017031 0.611834 0.274268
0.028029 0.699063 0.236156
0.319833 0.800258 0.270721
0.662767 0.866841 0.269103
0.854532 0.902848 0.272736
0.984572 0.915257 0.261309
0.033865 0.041429 0.176597
0.299998 0.037089 0.243167
0.453691 0.053017 0.232252
0.546382 0.063335 0.248653
0.670202 0.074518 0.263769
0.783458 0.091511 0.277997
0.885409 0.107064 0.300020
0.971095 0.130489 0.314248
0.007493 0.142951 0.246212
0.015604 0.088341 0.200959
0.364880 0.128715 0.207886
0.510708 0.148841 0.231553
0.653848 0.162818 0.248045
0.776017 0.179033 0.261408
0.877698 0.195146 0.275239
0.968917 0.223366 0.294339
0.011628 0.218519 0.310476
0.012813 0.192720 0.281773
0.234506 0.245604 0.233727
0.466824 0.275853 0.248144
0.640976 0.302506 0.265410
0.786078 0.320260 0.284137
0.893509 0.329106 0.294950
0.975995 0.336155 0.299943
0.011608 0.299777 0.311306
0.009606 0.290887 0.249746
0.024859 0.352233 0.224312
0.433565 0.418262 0.263101
0.644649 0.432838 0.286383
0.799153 0.444928 0.301965
0.905638 0.451833 0.305370
0.983639 0.455279 0.307830
0.012597 0.397364 0.293927
0.011926 0.399129 0.264157
0.011559 0.425952 0.225648
0.186825 0.537114 0.250607
0.608980 0.571331 0.298068
0.801429 0.575083 0.317251
0.918864 0.578897 0.321327
0.986374 0.570595 0.316674
0.015093 0.481802 0.327760
0.014548 0.490579 0.299445
0.013933 0.513821 0.245782
0.039593 0.626049 0.256763
0.539979 0.711963 0.304639
0.783858 0.722818 0.366773
0.919936 0.724562 0.366925
0.991656 0.711317 0.352680
0.016706 0.537322 0.351047
0.016045 0.545007 0.309892
0.015201 0.561918 0.248445
0.034798 0.684518 0.260992
0.513838 0.788914 0.329707
0.764554 0.825323 0.374558
0.908136 0.837043 0.392013
0.994097 0.837139 0.379316
0.020028 0.611101 0.409612
0.018710 0.608402 0.362675
0.018163 0.618902 0.325507
0.018931 0.681532 0.283306
0.175501 0.795728 0.326239
0.646412 0.866592 0.344014
0.850286 0.906213 0.373872
0.986180 0.917812 0.378719
0.023612 0.083688 0.259395
0.272505 0.036542 0.342205
0.500068 0.052236 0.318186
0.587019 0.063011 0.342597
0.681401 0.067378 0.362248
0.790308 0.085902 0.384514
0.890328 0.104446 0.405415
0.975516 0.136715 0.423218
0.010388 0.181696 0.318670
0.017185 0.100383 0.263168
0.293506 0.110920 0.346666
0.547208 0.144049 0.326698
0.676784 0.159644 0.353232
0.792198 0.174592 0.371793
0.887590 0.191775 0.385315
0.968103 0.218607 0.396886
0.013650 0.246412 0.377720
0.012933 0.216673 0.351308
0.035972 0.209903 0.361309
0.486799 0.267534 0.340526
0.651563 0.290741 0.359319
0.786455 0.305407 0.380068
0.888902 0.316575 0.392094
0.970949 0.344161 0.408077
0.014673 0.318564 0.398201
0.016146 0.324209 0.406521
0.023749 0.338465 0.405792
0.389860 0.409058 0.376463
0.617241 0.433068 0.392481
0.784639 0.458346 0.413200
0.895477 0.467029 0.423480
0.977577 0.466258 0.423395
0.015662 0.407155 0.389465
0.015494 0.432314 0.374302
0.016379 0.449142 0.338417
0.055326 0.529073 0.374351
0.590722 0.582312 0.416729
0.795598 0.589077 0.445410
0.912384 0.589385 0.452801
0.985477 0.576564 0.439339
0.016763 0.499811 0.379651
0.016838 0.518161 0.369498
0.016547 0.537135 0.341147
0.025985 0.613086 0.353493
0.461620 0.711805 0.418232
0.774030 0.730769 0.474773
0.914377 0.730253 0.490607
0.989830 0.712449 0.471512
0.018271 0.555923 0.393899
0.017980 0.568643 0.371946
0.017239 0.578652 0.326129
0.019743 0.661387 0.320732
0.414074 0.785797 0.432197
0.756565 0.834109 0.464511
0.908158 0.843055 0.502067
0.993955 0.839827 0.500695
0.021066 0.622576 0.443970
0.019979 0.620287 0.399794
0.019229 0.625745 0.366707
0.020033 0.678437 0.340756
0.102771 0.790492 0.393897
0.624637 0.866360 0.427175
0.851651 0.910268 0.469711
0.986716 0.920763 0.493086
0.018376 0.096179 0.310451
0.275062 0.040705 0.389658
0.509729 0.052310 0.373310
0.601084 0.060118 0.411556
0.685197 0.066180 0.440824
0.782045 0.081155 0.462887
0.879353 0.094101 0.486613
0.983691 0.136100 0.532880
0.012541 0.213350 0.369966
0.016551 0.115996 0.336198
0.218401 0.097334 0.400989
0.512172 0.123053 0.438362
0.695450 0.148241 0.448092
0.809589 0.164397 0.469060
0.903074 0.187653 0.493558
0.974863 0.218811 0.499006
0.015259 0.272289 0.425424
0.014381 0.243421 0.410227
0.013667 0.195713 0.404346
0.383795 0.242261 0.470571
0.676839 0.280764 0.445792
0.806720 0.302038 0.470686
0.902162 0.312611 0.493347
0.973464 0.327469 0.495636
0.017194 0.331357 0.465156
0.019715 0.341589 0.485566
0.021319 0.324888 0.474916
0.207914 0.366547 0.503659
0.640371 0.421381 0.474145
0.793161 0.439736 0.490372
0.894130 0.450886 0.507411
0.972557 0.462533 0.513052
0.018422 0.414908 0.472755
0.019602 0.448758 0.492917
0.022726 0.455598 0.492876
0.046601 0.514545 0.524173
0.547546 0.578087 0.518383
0.774138 0.592419 0.541834
0.897820 0.601946 0.551392
0.982381 0.589160 0.543576
0.019656 0.515252 0.461815
0.020005 0.545386 0.461124
0.019757 0.559766 0.442098
0.030676 0.617600 0.466114
0.303066 0.702198 0.524953
0.767730 0.741294 0.578930
0.911394 0.740106 0.597115
0.987491 0.720211 0.583846
0.020241 0.577090 0.448079
0.020305 0.594478 0.438124
0.019986 0.606765 0.413397
0.024423 0.667084 0.424665
0.201473 0.775132 0.517698
0.729808 0.840925 0.561165
0.906880 0.851463 0.607858
0.992315 0.846457 0.611863
0.022426 0.635437 0.482113
0.021568 0.635604 0.450215
0.020524 0.634349 0.409879
0.021417 0.680344 0.401687
0.060336 0.783031 0.458636
0.582924 0.865289 0.509926
0.849068 0.914888 0.557479
0.987828 0.924814 0.590145
0.020229 0.099008 0.349261
0.305564 0.046331 0.432431
0.508244 0.052458 0.437652
0.610054 0.059726 0.454251
0.690069 0.068120 0.505607
0.774786 0.082198 0.546028
0.867591 0.096051 0.577915
0.978254 0.126796 0.609977
0.014789 0.244689 0.419938
0.022145 0.117890 0.393001
0.184419 0.086315 0.450614
0.457935 0.104368 0.499314
0.673051 0.124683 0.543346
0.811141 0.148645 0.565860
0.906448 0.176614 0.585714
0.981315 0.213015 0.597535
0.016997 0.296179 0.465546
0.016263 0.264727 0.453399
0.016019 0.195374 0.462655
0.288222 0.210359 0.513698
0.614717 0.245199 0.555739
0.819277 0.281028 0.558814
0.915886 0.302919 0.579043
0.978870 0.328375 0.586991
0.019214 0.351653 0.513403
0.019707 0.353636 0.524979
0.018814 0.321922 0.508529
0.055074 0.319423 0.538577
0.548516 0.381489 0.589424
0.816962 0.417776 0.565071
0.912623 0.440364 0.588293
0.975960 0.450337 0.594361
0.021248 0.419271 0.548548
0.022727 0.441549 0.573190
0.027154 0.451296 0.593639
0.033393 0.469332 0.616416
0.438791 0.531673 0.638800
0.799510 0.574682 0.606854
0.902878 0.581437 0.618252
0.973228 0.573173 0.614323
0.022751 0.523168 0.552964
0.023849 0.557800 0.568538
0.025815 0.582453 0.579191
0.035009 0.616578 0.602847
0.274729 0.696998 0.657511
0.744852 0.750474 0.676336
0.897740 0.748033 0.689593
0.976647 0.728268 0.674721
0.023795 0.600930 0.546459
0.024179 0.623995 0.549919
0.024118 0.641480 0.537993
0.029535 0.678667 0.542548
0.078644 0.762949 0.605321
0.639402 0.834802 0.668061
0.905809 0.863616 0.708007
0.990835 0.857863 0.712208
0.024745 0.653695 0.549499
0.024163 0.658340 0.525698
0.023123 0.657374 0.489160
0.023446 0.686233 0.476960
0.044632 0.773082 0.528786
0.498154 0.858981 0.601819
0.839789 0.919482 0.645891
0.987884 0.929958 0.684946
0.019884 0.128126 0.392072
0.369409 0.048106 0.470541
0.545164 0.058578 0.477917
0.639167 0.062190 0.474145
0.697376 0.070701 0.540421
0.772711 0.084264 0.595813
0.852356 0.097690 0.644510
0.965341 0.123513 0.692025
0.016588 0.273085 0.460013
0.030731 0.098602 0.425906
0.231153 0.085954 0.498497
0.454024 0.093816 0.524589
0.644467 0.115122 0.585717
0.797504 0.134833 0.631435
0.897370 0.162427 0.665355
0.975953 0.212368 0.691474
0.018676 0.322725 0.504914
0.017623 0.270440 0.486103
0.020614 0.177573 0.495466
0.247610 0.180912 0.531771
0.547796 0.217157 0.591371
0.789438 0.253131 0.631457
0.909041 0.280626 0.658323
0.979989 0.323690 0.680441
0.020760 0.370953 0.548068
0.020530 0.357064 0.544556
0.019677 0.310881 0.531416
0.019974 0.255438 0.542369
0.468592 0.326814 0.617483
0.769704 0.367496 0.637077
0.914451 0.401874 0.655113
0.983735 0.443434 0.674877
0.023220 0.430891 0.595025
0.023682 0.436763 0.605324
0.023490 0.423821 0.602903
0.023565 0.409361 0.605136
0.312544 0.458551 0.654415
0.737142 0.506337 0.668222
0.917139 0.538739 0.667282
0.985044 0.565925 0.690944
0.025392 0.517965 0.624526
0.026227 0.536726 0.640995
0.027514 0.551850 0.657276
0.034370 0.571152 0.689261
0.209125 0.637559 0.748513
0.675592 0.699261 0.754153
0.916150 0.724843 0.740995
0.976054 0.713876 0.736274
0.026879 0.606033 0.633317
0.027974 0.628996 0.652904
0.029401 0.651627 0.669681
0.042242 0.692615 0.699910
0.121627 0.755578 0.740686
0.581058 0.824970 0.780267
0.891241 0.878929 0.799327
0.990254 0.875930 0.808821
0.028334 0.664616 0.643799
0.028496 0.677402 0.642703
0.028293 0.685996 0.633681
0.028092 0.696138 0.615461
0.040802 0.755060 0.636019
0.284423 0.830982 0.683555
0.788668 0.908967 0.721728
0.988852 0.935421 0.771044
0.014404 0.189850 0.423584
0.374124 0.047424 0.485465
0.569623 0.060277 0.492131
0.663151 0.064858 0.484584
0.719626 0.071995 0.525578
0.777513 0.085388 0.605072
0.856350 0.099753 0.677830
0.972534 0.147766 0.763611
0.017918 0.301108 0.489463
0.026903 0.139041 0.465654
0.250788 0.101121 0.526601
0.496451 0.101462 0.547067
0.670630 0.110940 0.590139
0.801169 0.138915 0.646583
0.894715 0.184123 0.695407
0.969059 0.235635 0.747284
0.020067 0.351768 0.535644
0.018495 0.300072 0.504666
0.026357 0.171747 0.517731
0.276291 0.171701 0.549570
0.549339 0.190123 0.589964
0.771847 0.233783 0.651985
0.900262 0.280607 0.696878
0.972604 0.332345 0.745261
0.022252 0.399214 0.576551
0.021004 0.366407 0.554845
0.019618 0.298876 0.531042
0.021243 0.216115 0.545462
0.431035 0.265099 0.605562
0.730872 0.316728 0.658849
0.902409 0.378431 0.698383
0.975952 0.435546 0.742493
0.024388 0.454346 0.618787
0.023751 0.431188 0.608064
0.022729 0.398192 0.589934
0.021807 0.350976 0.575049
0.181827 0.353907 0.623747
0.675278 0.428203 0.685506
0.896737 0.488251 0.699476
0.983546 0.541770 0.748775
0.026210 0.518394 0.645691
0.026442 0.506255 0.654208
0.026431 0.496973 0.657110
0.026158 0.481454 0.653545
0.030956 0.493238 0.686800
0.569945 0.585005 0.737613
0.892776 0.632788 0.733542
0.984061 0.686232 0.777200
0.028155 0.598480 0.670362
0.028584 0.604056 0.680477
0.029250 0.614202 0.693640
0.033068 0.631068 0.713077
0.050755 0.678428 0.766318
0.434494 0.749957 0.835337
0.839851 0.826393 0.827906
0.990601 0.852727 0.851685
0.030304 0.653961 0.705078
0.031573 0.666888 0.715507
0.039062 0.691651 0.735282
0.046068 0.706901 0.748160
0.060294 0.742711 0.775208
0.280927 0.795371 0.815569
0.616451 0.872310 0.859388
0.992554 0.968842 0.889526
