Plugins/FilmEmulator/Content/LUTs/FE_Kodak_5222_Dev5_64.cube
TITLE "FE_Kodak_5222_Dev5_33"
LUT_3D_SIZE 64
0.0069229 0.0069229 0.0069229
0.0069229 0.0069229 0.0069229
0.0070517 0.0070517 0.0070517
0.0080252 0.0080252 0.0080252
0.0094098 0.0094098 0.0094098
0.0105040 0.0105040 0.0105040
0.0117805 0.0117805 0.0117805
0.0130098 0.0130098 0.0130098
0.0144538 0.0144538 0.0144538
0.0160469 0.0160469 0.0160469
0.0175429 0.0175429 0.0175429
0.0192889 0.0192889 0.0192889
0.0208074 0.0208074 0.0208074
0.0225970 0.0225970 0.0225970
0.0245365 0.0245365 0.0245365
0.0261122 0.0261122 0.0261122
0.0284452 0.0284452 0.0284452
0.0303265 0.0303265 0.0303265
0.0323317 0.0323317 0.0323317
0.0337593 0.0337593 0.0337593
0.0360152 0.0360152 0.0360152
0.0375990 0.0375990 0.0375990
0.0401008 0.0401008 0.0401008
0.0418349 0.0418349 0.0418349
0.0436406 0.0436406 0.0436406
0.0455204 0.0455204 0.0455204
0.0474773 0.0474773 0.0474773
0.0495139 0.0495139 0.0495139
0.0516278 0.0516278 0.0516278
0.0527160 0.0527160 0.0527160
0.0549577 0.0549577 0.0549577
0.0572889 0.0572889 0.0572889
0.0584891 0.0584891 0.0584891
0.0609605 0.0609605 0.0609605
0.0622438 0.0622438 0.0622438
0.0649339 0.0649339 0.0649339
0.0663192 0.0663192 0.0663192
0.0677319 0.0677319 0.0677319
0.0706413 0.0706413 0.0706413
0.0721390 0.0721390 0.0721390
0.0736659 0.0736659 0.0736659
0.0768092 0.0768092 0.0768092
0.0784556 0.0784556 0.0784556
0.0801343 0.0801343 0.0801343
0.0818457 0.0818457 0.0818457
0.0835903 0.0835903 0.0835903
0.0853687 0.0853687 0.0853687
0.0871813 0.0871813 0.0871813
0.0890287 0.0890287 0.0890287
0.0909112 0.0909112 0.0909112
0.0928296 0.0928296 0.0928296
0.0947842 0.0947842 0.0947842
0.0968037 0.0968037 0.0968037
0.0988757 0.0988757 0.0988757
0.1009872 0.1009872 0.1009872
0.1031386 0.1031386 0.1031386
0.1053305 0.1053305 0.1053305
0.1075634 0.1075634 0.1075634
0.1098378 0.1098378 0.1098378
0.1121543 0.1121543 0.1121543
0.1145132 0.1145132 0.1145132
0.1145132 0.1145132 0.1145132
0.1169153 0.1169153 0.1169153
0.1193692 0.1193692 0.1193692
0.0070517 0.0070517 0.0070517
0.0080252 0.0080252 0.0080252
0.0094098 0.0094098 0.0094098
0.0105040 0.0105040 0.0105040
0.0117805 0.0117805 0.0117805
0.0130098 0.0130098 0.0130098
0.0144538 0.0144538 0.0144538
0.0160469 0.0160469 0.0160469
0.0175429 0.0175429 0.0175429
0.0192889 0.0192889 0.0192889
0.0208074 0.0208074 0.0208074
0.0225970 0.0225970 0.0225970
0.0245365 0.0245365 0.0245365
0.0261122 0.0261122 0.0261122
0.0284452 0.0284452 0.0284452
0.0303265 0.0303265 0.0303265
0.0323317 0.0323317 0.0323317
0.0337593 0.0337593 0.0337593
0.0360152 0.0360152 0.0360152
0.0375990 0.0375990 0.0375990
0.0401008 0.0401008 0.0401008
0.0418349 0.0418349 0.0418349
0.0436406 0.0436406 0.0436406
0.0455204 0.0455204 0.0455204
0.0474773 0.0474773 0.0474773
0.0495139 0.0495139 0.0495139
0.0516278 0.0516278 0.0516278
0.0527160 0.0527160 0.0527160
0.0549577 0.0549577 0.0549577
0.0572889 0.0572889 0.0572889
0.0584891 0.0584891 0.0584891
0.0609605 0.0609605 0.0609605
0.0622438 0.0622438 0.0622438
0.0649339 0.0649339 0.0649339
0.0663192 0.0663192 0.0663192
0.0677319 0.0677319 0.0677319
0.0706413 0.0706413 0.0706413
0.0721390 0.0721390 0.0721390
0.0736659 0.0736659 0.0736659
0.0768092 0.0768092 0.0768092
0.0784556 0.0784556 0.0784556
0.0801343 0.0801343 0.0801343
0.0818457 0.0818457 0.0818457
0.0835903 0.0835903 0.0835903
0.0853687 0.0853687 0.0853687
0.0871813 0.0871813 0.0871813
0.0890287 0.0890287 0.0890287
0.0909112 0.0909112 0.0909112
0.0928296 0.0928296 0.0928296
0.0947842 0.0947842 0.0947842
0.0968037 0.0968037 0.0968037
0.0988757 0.0988757 0.0988757
0.1009872 0.1009872 0.1009872
0.1031386 0.1031386 0.1031386
0.1053305 0.1053305 0.1053305
0.1075634 0.1075634 0.1075634
0.1098378 0.1098378 0.1098378
0.1121543 0.1121543 0.1121543
0.1145132 0.1145132 0.1145132
0.1145132 0.1145132 0.1145132
0.1169153 0.1169153 0.1169153
0.1193692 0.1193692 0.1193692
0.1218841 0.1218841 0.1218841
0.1244445 0.1244445 0.1244445
0.0094098 0.0094098 0.0094098
0.0105040 0.0105040 0.0105040
0.0117805 0.0117805 0.0117805
0.0130098 0.0130098 0.0130098
0.0144538 0.0144538 0.0144538
0.0160469 0.0160469 0.0160469
0.0175429 0.0175429 0.0175429
0.0192889 0.0192889 0.0192889
0.0208074 0.0208074 0.0208074
0.0225970 0.0225970 0.0225970
0.0245365 0.0245365 0.0245365
0.0261122 0.0261122 0.0261122
0.0284452 0.0284452 0.0284452
0.0303265 0.0303265 0.0303265
0.0323317 0.0323317 0.0323317
0.0337593 0.0337593 0.0337593
0.0360152 0.0360152 0.0360152
0.0375990 0.0375990 0.0375990
0.0401008 0.0401008 0.0401008
0.0418349 0.0418349 0.0418349
0.0436406 0.0436406 0.0436406
0.0455204 0.0455204 0.0455204
0.0474773 0.0474773 0.0474773
0.0495139 0.0495139 0.0495139
0.0516278 0.0516278 0.0516278
0.0527160 0.0527160 0.0527160
0.0549577 0.0549577 0.0549577
0.0572889 0.0572889 0.0572889
0.0584891 0.0584891 0.0584891
0.0609605 0.0609605 0.0609605
0.0622438 0.0622438 0.0622438
0.0649339 0.0649339 0.0649339
0.0663192 0.0663192 0.0663192
0.0677319 0.0677319 0.0677319
0.0706413 0.0706413 0.0706413
0.0721390 0.0721390 0.0721390
0.0736659 0.0736659 0.0736659
0.0768092 0.0768092 0.0768092
0.0784556 0.0784556 0.0784556
0.0801343 0.0801343 0.0801343
0.0818457 0.0818457 0.0818457
0.0835903 0.0835903 0.0835903
0.0853687 0.0853687 0.0853687
0.0871813 0.0871813 0.0871813
0.0890287 0.0890287 0.0890287
0.0909112 0.0909112 0.0909112
0.0928296 0.0928296 0.0928296
0.0947842 0.0947842 0.0947842
0.0968037 0.0968037 0.0968037
0.0988757 0.0988757 0.0988757
0.1009872 0.1009872 0.1009872
0.1031386 0.1031386 0.1031386
0.1053305 0.1053305 0.1053305
0.1075634 0.1075634 0.1075634
0.1098378 0.1098378 0.1098378
0.1121543 0.1121543 0.1121543
0.1145132 0.1145132 0.1145132
0.1145132 0.1145132 0.1145132
0.1169153 0.1169153 0.1169153
0.1193692 0.1193692 0.1193692
0.1218841 0.1218841 0.1218841
0.1244445 0.1244445 0.1244445
0.1244445 0.1244445 0.1244445
0.1270509 0.1270509 0.1270509
0.0117805 0.0117805 0.0117805
0.0132036 0.0132036 0.0132036
0.0144538 0.0144538 0.0144538
0.0160469 0.0160469 0.0160469
0.0175429 0.0175429 0.0175429
0.0192889 0.0192889 0.0192889
0.0208074 0.0208074 0.0208074
0.0225970 0.0225970 0.0225970
0.0245365 0.0245365 0.0245365
0.0261122 0.0261122 0.0261122
0.0284452 0.0284452 0.0284452
0.0303265 0.0303265 0.0303265
0.0323317 0.0323317 0.0323317
0.0337593 0.0337593 0.0337593
0.0360152 0.0360152 0.0360152
0.0375990 0.0375990 0.0375990
0.0401008 0.0401008 0.0401008
0.0418349 0.0418349 0.0418349
0.0436406 0.0436406 0.0436406
0.0455204 0.0455204 0.0455204
0.0474773 0.0474773 0.0474773
0.0495139 0.0495139 0.0495139
0.0516278 0.0516278 0.0516278
0.0527160 0.0527160 0.0527160
0.0549577 0.0549577 0.0549577
0.0572889 0.0572889 0.0572889
0.0584891 0.0584891 0.0584891
0.0609605 0.0609605 0.0609605
0.0622438 0.0622438 0.0622438
0.0649339 0.0649339 0.0649339
0.0663192 0.0663192 0.0663192
0.0677319 0.0677319 0.0677319
0.0706413 0.0706413 0.0706413
0.0721390 0.0721390 0.0721390
0.0736659 0.0736659 0.0736659
0.0768092 0.0768092 0.0768092
0.0784556 0.0784556 0.0784556
0.0801343 0.0801343 0.0801343
0.0818457 0.0818457 0.0818457
0.0835903 0.0835903 0.0835903
0.0853687 0.0853687 0.0853687
0.0871813 0.0871813 0.0871813
0.0890287 0.0890287 0.0890287
0.0909112 0.0909112 0.0909112
0.0928296 0.0928296 0.0928296
0.0947842 0.0947842 0.0947842
0.0968037 0.0968037 0.0968037
0.0988757 0.0988757 0.0988757
0.1009872 0.1009872 0.1009872
0.1031386 0.1031386 0.1031386
0.1053305 0.1053305 0.1053305
0.1075634 0.1075634 0.1075634
0.1098378 0.1098378 0.1098378
0.1121543 0.1121543 0.1121543
0.1145132 0.1145132 0.1145132
0.1145132 0.1145132 0.1145132
0.1169153 0.1169153 0.1169153
0.1193692 0.1193692 0.1193692
0.1218841 0.1218841 0.1218841
0.1244445 0.1244445 0.1244445
0.1244445 0.1244445 0.1244445
0.1270509 0.1270509 0.1270509
0.1297039 0.1297039 0.1297039
0.1324038 0.1324038 0.1324038
0.0144538 0.0144538 0.0144538
0.0160469 0.0160469 0.0160469
0.0175429 0.0175429 0.0175429
0.0192889 0.0192889 0.0192889
0.0208074 0.0208074 0.0208074
0.0225970 0.0225970 0.0225970
0.0245365 0.0245365 0.0245365
0.0261122 0.0261122 0.0261122
0.0284452 0.0284452 0.0284452
0.0303265 0.0303265 0.0303265
0.0323317 0.0323317 0.0323317
0.0337593 0.0337593 0.0337593
0.0360152 0.0360152 0.0360152
0.0375990 0.0375990 0.0375990
0.0401008 0.0401008 0.0401008
0.0418349 0.0418349 0.0418349
0.0436406 0.0436406 0.0436406
0.0455204 0.0455204 0.0455204
0.0474773 0.0474773 0.0474773
0.0495139 0.0495139 0.0495139
0.0516278 0.0516278 0.0516278
0.0527160 0.0527160 0.0527160
0.0549577 0.0549577 0.0549577
0.0572889 0.0572889 0.0572889
0.0584891 0.0584891 0.0584891
0.0609605 0.0609605 0.0609605
0.0622438 0.0622438 0.0622438
0.0649339 0.0649339 0.0649339
0.0663192 0.0663192 0.0663192
0.0677319 0.0677319 0.0677319
0.0706413 0.0706413 0.0706413
0.0721390 0.0721390 0.0721390
0.0736659 0.0736659 0.0736659
0.0768092 0.0768092 0.0768092
0.0784556 0.0784556 0.0784556
0.0801343 0.0801343 0.0801343
0.0818457 0.0818457 0.0818457
0.0835903 0.0835903 0.0835903
0.0853687 0.0853687 0.0853687
0.0871813 0.0871813 0.0871813
0.0890287 0.0890287 0.0890287
0.0909112 0.0909112 0.0909112
0.0928296 0.0928296 0.0928296
0.0947842 0.0947842 0.0947842
0.0968037 0.0968037 0.0968037
0.0988757 0.0988757 0.0988757
0.1009872 0.1009872 0.1009872
0.1031386 0.1031386 0.1031386
0.1053305 0.1053305 0.1053305
0.1075634 0.1075634 0.1075634
0.1098378 0.1098378 0.1098378
0.1121543 0.1121543 0.1121543
0.1145132 0.1145132 0.1145132
0.1145132 0.1145132 0.1145132
0.1169153 0.1169153 0.1169153
0.1193692 0.1193692 0.1193692
0.1218841 0.1218841 0.1218841
0.1244445 0.1244445 0.1244445
0.1244445 0.1244445 0.1244445
0.1270509 0.1270509 0.1270509
0.1297039 0.1297039 0.1297039
0.1324038 0.1324038 0.1324038
0.1324038 0.1324038 0.1324038
0.1351511 0.1351511 0.1351511
0.0175429 0.0175429 0.0175429
0.0192889 0.0192889 0.0192889
0.0208074 0.0208074 0.0208074
0.0225970 0.0225970 0.0225970
0.0245365 0.0245365 0.0245365
0.0261122 0.0261122 0.0261122
0.0284452 0.0284452 0.0284452
0.0303265 0.0303265 0.0303265
0.0323317 0.0323317 0.0323317
0.0337593 0.0337593 0.0337593
0.0360152 0.0360152 0.0360152
0.0375990 0.0375990 0.0375990
0.0401008 0.0401008 0.0401008
0.0418349 0.0418349 0.0418349
0.0436406 0.0436406 0.0436406
0.0455204 0.0455204 0.0455204
0.0474773 0.0474773 0.0474773
0.0495139 0.0495139 0.0495139
0.0516278 0.0516278 0.0516278
0.0527160 0.0527160 0.0527160
0.0549577 0.0549577 0.0549577
0.0572889 0.0572889 0.0572889
0.0584891 0.0584891 0.0584891
0.0609605 0.0609605 0.0609605
0.0622438 0.0622438 0.0622438
0.0649339 0.0649339 0.0649339
0.0663192 0.0663192 0.0663192
0.0677319 0.0677319 0.0677319
0.0706413 0.0706413 0.0706413
0.0721390 0.0721390 0.0721390
0.0736659 0.0736659 0.0736659
0.0768092 0.0768092 0.0768092
0.0784556 0.0784556 0.0784556
0.0801343 0.0801343 0.0801343
0.0818457 0.0818457 0.0818457
0.0835903 0.0835903 0.0835903
0.0853687 0.0853687 0.0853687
0.0871813 0.0871813 0.0871813
0.0890287 0.0890287 0.0890287
0.0909112 0.0909112 0.0909112
0.0947842 0.0947842 0.0947842
0.0947842 0.0947842 0.0947842
0.0968037 0.0968037 0.0968037
0.0988757 0.0988757 0.0988757
0.1009872 0.1009872 0.1009872
0.1031386 0.1031386 0.1031386
0.1053305 0.1053305 0.1053305
0.1075634 0.1075634 0.1075634
0.1098378 0.1098378 0.1098378
0.1121543 0.1121543 0.1121543
0.1145132 0.1145132 0.1145132
0.1145132 0.1145132 0.1145132
0.1169153 0.1169153 0.1169153
0.1193692 0.1193692 0.1193692
0.1218841 0.1218841 0.1218841
0.1244445 0.1244445 0.1244445
0.1244445 0.1244445 0.1244445
0.1270509 0.1270509 0.1270509
0.1297039 0.1297039 0.1297039
0.1324038 0.1324038 0.1324038
0.1324038 0.1324038 0.1324038
0.1351511 0.1351511 0.1351511
0.1379465 0.1379465 0.1379465
0.1379465 0.1379465 0.1379465
0.0208074 0.0208074 0.0208074
0.0225970 0.0225970 0.0225970
0.0245365 0.0245365 0.0245365
0.0266774 0.0266774 0.0266774
0.0284452 0.0284452 0.0284452
0.0303265 0.0303265 0.0303265
0.0323317 0.0323317 0.0323317
0.0337593 0.0337593 0.0337593
0.0360152 0.0360152 0.0360152
0.0375990 0.0375990 0.0375990
0.0401008 0.0401008 0.0401008
0.0418349 0.0418349 0.0418349
0.0436406 0.0436406 0.0436406
0.0455204 0.0455204 0.0455204
0.0474773 0.0474773 0.0474773
0.0495139 0.0495139 0.0495139
0.0516278 0.0516278 0.0516278
0.0527160 0.0527160 0.0527160
0.0549577 0.0549577 0.0549577
0.0572889 0.0572889 0.0572889
0.0584891 0.0584891 0.0584891
0.0609605 0.0609605 0.0609605
0.0622438 0.0622438 0.0622438
0.0649339 0.0649339 0.0649339
0.0663192 0.0663192 0.0663192
0.0677319 0.0677319 0.0677319
0.0706413 0.0706413 0.0706413
0.0721390 0.0721390 0.0721390
0.0736659 0.0736659 0.0736659
0.0768092 0.0768092 0.0768092
0.0784556 0.0784556 0.0784556
0.0801343 0.0801343 0.0801343
0.0818457 0.0818457 0.0818457
0.0835903 0.0835903 0.0835903
0.0853687 0.0853687 0.0853687
0.0871813 0.0871813 0.0871813
0.0890287 0.0890287 0.0890287
0.0909112 0.0909112 0.0909112
0.0947842 0.0947842 0.0947842
0.0947842 0.0947842 0.0947842
0.0968037 0.0968037 0.0968037
0.0988757 0.0988757 0.0988757
0.1009872 0.1009872 0.1009872
0.1031386 0.1031386 0.1031386
0.1053305 0.1053305 0.1053305
0.1075634 0.1075634 0.1075634
0.1098378 0.1098378 0.1098378
0.1121543 0.1121543 0.1121543
0.1145132 0.1145132 0.1145132
0.1145132 0.1145132 0.1145132
0.1169153 0.1169153 0.1169153
0.1193692 0.1193692 0.1193692
0.1218841 0.1218841 0.1218841
0.1244445 0.1244445 0.1244445
0.1244445 0.1244445 0.1244445
0.1270509 0.1270509 0.1270509
0.1297039 0.1297039 0.1297039
0.1324038 0.1324038 0.1324038
0.1324038 0.1324038 0.1324038
0.1351511 0.1351511 0.1351511
0.1379465 0.1379465 0.1379465
0.1379465 0.1379465 0.1379465
0.1407902 0.1407902 0.1407902
0.1436828 0.1436828 0.1436828
0.0245365 0.0245365 0.0245365
0.0266774 0.0266774 0.0266774
0.0284452 0.0284452 0.0284452
0.0303265 0.0303265 0.0303265
0.0323317 0.0323317 0.0323317
0.0337593 0.0337593 0.0337593
0.0360152 0.0360152 0.0360152
0.0375990 0.0375990 0.0375990
0.0401008 0.0401008 0.0401008
0.0418349 0.0418349 0.0418349
0.0436406 0.0436406 0.0436406
0.0455204 0.0455204 0.0455204
0.0474773 0.0474773 0.0474773
0.0495139 0.0495139 0.0495139
0.0516278 0.0516278 0.0516278
0.0527160 0.0527160 0.0527160
0.0549577 0.0549577 0.0549577
0.0572889 0.0572889 0.0572889
0.0584891 0.0584891 0.0584891
0.0609605 0.0609605 0.0609605
0.0622438 0.0622438 0.0622438
0.0649339 0.0649339 0.0649339
0.0663192 0.0663192 0.0663192
0.0677319 0.0677319 0.0677319
0.0706413 0.0706413 0.0706413
0.0721390 0.0721390 0.0721390
0.0736659 0.0736659 0.0736659
0.0768092 0.0768092 0.0768092
0.0784556 0.0784556 0.0784556
0.0801343 0.0801343 0.0801343
0.0818457 0.0818457 0.0818457
0.0835903 0.0835903 0.0835903
0.0853687 0.0853687 0.0853687
0.0871813 0.0871813 0.0871813
0.0890287 0.0890287 0.0890287
0.0909112 0.0909112 0.0909112
0.0947842 0.0947842 0.0947842
0.0947842 0.0947842 0.0947842
0.0968037 0.0968037 0.0968037
0.0988757 0.0988757 0.0988757
0.1009872 0.1009872 0.1009872
0.1031386 0.1031386 0.1031386
0.1053305 0.1053305 0.1053305
0.1075634 0.1075634 0.1075634
0.1098378 0.1098378 0.1098378
0.1121543 0.1121543 0.1121543
0.1145132 0.1145132 0.1145132
0.1145132 0.1145132 0.1145132
0.1169153 0.1169153 0.1169153
0.1193692 0.1193692 0.1193692
0.1218841 0.1218841 0.1218841
0.1244445 0.1244445 0.1244445
0.1244445 0.1244445 0.1244445
0.1270509 0.1270509 0.1270509
0.1297039 0.1297039 0.1297039
0.1324038 0.1324038 0.1324038
0.1324038 0.1324038 0.1324038
0.1351511 0.1351511 0.1351511
0.1379465 0.1379465 0.1379465
0.1379465 0.1379465 0.1379465
0.1407902 0.1407902 0.1407902
0.1436828 0.1436828 0.1436828
0.1436828 0.1436828 0.1436828
0.1466246 0.1466246 0.1466246
0.0284452 0.0284452 0.0284452
0.0303265 0.0303265 0.0303265
0.0323317 0.0323317 0.0323317
0.0337593 0.0337593 0.0337593
0.0360152 0.0360152 0.0360152
0.0375990 0.0375990 0.0375990
0.0401008 0.0401008 0.0401008
0.0418349 0.0418349 0.0418349
0.0436406 0.0436406 0.0436406
0.0455204 0.0455204 0.0455204
0.0474773 0.0474773 0.0474773
0.0495139 0.0495139 0.0495139
0.0516278 0.0516278 0.0516278
0.0527160 0.0527160 0.0527160
0.0549577 0.0549577 0.0549577
0.0572889 0.0572889 0.0572889
0.0584891 0.0584891 0.0584891
0.0609605 0.0609605 0.0609605
0.0622438 0.0622438 0.0622438
0.0649339 0.0649339 0.0649339
0.0663192 0.0663192 0.0663192
0.0691725 0.0691725 0.0691725
0.0706413 0.0706413 0.0706413
0.0721390 0.0721390 0.0721390
0.0736659 0.0736659 0.0736659
0.0768092 0.0768092 0.0768092
0.0784556 0.0784556 0.0784556
0.0801343 0.0801343 0.0801343
0.0818457 0.0818457 0.0818457
0.0835903 0.0835903 0.0835903
0.0853687 0.0853687 0.0853687
0.0871813 0.0871813 0.0871813
0.0890287 0.0890287 0.0890287
0.0928296 0.0928296 0.0928296
0.0947842 0.0947842 0.0947842
0.0947842 0.0947842 0.0947842
0.0968037 0.0968037 0.0968037
0.0988757 0.0988757 0.0988757
0.1009872 0.1009872 0.1009872
0.1031386 0.1031386 0.1031386
0.1053305 0.1053305 0.1053305
0.1075634 0.1075634 0.1075634
0.1098378 0.1098378 0.1098378
0.1121543 0.1121543 0.1121543
0.1145132 0.1145132 0.1145132
0.1145132 0.1145132 0.1145132
0.1169153 0.1169153 0.1169153
0.1193692 0.1193692 0.1193692
0.1218841 0.1218841 0.1218841
0.1244445 0.1244445 0.1244445
0.1244445 0.1244445 0.1244445
0.1270509 0.1270509 0.1270509
0.1297039 0.1297039 0.1297039
0.1324038 0.1324038 0.1324038
0.1324038 0.1324038 0.1324038
0.1351511 0.1351511 0.1351511
0.1379465 0.1379465 0.1379465
0.1379465 0.1379465 0.1379465
0.1407902 0.1407902 0.1407902
0.1436828 0.1436828 0.1436828
0.1436828 0.1436828 0.1436828
0.1466246 0.1466246 0.1466246
0.1495594 0.1495594 0.1495594
0.1495594 0.1495594 0.1495594
0.0323317 0.0323317 0.0323317
0.0337593 0.0337593 0.0337593
0.0360152 0.0360152 0.0360152
0.0375990 0.0375990 0.0375990
0.0401008 0.0401008 0.0401008
0.0418349 0.0418349 0.0418349
0.0436406 0.0436406 0.0436406
0.0455204 0.0455204 0.0455204
0.0474773 0.0474773 0.0474773
0.0495139 0.0495139 0.0495139
0.0516278 0.0516278 0.0516278
0.0527160 0.0527160 0.0527160
0.0549577 0.0549577 0.0549577
0.0572889 0.0572889 0.0572889
0.0584891 0.0584891 0.0584891
0.0609605 0.0609605 0.0609605
0.0622438 0.0622438 0.0622438
0.0649339 0.0649339 0.0649339
0.0663192 0.0663192 0.0663192
0.0691725 0.0691725 0.0691725
0.0706413 0.0706413 0.0706413
0.0721390 0.0721390 0.0721390
0.0736659 0.0736659 0.0736659
0.0768092 0.0768092 0.0768092
0.0784556 0.0784556 0.0784556
0.0801343 0.0801343 0.0801343
0.0818457 0.0818457 0.0818457
0.0835903 0.0835903 0.0835903
0.0853687 0.0853687 0.0853687
0.0871813 0.0871813 0.0871813
0.0890287 0.0890287 0.0890287
0.0928296 0.0928296 0.0928296
0.0947842 0.0947842 0.0947842
0.0947842 0.0947842 0.0947842
0.0968037 0.0968037 0.0968037
0.0988757 0.0988757 0.0988757
0.1009872 0.1009872 0.1009872
0.1031386 0.1031386 0.1031386
0.1053305 0.1053305 0.1053305
0.1075634 0.1075634 0.1075634
0.1098378 0.1098378 0.1098378
0.1121543 0.1121543 0.1121543
0.1145132 0.1145132 0.1145132
0.1145132 0.1145132 0.1145132
0.1169153 0.1169153 0.1169153
0.1193692 0.1193692 0.1193692
0.1218841 0.1218841 0.1218841
0.1244445 0.1244445 0.1244445
0.1244445 0.1244445 0.1244445
0.1270509 0.1270509 0.1270509
0.1297039 0.1297039 0.1297039
0.1324038 0.1324038 0.1324038
0.1324038 0.1324038 0.1324038
0.1351511 0.1351511 0.1351511
0.1379465 0.1379465 0.1379465
0.1379465 0.1379465 0.1379465
0.1407902 0.1407902 0.1407902
0.1436828 0.1436828 0.1436828
0.1436828 0.1436828 0.1436828
0.1466246 0.1466246 0.1466246
0.1495594 0.1495594 0.1495594
0.1495594 0.1495594 0.1495594
0.1525424 0.1525424 0.1525424
0.1555739 0.1555739 0.1555739
0.0360152 0.0360152 0.0360152
0.0375990 0.0375990 0.0375990
0.0401008 0.0401008 0.0401008
0.0418349 0.0418349 0.0418349
0.0436406 0.0436406 0.0436406
0.0455204 0.0455204 0.0455204
0.0474773 0.0474773 0.0474773
0.0495139 0.0495139 0.0495139
0.0516278 0.0516278 0.0516278
0.0527160 0.0527160 0.0527160
0.0549577 0.0549577 0.0549577
0.0572889 0.0572889 0.0572889
0.0584891 0.0584891 0.0584891
0.0609605 0.0609605 0.0609605
0.0622438 0.0622438 0.0622438
0.0649339 0.0649339 0.0649339
0.0663192 0.0663192 0.0663192
0.0691725 0.0691725 0.0691725
0.0706413 0.0706413 0.0706413
0.0721390 0.0721390 0.0721390
0.0736659 0.0736659 0.0736659
0.0768092 0.0768092 0.0768092
0.0784556 0.0784556 0.0784556
0.0801343 0.0801343 0.0801343
0.0818457 0.0818457 0.0818457
0.0835903 0.0835903 0.0835903
0.0853687 0.0853687 0.0853687
0.0871813 0.0871813 0.0871813
0.0890287 0.0890287 0.0890287
0.0928296 0.0928296 0.0928296
0.0947842 0.0947842 0.0947842
0.0968037 0.0968037 0.0968037
0.0968037 0.0968037 0.0968037
0.0988757 0.0988757 0.0988757
0.1009872 0.1009872 0.1009872
0.1031386 0.1031386 0.1031386
0.1053305 0.1053305 0.1053305
0.1075634 0.1075634 0.1075634
0.1098378 0.1098378 0.1098378
0.1121543 0.1121543 0.1121543
0.1145132 0.1145132 0.1145132
0.1145132 0.1145132 0.1145132
0.1169153 0.1169153 0.1169153
0.1193692 0.1193692 0.1193692
0.1218841 0.1218841 0.1218841
0.1244445 0.1244445 0.1244445
0.1244445 0.1244445 0.1244445
0.1270509 0.1270509 0.1270509
0.1297039 0.1297039 0.1297039
0.1324038 0.1324038 0.1324038
0.1324038 0.1324038 0.1324038
0.1351511 0.1351511 0.1351511
0.1379465 0.1379465 0.1379465
0.1379465 0.1379465 0.1379465
0.1407902 0.1407902 0.1407902
0.1436828 0.1436828 0.1436828
0.1436828 0.1436828 0.1436828
0.1466246 0.1466246 0.1466246
0.1495594 0.1495594 0.1495594
0.1495594 0.1495594 0.1495594
0.1525424 0.1525424 0.1525424
0.1555739 0.1555739 0.1555739
0.1555739 0.1555739 0.1555739
0.1586545 0.1586545 0.1586545
0.0401008 0.0401008 0.0401008
0.0418349 0.0418349 0.0418349
0.0436406 0.0436406 0.0436406
0.0455204 0.0455204 0.0455204
0.0474773 0.0474773 0.0474773
0.0495139 0.0495139 0.0495139
0.0516278 0.0516278 0.0516278
0.0527160 0.0527160 0.0527160
0.0549577 0.0549577 0.0549577
0.0572889 0.0572889 0.0572889
0.0584891 0.0584891 0.0584891
0.0609605 0.0609605 0.0609605
0.0622438 0.0622438 0.0622438
0.0649339 0.0649339 0.0649339
0.0663192 0.0663192 0.0663192
0.0691725 0.0691725 0.0691725
0.0706413 0.0706413 0.0706413
0.0721390 0.0721390 0.0721390
0.0736659 0.0736659 0.0736659
0.0768092 0.0768092 0.0768092
0.0784556 0.0784556 0.0784556
0.0801343 0.0801343 0.0801343
0.0818457 0.0818457 0.0818457
0.0835903 0.0835903 0.0835903
0.0853687 0.0853687 0.0853687
0.0871813 0.0871813 0.0871813
0.0890287 0.0890287 0.0890287
0.0928296 0.0928296 0.0928296
0.0947842 0.0947842 0.0947842
0.0968037 0.0968037 0.0968037
0.0968037 0.0968037 0.0968037
0.0988757 0.0988757 0.0988757
0.1009872 0.1009872 0.1009872
0.1031386 0.1031386 0.1031386
0.1053305 0.1053305 0.1053305
0.1075634 0.1075634 0.1075634
0.1098378 0.1098378 0.1098378
0.1121543 0.1121543 0.1121543
0.1145132 0.1145132 0.1145132
0.1145132 0.1145132 0.1145132
0.1169153 0.1169153 0.1169153
0.1193692 0.1193692 0.1193692
0.1218841 0.1218841 0.1218841
0.1244445 0.1244445 0.1244445
0.1244445 0.1244445 0.1244445
0.1270509 0.1270509 0.1270509
0.1297039 0.1297039 0.1297039
0.1324038 0.1324038 0.1324038
0.1324038 0.1324038 0.1324038
0.1351511 0.1351511 0.1351511
0.1379465 0.1379465 0.1379465
0.1379465 0.1379465 0.1379465
0.1407902 0.1407902 0.1407902
0.1436828 0.1436828 0.1436828
0.1436828 0.1436828 0.1436828
0.1466246 0.1466246 0.1466246
0.1495594 0.1495594 0.1495594
0.1495594 0.1495594 0.1495594
0.1525424 0.1525424 0.1525424
0.1555739 0.1555739 0.1555739
0.1555739 0.1555739 0.1555739
0.1586545 0.1586545 0.1586545
0.1586545 0.1586545 0.1586545
0.1617843 0.1617843 0.1617843
0.0436406 0.0436406 0.0436406
0.0455204 0.0455204 0.0455204
0.0474773 0.0474773 0.0474773
0.0495139 0.0495139 0.0495139
0.0516278 0.0516278 0.0516278
0.0527160 0.0527160 0.0527160
0.0549577 0.0549577 0.0549577
0.0572889 0.0572889 0.0572889
0.0584891 0.0584891 0.0584891
0.0609605 0.0609605 0.0609605
0.0622438 0.0622438 0.0622438
0.0649339 0.0649339 0.0649339
0.0663192 0.0663192 0.0663192
0.0691725 0.0691725 0.0691725
0.0706413 0.0706413 0.0706413
0.0721390 0.0721390 0.0721390
0.0736659 0.0736659 0.0736659
0.0768092 0.0768092 0.0768092
0.0784556 0.0784556 0.0784556
0.0801343 0.0801343 0.0801343
0.0818457 0.0818457 0.0818457
0.0835903 0.0835903 0.0835903
0.0853687 0.0853687 0.0853687
0.0871813 0.0871813 0.0871813
0.0890287 0.0890287 0.0890287
0.0928296 0.0928296 0.0928296
0.0947842 0.0947842 0.0947842
0.0968037 0.0968037 0.0968037
0.0968037 0.0968037 0.0968037
0.0988757 0.0988757 0.0988757
