Plugins/FilmEmulator/Content/LUTs/FE_Kodak_Vericolor_III_64.cube
TITLE "FE_Kodak_Vericolor_III_33"
LUT_3D_SIZE 4
0.0027970 0.0026869 0.0021846
0.2628607 0.0107773 0.0046304
0.5614067 0.0334898 0.0123868
0.7331573 0.0654531 0.0238836
0.0048465 0.3049521 0.0057402
0.2568461 0.3424153 0.0144811
0.5455272 0.3851233 0.0268266
0.7179742 0.4212653 0.0430255
0.0130249 0.6020427 0.0163478
0.2697430 0.6268268 0.0294344
0.5431424 0.6438207 0.0454134
0.7165551 0.6698386 0.0648719
0.0250273 0.7645919 0.0320850
0.2871978 0.7768410 0.0494099
0.5550267 0.7897255 0.0680042
0.7189556 0.7957445 0.0898466
0.0143047 0.0076079 0.3403182
0.3211882 0.0160346 0.3611205
0.5960485 0.0327008 0.3826329
0.7525727 0.0641766 0.4045378
0.0207763 0.2974969 0.3873668
0.3092901 0.3366635 0.4062901
0.5797338 0.3799984 0.4256951
0.7376329 0.4167207 0.4358062
0.0315556 0.5953185 0.4213106
0.3227624 0.6216809 0.4310199
0.5871108 0.6394083 0.4501250
0.7359931 0.6660801 0.4696544
0.0456597 0.7603937 0.4440299
0.3416188 0.7734737 0.4631491
0.5885654 0.7868595 0.4825256
0.7380470 0.7932495 0.4922829
0.0447725 0.0211839 0.6529869
0.3766891 0.0350323 0.6644264
0.6311053 0.0499969 0.6750339
0.7760673 0.0682964 0.6852864
0.0521185 0.2952705 0.6769189
0.3640809 0.3348751 0.6862819
0.6111581 0.3782484 0.6956047
0.7627604 0.4149056 0.7046196
0.0658663 0.5929577 0.6914545
0.3692421 0.6198425 0.7002587
0.6184198 0.6377175 0.7088216
0.7611628 0.6644973 0.7174437
0.0818819 0.7586849 0.7115906
0.3891653 0.7721337 0.7198998
0.6197997 0.7856585 0.7281377
0.7632191 0.7920715 0.7360682
0.0862019 0.0420037 0.8021814
0.4186527 0.0594883 0.8034438
0.6549770 0.0781700 0.8106085
0.7879767 0.0954370 0.8173214
0.0896949 0.2939053 0.8162526
0.4124699 0.3337563 0.8168026
0.6414014 0.3771207 0.8232216
0.7786701 0.4137688 0.8293521
0.1050408 0.5914001 0.8261309
0.4177999 0.6186344 0.8264263
0.6484349 0.6365898 0.8322170
0.7773053 0.6634905 0.8325599
0.1259374 0.7576048 0.8285466
0.4286751 0.7712928 0.8342501
0.6497289 0.7848733 0.8398369
0.7792959 0.7913647 0.8399305
