Plugins/FilmEmulator/Content/LUTs/FE_Kodak_TriX_400_64.cube
TITLE "FE_Kodak_TriX_400_33"
LUT_3D_SIZE 64
0.0063196 0.0063196 0.0063196
0.0064612 0.0064612 0.0064612
0.0072393 0.0072393 0.0072393
0.0083748 0.0083748 0.0083748
0.0098020 0.0098020 0.0098020
0.0113900 0.0113900 0.0113900
0.0131125 0.0131125 0.0131125
0.0150452 0.0150452 0.0150452
0.0170337 0.0170337 0.0170337
0.0190824 0.0190824 0.0190824
0.0213759 0.0213759 0.0213759
0.0234499 0.0234499 0.0234499
0.0257198 0.0257198 0.0257198
0.0281957 0.0281957 0.0281957
0.0301970 0.0301970 0.0301970
0.0323356 0.0323356 0.0323356
0.0346293 0.0346293 0.0346293
0.0371130 0.0371130 0.0371130
0.0388631 0.0388631 0.0388631
0.0416374 0.0416374 0.0416374
0.0435970 0.0435970 0.0435970
0.0456746 0.0456746 0.0456746
0.0478463 0.0478463 0.0478463
0.0501158 0.0501158 0.0501158
0.0524870 0.0524870 0.0524870
0.0549639 0.0549639 0.0549639
0.0562660 0.0562660 0.0562660
0.0589577 0.0589577 0.0589577
0.0617697 0.0617697 0.0617697
0.0632222 0.0632222 0.0632222
0.0662233 0.0662233 0.0662233
0.0677730 0.0677730 0.0677730
0.0709932 0.0709932 0.0709932
0.0726755 0.0726755 0.0726755
0.0743946 0.0743946 0.0743946
0.0779453 0.0779453 0.0779453
0.0797783 0.0797783 0.0797783
0.0816505 0.0816505 0.0816505
0.0835627 0.0835627 0.0835627
0.0875097 0.0875097 0.0875097
0.0895606 0.0895606 0.0895606
0.0916852 0.0916852 0.0916852
0.0938550 0.0938550 0.0938550
0.0960707 0.0960707 0.0960707
0.0983331 0.0983331 0.0983331
0.1006428 0.1006428 0.1006428
0.1030005 0.1030005 0.1030005
0.1054070 0.1054070 0.1054070
0.1078630 0.1078630 0.1078630
0.1103691 0.1103691 0.1103691
0.1129262 0.1129262 0.1129262
0.1129262 0.1129262 0.1129262
0.1156124 0.1156124 0.1156124
0.1183541 0.1183541 0.1183541
0.1211519 0.1211519 0.1211519
0.1240065 0.1240065 0.1240065
0.1269187 0.1269187 0.1269187
0.1269187 0.1269187 0.1269187
0.1298891 0.1298891 0.1298891
0.1329185 0.1329185 0.1329185
0.1360075 0.1360075 0.1360075
0.1360075 0.1360075 0.1360075
0.1391567 0.1391567 0.1391567
0.1423668 0.1423668 0.1423668
0.0072393 0.0072393 0.0072393
0.0083748 0.0083748 0.0083748
0.0098020 0.0098020 0.0098020
0.0113900 0.0113900 0.0113900
0.0131125 0.0131125 0.0131125
0.0150452 0.0150452 0.0150452
0.0170337 0.0170337 0.0170337
0.0190824 0.0190824 0.0190824
0.0213759 0.0213759 0.0213759
0.0234499 0.0234499 0.0234499
0.0257198 0.0257198 0.0257198
0.0281957 0.0281957 0.0281957
0.0301970 0.0301970 0.0301970
0.0323356 0.0323356 0.0323356
0.0346293 0.0346293 0.0346293
0.0371130 0.0371130 0.0371130
0.0388631 0.0388631 0.0388631
0.0416374 0.0416374 0.0416374
0.0435970 0.0435970 0.0435970
0.0456746 0.0456746 0.0456746
0.0478463 0.0478463 0.0478463
0.0501158 0.0501158 0.0501158
0.0524870 0.0524870 0.0524870
0.0549639 0.0549639 0.0549639
0.0562660 0.0562660 0.0562660
0.0589577 0.0589577 0.0589577
0.0617697 0.0617697 0.0617697
0.0632222 0.0632222 0.0632222
0.0662233 0.0662233 0.0662233
0.0677730 0.0677730 0.0677730
0.0709932 0.0709932 0.0709932
0.0726755 0.0726755 0.0726755
0.0743946 0.0743946 0.0743946
0.0779453 0.0779453 0.0779453
0.0797783 0.0797783 0.0797783
0.0816505 0.0816505 0.0816505
0.0835627 0.0835627 0.0835627
0.0875097 0.0875097 0.0875097
0.0895606 0.0895606 0.0895606
0.0916852 0.0916852 0.0916852
0.0938550 0.0938550 0.0938550
0.0960707 0.0960707 0.0960707
0.0983331 0.0983331 0.0983331
0.1006428 0.1006428 0.1006428
0.1030005 0.1030005 0.1030005
0.1054070 0.1054070 0.1054070
0.1078630 0.1078630 0.1078630
0.1103691 0.1103691 0.1103691
0.1129262 0.1129262 0.1129262
0.1129262 0.1129262 0.1129262
0.1156124 0.1156124 0.1156124
0.1183541 0.1183541 0.1183541
0.1211519 0.1211519 0.1211519
0.1240065 0.1240065 0.1240065
0.1269187 0.1269187 0.1269187
0.1269187 0.1269187 0.1269187
0.1298891 0.1298891 0.1298891
0.1329185 0.1329185 0.1329185
0.1360075 0.1360075 0.1360075
0.1360075 0.1360075 0.1360075
0.1391567 0.1391567 0.1391567
0.1423668 0.1423668 0.1423668
0.1456803 0.1456803 0.1456803
0.1456803 0.1456803 0.1456803
0.0098020 0.0098020 0.0098020
0.0113900 0.0113900 0.0113900
0.0131125 0.0131125 0.0131125
0.0150452 0.0150452 0.0150452
0.0170337 0.0170337 0.0170337
0.0190824 0.0190824 0.0190824
0.0213759 0.0213759 0.0213759
0.0234499 0.0234499 0.0234499
0.0257198 0.0257198 0.0257198
0.0281957 0.0281957 0.0281957
0.0301970 0.0301970 0.0301970
0.0323356 0.0323356 0.0323356
0.0346293 0.0346293 0.0346293
0.0371130 0.0371130 0.0371130
0.0388631 0.0388631 0.0388631
0.0416374 0.0416374 0.0416374
0.0435970 0.0435970 0.0435970
0.0456746 0.0456746 0.0456746
0.0478463 0.0478463 0.0478463
0.0501158 0.0501158 0.0501158
0.0524870 0.0524870 0.0524870
0.0549639 0.0549639 0.0549639
0.0562660 0.0562660 0.0562660
0.0589577 0.0589577 0.0589577
0.0617697 0.0617697 0.0617697
0.0632222 0.0632222 0.0632222
0.0662233 0.0662233 0.0662233
0.0677730 0.0677730 0.0677730
0.0709932 0.0709932 0.0709932
0.0726755 0.0726755 0.0726755
0.0743946 0.0743946 0.0743946
0.0779453 0.0779453 0.0779453
0.0797783 0.0797783 0.0797783
0.0816505 0.0816505 0.0816505
0.0835627 0.0835627 0.0835627
0.0875097 0.0875097 0.0875097
0.0895606 0.0895606 0.0895606
0.0916852 0.0916852 0.0916852
0.0938550 0.0938550 0.0938550
0.0960707 0.0960707 0.0960707
0.0983331 0.0983331 0.0983331
0.1006428 0.1006428 0.1006428
0.1030005 0.1030005 0.1030005
0.1054070 0.1054070 0.1054070
0.1078630 0.1078630 0.1078630
0.1103691 0.1103691 0.1103691
0.1129262 0.1129262 0.1129262
0.1156124 0.1156124 0.1156124
0.1156124 0.1156124 0.1156124
0.1183541 0.1183541 0.1183541
0.1211519 0.1211519 0.1211519
0.1240065 0.1240065 0.1240065
0.1269187 0.1269187 0.1269187
0.1269187 0.1269187 0.1269187
0.1298891 0.1298891 0.1298891
0.1329185 0.1329185 0.1329185
0.1360075 0.1360075 0.1360075
0.1360075 0.1360075 0.1360075
0.1391567 0.1391567 0.1391567
0.1423668 0.1423668 0.1423668
0.1456803 0.1456803 0.1456803
0.1456803 0.1456803 0.1456803
0.1490787 0.1490787 0.1490787
0.1525424 0.1525424 0.1525424
0.0131125 0.0131125 0.0131125
0.0150452 0.0150452 0.0150452
0.0170337 0.0170337 0.0170337
0.0190824 0.0190824 0.0190824
0.0213759 0.0213759 0.0213759
0.0234499 0.0234499 0.0234499
0.0257198 0.0257198 0.0257198
0.0281957 0.0281957 0.0281957
0.0301970 0.0301970 0.0301970
0.0323356 0.0323356 0.0323356
0.0346293 0.0346293 0.0346293
0.0371130 0.0371130 0.0371130
0.0388631 0.0388631 0.0388631
0.0416374 0.0416374 0.0416374
0.0435970 0.0435970 0.0435970
0.0456746 0.0456746 0.0456746
0.0478463 0.0478463 0.0478463
0.0501158 0.0501158 0.0501158
0.0524870 0.0524870 0.0524870
0.0549639 0.0549639 0.0549639
0.0562660 0.0562660 0.0562660
0.0589577 0.0589577 0.0589577
0.0617697 0.0617697 0.0617697
0.0632222 0.0632222 0.0632222
0.0662233 0.0662233 0.0662233
0.0677730 0.0677730 0.0677730
0.0709932 0.0709932 0.0709932
0.0726755 0.0726755 0.0726755
0.0743946 0.0743946 0.0743946
0.0779453 0.0779453 0.0779453
0.0797783 0.0797783 0.0797783
0.0816505 0.0816505 0.0816505
0.0835627 0.0835627 0.0835627
0.0875097 0.0875097 0.0875097
0.0895606 0.0895606 0.0895606
0.0916852 0.0916852 0.0916852
0.0938550 0.0938550 0.0938550
0.0960707 0.0960707 0.0960707
0.0983331 0.0983331 0.0983331
0.1006428 0.1006428 0.1006428
0.1030005 0.1030005 0.1030005
0.1054070 0.1054070 0.1054070
0.1078630 0.1078630 0.1078630
0.1103691 0.1103691 0.1103691
0.1129262 0.1129262 0.1129262
0.1156124 0.1156124 0.1156124
0.1156124 0.1156124 0.1156124
0.1183541 0.1183541 0.1183541
0.1211519 0.1211519 0.1211519
0.1240065 0.1240065 0.1240065
0.1269187 0.1269187 0.1269187
0.1269187 0.1269187 0.1269187
0.1298891 0.1298891 0.1298891
0.1329185 0.1329185 0.1329185
0.1360075 0.1360075 0.1360075
0.1360075 0.1360075 0.1360075
0.1391567 0.1391567 0.1391567
0.1423668 0.1423668 0.1423668
0.1456803 0.1456803 0.1456803
0.1456803 0.1456803 0.1456803
0.1490787 0.1490787 0.1490787
0.1525424 0.1525424 0.1525424
0.1525424 0.1525424 0.1525424
0.1560717 0.1560717 0.1560717
0.0170337 0.0170337 0.0170337
0.0190824 0.0190824 0.0190824
0.0213759 0.0213759 0.0213759
0.0234499 0.0234499 0.0234499
0.0257198 0.0257198 0.0257198
0.0281957 0.0281957 0.0281957
0.0301970 0.0301970 0.0301970
0.0323356 0.0323356 0.0323356
0.0346293 0.0346293 0.0346293
0.0371130 0.0371130 0.0371130
0.0388631 0.0388631 0.0388631
0.0416374 0.0416374 0.0416374
0.0435970 0.0435970 0.0435970
0.0456746 0.0456746 0.0456746
0.0478463 0.0478463 0.0478463
0.0501158 0.0501158 0.0501158
0.0524870 0.0524870 0.0524870
0.0549639 0.0549639 0.0549639
0.0562660 0.0562660 0.0562660
0.0589577 0.0589577 0.0589577
0.0617697 0.0617697 0.0617697
0.0632222 0.0632222 0.0632222
0.0662233 0.0662233 0.0662233
0.0677730 0.0677730 0.0677730
0.0709932 0.0709932 0.0709932
0.0726755 0.0726755 0.0726755
0.0743946 0.0743946 0.0743946
0.0779453 0.0779453 0.0779453
0.0797783 0.0797783 0.0797783
0.0816505 0.0816505 0.0816505
0.0835627 0.0835627 0.0835627
0.0875097 0.0875097 0.0875097
0.0895606 0.0895606 0.0895606
0.0916852 0.0916852 0.0916852
0.0938550 0.0938550 0.0938550
0.0960707 0.0960707 0.0960707
0.0983331 0.0983331 0.0983331
0.1006428 0.1006428 0.1006428
0.1030005 0.1030005 0.1030005
0.1054070 0.1054070 0.1054070
0.1078630 0.1078630 0.1078630
0.1103691 0.1103691 0.1103691
0.1129262 0.1129262 0.1129262
0.1156124 0.1156124 0.1156124
0.1156124 0.1156124 0.1156124
0.1183541 0.1183541 0.1183541
0.1211519 0.1211519 0.1211519
0.1240065 0.1240065 0.1240065
0.1269187 0.1269187 0.1269187
0.1269187 0.1269187 0.1269187
0.1298891 0.1298891 0.1298891
0.1329185 0.1329185 0.1329185
0.1360075 0.1360075 0.1360075
0.1360075 0.1360075 0.1360075
0.1391567 0.1391567 0.1391567
0.1423668 0.1423668 0.1423668
0.1456803 0.1456803 0.1456803
0.1456803 0.1456803 0.1456803
0.1490787 0.1490787 0.1490787
0.1525424 0.1525424 0.1525424
0.1525424 0.1525424 0.1525424
0.1560717 0.1560717 0.1560717
0.1596673 0.1596673 0.1596673
0.1596673 0.1596673 0.1596673
0.0213759 0.0213759 0.0213759
0.0234499 0.0234499 0.0234499
0.0257198 0.0257198 0.0257198
0.0281957 0.0281957 0.0281957
0.0301970 0.0301970 0.0301970
0.0323356 0.0323356 0.0323356
0.0346293 0.0346293 0.0346293
0.0371130 0.0371130 0.0371130
0.0388631 0.0388631 0.0388631
0.0416374 0.0416374 0.0416374
0.0435970 0.0435970 0.0435970
0.0456746 0.0456746 0.0456746
0.0478463 0.0478463 0.0478463
0.0501158 0.0501158 0.0501158
0.0524870 0.0524870 0.0524870
0.0549639 0.0549639 0.0549639
0.0562660 0.0562660 0.0562660
0.0589577 0.0589577 0.0589577
0.0617697 0.0617697 0.0617697
0.0632222 0.0632222 0.0632222
0.0662233 0.0662233 0.0662233
0.0677730 0.0677730 0.0677730
0.0709932 0.0709932 0.0709932
0.0726755 0.0726755 0.0726755
0.0743946 0.0743946 0.0743946
0.0779453 0.0779453 0.0779453
0.0797783 0.0797783 0.0797783
0.0816505 0.0816505 0.0816505
0.0835627 0.0835627 0.0835627
0.0875097 0.0875097 0.0875097
0.0895606 0.0895606 0.0895606
0.0916852 0.0916852 0.0916852
0.0938550 0.0938550 0.0938550
0.0960707 0.0960707 0.0960707
0.0983331 0.0983331 0.0983331
0.1006428 0.1006428 0.1006428
0.1030005 0.1030005 0.1030005
0.1054070 0.1054070 0.1054070
0.1078630 0.1078630 0.1078630
0.1103691 0.1103691 0.1103691
0.1129262 0.1129262 0.1129262
0.1156124 0.1156124 0.1156124
0.1156124 0.1156124 0.1156124
0.1183541 0.1183541 0.1183541
0.1211519 0.1211519 0.1211519
0.1240065 0.1240065 0.1240065
0.1269187 0.1269187 0.1269187
0.1269187 0.1269187 0.1269187
0.1298891 0.1298891 0.1298891
0.1329185 0.1329185 0.1329185
0.1360075 0.1360075 0.1360075
0.1360075 0.1360075 0.1360075
0.1391567 0.1391567 0.1391567
0.1423668 0.1423668 0.1423668
0.1456803 0.1456803 0.1456803
0.1456803 0.1456803 0.1456803
0.1490787 0.1490787 0.1490787
0.1525424 0.1525424 0.1525424
0.1525424 0.1525424 0.1525424
0.1560717 0.1560717 0.1560717
0.1596673 0.1596673 0.1596673
0.1596673 0.1596673 0.1596673
0.1633297 0.1633297 0.1633297
0.1633297 0.1633297 0.1633297
0.0257198 0.0257198 0.0257198
0.0281957 0.0281957 0.0281957
0.0301970 0.0301970 0.0301970
0.0323356 0.0323356 0.0323356
0.0346293 0.0346293 0.0346293
0.0371130 0.0371130 0.0371130
0.0388631 0.0388631 0.0388631
0.0416374 0.0416374 0.0416374
0.0435970 0.0435970 0.0435970
0.0456746 0.0456746 0.0456746
0.0478463 0.0478463 0.0478463
0.0501158 0.0501158 0.0501158
0.0524870 0.0524870 0.0524870
0.0549639 0.0549639 0.0549639
0.0562660 0.0562660 0.0562660
0.0589577 0.0589577 0.0589577
0.0617697 0.0617697 0.0617697
0.0632222 0.0632222 0.0632222
0.0662233 0.0662233 0.0662233
0.0677730 0.0677730 0.0677730
0.0709932 0.0709932 0.0709932
0.0726755 0.0726755 0.0726755
0.0743946 0.0743946 0.0743946
0.0779453 0.0779453 0.0779453
0.0797783 0.0797783 0.0797783
0.0816505 0.0816505 0.0816505
0.0835627 0.0835627 0.0835627
0.0875097 0.0875097 0.0875097
0.0895606 0.0895606 0.0895606
0.0916852 0.0916852 0.0916852
0.0938550 0.0938550 0.0938550
0.0960707 0.0960707 0.0960707
0.0983331 0.0983331 0.0983331
0.1006428 0.1006428 0.1006428
0.1030005 0.1030005 0.1030005
0.1054070 0.1054070 0.1054070
0.1078630 0.1078630 0.1078630
0.1103691 0.1103691 0.1103691
0.1129262 0.1129262 0.1129262
0.1156124 0.1156124 0.1156124
0.1156124 0.1156124 0.1156124
0.1183541 0.1183541 0.1183541
0.1211519 0.1211519 0.1211519
0.1240065 0.1240065 0.1240065
0.1269187 0.1269187 0.1269187
0.1269187 0.1269187 0.1269187
0.1298891 0.1298891 0.1298891
0.1329185 0.1329185 0.1329185
0.1360075 0.1360075 0.1360075
0.1360075 0.1360075 0.1360075
0.1391567 0.1391567 0.1391567
0.1423668 0.1423668 0.1423668
0.1456803 0.1456803 0.1456803
0.1456803 0.1456803 0.1456803
0.1490787 0.1490787 0.1490787
0.1525424 0.1525424 0.1525424
0.1525424 0.1525424 0.1525424
0.1560717 0.1560717 0.1560717
0.1596673 0.1596673 0.1596673
0.1596673 0.1596673 0.1596673
0.1633297 0.1633297 0.1633297
0.1633297 0.1633297 0.1633297
0.1670594 0.1670594 0.1670594
0.1708569 0.1708569 0.1708569
0.0301970 0.0301970 0.0301970
0.0323356 0.0323356 0.0323356
0.0346293 0.0346293 0.0346293
0.0371130 0.0371130 0.0371130
0.0388631 0.0388631 0.0388631
0.0416374 0.0416374 0.0416374
0.0435970 0.0435970 0.0435970
0.0456746 0.0456746 0.0456746
0.0478463 0.0478463 0.0478463
0.0501158 0.0501158 0.0501158
0.0524870 0.0524870 0.0524870
0.0549639 0.0549639 0.0549639
0.0562660 0.0562660 0.0562660
0.0589577 0.0589577 0.0589577
0.0617697 0.0617697 0.0617697
0.0632222 0.0632222 0.0632222
0.0662233 0.0662233 0.0662233
0.0677730 0.0677730 0.0677730
0.0709932 0.0709932 0.0709932
0.0726755 0.0726755 0.0726755
0.0743946 0.0743946 0.0743946
0.0779453 0.0779453 0.0779453
0.0797783 0.0797783 0.0797783
0.0816505 0.0816505 0.0816505
0.0835627 0.0835627 0.0835627
0.0875097 0.0875097 0.0875097
0.0895606 0.0895606 0.0895606
0.0916852 0.0916852 0.0916852
0.0938550 0.0938550 0.0938550
0.0960707 0.0960707 0.0960707
0.0983331 0.0983331 0.0983331
0.1006428 0.1006428 0.1006428
0.1030005 0.1030005 0.1030005
0.1054070 0.1054070 0.1054070
0.1078630 0.1078630 0.1078630
0.1103691 0.1103691 0.1103691
0.1129262 0.1129262 0.1129262
0.1156124 0.1156124 0.1156124
0.1156124 0.1156124 0.1156124
0.1183541 0.1183541 0.1183541
0.1211519 0.1211519 0.1211519
0.1240065 0.1240065 0.1240065
0.1269187 0.1269187 0.1269187
0.1269187 0.1269187 0.1269187
0.1298891 0.1298891 0.1298891
0.1329185 0.1329185 0.1329185
0.1360075 0.1360075 0.1360075
0.1360075 0.1360075 0.1360075
0.1391567 0.1391567 0.1391567
0.1423668 0.1423668 0.1423668
0.1456803 0.1456803 0.1456803
0.1456803 0.1456803 0.1456803
0.1490787 0.1490787 0.1490787
0.1525424 0.1525424 0.1525424
0.1525424 0.1525424 0.1525424
0.1560717 0.1560717 0.1560717
0.1596673 0.1596673 0.1596673
0.1596673 0.1596673 0.1596673
0.1633297 0.1633297 0.1633297
0.1633297 0.1633297 0.1633297
0.1670594 0.1670594 0.1670594
0.1708569 0.1708569 0.1708569
0.1708569 0.1708569 0.1708569
0.1747226 0.1747226 0.1747226
0.0346293 0.0346293 0.0346293
0.0371130 0.0371130 0.0371130
0.0388631 0.0388631 0.0388631
0.0416374 0.0416374 0.0416374
0.0435970 0.0435970 0.0435970
0.0456746 0.0456746 0.0456746
0.0478463 0.0478463 0.0478463
0.0501158 0.0501158 0.0501158
0.0524870 0.0524870 0.0524870
0.0549639 0.0549639 0.0549639
0.0562660 0.0562660 0.0562660
0.0589577 0.0589577 0.0589577
0.0617697 0.0617697 0.0617697
0.0632222 0.0632222 0.0632222
0.0662233 0.0662233 0.0662233
0.0677730 0.0677730 0.0677730
0.0709932 0.0709932 0.0709932
0.0726755 0.0726755 0.0726755
0.0743946 0.0743946 0.0743946
0.0779453 0.0779453 0.0779453
0.0797783 0.0797783 0.0797783
0.0816505 0.0816505 0.0816505
0.0835627 0.0835627 0.0835627
0.0875097 0.0875097 0.0875097
0.0895606 0.0895606 0.0895606
0.0916852 0.0916852 0.0916852
0.0938550 0.0938550 0.0938550
0.0960707 0.0960707 0.0960707
0.0983331 0.0983331 0.0983331
0.1006428 0.1006428 0.1006428
0.1030005 0.1030005 0.1030005
0.1054070 0.1054070 0.1054070
0.1078630 0.1078630 0.1078630
0.1103691 0.1103691 0.1103691
0.1129262 0.1129262 0.1129262
0.1156124 0.1156124 0.1156124
0.1156124 0.1156124 0.1156124
0.1183541 0.1183541 0.1183541
0.1211519 0.1211519 0.1211519
0.1240065 0.1240065 0.1240065
0.1269187 0.1269187 0.1269187
0.1269187 0.1269187 0.1269187
0.1298891 0.1298891 0.1298891
0.1329185 0.1329185 0.1329185
0.1360075 0.1360075 0.1360075
0.1360075 0.1360075 0.1360075
0.1391567 0.1391567 0.1391567
0.1423668 0.1423668 0.1423668
0.1456803 0.1456803 0.1456803
0.1456803 0.1456803 0.1456803
0.1490787 0.1490787 0.1490787
0.1525424 0.1525424 0.1525424
0.1525424 0.1525424 0.1525424
0.1560717 0.1560717 0.1560717
0.1596673 0.1596673 0.1596673
0.1596673 0.1596673 0.1596673
0.1633297 0.1633297 0.1633297
0.1633297 0.1633297 0.1633297
0.1670594 0.1670594 0.1670594
0.1708569 0.1708569 0.1708569
0.1708569 0.1708569 0.1708569
0.1747226 0.1747226 0.1747226
0.1747226 0.1747226 0.1747226
0.1786569 0.1786569 0.1786569
0.0388631 0.0388631 0.0388631
0.0416374 0.0416374 0.0416374
0.0435970 0.0435970 0.0435970
0.0456746 0.0456746 0.0456746
0.0478463 0.0478463 0.0478463
0.0501158 0.0501158 0.0501158
0.0524870 0.0524870 0.0524870
0.0549639 0.0549639 0.0549639
0.0562660 0.0562660 0.0562660
0.0589577 0.0589577 0.0589577
0.0617697 0.0617697 0.0617697
0.0632222 0.0632222 0.0632222
0.0662233 0.0662233 0.0662233
0.0677730 0.0677730 0.0677730
0.0709932 0.0709932 0.0709932
0.0726755 0.0726755 0.0726755
0.0743946 0.0743946 0.0743946
0.0779453 0.0779453 0.0779453
0.0797783 0.0797783 0.0797783
0.0816505 0.0816505 0.0816505
0.0835627 0.0835627 0.0835627
0.0875097 0.0875097 0.0875097
0.0895606 0.0895606 0.0895606
0.0916852 0.0916852 0.0916852
0.0938550 0.0938550 0.0938550
0.0960707 0.0960707 0.0960707
0.0983331 0.0983331 0.0983331
0.1006428 0.1006428 0.1006428
0.1030005 0.1030005 0.1030005
0.1054070 0.1054070 0.1054070
0.1078630 0.1078630 0.1078630
0.1103691 0.1103691 0.1103691
0.1129262 0.1129262 0.1129262
0.1156124 0.1156124 0.1156124
0.1156124 0.1156124 0.1156124
0.1183541 0.1183541 0.1183541
0.1211519 0.1211519 0.1211519
0.1240065 0.1240065 0.1240065
0.1269187 0.1269187 0.1269187
0.1269187 0.1269187 0.1269187
0.1298891 0.1298891 0.1298891
0.1329185 0.1329185 0.1329185
0.1360075 0.1360075 0.1360075
0.1360075 0.1360075 0.1360075
0.1391567 0.1391567 0.1391567
0.1423668 0.1423668 0.1423668
0.1456803 0.1456803 0.1456803
0.1456803 0.1456803 0.1456803
0.1490787 0.1490787 0.1490787
0.1525424 0.1525424 0.1525424
0.1525424 0.1525424 0.1525424
0.1560717 0.1560717 0.1560717
0.1596673 0.1596673 0.1596673
0.1596673 0.1596673 0.1596673
0.1633297 0.1633297 0.1633297
0.1633297 0.1633297 0.1633297
0.1670594 0.1670594 0.1670594
0.1708569 0.1708569 0.1708569
0.1708569 0.1708569 0.1708569
0.1747226 0.1747226 0.1747226
0.1747226 0.1747226 0.1747226
0.1786569 0.1786569 0.1786569
0.1826737 0.1826737 0.1826737
0.1826737 0.1826737 0.1826737
0.0435970 0.0435970 0.0435970
0.0456746 0.0456746 0.0456746
0.0478463 0.0478463 0.0478463
0.0501158 0.0501158 0.0501158
0.0524870 0.0524870 0.0524870
0.0549639 0.0549639 0.0549639
0.0562660 0.0562660 0.0562660
0.0589577 0.0589577 0.0589577
0.0617697 0.0617697 0.0617697
0.0632222 0.0632222 0.0632222
0.0662233 0.0662233 0.0662233
0.0677730 0.0677730 0.0677730
0.0709932 0.0709932 0.0709932
0.0726755 0.0726755 0.0726755
0.0743946 0.0743946 0.0743946
0.0779453 0.0779453 0.0779453
0.0797783 0.0797783 0.0797783
0.0816505 0.0816505 0.0816505
0.0835627 0.0835627 0.0835627
0.0875097 0.0875097 0.0875097
0.0895606 0.0895606 0.0895606
0.0916852 0.0916852 0.0916852
0.0938550 0.0938550 0.0938550
0.0960707 0.0960707 0.0960707
0.0983331 0.0983331 0.0983331
0.1006428 0.1006428 0.1006428
0.1030005 0.1030005 0.1030005
0.1054070 0.1054070 0.1054070
0.1078630 0.1078630 0.1078630
0.1103691 0.1103691 0.1103691
0.1129262 0.1129262 0.1129262
0.1156124 0.1156124 0.1156124
0.1156124 0.1156124 0.1156124
0.1183541 0.1183541 0.1183541
0.1211519 0.1211519 0.1211519
0.1240065 0.1240065 0.1240065
0.1269187 0.1269187 0.1269187
0.1269187 0.1269187 0.1269187
0.1298891 0.1298891 0.1298891
0.1329185 0.1329185 0.1329185
0.1360075 0.1360075 0.1360075
0.1360075 0.1360075 0.1360075
0.1391567 0.1391567 0.1391567
0.1423668 0.1423668 0.1423668
0.1456803 0.1456803 0.1456803
0.1456803 0.1456803 0.1456803
0.1490787 0.1490787 0.1490787
0.1525424 0.1525424 0.1525424
0.1525424 0.1525424 0.1525424
0.1560717 0.1560717 0.1560717
0.1596673 0.1596673 0.1596673
0.1596673 0.1596673 0.1596673
0.1633297 0.1633297 0.1633297
0.1633297 0.1633297 0.1633297
0.1670594 0.1670594 0.1670594
0.1708569 0.1708569 0.1708569
0.1708569 0.1708569 0.1708569
0.1747226 0.1747226 0.1747226
0.1747226 0.1747226 0.1747226
0.1786569 0.1786569 0.1786569
0.1826737 0.1826737 0.1826737
0.1826737 0.1826737 0.1826737
0.1867880 0.1867880 0.1867880
0.1867880 0.1867880 0.1867880
0.0478463 0.0478463 0.0478463
0.0501158 0.0501158 0.0501158
0.0524870 0.0524870 0.0524870
0.0549639 0.0549639 0.0549639
0.0575971 0.0575971 0.0575971
0.0589577 0.0589577 0.0589577
0.0617697 0.0617697 0.0617697
0.0632222 0.0632222 0.0632222
0.0662233 0.0662233 0.0662233
0.0677730 0.0677730 0.0677730
0.0709932 0.0709932 0.0709932
0.0726755 0.0726755 0.0726755
0.0743946 0.0743946 0.0743946
0.0779453 0.0779453 0.0779453
0.0797783 0.0797783 0.0797783
0.0816505 0.0816505 0.0816505
0.0835627 0.0835627 0.0835627
0.0875097 0.0875097 0.0875097
0.0895606 0.0895606 0.0895606
0.0916852 0.0916852 0.0916852
0.0938550 0.0938550 0.0938550
0.0960707 0.0960707 0.0960707
0.0983331 0.0983331 0.0983331
0.1006428 0.1006428 0.1006428
0.1030005 0.1030005 0.1030005
0.1054070 0.1054070 0.1054070
0.1078630 0.1078630 0.1078630
0.1103691 0.1103691 0.1103691
0.1129262 0.1129262 0.1129262
0.1156124 0.1156124 0.1156124
0.1156124 0.1156124 0.1156124
0.1183541 0.1183541 0.1183541
0.1211519 0.1211519 0.1211519
0.1240065 0.1240065 0.1240065
0.1269187 0.1269187 0.1269187
0.1269187 0.1269187 0.1269187
0.1298891 0.1298891 0.1298891
0.1329185 0.1329185 0.1329185
0.1360075 0.1360075 0.1360075
0.1360075 0.1360075 0.1360075
0.1391567 0.1391567 0.1391567
0.1423668 0.1423668 0.1423668
0.1456803 0.1456803 0.1456803
0.1456803 0.1456803 0.1456803
0.1490787 0.1490787 0.1490787
0.1525424 0.1525424 0.1525424
0.1525424 0.1525424 0.1525424
0.1560717 0.1560717 0.1560717
0.1596673 0.1596673 0.1596673
0.1596673 0.1596673 0.1596673
0.1633297 0.1633297 0.1633297
0.1633297 0.1633297 0.1633297
0.1670594 0.1670594 0.1670594
0.1708569 0.1708569 0.1708569
0.1708569 0.1708569 0.1708569
0.1747226 0.1747226 0.1747226
0.1747226 0.1747226 0.1747226
0.1786569 0.1786569 0.1786569
0.1826737 0.1826737 0.1826737
0.1826737 0.1826737 0.1826737
0.1867880 0.1867880 0.1867880
0.1867880 0.1867880 0.1867880
0.1909734 0.1909734 0.1909734
0.1909734 0.1909734 0.1909734
0.0524870 0.0524870 0.0524870
0.0549639 0.0549639 0.0549639
0.0575971 0.0575971 0.0575971
0.0589577 0.0589577 0.0589577
0.0617697 0.0617697 0.0617697
0.0632222 0.0632222 0.0632222
0.0662233 0.0662233 0.0662233
0.0677730 0.0677730 0.0677730
0.0709932 0.0709932 0.0709932
0.0726755 0.0726755 0.0726755
0.0743946 0.0743946 0.0743946
0.0779453 0.0779453 0.0779453
0.0797783 0.0797783 0.0797783
0.0816505 0.0816505 0.0816505
0.0835627 0.0835627 0.0835627
0.0875097 0.0875097 0.0875097
0.0895606 0.0895606 0.0895606
0.0916852 0.0916852 0.0916852
0.0938550 0.0938550 0.0938550
0.0960707 0.0960707 0.0960707
0.0983331 0.0983331 0.0983331
0.1006428 0.1006428 0.1006428
0.1030005 0.1030005 0.1030005
0.1054070 0.1054070 0.1054070
0.1078630 0.1078630 0.1078630
0.1103691 0.1103691 0.1103691
0.1129262 0.1129262 0.1129262
0.1156124 0.1156124 0.1156124
0.1156124 0.1156124 0.1156124
0.1183541 0.1183541 0.1183541
