Plugins/FilmEmulator/Content/LUTs/FE_Kodak_Polymax_Grade_5_64.cube
TITLE "FE_Kodak_Polymax_Grade_5_33"
LUT_3D_SIZE 8
0.0022376 0.0022376 0.0022376
0.0022376 0.0022376 0.0022376
0.0022376 0.0022376 0.0022376
0.0022376 0.0022376 0.0022376
0.0022376 0.0022376 0.0022376
0.0022376 0.0022376 0.0022376
0.0022376 0.0022376 0.0022376
0.0022376 0.0022376 0.0022376
0.0022376 0.0022376 0.0022376
0.0022378 0.0022378 0.0022378
0.0022403 0.0022403 0.0022403
0.0022454 0.0022454 0.0022454
0.0022519 0.0022519 0.0022519
0.0022602 0.0022602 0.0022602
0.0022750 0.0022750 0.0022750
0.0023007 0.0023007 0.0023007
0.0023071 0.0023071 0.0023071
0.0023384 0.0023384 0.0023384
0.0023800 0.0023800 0.0023800
0.0024393 0.0024393 0.0024393
0.0025326 0.0025326 0.0025326
0.0026742 0.0026742 0.0026742
0.0028922 0.0028922 0.0028922
0.0031821 0.0031821 0.0031821
0.0032714 0.0032714 0.0032714
0.0036528 0.0036528 0.0036528
0.0041487 0.0041487 0.0041487
0.0047230 0.0047230 0.0047230
0.0054694 0.0054694 0.0054694
0.0064859 0.0064859 0.0064859
0.0077765 0.0077765 0.0077765
0.0097105 0.0097105 0.0097105
0.0102863 0.0102863 0.0102863
0.0134317 0.0134317 0.0134317
0.0172565 0.0172565 0.0172565
0.0224323 0.0224323 0.0224323
0.0293786 0.0293786 0.0293786
0.0373007 0.0373007 0.0373007
0.0468698 0.0468698 0.0468698
0.0606647 0.0606647 0.0606647
0.0626363 0.0626363 0.0626363
0.0787887 0.0787887 0.0787887
0.0998631 0.0998631 0.0998631
0.1236035 0.1236035 0.1236035
0.1580736 0.1580736 0.1580736
0.1947179 0.1947179 0.1947179
0.2377728 0.2377728 0.2377728
0.2871794 0.2871794 0.2871794
0.2959248 0.2959248 0.2959248
0.3506424 0.3506424 0.3506424
0.3992101 0.3992101 0.3992101
0.4585303 0.4585303 0.4585303
0.5088143 0.5088143 0.5088143
0.5586469 0.5586469 0.5586469
0.6165765 0.6165765 0.6165765
0.6621839 0.6621839 0.6621839
0.6709848 0.6709848 0.6709848
0.7127213 0.7127213 0.7127213
0.7435223 0.7435223 0.7435223
0.7787116 0.7787116 0.7787116
0.8100461 0.8100461 0.8100461
0.8324978 0.8324978 0.8324978
0.8565272 0.8565272 0.8565272
0.8736241 0.8736241 0.8736241
0.0058371 0.0058371 0.0058371
0.0070149 0.0070149 0.0070149
0.0085838 0.0085838 0.0085838
0.0109139 0.0109139 0.0109139
0.0138598 0.0138598 0.0138598
0.0178043 0.0178043 0.0178043
0.0231901 0.0231901 0.0231901
0.0304032 0.0304032 0.0304032
0.0325573 0.0325573 0.0325573
0.0411473 0.0411473 0.0411473
0.0516502 0.0516502 0.0516502
0.0646675 0.0646675 0.0646675
0.0815291 0.0815291 0.0815291
0.1033527 0.1033527 0.1033527
0.1280418 0.1280418 0.1280418
0.1637666 0.1637666 0.1637666
0.1696228 0.1696228 0.1696228
0.2082826 0.2082826 0.2082826
0.2535700 0.2535700 0.2535700
0.3046989 0.3046989 0.3046989
0.3602094 0.3602094 0.3602094
0.4089412 0.4089412 0.4089412
0.4685796 0.4685796 0.4685796
0.5188270 0.5188270 0.5188270
0.5288246 0.5288246 0.5288246
0.5880520 0.5880520 0.5880520
0.6351197 0.6351197 0.6351197
0.6796673 0.6796673 0.6796673
0.7206254 0.7206254 0.7206254
0.7508756 0.7508756 0.7508756
0.7852622 0.7852622 0.7852622
0.8158888 0.8158888 0.8158888
0.8215913 0.8215913 0.8215913
0.8424745 0.8424745 0.8424745
0.8653046 0.8653046 0.8653046
0.8812054 0.8812054 0.8812054
0.8946618 0.8946618 0.8946618
0.9095777 0.9095777 0.9095777
0.9195659 0.9195659 0.9195659
0.9284928 0.9284928 0.9284928
0.9305772 0.9305772 0.9305772
0.9381253 0.9381253 0.9381253
0.9447479 0.9447479 0.9447479
0.9506990 0.9506990 0.9506990
0.9557818 0.9557818 0.9557818
0.9592618 0.9592618 0.9592618
0.9633991 0.9633991 0.9633991
0.9666916 0.9666916 0.9666916
0.9666916 0.9666916 0.9666916
0.9696972 0.9696972 0.9696972
0.9722012 0.9722012 0.9722012
0.9738256 0.9738256 0.9738256
0.9758486 0.9758486 0.9758486
0.9769723 0.9769723 0.9769723
0.9779041 0.9779041 0.9779041
0.9790894 0.9790894 0.9790894
0.9790894 0.9790894 0.9790894
0.9800004 0.9800004 0.9800004
0.9805806 0.9805806 0.9805806
0.9811442 0.9811442 0.9811442
0.9816023 0.9816023 0.9816023
0.9819396 0.9819396 0.9819396
0.9822708 0.9822708 0.9822708
0.9825962 0.9825962 0.9825962
0.7360281 0.7360281 0.7360281
0.7651545 0.7651545 0.7651545
0.7979376 0.7979376 0.7979376
0.8271546 0.8271546 0.8271546
0.8472788 0.8472788 0.8472788
0.8695207 0.8695207 0.8695207
0.8847026 0.8847026 0.8847026
0.8978090 0.8978090 0.8978090
0.9008727 0.9008727 0.9008727
0.9122151 0.9122151 0.9122151
0.9241499 0.9241499 0.9241499
0.9326052 0.9326052 0.9326052
0.9398474 0.9398474 0.9398474
0.9462963 0.9462963 0.9462963
0.9506990 0.9506990 0.9506990
0.9557818 0.9557818 0.9557818
0.9569722 0.9569722 0.9569722
0.9614345 0.9614345 0.9614345
0.9650827 0.9650827 0.9650827
0.9674689 0.9674689 0.9674689
0.9704065 0.9704065 0.9704065
0.9722012 0.9722012 0.9722012
0.9743463 0.9743463 0.9743463
0.9758486 0.9758486 0.9758486
0.9763299 0.9763299 0.9763299
0.9772871 0.9772871 0.9772871
0.9785048 0.9785048 0.9785048
0.9793759 0.9793759 0.9793759
0.9800004 0.9800004 0.9800004
0.9805806 0.9805806 0.9805806
0.9813285 0.9813285 0.9813285
0.9817154 0.9817154 0.9817154
0.9817154 0.9817154 0.9817154
0.9821611 0.9821611 0.9821611
0.9824884 0.9824884 0.9824884
0.9827624 0.9827624 0.9827624
0.9830088 0.9830088 0.9830088
0.9831711 0.9831711 0.9831711
0.9834118 0.9834118 0.9834118
0.9836048 0.9836048 0.9836048
0.9836668 0.9836668 0.9836668
0.9838516 0.9838516 0.9838516
0.9840341 0.9840341 0.9840341
0.9841384 0.9841384 0.9841384
0.9842812 0.9842812 0.9842812
0.9844228 0.9844228 0.9844228
0.9845165 0.9845165 0.9845165
0.9846406 0.9846406 0.9846406
0.9846792 0.9846792 0.9846792
0.9847561 0.9847561 0.9847561
0.9848708 0.9848708 0.9848708
0.9849467 0.9849467 0.9849467
0.9850457 0.9850457 0.9850457
0.9851421 0.9851421 0.9851421
0.9852061 0.9852061 0.9852061
0.9852698 0.9852698 0.9852698
0.9853001 0.9853001 0.9853001
0.9853549 0.9853549 0.9853549
0.9854367 0.9854367 0.9854367
0.9854910 0.9854910 0.9854910
0.9855720 0.9855720 0.9855720
0.9856194 0.9856194 0.9856194
0.9856666 0.9856666 0.9856666
0.9857371 0.9857371 0.9857371
0.9803891 0.9803891 0.9803891
0.9809582 0.9809582 0.9809582
0.9814885 0.9814885 0.9814885
0.9818279 0.9818279 0.9818279
0.9821611 0.9821611 0.9821611
0.9824884 0.9824884 0.9824884
0.9827624 0.9827624 0.9827624
0.9830088 0.9830088 0.9830088
0.9830902 0.9830902 0.9830902
0.9833319 0.9833319 0.9833319
0.9835426 0.9835426 0.9835426
0.9836668 0.9836668 0.9836668
0.9838516 0.9838516 0.9838516
0.9840341 0.9840341 0.9840341
0.9841861 0.9841861 0.9841861
0.9843285 0.9843285 0.9843285
0.9843285 0.9843285 0.9843285
0.9844697 0.9844697 0.9844697
0.9846020 0.9846020 0.9846020
0.9846792 0.9846792 0.9846792
0.9847944 0.9847944 0.9847944
0.9848708 0.9848708 0.9848708
0.9849810 0.9849810 0.9849810
0.9850457 0.9850457 0.9850457
0.9850779 0.9850779 0.9850779
0.9851742 0.9851742 0.9851742
0.9852380 0.9852380 0.9852380
0.9853275 0.9853275 0.9853275
0.9853822 0.9853822 0.9853822
0.9854367 0.9854367 0.9854367
0.9855180 0.9855180 0.9855180
0.9855720 0.9855720 0.9855720
0.9855957 0.9855957 0.9855957
0.9856430 0.9856430 0.9856430
0.9856902 0.9856902 0.9856902
0.9857606 0.9857606 0.9857606
0.9858074 0.9858074 0.9858074
0.9858504 0.9858504 0.9858504
0.9858927 0.9858927 0.9858927
0.9859558 0.9859558 0.9859558
0.9859558 0.9859558 0.9859558
0.9859977 0.9859977 0.9859977
0.9860392 0.9860392 0.9860392
0.9860985 0.9860985 0.9860985
0.9861380 0.9861380 0.9861380
0.9861773 0.9861773 0.9861773
0.9862166 0.9862166 0.9862166
0.9862537 0.9862537 0.9862537
0.9862537 0.9862537 0.9862537
0.9862887 0.9862887 0.9862887
0.9863411 0.9863411 0.9863411
0.9863759 0.9863759 0.9863759
0.9864107 0.9864107 0.9864107
0.9864396 0.9864396 0.9864396
0.9864675 0.9864675 0.9864675
0.9864814 0.9864814 0.9864814
0.9864953 0.9864953 0.9864953
0.9865231 0.9865231 0.9865231
0.9865507 0.9865507 0.9865507
0.9865725 0.9865725 0.9865725
0.9865913 0.9865913 0.9865913
0.9866006 0.9866006 0.9866006
0.9866194 0.9866194 0.9866194
0.9866381 0.9866381 0.9866381
0.9854095 0.9854095 0.9854095
0.9854639 0.9854639 0.9854639
0.9855450 0.9855450 0.9855450
0.9855957 0.9855957 0.9855957
0.9856430 0.9856430 0.9856430
0.9857137 0.9857137 0.9857137
0.9857606 0.9857606 0.9857606
0.9858074 0.9858074 0.9858074
0.9858292 0.9858292 0.9858292
0.9858716 0.9858716 0.9858716
0.9859137 0.9859137 0.9859137
0.9859558 0.9859558 0.9859558
0.9860186 0.9860186 0.9860186
0.9860590 0.9860590 0.9860590
0.9860985 0.9860985 0.9860985
0.9861380 0.9861380 0.9861380
0.9861577 0.9861577 0.9861577
0.9861970 0.9861970 0.9861970
0.9862362 0.9862362 0.9862362
0.9862713 0.9862713 0.9862713
0.9863062 0.9863062 0.9863062
0.9863411 0.9863411 0.9863411
0.9863759 0.9863759 0.9863759
0.9864107 0.9864107 0.9864107
0.9864107 0.9864107 0.9864107
0.9864396 0.9864396 0.9864396
0.9864675 0.9864675 0.9864675
0.9864953 0.9864953 0.9864953
0.9865231 0.9865231 0.9865231
0.9865507 0.9865507 0.9865507
0.9865725 0.9865725 0.9865725
0.9865913 0.9865913 0.9865913
0.9865913 0.9865913 0.9865913
0.9866100 0.9866100 0.9866100
0.9866287 0.9866287 0.9866287
0.9866474 0.9866474 0.9866474
0.9866642 0.9866642 0.9866642
0.9866791 0.9866791 0.9866791
0.9866865 0.9866865 0.9866865
0.9867013 0.9867013 0.9867013
0.9867087 0.9867087 0.9867087
0.9867162 0.9867162 0.9867162
0.9867309 0.9867309 0.9867309
0.9867441 0.9867441 0.9867441
0.9867570 0.9867570 0.9867570
0.9867634 0.9867634 0.9867634
0.9867762 0.9867762 0.9867762
0.9867890 0.9867890 0.9867890
0.9867890 0.9867890 0.9867890
0.9868015 0.9868015 0.9868015
0.9868124 0.9868124 0.9868124
0.9868178 0.9868178 0.9868178
0.9868286 0.9868286 0.9868286
0.9868394 0.9868394 0.9868394
0.9868448 0.9868448 0.9868448
0.9868556 0.9868556 0.9868556
0.9868556 0.9868556 0.9868556
0.9868645 0.9868645 0.9868645
0.9868733 0.9868733 0.9868733
0.9868777 0.9868777 0.9868777
0.9868866 0.9868866 0.9868866
0.9868910 0.9868910 0.9868910
0.9868998 0.9868998 0.9868998
0.9869035 0.9869035 0.9869035
0.9865369 0.9865369 0.9865369
0.9865631 0.9865631 0.9865631
0.9865819 0.9865819 0.9865819
0.9866006 0.9866006 0.9866006
0.9866194 0.9866194 0.9866194
0.9866381 0.9866381 0.9866381
0.9866474 0.9866474 0.9866474
0.9866642 0.9866642 0.9866642
0.9866716 0.9866716 0.9866716
0.9866791 0.9866791 0.9866791
0.9866939 0.9866939 0.9866939
0.9867087 0.9867087 0.9867087
0.9867235 0.9867235 0.9867235
0.9867377 0.9867377 0.9867377
0.9867441 0.9867441 0.9867441
0.9867570 0.9867570 0.9867570
0.9867570 0.9867570 0.9867570
0.9867698 0.9867698 0.9867698
0.9867826 0.9867826 0.9867826
0.9867954 0.9867954 0.9867954
0.9868015 0.9868015 0.9868015
0.9868124 0.9868124 0.9868124
0.9868232 0.9868232 0.9868232
0.9868286 0.9868286 0.9868286
0.9868340 0.9868340 0.9868340
0.9868394 0.9868394 0.9868394
0.9868503 0.9868503 0.9868503
0.9868601 0.9868601 0.9868601
0.9868645 0.9868645 0.9868645
0.9868733 0.9868733 0.9868733
0.9868777 0.9868777 0.9868777
0.9868866 0.9868866 0.9868866
0.9868866 0.9868866 0.9868866
0.9868954 0.9868954 0.9868954
0.9869035 0.9869035 0.9869035
0.9869069 0.9869069 0.9869069
0.9869138 0.9869138 0.9869138
0.9869172 0.9869172 0.9869172
0.9869241 0.9869241 0.9869241
0.9869274 0.9869274 0.9869274
0.9869309 0.9869309 0.9869309
0.9869343 0.9869343 0.9869343
0.9869399 0.9869399 0.9869399
0.9869424 0.9869424 0.9869424
0.9869449 0.9869449 0.9869449
0.9869499 0.9869499 0.9869499
0.9869524 0.9869524 0.9869524
0.9869574 0.9869574 0.9869574
0.9869574 0.9869574 0.9869574
0.9869623 0.9869623 0.9869623
0.9869646 0.9869646 0.9869646
0.9869691 0.9869691 0.9869691
0.9869714 0.9869714 0.9869714
0.9869736 0.9869736 0.9869736
0.9869782 0.9869782 0.9869782
0.9869804 0.9869804 0.9869804
0.9869804 0.9869804 0.9869804
0.9869850 0.9869850 0.9869850
0.9869872 0.9869872 0.9869872
0.9869915 0.9869915 0.9869915
0.9869937 0.9869937 0.9869937
0.9869959 0.9869959 0.9869959
0.9870003 0.9870003 0.9870003
0.9870025 0.9870025 0.9870025
0.9868689 0.9868689 0.9868689
0.9868777 0.9868777 0.9868777
0.9868822 0.9868822 0.9868822
0.9868910 0.9868910 0.9868910
0.9868954 0.9868954 0.9868954
0.9869035 0.9869035 0.9869035
0.9869069 0.9869069 0.9869069
0.9869138 0.9869138 0.9869138
0.9869138 0.9869138 0.9869138
0.9869207 0.9869207 0.9869207
0.9869241 0.9869241 0.9869241
0.9869309 0.9869309 0.9869309
0.9869343 0.9869343 0.9869343
0.9869399 0.9869399 0.9869399
0.9869424 0.9869424 0.9869424
0.9869474 0.9869474 0.9869474
0.9869474 0.9869474 0.9869474
0.9869524 0.9869524 0.9869524
0.9869549 0.9869549 0.9869549
0.9869574 0.9869574 0.9869574
0.9869623 0.9869623 0.9869623
0.9869646 0.9869646 0.9869646
0.9869691 0.9869691 0.9869691
0.9869714 0.9869714 0.9869714
0.9869736 0.9869736 0.9869736
0.9869759 0.9869759 0.9869759
0.9869782 0.9869782 0.9869782
0.9869827 0.9869827 0.9869827
0.9869850 0.9869850 0.9869850
0.9869872 0.9869872 0.9869872
0.9869915 0.9869915 0.9869915
0.9869937 0.9869937 0.9869937
0.9869959 0.9869959 0.9869959
0.9869981 0.9869981 0.9869981
0.9870003 0.9870003 0.9870003
0.9870046 0.9870046 0.9870046
0.9870068 0.9870068 0.9870068
0.9870090 0.9870090 0.9870090
0.9870132 0.9870132 0.9870132
0.9870153 0.9870153 0.9870153
0.9870153 0.9870153 0.9870153
0.9870175 0.9870175 0.9870175
0.9870216 0.9870216 0.9870216
0.9870238 0.9870238 0.9870238
0.9870259 0.9870259 0.9870259
0.9870301 0.9870301 0.9870301
0.9870321 0.9870321 0.9870321
0.9870341 0.9870341 0.9870341
0.9870341 0.9870341 0.9870341
0.9870382 0.9870382 0.9870382
0.9870402 0.9870402 0.9870402
0.9870422 0.9870422 0.9870422
0.9870443 0.9870443 0.9870443
0.9870483 0.9870483 0.9870483
0.9870504 0.9870504 0.9870504
0.9870523 0.9870523 0.9870523
0.9870523 0.9870523 0.9870523
0.9870562 0.9870562 0.9870562
0.9870582 0.9870582 0.9870582
0.9870601 0.9870601 0.9870601
0.9870620 0.9870620 0.9870620
0.9870640 0.9870640 0.9870640
0.9870660 0.9870660 0.9870660
0.9870698 0.9870698 0.9870698
0.9869872 0.9869872 0.9869872
0.9869894 0.9869894 0.9869894
0.9869915 0.9869915 0.9869915
0.9869959 0.9869959 0.9869959
0.9869981 0.9869981 0.9869981
0.9870003 0.9870003 0.9870003
0.9870046 0.9870046 0.9870046
0.9870068 0.9870068 0.9870068
0.9870068 0.9870068 0.9870068
0.9870111 0.9870111 0.9870111
0.9870132 0.9870132 0.9870132
0.9870153 0.9870153 0.9870153
0.9870195 0.9870195 0.9870195
0.9870216 0.9870216 0.9870216
0.9870238 0.9870238 0.9870238
0.9870279 0.9870279 0.9870279
0.9870279 0.9870279 0.9870279
0.9870301 0.9870301 0.9870301
0.9870321 0.9870321 0.9870321
0.9870362 0.9870362 0.9870362
0.9870382 0.9870382 0.9870382
0.9870402 0.9870402 0.9870402
0.9870422 0.9870422 0.9870422
0.9870463 0.9870463 0.9870463
0.9870463 0.9870463 0.9870463
0.9870483 0.9870483 0.9870483
0.9870504 0.9870504 0.9870504
0.9870543 0.9870543 0.9870543
0.9870562 0.9870562 0.9870562
0.9870582 0.9870582 0.9870582
0.9870601 0.9870601 0.9870601
0.9870620 0.9870620 0.9870620
0.9870640 0.9870640 0.9870640
0.9870660 0.9870660 0.9870660
0.9870679 0.9870679 0.9870679
0.9870698 0.9870698 0.9870698
0.9870718 0.9870718 0.9870718
0.9870736 0.9870736 0.9870736
0.9870774 0.9870774 0.9870774
0.9870792 0.9870792 0.9870792
0.9870792 0.9870792 0.9870792
0.9870811 0.9870811 0.9870811
0.9870829 0.9870829 0.9870829
0.9870848 0.9870848 0.9870848
0.9870885 0.9870885 0.9870885
0.9870903 0.9870903 0.9870903
0.9870921 0.9870921 0.9870921
0.9870939 0.9870939 0.9870939
0.9870939 0.9870939 0.9870939
0.9870957 0.9870957 0.9870957
0.9870974 0.9870974 0.9870974
0.9871010 0.9871010 0.9871010
0.9871028 0.9871028 0.9871028
0.9871046 0.9871046 0.9871046
0.9871063 0.9871063 0.9871063
0.9871081 0.9871081 0.9871081
0.9871081 0.9871081 0.9871081
0.9871098 0.9871098 0.9871098
0.9871116 0.9871116 0.9871116
0.9871132 0.9871132 0.9871132
0.9871149 0.9871149 0.9871149
0.9871166 0.9871166 0.9871166
0.9871200 0.9871200 0.9871200
0.9871217 0.9871217 0.9871217
