Plugins/FilmEmulator/Content/LUTs/FE_Kodak_5222_Dev4_64.cube
TITLE "FE_Kodak_5222_Dev4_33"
LUT_3D_SIZE 64
0.0113163 0.0113163 0.0113163
0.0113163 0.0113163 0.0113163
0.0114809 0.0114809 0.0114809
0.0123521 0.0123521 0.0123521
0.0136489 0.0136489 0.0136489
0.0154127 0.0154127 0.0154127
0.0169512 0.0169512 0.0169512
0.0185052 0.0185052 0.0185052
0.0202614 0.0202614 0.0202614
0.0219055 0.0219055 0.0219055
0.0239937 0.0239937 0.0239937
0.0258224 0.0258224 0.0258224
0.0278213 0.0278213 0.0278213
0.0299970 0.0299970 0.0299970
0.0317362 0.0317362 0.0317362
0.0342665 0.0342665 0.0342665
0.0356138 0.0356138 0.0356138
0.0377309 0.0377309 0.0377309
0.0399711 0.0399711 0.0399711
0.0415410 0.0415410 0.0415410
0.0440069 0.0440069 0.0440069
0.0457277 0.0457277 0.0457277
0.0475125 0.0475125 0.0475125
0.0494242 0.0494242 0.0494242
0.0514402 0.0514402 0.0514402
0.0535338 0.0535338 0.0535338
0.0557077 0.0557077 0.0557077
0.0568255 0.0568255 0.0568255
0.0591247 0.0591247 0.0591247
0.0603248 0.0603248 0.0603248
0.0627938 0.0627938 0.0627938
0.0653568 0.0653568 0.0653568
0.0666745 0.0666745 0.0666745
0.0680168 0.0680168 0.0680168
0.0707769 0.0707769 0.0707769
0.0721954 0.0721954 0.0721954
0.0736877 0.0736877 0.0736877
0.0768071 0.0768071 0.0768071
0.0784118 0.0784118 0.0784118
0.0800471 0.0800471 0.0800471
0.0817135 0.0817135 0.0817135
0.0834115 0.0834115 0.0834115
0.0851415 0.0851415 0.0851415
0.0869039 0.0869039 0.0869039
0.0886993 0.0886993 0.0886993
0.0905252 0.0905252 0.0905252
0.0923787 0.0923787 0.0923787
0.0942663 0.0942663 0.0942663
0.0961884 0.0961884 0.0961884
0.0981454 0.0981454 0.0981454
0.1001378 0.1001378 0.1001378
0.1021661 0.1021661 0.1021661
0.1042307 0.1042307 0.1042307
0.1063321 0.1063321 0.1063321
0.1084707 0.1084707 0.1084707
0.1106470 0.1106470 0.1106470
0.1106470 0.1106470 0.1106470
0.1129241 0.1129241 0.1129241
0.1152420 0.1152420 0.1152420
0.1176012 0.1176012 0.1176012
0.1200021 0.1200021 0.1200021
0.1200021 0.1200021 0.1200021
0.1224452 0.1224452 0.1224452
0.1249310 0.1249310 0.1249310
0.0114809 0.0114809 0.0114809
0.0123521 0.0123521 0.0123521
0.0137946 0.0137946 0.0137946
0.0154127 0.0154127 0.0154127
0.0169512 0.0169512 0.0169512
0.0185052 0.0185052 0.0185052
0.0202614 0.0202614 0.0202614
0.0219055 0.0219055 0.0219055
0.0239937 0.0239937 0.0239937
0.0258224 0.0258224 0.0258224
0.0278213 0.0278213 0.0278213
0.0299970 0.0299970 0.0299970
0.0317362 0.0317362 0.0317362
0.0342665 0.0342665 0.0342665
0.0356138 0.0356138 0.0356138
0.0377309 0.0377309 0.0377309
0.0399711 0.0399711 0.0399711
0.0415410 0.0415410 0.0415410
0.0440069 0.0440069 0.0440069
0.0457277 0.0457277 0.0457277
0.0475125 0.0475125 0.0475125
0.0494242 0.0494242 0.0494242
0.0514402 0.0514402 0.0514402
0.0535338 0.0535338 0.0535338
0.0557077 0.0557077 0.0557077
0.0568255 0.0568255 0.0568255
0.0591247 0.0591247 0.0591247
0.0603248 0.0603248 0.0603248
0.0627938 0.0627938 0.0627938
0.0653568 0.0653568 0.0653568
0.0666745 0.0666745 0.0666745
0.0680168 0.0680168 0.0680168
0.0707769 0.0707769 0.0707769
0.0721954 0.0721954 0.0721954
0.0736877 0.0736877 0.0736877
0.0768071 0.0768071 0.0768071
0.0784118 0.0784118 0.0784118
0.0800471 0.0800471 0.0800471
0.0817135 0.0817135 0.0817135
0.0834115 0.0834115 0.0834115
0.0851415 0.0851415 0.0851415
0.0869039 0.0869039 0.0869039
0.0886993 0.0886993 0.0886993
0.0905252 0.0905252 0.0905252
0.0923787 0.0923787 0.0923787
0.0942663 0.0942663 0.0942663
0.0961884 0.0961884 0.0961884
0.0981454 0.0981454 0.0981454
0.1001378 0.1001378 0.1001378
0.1021661 0.1021661 0.1021661
0.1042307 0.1042307 0.1042307
0.1063321 0.1063321 0.1063321
0.1084707 0.1084707 0.1084707
0.1106470 0.1106470 0.1106470
0.1106470 0.1106470 0.1106470
0.1129241 0.1129241 0.1129241
0.1152420 0.1152420 0.1152420
0.1176012 0.1176012 0.1176012
0.1200021 0.1200021 0.1200021
0.1200021 0.1200021 0.1200021
0.1224452 0.1224452 0.1224452
0.1249310 0.1249310 0.1249310
0.1249310 0.1249310 0.1249310
0.1274600 0.1274600 0.1274600
0.0137946 0.0137946 0.0137946
0.0154127 0.0154127 0.0154127
0.0169512 0.0169512 0.0169512
0.0185052 0.0185052 0.0185052
0.0202614 0.0202614 0.0202614
0.0219055 0.0219055 0.0219055
0.0239937 0.0239937 0.0239937
0.0258224 0.0258224 0.0258224
0.0278213 0.0278213 0.0278213
0.0299970 0.0299970 0.0299970
0.0317362 0.0317362 0.0317362
0.0342665 0.0342665 0.0342665
0.0356138 0.0356138 0.0356138
0.0377309 0.0377309 0.0377309
0.0399711 0.0399711 0.0399711
0.0415410 0.0415410 0.0415410
0.0440069 0.0440069 0.0440069
0.0457277 0.0457277 0.0457277
0.0475125 0.0475125 0.0475125
0.0494242 0.0494242 0.0494242
0.0514402 0.0514402 0.0514402
0.0535338 0.0535338 0.0535338
0.0557077 0.0557077 0.0557077
0.0568255 0.0568255 0.0568255
0.0591247 0.0591247 0.0591247
0.0603248 0.0603248 0.0603248
0.0627938 0.0627938 0.0627938
0.0653568 0.0653568 0.0653568
0.0666745 0.0666745 0.0666745
0.0680168 0.0680168 0.0680168
0.0707769 0.0707769 0.0707769
0.0721954 0.0721954 0.0721954
0.0736877 0.0736877 0.0736877
0.0768071 0.0768071 0.0768071
0.0784118 0.0784118 0.0784118
0.0800471 0.0800471 0.0800471
0.0817135 0.0817135 0.0817135
0.0834115 0.0834115 0.0834115
0.0851415 0.0851415 0.0851415
0.0869039 0.0869039 0.0869039
0.0886993 0.0886993 0.0886993
0.0905252 0.0905252 0.0905252
0.0923787 0.0923787 0.0923787
0.0942663 0.0942663 0.0942663
0.0961884 0.0961884 0.0961884
0.0981454 0.0981454 0.0981454
0.1001378 0.1001378 0.1001378
0.1021661 0.1021661 0.1021661
0.1042307 0.1042307 0.1042307
0.1063321 0.1063321 0.1063321
0.1084707 0.1084707 0.1084707
0.1106470 0.1106470 0.1106470
0.1106470 0.1106470 0.1106470
0.1129241 0.1129241 0.1129241
0.1152420 0.1152420 0.1152420
0.1176012 0.1176012 0.1176012
0.1200021 0.1200021 0.1200021
0.1200021 0.1200021 0.1200021
0.1224452 0.1224452 0.1224452
0.1249310 0.1249310 0.1249310
0.1249310 0.1249310 0.1249310
0.1274600 0.1274600 0.1274600
0.1300325 0.1300325 0.1300325
0.1326490 0.1326490 0.1326490
0.0169512 0.0169512 0.0169512
0.0185052 0.0185052 0.0185052
0.0202614 0.0202614 0.0202614
0.0219055 0.0219055 0.0219055
0.0239937 0.0239937 0.0239937
0.0258224 0.0258224 0.0258224
0.0278213 0.0278213 0.0278213
0.0299970 0.0299970 0.0299970
0.0317362 0.0317362 0.0317362
0.0342665 0.0342665 0.0342665
0.0356138 0.0356138 0.0356138
0.0377309 0.0377309 0.0377309
0.0399711 0.0399711 0.0399711
0.0415410 0.0415410 0.0415410
0.0440069 0.0440069 0.0440069
0.0457277 0.0457277 0.0457277
0.0475125 0.0475125 0.0475125
0.0494242 0.0494242 0.0494242
0.0514402 0.0514402 0.0514402
0.0535338 0.0535338 0.0535338
0.0557077 0.0557077 0.0557077
0.0568255 0.0568255 0.0568255
0.0591247 0.0591247 0.0591247
0.0603248 0.0603248 0.0603248
0.0627938 0.0627938 0.0627938
0.0653568 0.0653568 0.0653568
0.0666745 0.0666745 0.0666745
0.0680168 0.0680168 0.0680168
0.0707769 0.0707769 0.0707769
0.0721954 0.0721954 0.0721954
0.0736877 0.0736877 0.0736877
0.0768071 0.0768071 0.0768071
0.0784118 0.0784118 0.0784118
0.0800471 0.0800471 0.0800471
0.0817135 0.0817135 0.0817135
0.0834115 0.0834115 0.0834115
0.0851415 0.0851415 0.0851415
0.0869039 0.0869039 0.0869039
0.0886993 0.0886993 0.0886993
0.0905252 0.0905252 0.0905252
0.0923787 0.0923787 0.0923787
0.0942663 0.0942663 0.0942663
0.0961884 0.0961884 0.0961884
0.0981454 0.0981454 0.0981454
0.1001378 0.1001378 0.1001378
0.1021661 0.1021661 0.1021661
0.1042307 0.1042307 0.1042307
0.1063321 0.1063321 0.1063321
0.1084707 0.1084707 0.1084707
0.1106470 0.1106470 0.1106470
0.1106470 0.1106470 0.1106470
0.1129241 0.1129241 0.1129241
0.1152420 0.1152420 0.1152420
0.1176012 0.1176012 0.1176012
0.1200021 0.1200021 0.1200021
0.1200021 0.1200021 0.1200021
0.1224452 0.1224452 0.1224452
0.1249310 0.1249310 0.1249310
0.1249310 0.1249310 0.1249310
0.1274600 0.1274600 0.1274600
0.1300325 0.1300325 0.1300325
0.1326490 0.1326490 0.1326490
0.1326490 0.1326490 0.1326490
0.1353101 0.1353101 0.1353101
0.0202614 0.0202614 0.0202614
0.0219055 0.0219055 0.0219055
0.0239937 0.0239937 0.0239937
0.0258224 0.0258224 0.0258224
0.0278213 0.0278213 0.0278213
0.0299970 0.0299970 0.0299970
0.0317362 0.0317362 0.0317362
0.0342665 0.0342665 0.0342665
0.0356138 0.0356138 0.0356138
0.0377309 0.0377309 0.0377309
0.0399711 0.0399711 0.0399711
0.0415410 0.0415410 0.0415410
0.0440069 0.0440069 0.0440069
0.0457277 0.0457277 0.0457277
0.0475125 0.0475125 0.0475125
0.0494242 0.0494242 0.0494242
0.0514402 0.0514402 0.0514402
0.0535338 0.0535338 0.0535338
0.0557077 0.0557077 0.0557077
0.0568255 0.0568255 0.0568255
0.0591247 0.0591247 0.0591247
0.0603248 0.0603248 0.0603248
0.0627938 0.0627938 0.0627938
0.0653568 0.0653568 0.0653568
0.0666745 0.0666745 0.0666745
0.0680168 0.0680168 0.0680168
0.0707769 0.0707769 0.0707769
0.0721954 0.0721954 0.0721954
0.0736877 0.0736877 0.0736877
0.0768071 0.0768071 0.0768071
0.0784118 0.0784118 0.0784118
0.0800471 0.0800471 0.0800471
0.0817135 0.0817135 0.0817135
0.0834115 0.0834115 0.0834115
0.0851415 0.0851415 0.0851415
0.0869039 0.0869039 0.0869039
0.0886993 0.0886993 0.0886993
0.0905252 0.0905252 0.0905252
0.0923787 0.0923787 0.0923787
0.0942663 0.0942663 0.0942663
0.0961884 0.0961884 0.0961884
0.0981454 0.0981454 0.0981454
0.1001378 0.1001378 0.1001378
0.1021661 0.1021661 0.1021661
0.1042307 0.1042307 0.1042307
0.1063321 0.1063321 0.1063321
0.1084707 0.1084707 0.1084707
0.1106470 0.1106470 0.1106470
0.1106470 0.1106470 0.1106470
0.1129241 0.1129241 0.1129241
0.1152420 0.1152420 0.1152420
0.1176012 0.1176012 0.1176012
0.1200021 0.1200021 0.1200021
0.1200021 0.1200021 0.1200021
0.1224452 0.1224452 0.1224452
0.1249310 0.1249310 0.1249310
0.1249310 0.1249310 0.1249310
0.1274600 0.1274600 0.1274600
0.1300325 0.1300325 0.1300325
0.1326490 0.1326490 0.1326490
0.1326490 0.1326490 0.1326490
0.1353101 0.1353101 0.1353101
0.1380495 0.1380495 0.1380495
0.1380495 0.1380495 0.1380495
0.0239937 0.0239937 0.0239937
0.0258224 0.0258224 0.0258224
0.0278213 0.0278213 0.0278213
0.0299970 0.0299970 0.0299970
0.0317362 0.0317362 0.0317362
0.0342665 0.0342665 0.0342665
0.0356138 0.0356138 0.0356138
0.0377309 0.0377309 0.0377309
0.0399711 0.0399711 0.0399711
0.0415410 0.0415410 0.0415410
0.0440069 0.0440069 0.0440069
0.0457277 0.0457277 0.0457277
0.0475125 0.0475125 0.0475125
0.0494242 0.0494242 0.0494242
0.0514402 0.0514402 0.0514402
0.0535338 0.0535338 0.0535338
0.0557077 0.0557077 0.0557077
0.0568255 0.0568255 0.0568255
0.0591247 0.0591247 0.0591247
0.0603248 0.0603248 0.0603248
0.0627938 0.0627938 0.0627938
0.0653568 0.0653568 0.0653568
0.0666745 0.0666745 0.0666745
0.0680168 0.0680168 0.0680168
0.0707769 0.0707769 0.0707769
0.0721954 0.0721954 0.0721954
0.0736877 0.0736877 0.0736877
0.0768071 0.0768071 0.0768071
0.0784118 0.0784118 0.0784118
0.0800471 0.0800471 0.0800471
0.0817135 0.0817135 0.0817135
0.0834115 0.0834115 0.0834115
0.0851415 0.0851415 0.0851415
0.0869039 0.0869039 0.0869039
0.0886993 0.0886993 0.0886993
0.0905252 0.0905252 0.0905252
0.0923787 0.0923787 0.0923787
0.0942663 0.0942663 0.0942663
0.0961884 0.0961884 0.0961884
0.0981454 0.0981454 0.0981454
0.1001378 0.1001378 0.1001378
0.1021661 0.1021661 0.1021661
0.1042307 0.1042307 0.1042307
0.1063321 0.1063321 0.1063321
0.1084707 0.1084707 0.1084707
0.1106470 0.1106470 0.1106470
0.1106470 0.1106470 0.1106470
0.1129241 0.1129241 0.1129241
0.1152420 0.1152420 0.1152420
0.1176012 0.1176012 0.1176012
0.1200021 0.1200021 0.1200021
0.1200021 0.1200021 0.1200021
0.1224452 0.1224452 0.1224452
0.1249310 0.1249310 0.1249310
0.1249310 0.1249310 0.1249310
0.1274600 0.1274600 0.1274600
0.1300325 0.1300325 0.1300325
0.1326490 0.1326490 0.1326490
0.1326490 0.1326490 0.1326490
0.1353101 0.1353101 0.1353101
0.1380495 0.1380495 0.1380495
0.1380495 0.1380495 0.1380495
0.1408524 0.1408524 0.1408524
0.1408524 0.1408524 0.1408524
0.0278213 0.0278213 0.0278213
0.0299970 0.0299970 0.0299970
0.0317362 0.0317362 0.0317362
0.0342665 0.0342665 0.0342665
0.0363065 0.0363065 0.0363065
0.0377309 0.0377309 0.0377309
0.0399711 0.0399711 0.0399711
0.0415410 0.0415410 0.0415410
0.0440069 0.0440069 0.0440069
0.0457277 0.0457277 0.0457277
0.0475125 0.0475125 0.0475125
0.0494242 0.0494242 0.0494242
0.0514402 0.0514402 0.0514402
0.0535338 0.0535338 0.0535338
0.0557077 0.0557077 0.0557077
0.0568255 0.0568255 0.0568255
0.0591247 0.0591247 0.0591247
0.0603248 0.0603248 0.0603248
0.0627938 0.0627938 0.0627938
0.0653568 0.0653568 0.0653568
0.0666745 0.0666745 0.0666745
0.0680168 0.0680168 0.0680168
0.0707769 0.0707769 0.0707769
0.0721954 0.0721954 0.0721954
0.0736877 0.0736877 0.0736877
0.0768071 0.0768071 0.0768071
0.0784118 0.0784118 0.0784118
0.0800471 0.0800471 0.0800471
0.0817135 0.0817135 0.0817135
0.0834115 0.0834115 0.0834115
0.0851415 0.0851415 0.0851415
0.0869039 0.0869039 0.0869039
0.0886993 0.0886993 0.0886993
0.0905252 0.0905252 0.0905252
0.0923787 0.0923787 0.0923787
0.0942663 0.0942663 0.0942663
0.0961884 0.0961884 0.0961884
0.0981454 0.0981454 0.0981454
0.1001378 0.1001378 0.1001378
0.1021661 0.1021661 0.1021661
0.1042307 0.1042307 0.1042307
0.1063321 0.1063321 0.1063321
0.1084707 0.1084707 0.1084707
0.1106470 0.1106470 0.1106470
0.1106470 0.1106470 0.1106470
0.1129241 0.1129241 0.1129241
0.1152420 0.1152420 0.1152420
0.1176012 0.1176012 0.1176012
0.1200021 0.1200021 0.1200021
0.1200021 0.1200021 0.1200021
0.1224452 0.1224452 0.1224452
0.1249310 0.1249310 0.1249310
0.1249310 0.1249310 0.1249310
0.1274600 0.1274600 0.1274600
0.1300325 0.1300325 0.1300325
0.1326490 0.1326490 0.1326490
0.1326490 0.1326490 0.1326490
0.1353101 0.1353101 0.1353101
0.1380495 0.1380495 0.1380495
0.1380495 0.1380495 0.1380495
0.1408524 0.1408524 0.1408524
0.1408524 0.1408524 0.1408524
0.1437027 0.1437027 0.1437027
0.1466009 0.1466009 0.1466009
0.0317362 0.0317362 0.0317362
0.0342665 0.0342665 0.0342665
0.0363065 0.0363065 0.0363065
0.0377309 0.0377309 0.0377309
0.0399711 0.0399711 0.0399711
0.0415410 0.0415410 0.0415410
0.0440069 0.0440069 0.0440069
0.0457277 0.0457277 0.0457277
0.0475125 0.0475125 0.0475125
0.0494242 0.0494242 0.0494242
0.0514402 0.0514402 0.0514402
0.0535338 0.0535338 0.0535338
0.0557077 0.0557077 0.0557077
0.0568255 0.0568255 0.0568255
0.0591247 0.0591247 0.0591247
0.0615478 0.0615478 0.0615478
0.0627938 0.0627938 0.0627938
0.0653568 0.0653568 0.0653568
0.0666745 0.0666745 0.0666745
0.0680168 0.0680168 0.0680168
0.0707769 0.0707769 0.0707769
0.0721954 0.0721954 0.0721954
0.0736877 0.0736877 0.0736877
0.0768071 0.0768071 0.0768071
0.0784118 0.0784118 0.0784118
0.0800471 0.0800471 0.0800471
0.0817135 0.0817135 0.0817135
0.0834115 0.0834115 0.0834115
0.0851415 0.0851415 0.0851415
0.0869039 0.0869039 0.0869039
0.0886993 0.0886993 0.0886993
0.0905252 0.0905252 0.0905252
0.0923787 0.0923787 0.0923787
0.0942663 0.0942663 0.0942663
0.0961884 0.0961884 0.0961884
0.0981454 0.0981454 0.0981454
0.1001378 0.1001378 0.1001378
0.1021661 0.1021661 0.1021661
0.1042307 0.1042307 0.1042307
0.1063321 0.1063321 0.1063321
0.1084707 0.1084707 0.1084707
0.1106470 0.1106470 0.1106470
0.1106470 0.1106470 0.1106470
0.1129241 0.1129241 0.1129241
0.1152420 0.1152420 0.1152420
0.1176012 0.1176012 0.1176012
0.1200021 0.1200021 0.1200021
0.1200021 0.1200021 0.1200021
0.1224452 0.1224452 0.1224452
0.1249310 0.1249310 0.1249310
0.1249310 0.1249310 0.1249310
0.1274600 0.1274600 0.1274600
0.1300325 0.1300325 0.1300325
0.1326490 0.1326490 0.1326490
0.1326490 0.1326490 0.1326490
0.1353101 0.1353101 0.1353101
0.1380495 0.1380495 0.1380495
0.1380495 0.1380495 0.1380495
0.1408524 0.1408524 0.1408524
0.1408524 0.1408524 0.1408524
0.1437027 0.1437027 0.1437027
0.1466009 0.1466009 0.1466009
0.1466009 0.1466009 0.1466009
0.1495474 0.1495474 0.1495474
0.0363065 0.0363065 0.0363065
0.0377309 0.0377309 0.0377309
0.0399711 0.0399711 0.0399711
0.0415410 0.0415410 0.0415410
0.0440069 0.0440069 0.0440069
0.0457277 0.0457277 0.0457277
0.0475125 0.0475125 0.0475125
0.0494242 0.0494242 0.0494242
0.0514402 0.0514402 0.0514402
0.0535338 0.0535338 0.0535338
0.0557077 0.0557077 0.0557077
0.0568255 0.0568255 0.0568255
0.0591247 0.0591247 0.0591247
0.0615478 0.0615478 0.0615478
0.0627938 0.0627938 0.0627938
0.0653568 0.0653568 0.0653568
0.0666745 0.0666745 0.0666745
0.0680168 0.0680168 0.0680168
0.0707769 0.0707769 0.0707769
0.0721954 0.0721954 0.0721954
0.0736877 0.0736877 0.0736877
0.0768071 0.0768071 0.0768071
0.0784118 0.0784118 0.0784118
0.0800471 0.0800471 0.0800471
0.0817135 0.0817135 0.0817135
0.0834115 0.0834115 0.0834115
0.0851415 0.0851415 0.0851415
0.0869039 0.0869039 0.0869039
0.0886993 0.0886993 0.0886993
0.0905252 0.0905252 0.0905252
0.0923787 0.0923787 0.0923787
0.0942663 0.0942663 0.0942663
0.0961884 0.0961884 0.0961884
0.0981454 0.0981454 0.0981454
0.1001378 0.1001378 0.1001378
0.1021661 0.1021661 0.1021661
0.1042307 0.1042307 0.1042307
0.1063321 0.1063321 0.1063321
0.1084707 0.1084707 0.1084707
0.1106470 0.1106470 0.1106470
0.1106470 0.1106470 0.1106470
0.1129241 0.1129241 0.1129241
0.1152420 0.1152420 0.1152420
0.1176012 0.1176012 0.1176012
0.1200021 0.1200021 0.1200021
0.1200021 0.1200021 0.1200021
0.1224452 0.1224452 0.1224452
0.1249310 0.1249310 0.1249310
0.1249310 0.1249310 0.1249310
0.1274600 0.1274600 0.1274600
0.1300325 0.1300325 0.1300325
0.1326490 0.1326490 0.1326490
0.1326490 0.1326490 0.1326490
0.1353101 0.1353101 0.1353101
0.1380495 0.1380495 0.1380495
0.1380495 0.1380495 0.1380495
0.1408524 0.1408524 0.1408524
0.1408524 0.1408524 0.1408524
0.1437027 0.1437027 0.1437027
0.1466009 0.1466009 0.1466009
0.1466009 0.1466009 0.1466009
0.1495474 0.1495474 0.1495474
0.1495474 0.1495474 0.1495474
0.1525424 0.1525424 0.1525424
0.0399711 0.0399711 0.0399711
0.0415410 0.0415410 0.0415410
0.0440069 0.0440069 0.0440069
0.0457277 0.0457277 0.0457277
0.0475125 0.0475125 0.0475125
0.0494242 0.0494242 0.0494242
0.0514402 0.0514402 0.0514402
0.0535338 0.0535338 0.0535338
0.0557077 0.0557077 0.0557077
0.0568255 0.0568255 0.0568255
0.0591247 0.0591247 0.0591247
0.0615478 0.0615478 0.0615478
0.0627938 0.0627938 0.0627938
0.0653568 0.0653568 0.0653568
0.0666745 0.0666745 0.0666745
0.0680168 0.0680168 0.0680168
0.0707769 0.0707769 0.0707769
0.0721954 0.0721954 0.0721954
0.0736877 0.0736877 0.0736877
0.0768071 0.0768071 0.0768071
0.0784118 0.0784118 0.0784118
0.0800471 0.0800471 0.0800471
0.0817135 0.0817135 0.0817135
0.0834115 0.0834115 0.0834115
0.0851415 0.0851415 0.0851415
0.0869039 0.0869039 0.0869039
0.0886993 0.0886993 0.0886993
0.0905252 0.0905252 0.0905252
0.0923787 0.0923787 0.0923787
0.0942663 0.0942663 0.0942663
0.0961884 0.0961884 0.0961884
0.0981454 0.0981454 0.0981454
0.1001378 0.1001378 0.1001378
0.1021661 0.1021661 0.1021661
0.1042307 0.1042307 0.1042307
0.1063321 0.1063321 0.1063321
0.1084707 0.1084707 0.1084707
0.1106470 0.1106470 0.1106470
0.1106470 0.1106470 0.1106470
0.1129241 0.1129241 0.1129241
0.1152420 0.1152420 0.1152420
0.1176012 0.1176012 0.1176012
0.1200021 0.1200021 0.1200021
0.1200021 0.1200021 0.1200021
0.1224452 0.1224452 0.1224452
0.1249310 0.1249310 0.1249310
0.1249310 0.1249310 0.1249310
0.1274600 0.1274600 0.1274600
0.1300325 0.1300325 0.1300325
0.1326490 0.1326490 0.1326490
0.1326490 0.1326490 0.1326490
0.1353101 0.1353101 0.1353101
0.1380495 0.1380495 0.1380495
0.1380495 0.1380495 0.1380495
0.1408524 0.1408524 0.1408524
0.1408524 0.1408524 0.1408524
0.1437027 0.1437027 0.1437027
0.1466009 0.1466009 0.1466009
0.1466009 0.1466009 0.1466009
0.1495474 0.1495474 0.1495474
0.1495474 0.1495474 0.1495474
0.1525424 0.1525424 0.1525424
0.1555864 0.1555864 0.1555864
0.1555864 0.1555864 0.1555864
0.0440069 0.0440069 0.0440069
0.0457277 0.0457277 0.0457277
0.0475125 0.0475125 0.0475125
0.0494242 0.0494242 0.0494242
0.0514402 0.0514402 0.0514402
0.0535338 0.0535338 0.0535338
0.0557077 0.0557077 0.0557077
0.0568255 0.0568255 0.0568255
0.0591247 0.0591247 0.0591247
0.0615478 0.0615478 0.0615478
0.0627938 0.0627938 0.0627938
0.0653568 0.0653568 0.0653568
0.0666745 0.0666745 0.0666745
0.0680168 0.0680168 0.0680168
0.0707769 0.0707769 0.0707769
0.0721954 0.0721954 0.0721954
0.0736877 0.0736877 0.0736877
0.0768071 0.0768071 0.0768071
0.0784118 0.0784118 0.0784118
0.0800471 0.0800471 0.0800471
0.0817135 0.0817135 0.0817135
0.0834115 0.0834115 0.0834115
0.0851415 0.0851415 0.0851415
0.0869039 0.0869039 0.0869039
0.0886993 0.0886993 0.0886993
0.0905252 0.0905252 0.0905252
0.0923787 0.0923787 0.0923787
0.0942663 0.0942663 0.0942663
0.0961884 0.0961884 0.0961884
0.0981454 0.0981454 0.0981454
0.1001378 0.1001378 0.1001378
0.1021661 0.1021661 0.1021661
0.1042307 0.1042307 0.1042307
0.1063321 0.1063321 0.1063321
0.1084707 0.1084707 0.1084707
0.1106470 0.1106470 0.1106470
0.1106470 0.1106470 0.1106470
0.1129241 0.1129241 0.1129241
0.1152420 0.1152420 0.1152420
0.1176012 0.1176012 0.1176012
0.1200021 0.1200021 0.1200021
0.1200021 0.1200021 0.1200021
0.1224452 0.1224452 0.1224452
0.1249310 0.1249310 0.1249310
0.1249310 0.1249310 0.1249310
0.1274600 0.1274600 0.1274600
0.1300325 0.1300325 0.1300325
0.1326490 0.1326490 0.1326490
0.1326490 0.1326490 0.1326490
0.1353101 0.1353101 0.1353101
0.1380495 0.1380495 0.1380495
0.1380495 0.1380495 0.1380495
0.1408524 0.1408524 0.1408524
0.1408524 0.1408524 0.1408524
0.1437027 0.1437027 0.1437027
0.1466009 0.1466009 0.1466009
0.1466009 0.1466009 0.1466009
0.1495474 0.1495474 0.1495474
0.1495474 0.1495474 0.1495474
0.1525424 0.1525424 0.1525424
0.1555864 0.1555864 0.1555864
0.1555864 0.1555864 0.1555864
0.1586799 0.1586799 0.1586799
0.1586799 0.1586799 0.1586799
0.0475125 0.0475125 0.0475125
0.0494242 0.0494242 0.0494242
0.0514402 0.0514402 0.0514402
0.0535338 0.0535338 0.0535338
0.0557077 0.0557077 0.0557077
0.0568255 0.0568255 0.0568255
0.0591247 0.0591247 0.0591247
0.0615478 0.0615478 0.0615478
0.0627938 0.0627938 0.0627938
0.0653568 0.0653568 0.0653568
0.0666745 0.0666745 0.0666745
0.0680168 0.0680168 0.0680168
0.0707769 0.0707769 0.0707769
0.0721954 0.0721954 0.0721954
0.0736877 0.0736877 0.0736877
0.0768071 0.0768071 0.0768071
0.0784118 0.0784118 0.0784118
0.0800471 0.0800471 0.0800471
0.0817135 0.0817135 0.0817135
0.0834115 0.0834115 0.0834115
0.0851415 0.0851415 0.0851415
0.0869039 0.0869039 0.0869039
0.0886993 0.0886993 0.0886993
0.0905252 0.0905252 0.0905252
0.0923787 0.0923787 0.0923787
0.0942663 0.0942663 0.0942663
0.0961884 0.0961884 0.0961884
0.0981454 0.0981454 0.0981454
0.1001378 0.1001378 0.1001378
0.1021661 0.1021661 0.1021661
0.1042307 0.1042307 0.1042307
0.1063321 0.1063321 0.1063321
0.1084707 0.1084707 0.1084707
0.1106470 0.1106470 0.1106470
0.1106470 0.1106470 0.1106470
0.1129241 0.1129241 0.1129241
0.1152420 0.1152420 0.1152420
0.1176012 0.1176012 0.1176012
0.1200021 0.1200021 0.1200021
0.1200021 0.1200021 0.1200021
0.1224452 0.1224452 0.1224452
0.1249310 0.1249310 0.1249310
0.1249310 0.1249310 0.1249310
0.1274600 0.1274600 0.1274600
0.1300325 0.1300325 0.1300325
0.1326490 0.1326490 0.1326490
0.1326490 0.1326490 0.1326490
0.1353101 0.1353101 0.1353101
0.1380495 0.1380495 0.1380495
0.1380495 0.1380495 0.1380495
0.1408524 0.1408524 0.1408524
0.1408524 0.1408524 0.1408524
0.1437027 0.1437027 0.1437027
0.1466009 0.1466009 0.1466009
0.1466009 0.1466009 0.1466009
0.1495474 0.1495474 0.1495474
0.1495474 0.1495474 0.1495474
0.1525424 0.1525424 0.1525424
0.1555864 0.1555864 0.1555864
0.1555864 0.1555864 0.1555864
0.1586799 0.1586799 0.1586799
0.1586799 0.1586799 0.1586799
0.1618230 0.1618230 0.1618230
0.1618230 0.1618230 0.1618230
0.0514402 0.0514402 0.0514402
0.0535338 0.0535338 0.0535338
0.0557077 0.0557077 0.0557077
0.0568255 0.0568255 0.0568255
0.0591247 0.0591247 0.0591247
0.0615478 0.0615478 0.0615478
0.0627938 0.0627938 0.0627938
0.0653568 0.0653568 0.0653568
0.0666745 0.0666745 0.0666745
0.0680168 0.0680168 0.0680168
0.0707769 0.0707769 0.0707769
0.0721954 0.0721954 0.0721954
0.0736877 0.0736877 0.0736877
0.0768071 0.0768071 0.0768071
0.0784118 0.0784118 0.0784118
0.0800471 0.0800471 0.0800471
0.0817135 0.0817135 0.0817135
0.0834115 0.0834115 0.0834115
0.0851415 0.0851415 0.0851415
0.0869039 0.0869039 0.0869039
0.0886993 0.0886993 0.0886993
0.0905252 0.0905252 0.0905252
0.0923787 0.0923787 0.0923787
0.0942663 0.0942663 0.0942663
0.0961884 0.0961884 0.0961884
0.0981454 0.0981454 0.0981454
0.1001378 0.1001378 0.1001378
0.1021661 0.1021661 0.1021661
0.1042307 0.1042307 0.1042307
0.1063321 0.1063321 0.1063321
