Plugins/FilmEmulator/Content/LUTs/FE_Kodak_Vision2_100T_5212_64.cube
# FilmEmulator LUT (resampled to 64)
LUT_3D_SIZE 8
0.000000 0.000000 0.000000
0.093157 0.000000 0.004281
0.188154 0.000000 0.008746
0.283509 0.000000 0.013240
0.380785 0.000000 0.017844
0.480735 0.000000 0.022674
0.587489 0.000000 0.027793
0.702362 0.000000 0.033447
0.009591 0.116883 0.004761
0.135209 0.088937 0.000000
0.250381 0.068597 0.000000
0.365519 0.042012 0.008298
0.409753 0.036708 0.020867
0.482782 0.036708 0.022831
0.589366 0.036708 0.027942
0.704040 0.036708 0.033587
0.060652 0.234602 0.052656
0.124801 0.228755 0.026017
0.270309 0.206294 0.003143
0.368277 0.188583 0.000000
0.455010 0.191844 0.000000
0.627629 0.145863 0.000000
0.803670 0.086002 0.000785
0.801370 0.075440 0.035313
0.138397 0.381609 0.127493
0.182845 0.373208 0.124045
0.269887 0.368793 0.094126
0.415293 0.349705 0.038964
0.524789 0.328921 0.000000
0.614578 0.327263 0.000000
0.707660 0.329509 0.000000
0.851454 0.300798 0.000000
0.226763 0.539925 0.212515
0.260447 0.531821 0.219039
0.326081 0.529620 0.166920
0.424786 0.512162 0.177560
0.562688 0.497573 0.097403
0.684660 0.481925 0.000339
0.777706 0.464746 0.000000
0.867022 0.469556 0.000000
0.308472 0.692234 0.290929
0.334554 0.685753 0.295906
0.389723 0.678894 0.269460
0.470354 0.674148 0.205036
0.576565 0.647413 0.241366
0.716197 0.638095 0.111718
0.853343 0.603786 0.000000
0.934352 0.594935 0.000000
0.377925 0.834525 0.357374
0.399478 0.829268 0.361178
0.450253 0.819885 0.355038
0.518169 0.818487 0.278724
0.612060 0.801627 0.265914
0.730599 0.778582 0.252330
0.873657 0.773793 0.046955
0.994049 0.726554 0.000000
0.437866 0.978210 0.413361
0.456416 0.973934 0.416163
0.502803 0.963423 0.420951
0.565408 0.962629 0.353454
0.651581 0.960737 0.263720
0.757765 0.930852 0.299290
0.895116 0.917856 0.133104
0.981476 0.893005 0.000000
0.000000 0.042450 0.112218
0.071326 0.025700 0.055622
0.183274 0.006965 0.040848
0.282640 0.000000 0.049895
0.380135 0.000000 0.054500
0.480229 0.000000 0.059346
0.587019 0.000000 0.064466
0.701939 0.000000 0.070138
0.000000 0.133361 0.068194
0.108143 0.109008 0.087514
0.258405 0.076577 0.036708
0.366149 0.047364 0.044050
0.418714 0.036708 0.058807
0.482279 0.036708 0.059503
0.588899 0.036708 0.064610
0.703631 0.036708 0.070254
0.043475 0.253640 0.088812
0.121693 0.234972 0.102960
0.260476 0.220314 0.079241
0.369790 0.204917 0.040883
0.454592 0.194678 0.036708
0.622563 0.151696 0.036708
0.801564 0.091704 0.036719
0.819750 0.076319 0.070962
0.132803 0.393150 0.152778
0.179910 0.381451 0.162414
0.270585 0.377607 0.134919
0.421881 0.353507 0.103071
0.516901 0.348579 0.056860
0.615224 0.328608 0.036708
0.707283 0.331539 0.036708
0.849745 0.303775 0.036708
0.222989 0.548515 0.230923
0.257087 0.540300 0.238052
0.325918 0.533093 0.211635
0.425583 0.518309 0.218640
0.565654 0.500421 0.158906
0.679476 0.494358 0.058354
0.779241 0.465997 0.036708
0.867370 0.470507 0.036708
0.305396 0.698618 0.305065
0.331648 0.692113 0.310236
0.389167 0.681503 0.300551
0.470449 0.678438 0.237146
0.576598 0.651423 0.286204
0.716943 0.640244 0.173284
0.847105 0.622323 0.036708
0.937435 0.596548 0.036708
0.375333 0.839564 0.369150
0.396977 0.834293 0.373083
0.449538 0.821948 0.378291
0.517779 0.820219 0.311971
0.612133 0.805521 0.297271
0.730172 0.781011 0.303305
0.873954 0.775646 0.117417
0.997989 0.729092 0.036708
0.435534 0.982269 0.423828
0.454105 0.978013 0.426758
0.500732 0.967150 0.433187
0.564762 0.963881 0.380104
0.651173 0.962738 0.295469
0.757579 0.934169 0.334922
0.894335 0.919589 0.203272
0.984327 0.896502 0.036708
0.000000 0.078661 0.255803
0.019088 0.088920 0.192821
0.144504 0.053996 0.116417
0.227283 0.040745 0.116729
0.388611 0.003723 0.086391
0.478917 0.000000 0.095961
0.585798 0.000000 0.101109
0.700849 0.000000 0.106763
0.000000 0.153812 0.181338
0.010696 0.165575 0.210159
0.178020 0.132207 0.160668
0.300656 0.111224 0.114580
0.440986 0.041881 0.081052
0.482171 0.036708 0.096215
0.587675 0.036708 0.101236
0.702539 0.036708 0.106892
0.007460 0.293317 0.160806
0.081768 0.275805 0.176328
0.238491 0.238366 0.208473
0.387078 0.220394 0.151318
0.523619 0.195276 0.076927
0.619223 0.162468 0.073417
0.791339 0.107990 0.073439
0.862667 0.078498 0.092930
0.082982 0.439954 0.201678
0.157080 0.414674 0.217872
0.270763 0.390723 0.240629
0.414331 0.370378 0.217164
0.522287 0.358975 0.189930
0.606672 0.354884 0.144531
0.708068 0.335902 0.073417
0.845148 0.311553 0.073417
0.209405 0.571788 0.273661
0.248125 0.561443 0.282207
0.324118 0.543782 0.296390
0.427242 0.533515 0.276643
0.576922 0.507416 0.240104
0.673819 0.502371 0.196663
0.773632 0.492528 0.095589
0.868764 0.472993 0.073417
0.297387 0.714749 0.339773
0.324073 0.708195 0.345369
0.385139 0.692552 0.355990
0.470058 0.685031 0.313592
0.577047 0.662187 0.346687
0.718679 0.645866 0.266013
0.836663 0.639213 0.151637
0.947492 0.601109 0.073417
0.368702 0.852415 0.398697
0.390532 0.847109 0.402918
0.444067 0.833789 0.412460
0.516712 0.824757 0.379180
0.612272 0.815491 0.341906
0.728824 0.787415 0.380145
0.874835 0.779836 0.222327
1.000000 0.735940 0.073417
0.429648 0.992676 0.450409
0.448262 0.988430 0.453598
0.495061 0.977552 0.460856
0.563122 0.967173 0.438936
0.649921 0.966813 0.358013
0.757075 0.942597 0.384799
0.892518 0.924106 0.307176
0.991952 0.905753 0.073417
0.000000 0.111782 0.412785
0.000000 0.114317 0.400355
0.157802 0.112991 0.179670
0.225025 0.091551 0.184682
0.302065 0.063160 0.182443
0.394291 0.064540 0.165719
0.604211 0.006988 0.119701
0.698826 0.000000 0.143345
0.000000 0.182083 0.327127
0.000000 0.190902 0.350195
0.148804 0.180236 0.262454
0.259741 0.168986 0.229578
0.342246 0.153354 0.227685
0.395190 0.107854 0.175487
0.594536 0.054168 0.116504
0.700518 0.036708 0.143472
0.000406 0.317024 0.273383
0.022133 0.332831 0.293850
0.158949 0.300103 0.336417
0.320839 0.272742 0.298541
0.467821 0.252773 0.238670
0.645506 0.209319 0.126616
0.846876 0.111323 0.110160
0.902733 0.090349 0.110161
0.067398 0.474873 0.287339
0.119777 0.464417 0.298914
0.232210 0.437324 0.326935
0.396048 0.394866 0.352434
0.538753 0.377536 0.307360
0.678407 0.357868 0.223695
0.818605 0.330262 0.123208
0.854093 0.310715 0.110134
0.127012 0.640921 0.327803
0.181736 0.622646 0.339885
0.303066 0.579788 0.369084
0.427759 0.550933 0.383391
0.574259 0.524962 0.358826
0.678048 0.514813 0.336628
0.767083 0.508545 0.297957
0.876531 0.489128 0.161866
0.250887 0.759220 0.389518
0.291877 0.745223 0.398118
0.373745 0.718446 0.415683
0.468134 0.696013 0.428650
0.578132 0.681120 0.416267
0.728054 0.655084 0.370536
0.829845 0.649367 0.314533
0.931969 0.640801 0.204437
0.351134 0.877522 0.446408
0.379217 0.868986 0.452095
0.433832 0.855379 0.462911
0.513205 0.835285 0.473524
0.611783 0.828588 0.420398
0.726791 0.800188 0.471654
0.876313 0.787188 0.349465
0.998202 0.780145 0.181023
0.420135 1.000000 0.495274
0.438783 1.000000 0.498796
0.485701 0.995238 0.506915
0.557694 0.977879 0.514771
0.647492 0.971833 0.461778
0.755959 0.956821 0.447838
0.889143 0.932076 0.432648
1.000000 0.927202 0.232575
0.000000 0.160318 0.552128
0.000000 0.156012 0.552882
0.005296 0.216179 0.470007
0.261107 0.164417 0.252072
0.319100 0.143742 0.267789
0.377758 0.092794 0.251032
0.469172 0.097682 0.252709
0.574136 0.098794 0.223345
0.000000 0.224104 0.487504
0.000000 0.221088 0.487796
0.004504 0.278204 0.496652
0.288530 0.220616 0.292585
0.352057 0.216832 0.309830
0.428340 0.193427 0.306558
0.472248 0.137549 0.256410
0.567283 0.139856 0.234757
0.000000 0.345236 0.401445
0.000000 0.369238 0.420422
0.017356 0.403317 0.493329
0.316359 0.320429 0.392746
0.408608 0.319049 0.378138
0.494437 0.311419 0.379659
0.623490 0.277728 0.302902
0.723205 0.211438 0.189347
0.034092 0.517652 0.405972
0.086699 0.511104 0.421164
0.192941 0.491886 0.446995
0.334924 0.456047 0.486639
0.482102 0.431277 0.454570
0.637257 0.408165 0.382166
0.813104 0.371519 0.270385
0.990360 0.307712 0.152803
0.141141 0.661145 0.426971
0.179201 0.653402 0.435358
0.262284 0.635108 0.452482
0.391619 0.598024 0.483634
0.554119 0.552439 0.501931
0.692725 0.532706 0.459033
0.833107 0.513372 0.376875
0.984358 0.483024 0.260744
0.166903 0.830555 0.452671
0.203475 0.819516 0.460515
0.299973 0.786974 0.481065
0.449271 0.731593 0.516182
0.578504 0.701327 0.524006
0.730299 0.671851 0.493767
0.828211 0.664125 0.477184
0.924478 0.654846 0.427052
0.272770 0.942124 0.502497
0.306243 0.930837 0.509522
0.388552 0.902579 0.526337
0.500559 0.863461 0.550704
0.609429 0.839842 0.559316
0.726112 0.821881 0.555828
0.879875 0.797821 0.490313
0.990612 0.791626 0.402417
0.367941 1.000000 0.551291
0.395881 1.000000 0.556842
0.466146 1.000000 0.570140
0.545910 0.999393 0.584404
0.643532 0.980422 0.592962
0.753732 0.975751 0.527420
0.882569 0.944533 0.573089
1.000000 0.936462 0.418932
0.000000 0.238141 0.713157
0.000000 0.234270 0.713344
0.000031 0.256715 0.722338
0.147492 0.288667 0.511103
0.370351 0.236256 0.355197
0.429000 0.213787 0.369636
0.470029 0.146762 0.341137
0.557395 0.134286 0.338187
0.000000 0.293435 0.666502
0.000000 0.290088 0.666050
0.000029 0.316774 0.714814
0.142719 0.339063 0.569752
0.395697 0.286560 0.386104
0.456391 0.277697 0.403847
0.522268 0.247243 0.398106
0.559306 0.172379 0.340033
0.000000 0.409058 0.576445
0.000000 0.406866 0.575613
0.000028 0.452665 0.655671
0.141832 0.444424 0.642553
0.447564 0.371776 0.448210
0.507369 0.373649 0.466727
0.585554 0.360039 0.467607
0.655388 0.329330 0.442318
0.000000 0.563457 0.540240
0.000000 0.587342 0.558555
0.040810 0.608633 0.592838
0.196508 0.564928 0.659195
0.474670 0.484527 0.565418
0.568461 0.480912 0.540096
0.651728 0.473831 0.538422
0.786180 0.442333 0.467503
0.125458 0.699682 0.556219
0.162672 0.693709 0.565985
0.244043 0.679069 0.585909
0.358006 0.652671 0.613362
0.493861 0.615713 0.647289
0.638563 0.588614 0.611939
0.787002 0.565528 0.540380
0.963735 0.527787 0.429616
0.223346 0.831288 0.571950
0.251327 0.825471 0.578056
0.317101 0.811286 0.591757
0.414936 0.786364 0.613793
0.541325 0.751539 0.639895
0.704840 0.703570 0.658898
0.846323 0.682014 0.606961
0.994929 0.659346 0.515127
0.239515 0.985927 0.591422
0.260446 0.983410 0.595692
0.313742 0.973821 0.606223
0.421967 0.938133 0.630504
0.586368 0.879066 0.665181
0.725561 0.845316 0.671487
0.885795 0.813860 0.629119
0.978073 0.808822 0.615642
0.290257 1.000000 0.623753
0.316639 1.000000 0.629377
0.383335 1.000000 0.642988
0.492072 1.000000 0.666174
0.631342 0.999958 0.692500
0.749399 0.985909 0.697790
0.875550 0.967424 0.691602
1.000000 0.948495 0.604331
0.000000 0.378523 0.840484
0.000000 0.375146 0.840118
0.000004 0.366498 0.840841
0.001152 0.437226 0.840716
0.319967 0.372165 0.590677
0.498864 0.329541 0.480794
0.557288 0.306631 0.494817
0.605290 0.253518 0.478782
0.000000 0.420690 0.823193
0.000000 0.417573 0.822592
0.000020 0.410365 0.825007
0.001152 0.480225 0.855409
0.316046 0.414406 0.639631
0.517820 0.372399 0.503768
0.576960 0.359236 0.519221
0.634315 0.325040 0.513499
0.000000 0.516875 0.782749
0.000000 0.514310 0.781763
0.000018 0.518801 0.807804
0.001152 0.575047 0.884402
0.311649 0.495844 0.740667
0.558348 0.444969 0.552726
0.617017 0.440748 0.568833
0.683318 0.422065 0.569467
0.000000 0.651365 0.724415
0.000000 0.650458 0.723849
0.000012 0.680638 0.769830
0.043860 0.697798 0.843157
0.310457 0.611925 0.816793
0.606676 0.537401 0.624772
0.668975 0.538047 0.632856
0.741750 0.527208 0.633622
0.008201 0.808986 0.712208
0.024817 0.812546 0.721379
0.101318 0.800426 0.741740
0.213560 0.777055 0.773161
0.359231 0.729357 0.832771
0.616197 0.651923 0.752652
0.727004 0.641511 0.702841
0.803222 0.635296 0.701151
0.225762 0.875922 0.721520
0.249103 0.871959 0.727487
0.305467 0.861834 0.741353
0.392219 0.844400 0.761493
0.502989 0.815061 0.787577
0.632063 0.778738 0.821553
0.788767 0.745708 0.773783
0.907179 0.730271 0.727596
0.349435 0.976321 0.735846
0.368207 0.972501 0.739982
0.414993 0.962748 0.749992
0.490145 0.946199 0.765513
0.586483 0.920507 0.787623
0.701552 0.892276 0.808426
0.851667 0.851760 0.821954
1.000000 0.824971 0.746666
0.409646 1.000000 0.766126
0.420988 1.000000 0.768347
0.450115 1.000000 0.773894
0.499527 1.000000 0.782872
0.572455 1.000000 0.797939
0.714956 1.000000 0.823654
0.869702 0.991899 0.834480
1.000000 0.962586 0.774192
0.000000 0.606964 1.000000
0.000000 0.602543 1.000000
0.000031 0.590510 1.000000
0.000031 0.583897 1.000000
0.118186 0.580876 0.967538
0.485181 0.478659 0.705314
0.637935 0.439998 0.620487
0.695770 0.417603 0.635223
0.000000 0.635311 1.000000
0.000000 0.631092 1.000000
0.000016 0.619699 1.000000
0.000031 0.611726 1.000000
0.121828 0.611249 0.977565
0.482359 0.512369 0.738459
0.650444 0.475191 0.635687
0.708156 0.459926 0.650753
0.000000 0.704236 0.999529
0.000000 0.700440 0.999193
0.000004 0.690206 0.994726
0.000031 0.683790 1.000000
0.133660 0.676634 0.995100
0.478208 0.576792 0.814177
0.679965 0.534081 0.671361
0.737013 0.525756 0.686506
0.000000 0.812814 0.958318
0.000000 0.809495 0.956290
0.000031 0.802027 0.955737
0.000031 0.810576 1.000000
0.159614 0.768430 1.000000
0.478316 0.665987 0.917972
0.724227 0.612427 0.724219
0.779358 0.610068 0.738709
0.073600 0.913670 0.892953
0.071457 0.913108 0.893199
0.094057 0.906485 0.911396
0.143936 0.891160 0.953910
0.261261 0.853556 0.998916
0.485210 0.779240 0.979892
0.756670 0.708076 0.810572
0.830017 0.704302 0.800384
0.293043 0.955549 0.887138
0.299952 0.954561 0.890053
0.319139 0.951757 0.898255
0.354236 0.946288 0.913668
0.416432 0.927210 0.948672
0.536251 0.887024 0.996505
0.758273 0.818987 0.937681
0.884692 0.802024 0.865548
0.454193 0.996129 0.869202
0.464388 0.995483 0.873042
0.490794 0.993153 0.883022
0.536025 0.988094 0.900236
0.597803 0.977903 0.926091
0.671947 0.963601 0.955864
0.778446 0.934243 0.992156
0.939736 0.898891 0.930250
0.529144 1.000000 0.859192
0.540693 1.000000 0.862562
0.570565 1.000000 0.871325
0.621900 1.000000 0.886366
0.690508 1.000000 0.909572
0.777161 1.000000 0.938228
0.880781 1.000000 0.967774
0.996796 0.996796 0.996826
