Plugins/FilmEmulator/Content/LUTs/FE_Kodak_Polymax_Grade_2_64.cube
TITLE "FE_Kodak_Polymax_Grade_2_33"
LUT_3D_SIZE 4
0.0021400 0.0021400 0.0021400
0.0021400 0.0021400 0.0021400
0.0021700 0.0021700 0.0021700
0.0022670 0.0022670 0.0022670
0.0087051 0.0087051 0.0087051
0.0129829 0.0129829 0.0129829
0.0187428 0.0187428 0.0187428
0.0269195 0.0269195 0.0269195
0.0866848 0.0866848 0.0866848
0.1068273 0.1068273 0.1068273
0.1340455 0.1340455 0.1340455
0.1610876 0.1610876 0.1610876
0.2960581 0.2960581 0.2960581
0.3306661 0.3306661 0.3306661
0.3692083 0.3692083 0.3692083
0.4071073 0.4071073 0.4071073
0.4694416 0.4694416 0.4694416
0.5174472 0.5174472 0.5174472
0.5594620 0.5594620 0.5594620
0.6020896 0.6020896 0.6020896
0.7590684 0.7590684 0.7590684
0.7854491 0.7854491 0.7854491
0.8096380 0.8096380 0.8096380
0.8315222 0.8315222 0.8315222
0.8982478 0.8982478 0.8982478
0.9082326 0.9082326 0.9082326
0.9171306 0.9171306 0.9171306
0.9251468 0.9251468 0.9251468
0.9512304 0.9512304 0.9512304
0.9557085 0.9557085 0.9557085
0.9588069 0.9588069 0.9588069
0.9620876 0.9620876 0.9620876
0.9657817 0.9657817 0.9657817
0.9677207 0.9677207 0.9677207
0.9694252 0.9694252 0.9694252
0.9715626 0.9715626 0.9715626
0.9765397 0.9765397 0.9765397
0.9773291 0.9773291 0.9773291
0.9780926 0.9780926 0.9780926
0.9788309 0.9788309 0.9788309
0.9808627 0.9808627 0.9808627
0.9812813 0.9812813 0.9812813
0.9816909 0.9816909 0.9816909
0.9819592 0.9819592 0.9819592
0.9832164 0.9832164 0.9832164
0.9834215 0.9834215 0.9834215
0.9836749 0.9836749 0.9836749
0.9838416 0.9838416 0.9838416
0.9840887 0.9840887 0.9840887
0.9842513 0.9842513 0.9842513
0.9844372 0.9844372 0.9844372
0.9845601 0.9845601 0.9845601
0.9850712 0.9850712 0.9850712
0.9851730 0.9851730 0.9851730
0.9852742 0.9852742 0.9852742
0.9853747 0.9853747 0.9853747
0.9856915 0.9856915 0.9856915
0.9857678 0.9857678 0.9857678
0.9858294 0.9858294 0.9858294
0.9858763 0.9858763 0.9858763
0.9860580 0.9860580 0.9860580
0.9860904 0.9860904 0.9860904
0.9861066 0.9861066 0.9861066
0.9861389 0.9861389 0.9861389
