Plugins/FilmEmulator/Content/LUTs/FE_Kodak_Portra_800_64.cube
TITLE "FE_Kodak_Portra_800_33"
LUT_3D_SIZE 64
0.0029386 0.0030807 0.0031560
0.0039967 0.0030801 0.0031545
0.0079592 0.0030791 0.0031513
0.0134848 0.0030509 0.0031478
0.0202462 0.0030544 0.0031462
0.0296563 0.0030947 0.0031498
0.0396871 0.0031778 0.0032181
0.0487249 0.0032860 0.0032882
0.0595762 0.0034576 0.0034343
0.0727331 0.0036016 0.0035922
0.0852282 0.0038224 0.0038070
0.0958441 0.0040717 0.0039792
0.1076996 0.0042694 0.0041568
0.1208985 0.0045662 0.0044243
0.1354969 0.0048835 0.0047090
0.1515862 0.0052227 0.0050119
0.1632424 0.0054883 0.0052506
0.1756246 0.0058235 0.0055558
0.1956587 0.0061795 0.0058784
0.2099358 0.0065566 0.0062198
0.2173032 0.0069560 0.0065813
0.2328266 0.0073894 0.0069730
0.2491653 0.0078993 0.0074397
0.2663658 0.0081678 0.0079273
0.2751241 0.0087302 0.0081984
0.2933706 0.0093318 0.0087465
0.3027657 0.0096479 0.0090340
0.3222870 0.0099753 0.0096254
0.3322077 0.0106875 0.0099866
0.3423869 0.0110764 0.0103483
0.3633071 0.0114802 0.0107224
0.3738294 0.0123293 0.0115130
0.3845852 0.0127773 0.0119295
0.3954639 0.0132415 0.0123608
0.4064563 0.0137223 0.0128076
0.4175521 0.0142204 0.0132704
0.4287826 0.0147362 0.0137497
0.4401121 0.0152970 0.0142723
0.4515105 0.0158925 0.0148280
0.4629691 0.0165110 0.0154052
0.4744762 0.0171531 0.0160045
0.4860194 0.0178198 0.0166268
0.4975863 0.0185121 0.0172730
0.5091649 0.0192308 0.0179439
0.5207422 0.0199770 0.0186406
0.5324337 0.0199777 0.0193361
0.5323057 0.0207517 0.0193639
0.5438415 0.0215558 0.0201148
0.5553337 0.0223986 0.0209015
0.5667725 0.0232903 0.0217333
0.5782782 0.0232909 0.0225645
0.5781490 0.0242168 0.0225977
0.5894505 0.0251793 0.0234957
0.6006662 0.0261793 0.0244289
0.6006662 0.0261793 0.0244289
0.6117843 0.0272182 0.0253982
0.6227942 0.0282973 0.0264052
0.6227942 0.0282973 0.0264052
0.6336859 0.0294182 0.0274513
0.6444491 0.0305824 0.0285379
0.6444491 0.0305824 0.0285379
0.6550748 0.0317914 0.0296664
0.6656047 0.0317917 0.0307934
0.6654862 0.0330470 0.0308384
0.0029208 0.0049927 0.0032139
0.0041517 0.0053381 0.0032203
0.0081487 0.0056482 0.0032239
0.0133719 0.0059916 0.0032289
0.0209356 0.0063562 0.0032374
0.0293738 0.0067433 0.0033005
0.0392963 0.0071542 0.0033870
0.0502246 0.0076286 0.0035095
0.0613799 0.0081549 0.0036676
0.0720047 0.0084316 0.0038684
0.0843770 0.0090131 0.0041009
0.0949290 0.0093188 0.0042816
0.1109006 0.0099611 0.0045568
0.1244905 0.0102989 0.0048438
0.1343205 0.0106742 0.0050477
0.1502846 0.0114658 0.0053991
0.1618831 0.0118834 0.0057078
0.1807072 0.0123163 0.0060339
0.1941815 0.0127645 0.0063788
0.2084266 0.0132289 0.0067432
0.2233912 0.0142076 0.0071476
0.2312264 0.0147234 0.0076173
0.2475520 0.0152846 0.0078689
0.2646647 0.0158806 0.0083861
0.2734601 0.0164990 0.0086636
0.2917145 0.0171417 0.0092327
0.3011700 0.0171422 0.0095242
0.3206191 0.0178096 0.0101816
0.3306018 0.0185020 0.0105513
0.3407478 0.0192209 0.0109343
0.3616201 0.0199678 0.0117253
0.3722156 0.0207427 0.0121505
0.3829437 0.0215470 0.0125910
0.3939176 0.0215476 0.0130286
0.4048852 0.0223906 0.0135008
0.4159547 0.0232825 0.0139903
0.4271611 0.0242093 0.0145229
0.4386026 0.0242099 0.0150667
0.4499883 0.0251727 0.0156536
0.4614361 0.0261731 0.0162632
0.4729341 0.0272123 0.0168961
0.4846009 0.0272128 0.0175275
0.4961621 0.0282923 0.0182089
0.5077361 0.0294136 0.0189165
0.5194335 0.0294139 0.0189155
0.5309955 0.0305785 0.0196501
0.5426627 0.0305789 0.0203827
0.5425407 0.0317880 0.0211814
0.5540352 0.0330440 0.0220242
0.5656016 0.0330443 0.0220230
0.5769863 0.0343335 0.0228983
0.5769956 0.0343335 0.0237745
0.5883066 0.0356716 0.0247180
0.5995239 0.0370601 0.0247526
0.5995329 0.0370602 0.0256982
0.6106631 0.0385010 0.0267165
0.6218005 0.0385011 0.0267150
0.6216857 0.0399960 0.0277741
0.6327134 0.0399962 0.0288310
0.6434812 0.0415470 0.0288711
0.6434899 0.0415470 0.0299703
0.6541209 0.0431558 0.0300119
0.6646647 0.0431557 0.0311518
0.6645556 0.0448246 0.0323752
0.0028917 0.0110775 0.0033120
0.0042053 0.0114782 0.0033146
0.0083244 0.0123240 0.0033208
0.0137924 0.0127687 0.0033262
0.0207461 0.0132303 0.0033990
0.0303618 0.0137088 0.0034724
0.0389687 0.0142056 0.0036243
0.0498269 0.0147203 0.0037514
0.0609205 0.0152803 0.0039572
0.0714668 0.0158753 0.0041905
0.0837806 0.0164933 0.0043757
0.0980240 0.0171352 0.0046520
0.1101656 0.0178018 0.0048481
0.1236694 0.0184941 0.0051544
0.1334395 0.0192130 0.0053718
0.1493715 0.0199594 0.0058217
0.1609743 0.0199596 0.0061461
0.1797082 0.0207347 0.0064977
0.1931187 0.0215392 0.0068696
0.2072982 0.0223824 0.0072726
0.2222712 0.0232746 0.0075134
0.2301608 0.0232749 0.0079962
0.2464343 0.0242020 0.0085221
0.2634864 0.0251652 0.0088040
0.2722593 0.0261658 0.0093831
0.2905616 0.0261663 0.0096788
0.2998854 0.0272057 0.0099991
0.3192848 0.0282858 0.0107234
0.3293569 0.0282861 0.0110966
0.3394799 0.0294076 0.0114997
0.3603113 0.0305729 0.0123317
0.3710082 0.0305731 0.0127603
0.3817185 0.0317830 0.0132233
0.3926787 0.0317833 0.0136826
0.4036311 0.0330396 0.0141786
0.4146913 0.0343293 0.0147181
0.4260159 0.0343296 0.0152691
0.4373212 0.0356680 0.0158636
0.4488295 0.0356683 0.0164568
0.4602729 0.0370573 0.0170970
0.4718976 0.0370576 0.0177357
0.4834315 0.0384989 0.0184249
0.4951135 0.0384990 0.0184239
0.5066884 0.0399945 0.0191394
0.5183952 0.0399946 0.0198533
0.5299604 0.0415460 0.0206233
0.5416304 0.0415461 0.0213987
0.5415097 0.0431555 0.0222508
0.5531297 0.0431555 0.0222496
0.5645810 0.0448247 0.0231337
0.5761000 0.0448247 0.0240174
0.5759720 0.0465559 0.0240523
0.5874172 0.0465559 0.0249705
0.5986507 0.0483511 0.0259605
0.6099136 0.0483510 0.0269498
0.6097904 0.0501836 0.0269883
0.6209457 0.0501835 0.0280159
0.6318536 0.0520670 0.0280539
0.6318623 0.0520672 0.0291228
0.6427699 0.0520670 0.0302297
0.6426520 0.0540183 0.0302724
0.6534219 0.0540180 0.0314219
0.6638605 0.0560385 0.0326527
0.6638605 0.0560385 0.0326527
0.0028128 0.0192490 0.0033823
0.0043678 0.0199916 0.0033860
0.0082698 0.0207598 0.0033912
0.0142672 0.0215586 0.0034645
0.0215167 0.0215535 0.0035640
0.0301785 0.0223936 0.0036888
0.0403741 0.0232832 0.0038577
0.0495270 0.0242086 0.0040282
0.0605850 0.0242065 0.0042592
0.0710751 0.0251687 0.0044476
0.0833268 0.0261684 0.0047286
0.0974990 0.0272071 0.0050273
0.1096308 0.0272061 0.0052315
0.1230735 0.0282855 0.0054521
0.1379423 0.0294068 0.0059089
0.1487335 0.0294064 0.0062382
0.1602263 0.0305714 0.0065956
0.1789634 0.0305709 0.0069627
0.1923239 0.0317808 0.0071643
0.2064578 0.0330373 0.0076153
0.2214799 0.0330371 0.0081043
0.2373103 0.0343270 0.0083723
0.2455775 0.0343270 0.0089099
0.2625908 0.0356657 0.0092044
0.2713453 0.0370551 0.0098095
0.2896090 0.0370550 0.0101186
0.2989232 0.0384968 0.0108518
0.3183928 0.0384968 0.0112289
0.3283359 0.0399927 0.0116366
0.3385592 0.0399927 0.0120413
0.3593571 0.0415445 0.0124776
0.3700490 0.0415446 0.0133604
0.3807488 0.0431545 0.0138447
0.3916978 0.0431545 0.0143253
0.4026422 0.0448243 0.0148704
0.4138195 0.0448242 0.0154270
0.4250100 0.0465561 0.0160275
0.4479297 0.0465559 0.0166260
0.4593687 0.0483517 0.0172727
0.4593776 0.0483518 0.0179188
0.4709896 0.0483517 0.0179179
0.4825229 0.0501847 0.0186136
0.4942121 0.0501846 0.0193082
0.5057892 0.0520689 0.0200568
0.5174965 0.0520688 0.0208043
0.5290661 0.0540204 0.0216170
0.5407294 0.0540201 0.0216159
0.5407386 0.0540203 0.0224438
0.5522442 0.0560414 0.0233348
0.5638283 0.0560412 0.0242261
0.5752175 0.0581338 0.0242591
0.5752266 0.0581340 0.0251864
0.5866770 0.0581336 0.0261468
0.5979103 0.0603002 0.0261824
0.6091799 0.0602998 0.0271800
0.6090664 0.0625433 0.0282563
0.6202203 0.0625427 0.0282547
0.6312645 0.0625422 0.0293294
0.6311537 0.0648642 0.0304887
0.6420614 0.0648635 0.0304869
0.6420700 0.0648637 0.0316461
0.6527225 0.0672657 0.0316890
0.6632859 0.0672652 0.0328836
0.6631793 0.0697515 0.0341721
0.0028030 0.0294688 0.0034398
0.0045437 0.0306276 0.0034570
0.0084893 0.0306155 0.0035262
0.0141974 0.0318180 0.0036197
0.0214123 0.0318102 0.0037720
0.0300328 0.0330623 0.0039115
0.0401817 0.0343486 0.0041414
0.0493164 0.0343449 0.0043179
0.0603007 0.0356816 0.0045086
0.0736708 0.0356782 0.0047860
0.0829842 0.0370669 0.0050884
0.0971465 0.0370644 0.0052948
0.1091924 0.0385055 0.0056563
0.1226442 0.0385038 0.0059713
0.1374663 0.0399991 0.0063131
0.1482259 0.0399982 0.0066648
0.1657262 0.0415495 0.0070461
0.1783732 0.0415487 0.0074484
0.1917006 0.0431585 0.0076949
0.2058839 0.0431578 0.0081889
0.2207873 0.0448276 0.0087273
0.2366744 0.0448269 0.0090025
0.2448261 0.0465592 0.0093004
0.2619089 0.0465585 0.0098968
0.2796617 0.0483544 0.0102236
0.2888771 0.0483541 0.0105795
0.3077518 0.0501875 0.0113451
0.3176204 0.0501872 0.0117398
0.3275528 0.0520721 0.0121654
0.3481287 0.0520714 0.0125877
0.3586563 0.0520712 0.0130252
0.3692213 0.0540235 0.0139663
0.3800327 0.0540232 0.0144511
0.3908535 0.0560450 0.0150004
0.4019140 0.0560447 0.0155618
0.4243866 0.0560441 0.0161432
0.4356832 0.0581375 0.0167707
0.4471813 0.0581372 0.0173974
0.4586104 0.0603043 0.0174214
0.4702283 0.0603040 0.0180721
0.4702374 0.0603042 0.0187477
0.4817691 0.0625477 0.0194750
0.4934570 0.0625473 0.0202012
0.5050338 0.0648694 0.0209838
0.5167322 0.0648688 0.0209827
0.5284301 0.0648683 0.0217713
0.5399772 0.0672713 0.0226361
0.5399864 0.0672714 0.0235024
0.5516120 0.0672707 0.0235011
0.5630732 0.0697570 0.0244332
0.5746008 0.0697564 0.0253656
0.5746099 0.0697566 0.0263342
0.5859312 0.0723292 0.0263701
0.5973026 0.0723286 0.0273747
0.6085776 0.0723279 0.0284167
0.6084555 0.0749914 0.0284569
0.6196241 0.0749908 0.0295391
0.6306750 0.0749900 0.0306614
0.6305552 0.0777444 0.0307048
0.6414787 0.0777436 0.0318703
0.6414787 0.0777436 0.0318703
0.6521474 0.0805908 0.0331182
0.6627106 0.0805898 0.0331163
0.6627189 0.0805900 0.0343652
0.0028358 0.0400871 0.0035199
0.0046287 0.0416308 0.0035838
0.0087619 0.0416141 0.0036908
0.0147256 0.0432140 0.0038510
0.0222568 0.0432032 0.0040096
0.0311958 0.0448674 0.0041859
0.0400494 0.0448610 0.0044255
0.0511611 0.0465893 0.0046484
0.0601070 0.0465854 0.0049346
0.0734016 0.0483788 0.0051420
0.0860623 0.0483750 0.0054585
0.0968436 0.0483723 0.0057075
0.1088556 0.0502049 0.0060340
0.1222711 0.0502023 0.0063700
0.1370557 0.0520863 0.0067342
0.1477882 0.0520847 0.0071092
0.1652475 0.0540361 0.0075256
0.1778661 0.0540346 0.0080089
0.1912423 0.0540331 0.0082616
0.2053184 0.0560549 0.0088044
0.2202737 0.0560534 0.0090820
0.2360496 0.0581469 0.0096784
0.2442805 0.0581463 0.0099838
0.2613316 0.0581450 0.0102983
0.2790689 0.0603124 0.0110436
0.2882720 0.0603118 0.0114278
0.3071170 0.0625554 0.0118418
0.3169740 0.0625548 0.0122535
0.3270062 0.0625543 0.0126794
0.3474503 0.0648763 0.0131382
0.3579682 0.0648757 0.0135946
0.3686336 0.0648752 0.0140666
0.3793186 0.0672788 0.0145757
0.3902518 0.0672782 0.0151080
0.4011843 0.0697652 0.0156959
0.4236437 0.0697639 0.0162821
0.4350594 0.0697633 0.0168909
0.4464281 0.0723369 0.0175471
0.4579883 0.0723362 0.0182024
0.4696037 0.0723356 0.0188819
0.4694860 0.0750001 0.0196153
0.4811426 0.0749994 0.0203466
0.4928294 0.0749987 0.0211048
0.5043963 0.0777530 0.0211337
0.5161040 0.0777523 0.0219279
0.5278028 0.0777515 0.0227664
0.5394784 0.0777508 0.0236364
0.5393513 0.0805995 0.0236700
0.5509884 0.0805987 0.0245738
0.5625783 0.0805979 0.0255114
0.5739744 0.0835418 0.0255463
0.5739835 0.0835419 0.0265216
0.5854425 0.0835411 0.0275319
0.5966942 0.0865837 0.0286202
0.6079659 0.0865825 0.0286186
0.6079748 0.0865828 0.0297085
0.6190184 0.0897266 0.0297488
0.6300760 0.0897255 0.0308789
0.6300847 0.0897258 0.0320526
0.6410052 0.0897244 0.0320508
0.6516800 0.0929725 0.0333056
0.6516800 0.0929725 0.0333056
0.6622583 0.0929712 0.0345594
0.6622665 0.0929714 0.0358612
0.0028911 0.0522030 0.0036433
0.0048597 0.0521858 0.0037268
0.0090480 0.0541227 0.0038878
0.0146835 0.0541065 0.0040474
0.0221834 0.0561188 0.0042843
0.0311086 0.0561075 0.0044659
0.0399380 0.0560994 0.0046838
0.0510213 0.0581885 0.0049788
0.0623947 0.0581821 0.0052850
0.0732056 0.0603475 0.0055072
0.0858342 0.0603425 0.0057580
0.0965903 0.0603389 0.0060786
0.1085771 0.0625820 0.0066031
0.1219596 0.0625784 0.0067839
0.1367117 0.0648999 0.0071716
0.1474216 0.0648977 0.0075811
0.1649143 0.0648944 0.0080675
0.1774355 0.0672979 0.0083339
0.1907908 0.0672959 0.0088688
0.2049176 0.0672938 0.0091484
0.2197708 0.0697807 0.0097491
0.2356052 0.0697786 0.0100562
0.2522384 0.0697767 0.0103730
0.2607651 0.0723513 0.0111242
0.2785715 0.0723493 0.0115106
0.2877644 0.0723485 0.0119110
0.3065896 0.0750119 0.0123423
0.3164370 0.0750110 0.0127713
0.3264673 0.0750103 0.0136747
0.3468938 0.0777646 0.0141691
0.3574034 0.0777638 0.0146608
0.3680616 0.0777629 0.0151963
0.3787402 0.0806118 0.0157875
0.3896669 0.0806109 0.0163780
0.4118564 0.0806088 0.0163764
0.4230333 0.0835537 0.0170129
0.4344445 0.0835528 0.0176485
0.4459348 0.0835518 0.0183076
0.4574925 0.0835510 0.0189909
0.4689787 0.0865945 0.0197275
0.4806339 0.0865935 0.0204630
0.4806339 0.0865935 0.0204630
0.4921922 0.0897384 0.0212557
0.5038953 0.0897374 0.0220544
0.5156031 0.0897365 0.0228976
0.5273026 0.0897354 0.0237725
0.5388430 0.0929840 0.0238050
0.5504818 0.0929829 0.0247139
0.5504910 0.0929831 0.0256581
0.5619482 0.0963385 0.0256931
0.5734823 0.0963373 0.0266725
0.5849445 0.0963361 0.0276884
0.5849445 0.0963361 0.0276884
0.5962001 0.0998008 0.0287828
0.6074850 0.0997996 0.0298771
0.6074850 0.0997996 0.0298771
0.6186635 0.0997983 0.0310119
0.6296051 0.1033751 0.0322341
0.6296051 0.1033751 0.0322341
0.6405402 0.1033737 0.0334488
0.6512129 0.1070472 0.0334938
0.6512214 0.1070474 0.0347565
0.6617976 0.1070457 0.0347545
0.6618059 0.1070459 0.0360634
0.0030076 0.0650451 0.0038254
0.0049758 0.0650246 0.0039524
0.0093530 0.0649991 0.0041371
0.0152456 0.0673887 0.0043177
0.0230926 0.0673718 0.0045002
0.0310222 0.0698517 0.0047263
0.0415138 0.0698399 0.0050163
0.0509061 0.0698318 0.0053247
0.0622256 0.0724015 0.0055483
0.0730443 0.0723953 0.0059607
0.0856479 0.0723891 0.0062921
0.0963400 0.0750520 0.0066519
0.1126436 0.0750459 0.0070217
0.1217013 0.0750429 0.0072141
0.1364266 0.0777966 0.0076366
0.1527473 0.0777923 0.0081265
0.1645813 0.0777897 0.0086481
0.1771545 0.0777870 0.0089208
0.1904165 0.0806356 0.0095067
0.2045220 0.0806328 0.0098062
0.2194340 0.0806302 0.0101152
0.2351670 0.0835749 0.0108130
0.2517793 0.0835723 0.0111888
0.2603856 0.0835711 0.0115781
0.2780744 0.0866143 0.0119974
0.2872570 0.0866131 0.0124145
0.3061764 0.0866108 0.0132923
0.3159074 0.0897567 0.0137738
0.3259211 0.0897555 0.0142519
0.3464444 0.0897530 0.0147458
0.3569479 0.0897519 0.0152843
0.3674825 0.0930017 0.0158790
0.3782727 0.0930005 0.0164728
0.3891939 0.0929994 0.0170886
0.4113738 0.0929966 0.0170869
0.4225468 0.0963530 0.0177506
0.4339542 0.0963519 0.0184135
0.4454415 0.0963507 0.0191007
0.4568701 0.0998164 0.0198415
0.4684806 0.0998151 0.0205811
0.4801252 0.0998137 0.0205800
0.4918099 0.0998124 0.0213467
0.4916916 0.1033917 0.0221815
0.5033943 0.1033905 0.0230296
0.5150930 0.1033888 0.0230283
0.5267931 0.1033875 0.0239081
0.5383445 0.1070622 0.0248559
0.5499850 0.1070608 0.0258041
0.5499850 0.1070608 0.0258041
0.5615796 0.1070593 0.0267876
0.5729910 0.1108502 0.0278470
0.5844475 0.1108485 0.0278454
0.5844567 0.1108487 0.0289065
0.5958396 0.1108472 0.0300054
0.6069970 0.1147567 0.0300460
0.6070058 0.1147570 0.0311889
0.6181802 0.1147551 0.0311871
0.6292470 0.1147535 0.0323703
0.6291363 0.1187867 0.0336391
0.6400684 0.1187846 0.0336371
0.6508722 0.1187829 0.0349030
0.6508722 0.1187829 0.0349030
0.6614615 0.1187811 0.0362152
0.6613469 0.1229381 0.0362660
0.0031362 0.0779691 0.0040173
0.0052338 0.0779444 0.0041707
0.0096681 0.0779150 0.0044070
0.0158365 0.0807469 0.0045993
0.0230393 0.0807287 0.0048517
0.0322866 0.0807126 0.0051490
0.0414192 0.0836510 0.0053648
0.0507910 0.0836413 0.0056946
0.0621154 0.0836318 0.0059965
0.0729151 0.0836244 0.0063300
0.0854599 0.0866651 0.0066915
0.1000058 0.0866578 0.0070634
0.1124518 0.0866525 0.0074563
0.1261978 0.0897961 0.0076816
0.1362008 0.0897928 0.0081748
0.1524988 0.0897876 0.0086989
0.1642448 0.0930371 0.0089862
0.1768015 0.0930338 0.0095625
0.1901146 0.0930304 0.0098638
0.2042029 0.0930271 0.0101745
0.2190178 0.0963833 0.0108765
0.2348136 0.0963800 0.0112544
0.2514087 0.0963768 0.0116454
0.2600064 0.0963753 0.0120504
0.2776851 0.0998408 0.0129212
0.2868597 0.0998393 0.0133701
0.3057563 0.0998361 0.0138338
0.3155883 0.0998347 0.0143141
0.3356549 0.1034118 0.0148313
0.3459954 0.1034103 0.0153729
0.3564927 0.1034089 0.0159481
0.3670217 0.1070847 0.0165681
0.3778060 0.1070832 0.0171874
0.3997512 0.1070800 0.0178286
0.4108922 0.1070783 0.0178277
0.4220614 0.1108703 0.0185197
0.4334654 0.1108688 0.0192108
0.4449493 0.1108672 0.0199273
0.4565015 0.1108657 0.0206702
0.4681107 0.1108642 0.0214402
0.4796275 0.1147748 0.0214695
0.4913111 0.1147731 0.0222760
0.4913205 0.1147734 0.0231289
0.5030227 0.1147718 0.0240124
0.5145944 0.1188039 0.0240451
0.5262952 0.1188021 0.0249630
0.5379742 0.1188005 0.0259151
0.5496068 0.1187985 0.0259137
0.5494900 0.1229568 0.0269408
0.5610867 0.1229550 0.0279667
0.5726165 0.1229530 0.0279651
0.5840847 0.1229511 0.0290290
0.5840847 0.1229511 0.0290290
0.5953475 0.1272339 0.0301749
0.6066400 0.1272320 0.0313207
0.6066400 0.1272320 0.0313207
0.6178268 0.1272302 0.0325090
0.6287779 0.1316420 0.0337810
0.6287779 0.1316420 0.0337810
0.6397230 0.1316399 0.0350522
0.6505228 0.1316377 0.0350502
0.6505313 0.1316380 0.0363698
0.6610024 0.1361810 0.0364187
0.6610106 0.1361813 0.0377882
0.0033541 0.0899878 0.0043171
0.0053641 0.0899618 0.0044365
0.0096454 0.0931878 0.0046294
0.0158071 0.0931601 0.0048826
0.0239946 0.0931369 0.0051811
0.0322119 0.0964837 0.0053979
0.0413441 0.0964698 0.0057293
0.0527898 0.0964562 0.0060326
0.0620045 0.0964475 0.0063680
0.0757198 0.0999077 0.0067314
0.0853106 0.0999013 0.0071058
0.0998335 0.0998927 0.0075006
0.1122609 0.0998865 0.0079603
0.1259867 0.1034628 0.0082229
0.1359754 0.1034588 0.0087506
0.1522468 0.1034526 0.0090260
0.1640488 0.1034487 0.0096049
0.1765173 0.1071239 0.0099217
0.1898180 0.1071201 0.0105576
0.2038899 0.1071161 0.0109245
0.2187680 0.1071123 0.0113041
0.2344615 0.1109035 0.0117135
0.2510454 0.1108999 0.0125422
0.2596348 0.1108981 0.0129781
0.2773909 0.1108943 0.0134283
0.2864573 0.1148064 0.0139145
0.3053381 0.1148026 0.0143968
0.3151624 0.1148008 0.0148964
0.3353271 0.1147971 0.0154396
0.3455492 0.1188305 0.0160401
0.3560397 0.1188288 0.0166399
0.3666794 0.1188269 0.0172618
0.3774596 0.1188252 0.0179067
0.3993968 0.1188215 0.0185744
0.4104123 0.1229786 0.0185998
0.4217007 0.1229768 0.0192939
0.4331019 0.1229749 0.0200135
0.4445834 0.1229731 0.0207595
0.4560083 0.1272570 0.0215633
0.4676062 0.1272549 0.0215621
0.4792570 0.1272530 0.0223722
0.4909400 0.1272512 0.0232273
0.4909492 0.1272515 0.0241159
0.5025150 0.1316642 0.0241487
0.5142227 0.1316623 0.0250705
0.5259239 0.1316603 0.0260266
0.5375947 0.1316581 0.0260252
0.5491117 0.1362024 0.0270551
0.5491209 0.1362027 0.0280868
0.5607103 0.1362004 0.0280853
0.5722511 0.1361984 0.0291537
0.5837217 0.1361963 0.0302617
0.5835977 0.1408766 0.0303044
0.5949873 0.1408743 0.0314550
0.6062741 0.1408719 0.0314532
0.6062829 0.1408722 0.0326482
0.6174644 0.1408697 0.0326463
0.6284194 0.1456841 0.0339236
0.6284282 0.1456844 0.0352020
0.6393688 0.1456818 0.0352000
0.6501817 0.1456795 0.0365230
0.6501817 0.1456795 0.0365230
0.6606668 0.1505962 0.0379468
0.6606668 0.1505962 0.0379468
0.0035487 0.1036788 0.0045919
0.0054975 0.1036513 0.0047191
0.0099751 0.1072991 0.0049143
0.0164274 0.1072673 0.0052141
0.0239505 0.1072434 0.0055331
0.0321682 0.1072248 0.0057562
0.0430131 0.1110055 0.0060693
0.0526950 0.1109927 0.0064063
0.0644200 0.1109801 0.0067620
0.0756208 0.1109702 0.0071377
0.0851620 0.1148797 0.0075455
0.0996625 0.1148698 0.0080075
0.1120682 0.1148624 0.0082597
0.1258310 0.1148553 0.0087892
0.1358090 0.1148509 0.0093530
0.1520001 0.1188812 0.0096611
0.1637824 0.1188765 0.0099654
0.1763104 0.1188720 0.0106041
0.1965243 0.1188651 0.0109721
0.2108921 0.1230217 0.0113696
0.2184400 0.1230198 0.0121748
0.2342057 0.1230153 0.0125974
0.2507708 0.1230108 0.0130345
0.2592582 0.1272962 0.0135066
0.2769976 0.1272917 0.0139749
0.2954974 0.1272874 0.0144593
0.3050268 0.1272853 0.0149611
0.3148457 0.1272832 0.0155073
0.3348880 0.1316952 0.0161096
0.3452167 0.1316931 0.0167120
0.3557023 0.1316911 0.0173366
0.3663376 0.1316890 0.0179842
0.3880123 0.1316847 0.0186547
0.3989219 0.1362303 0.0193784
0.4100549 0.1362279 0.0193773
0.4213400 0.1362258 0.0201000
0.4327384 0.1362237 0.0208491
0.4442177 0.1362217 0.0216257
0.4556405 0.1409009 0.0224699
0.4672369 0.1408984 0.0224687
0.4788867 0.1408963 0.0233275
0.4905687 0.1408942 0.0242185
0.5022611 0.1408918 0.0242172
0.5021432 0.1457097 0.0251784
0.5138512 0.1457075 0.0261387
0.5255435 0.1457050 0.0261372
0.5372243 0.1457028 0.0271332
0.5488685 0.1457005 0.0281662
0.5487434 0.1506206 0.0282057
0.5603434 0.1506183 0.0292785
0.5718865 0.1506159 0.0303912
0.5833504 0.1506133 0.0303895
0.5833595 0.1506136 0.0315451
0.5946201 0.1556509 0.0315872
0.6059190 0.1556485 0.0327853
0.6059279 0.1556489 0.0340220
0.6171130 0.1556460 0.0340201
0.6281914 0.1556435 0.0353000
0.6280730 0.1608233 0.0353490
0.6390264 0.1608206 0.0366774
0.6498353 0.1608177 0.0366753
0.6498438 0.1608181 0.0380542
0.6604392 0.1608151 0.0380519
0.6604477 0.1608154 0.0394809
0.0037297 0.1191354 0.0048451
0.0056344 0.1191062 0.0050396
0.0103210 0.1190634 0.0052403
0.0164049 0.1190309 0.0055602
0.0239062 0.1231705 0.0057920
0.0334784 0.1231466 0.0062657
0.0429564 0.1231291 0.0066131
0.0526261 0.1231149 0.0069801
0.0643365 0.1231010 0.0073675
0.0754881 0.1273803 0.0075794
0.0884792 0.1273692 0.0080434
0.0995360 0.1273612 0.0085592
0.1119278 0.1273529 0.0088286
0.1256755 0.1273451 0.0093944
0.1408103 0.1317557 0.0097037
0.1518172 0.1317506 0.0103257
0.1635878 0.1317453 0.0106509
0.1826374 0.1317375 0.0110204
0.1962169 0.1362821 0.0114196
0.2106554 0.1362773 0.0122278
0.2181914 0.1362748 0.0126528
0.2339442 0.1362697 0.0130918
0.2504964 0.1362647 0.0135459
0.2677410 0.1409429 0.0140356
0.2767045 0.1409405 0.0145229
0.2951921 0.1409355 0.0150260
0.3047160 0.1409332 0.0155746
0.3145294 0.1409309 0.0161573
0.3345609 0.1457451 0.0167845
0.3448843 0.1457428 0.0174117
0.3553653 0.1457404 0.0180621
0.3659957 0.1457381 0.0187365
0.3876622 0.1457332 0.0194346
0.3985601 0.1506520 0.0194610
0.4096983 0.1506496 0.0201867
0.4209803 0.1506473 0.0209390
0.4323761 0.1506449 0.0217189
0.4438529 0.1506425 0.0225347
0.4552661 0.1556811 0.0225651
0.4668699 0.1556787 0.0234275
0.4785185 0.1556762 0.0243223
0.4901905 0.1556735 0.0243210
0.5018917 0.1556710 0.0252491
0.5019009 0.1556714 0.0262134
0.5134833 0.1608498 0.0272503
0.5251760 0.1608469 0.0272487
0.5368577 0.1608444 0.0282861
0.5484938 0.1608415 0.0282845
0.5485030 0.1608418 0.0293620
0.5599800 0.1661615 0.0305202
0.5715160 0.1661585 0.0305185
0.5829914 0.1661559 0.0316771
0.5829914 0.1661559 0.0316771
0.5943856 0.1661532 0.0328784
0.6056865 0.1661505 0.0341167
0.6167544 0.1716128 0.0341621
0.6167631 0.1716131 0.0354493
0.6278367 0.1716100 0.0354472
0.6278450 0.1716104 0.0367813
0.6387928 0.1716071 0.0367792
0.6496133 0.1716043 0.0381596
0.6494978 0.1772142 0.0382125
0.6601065 0.1772113 0.0396450
0.6705545 0.1772080 0.0396426
0.0039843 0.1320250 0.0051663
0.0059322 0.1319942 0.0053737
0.0106788 0.1319485 0.0055878
0.0170566 0.1319126 0.0059573
0.0249091 0.1364384 0.0062955
0.0334330 0.1364155 0.0066441
0.0428987 0.1363962 0.0070124
0.0525560 0.1363806 0.0074014
0.0642518 0.1363653 0.0078225
0.0753899 0.1410394 0.0080800
0.0883657 0.1410271 0.0085976
0.0994071 0.1410180 0.0088681
0.1117875 0.1410092 0.0094364
0.1255168 0.1410001 0.0097332
0.1406389 0.1458133 0.0103713
0.1516307 0.1458074 0.0106979
0.1695436 0.1457985 0.0110690
0.1824258 0.1457930 0.0118526
0.1960710 0.1457874 0.0122641
0.2104141 0.1507053 0.0127078
0.2257104 0.1506995 0.0131487
0.2336835 0.1506969 0.0136054
0.2502229 0.1506912 0.0140771
0.2675526 0.1506857 0.0145650
0.2764130 0.1557261 0.0150916
0.2948890 0.1557206 0.0156418
0.3044074 0.1557180 0.0162269
0.3142151 0.1557154 0.0168337
0.3343474 0.1557098 0.0174619
0.3445555 0.1608896 0.0181396
