Plugins/FilmEmulator/Content/LUTs/FE_Kodak_Vision_250D_5246_64.cube
# FilmEmulator LUT (resampled to 64)
LUT_3D_SIZE 4
0.000000 0.001617 0.001038
0.348735 0.000000 0.000000
0.705882 0.000000 0.000000
1.000000 0.000000 0.000000
0.003876 0.201629 0.042857
0.351047 0.335042 0.032895
0.705892 0.342173 0.000000
1.000000 0.342173 0.000000
0.054586 0.391378 0.090881
0.351695 0.481201 0.191220
0.695896 0.676751 0.073046
1.000000 0.714895 0.000000
0.067749 0.555267 0.118011
0.310750 0.615275 0.181345
0.651367 0.767721 0.294108
1.000000 0.996155 0.086487
0.017395 0.017914 0.178345
0.193427 0.019009 0.195062
0.699866 0.000000 0.338111
1.000000 0.000000 0.340566
0.010525 0.238118 0.285983
0.175327 0.320318 0.346853
0.704061 0.343037 0.340782
1.000000 0.342173 0.340566
0.003208 0.455037 0.344215
0.133822 0.501695 0.352475
0.676558 0.680427 0.381983
1.000000 0.714895 0.340597
0.008646 0.640157 0.376068
0.136583 0.676612 0.386400
0.601420 0.770131 0.451148
1.000000 1.000000 0.410523
0.032746 0.033651 0.332591
0.168094 0.034007 0.322350
0.415975 0.076772 0.412231
0.923716 0.018768 0.628266
0.031063 0.259667 0.464745
0.158853 0.300498 0.500926
0.526995 0.376585 0.566466
0.974725 0.352044 0.658800
0.029924 0.503116 0.567593
0.151594 0.552226 0.594868
0.569161 0.654721 0.658099
1.000000 0.704881 0.689585
0.022939 0.726156 0.626648
0.192162 0.767355 0.642290
0.500295 0.850932 0.685469
1.000000 1.000000 0.735830
0.040344 0.042297 0.476624
0.169413 0.038401 0.463308
0.363261 0.092356 0.499837
0.640930 0.125000 0.624390
0.044993 0.269755 0.615713
0.166592 0.296044 0.644189
0.406440 0.331387 0.668237
0.758677 0.392008 0.731516
0.041341 0.502950 0.715434
0.168823 0.546414 0.746148
0.443563 0.650577 0.847412
0.918050 0.710622 0.882162
0.036560 0.732880 0.791962
0.186859 0.800476 0.840149
0.555400 0.879456 0.897481
0.998718 0.998444 0.997040
