Plugins/FilmEmulator/Content/LUTs/FE_Kodak_2393_64.cube
TITLE "FE_Kodak_2393_33"
LUT_3D_SIZE 8
0.0000000 0.0314735 0.0482661
0.4887023 0.1140584 0.0891685
0.9937711 0.2739549 0.1892004
1.0000000 0.4079083 0.3025565
1.0000000 0.4994767 0.4129624
1.0000000 0.5707945 0.4970040
1.0000000 0.6287182 0.5628748
1.0000000 0.6770709 0.6174284
0.0720186 0.5753428 0.1289292
0.4518562 0.6029727 0.1741776
0.8893546 0.6733739 0.2795303
1.0000000 0.7337123 0.3999758
1.0000000 0.7752701 0.4997926
1.0000000 0.8032784 0.5713894
1.0000000 0.8208824 0.6259494
1.0000000 0.8363096 0.6706376
0.2539293 0.9189544 0.2827714
0.5026693 0.9157283 0.3214765
0.8549103 0.9247482 0.4312899
0.9781777 0.9363098 0.5390981
1.0000000 0.9446126 0.6186431
1.0000000 0.9500605 0.6768126
1.0000000 0.9537821 0.7206419
1.0000000 0.9568121 0.7555473
0.3869764 1.0000000 0.4079821
0.5521104 0.9956990 0.4428071
0.8557663 0.9881578 0.5425072
0.9632600 0.9868382 0.6284255
0.9947487 0.9870697 0.6963943
1.0000000 0.9872330 0.7464182
1.0000000 0.9870242 0.7813210
1.0000000 0.9872752 0.8092922
0.4801960 1.0000000 0.5149971
0.5866413 1.0000000 0.5369935
0.8605630 1.0000000 0.6169208
0.9598361 1.0000000 0.6926892
0.9884230 1.0000000 0.7502596
0.9979825 0.9988382 0.7927225
1.0000000 0.9979401 0.8223778
1.0000000 0.9971461 0.8456190
0.5559859 1.0000000 0.5979258
0.6133591 1.0000000 0.6084771
0.8656996 1.0000000 0.6766276
0.9594290 1.0000000 0.7412119
0.9862760 1.0000000 0.7923666
0.9950054 1.0000000 0.8281248
0.9982152 1.0000000 0.8537487
0.9999435 1.0000000 0.8728650
0.6117058 1.0000000 0.6619670
0.6324711 1.0000000 0.6640794
0.8675561 1.0000000 0.7223499
0.9600724 1.0000000 0.7791156
0.9856863 1.0000000 0.8230485
0.9937792 1.0000000 0.8543991
0.9968460 1.0000000 0.8764735
0.9985106 1.0000000 0.8939576
0.6577520 1.0000000 0.7125766
0.6537955 1.0000000 0.7083451
0.8673230 1.0000000 0.7570112
0.9604877 1.0000000 0.8081063
0.9856567 1.0000000 0.8466059
0.9934694 1.0000000 0.8749763
0.9963275 1.0000000 0.8943170
0.9978762 1.0000000 0.9096467
0.0636123 0.1562344 0.7287537
0.6655025 0.2810416 0.7585757
1.0000000 0.4233485 0.7914807
1.0000000 0.5396754 0.8228739
1.0000000 0.6267284 0.8512864
1.0000000 0.6870440 0.8695142
1.0000000 0.7345965 0.8865468
1.0000000 0.7730262 0.8993201
0.1644818 0.6897496 0.7562986
0.6464951 0.7341673 0.7874144
0.9310632 0.7881820 0.8192464
1.0000000 0.8316669 0.8505327
1.0000000 0.8581991 0.8727415
1.0000000 0.8755645 0.8909476
1.0000000 0.8888410 0.9039814
1.0000000 0.8976812 0.9134603
0.3206162 0.9265022 0.8035002
0.6883717 0.9298300 0.8287328
0.9165269 0.9420978 0.8591503
0.9876173 0.9535513 0.8843095
1.0000000 0.9610038 0.9033189
1.0000000 0.9651394 0.9178626
1.0000000 0.9684350 0.9274058
1.0000000 0.9710187 0.9360423
0.4476534 0.9868274 0.8442612
0.7185363 0.9805091 0.8621304
0.9196467 0.9804457 0.8858178
0.9811137 0.9837825 0.9072950
0.9980986 0.9859210 0.9230777
1.0000000 0.9875150 0.9348236
1.0000000 0.9883576 0.9433680
1.0000000 0.9892441 0.9505696
0.5363474 1.0000000 0.8741840
0.7374610 0.9980400 0.8848482
0.9238982 0.9937158 0.9051908
0.9803466 0.9940995 0.9237235
0.9952915 0.9946234 0.9373763
0.9999435 0.9949571 0.9471496
1.0000000 0.9952948 0.9545294
1.0000000 0.9954577 0.9597488
0.6054363 1.0000000 0.8967778
0.7487564 1.0000000 0.9031759
0.9279258 0.9996766 0.9206187
0.9803668 0.9985965 0.9365556
0.9941848 0.9983900 0.9483407
0.9983829 0.9983199 0.9560539
1.0000000 0.9982491 0.9624295
1.0000000 0.9982758 0.9669634
0.6573833 1.0000000 0.9148849
0.7561111 1.0000000 0.9170404
0.9302577 1.0000000 0.9324616
0.9809360 1.0000000 0.9461750
0.9938101 0.9999493 0.9556844
0.9978307 0.9996777 0.9632590
0.9992819 0.9995600 0.9682733
0.9999846 0.9994434 0.9721113
0.7005982 1.0000000 0.9270736
0.7576389 1.0000000 0.9281386
0.9295381 1.0000000 0.9412652
0.9807748 1.0000000 0.9526520
0.9938604 1.0000000 0.9621746
0.9976063 1.0000000 0.9682344
0.9989563 1.0000000 0.9725695
0.9996319 0.9999720 0.9759912
0.2337362 0.3409211 1.0000000
0.7818583 0.4745578 0.9909654
0.9950801 0.5883555 0.9848287
1.0000000 0.6820832 0.9825428
1.0000000 0.7468070 0.9825526
1.0000000 0.7923191 0.9840406
1.0000000 0.8262565 0.9850273
1.0000000 0.8530662 0.9860079
0.3536689 0.7994679 0.9780978
0.7811183 0.8372183 0.9746517
0.9524281 0.8750523 0.9754245
1.0000000 0.9018607 0.9779969
1.0000000 0.9181882 0.9805989
1.0000000 0.9279665 0.9827533
1.0000000 0.9352413 0.9841425
1.0000000 0.9415497 0.9857100
0.4707217 0.9486974 0.9758062
0.8139821 0.9528989 0.9755501
0.9505941 0.9635012 0.9782110
0.9892913 0.9715019 0.9814361
1.0000000 0.9761013 0.9840915
1.0000000 0.9791694 0.9857707
1.0000000 0.9813258 0.9873984
1.0000000 0.9829754 0.9887434
0.5355006 0.9875318 0.9790509
0.8325350 0.9828589 0.9794226
0.9538285 0.9855739 0.9820257
0.9878636 0.9885713 0.9849539
0.9974385 0.9906424 0.9869901
1.0000000 0.9917475 0.9887029
1.0000000 0.9926395 0.9900712
1.0000000 0.9932076 0.9911714
0.5800520 1.0000000 0.9824561
0.8431410 0.9940463 0.9828209
0.9572892 0.9935254 0.9851025
0.9882232 0.9946992 0.9873166
0.9966311 0.9956010 0.9893658
0.9991955 0.9962063 0.9908600
1.0000000 0.9965564 0.9919933
1.0000000 0.9967940 0.9927310
0.6459956 1.0000000 0.9852154
0.8505915 0.9995652 0.9852496
0.9598802 0.9971419 0.9871886
0.9889126 0.9974804 0.9894698
0.9964164 0.9978781 0.9912270
0.9987541 0.9981254 0.9923093
0.9996957 0.9983302 0.9933262
1.0000000 0.9984491 0.9941189
0.6956321 1.0000000 0.9878456
0.8527567 1.0000000 0.9875121
0.9606189 0.9989150 0.9890632
0.9890778 0.9986794 0.9910040
0.9965190 0.9988837 0.9924295
0.9986142 0.9990035 0.9935526
0.9994581 0.9990837 0.9944007
0.9998807 0.9991413 0.9949591
0.7358067 1.0000000 0.9894646
0.8519571 1.0000000 0.9892540
0.9610618 0.9998377 0.9905064
0.9893230 0.9993097 0.9920132
0.9965115 0.9993464 0.9934399
0.9985788 0.9994223 0.9944717
0.9993801 0.9994643 0.9951066
0.9997554 0.9994927 0.9957082
0.4700502 0.5406650 1.0000000
0.8579652 0.6478847 1.0000000
0.9904032 0.7280213 1.0000000
1.0000000 0.7804275 1.0000000
1.0000000 0.8226812 1.0000000
1.0000000 0.8553548 1.0000000
1.0000000 0.8803703 1.0000000
1.0000000 0.8996157 1.0000000
0.5691524 0.8711956 1.0000000
0.8695257 0.9008211 1.0000000
0.9678603 0.9250857 0.9986147
0.9973432 0.9405568 0.9976296
1.0000000 0.9499443 0.9973707
1.0000000 0.9558963 0.9973803
1.0000000 0.9604284 0.9974642
1.0000000 0.9638529 0.9975865
0.6423845 0.9631345 1.0000000
0.8901100 0.9685634 0.9976133
0.9691828 0.9763536 0.9965389
0.9916384 0.9815857 0.9965137
0.9987016 0.9844760 0.9967445
1.0000000 0.9865275 0.9970019
1.0000000 0.9879773 0.9972431
1.0000000 0.9888752 0.9974568
0.6809556 0.9895878 0.9999810
0.9041657 0.9877229 0.9971629
0.9731945 0.9904515 0.9966403
0.9915178 0.9925036 0.9968455
0.9973267 0.9939073 0.9971616
0.9994088 0.9946562 0.9974366
1.0000000 0.9951682 0.9976711
1.0000000 0.9956045 0.9978150
0.7018991 0.9998552 0.9997307
0.9105799 0.9947814 0.9973858
0.9753836 0.9953786 0.9970410
0.9923071 0.9963759 0.9972911
0.9972106 0.9970225 0.9975978
0.9989169 0.9974607 0.9978608
0.9997377 0.9977102 0.9980189
1.0000000 0.9979372 0.9982025
0.7182224 1.0000000 0.9997750
0.9157962 0.9983083 0.9977148
0.9768487 0.9976499 0.9974366
0.9929035 0.9981273 0.9976915
0.9973654 0.9984736 0.9979799
0.9988239 0.9986688 0.9981551
0.9995054 0.9988355 0.9983529
0.9998499 0.9989327 0.9985067
0.7294276 1.0000000 0.9999367
0.9149697 1.0000000 0.9980684
0.9775330 0.9987672 0.9977690
0.9932396 0.9988855 0.9979322
0.9975365 0.9991075 0.9982157
0.9988360 0.9992262 0.9984213
0.9994575 0.9993122 0.9985917
0.9997418 0.9993812 0.9987302
0.7663499 1.0000000 0.9997866
0.9141582 1.0000000 0.9983654
0.9775871 0.9993920 0.9979742
0.9934591 0.9993093 0.9981845
0.9975958 0.9994211 0.9984298
0.9988979 0.9995024 0.9986212
0.9994379 0.9995561 0.9987708
0.9997092 0.9996024 0.9988971
0.6709071 0.6937069 1.0000000
0.9109809 0.7695569 1.0000000
0.9916191 0.8227335 1.0000000
1.0000000 0.8557735 1.0000000
1.0000000 0.8753771 1.0000000
1.0000000 0.8959659 1.0000000
1.0000000 0.9134695 1.0000000
1.0000000 0.9271976 1.0000000
0.7370790 0.9162257 1.0000000
0.9212282 0.9373910 1.0000000
0.9789201 0.9530716 1.0000000
0.9965637 0.9625067 1.0000000
1.0000000 0.9680276 1.0000000
1.0000000 0.9717805 1.0000000
1.0000000 0.9745748 0.9999204
1.0000000 0.9766676 0.9998205
0.7773395 0.9729431 1.0000000
0.9350766 0.9788297 1.0000000
0.9807862 0.9840869 0.9997215
0.9939129 0.9875602 0.9993913
0.9982879 0.9895565 0.9992735
1.0000000 0.9907382 0.9992765
1.0000000 0.9917207 0.9992673
1.0000000 0.9924828 0.9993038
0.8000641 0.9908653 1.0000000
0.9428520 0.9912205 1.0000000
0.9834144 0.9933549 0.9993467
0.9943200 0.9948981 0.9991865
0.9977075 0.9957097 0.9992050
0.9991866 0.9962256 0.9992244
0.9998589 0.9966430 0.9992785
1.0000000 0.9969000 0.9993079
0.8129406 0.9982000 1.0000000
0.9479893 0.9959204 0.9998263
0.9849414 0.9967349 0.9992961
0.9948089 0.9974789 0.9992424
0.9977853 0.9979075 0.9992602
0.9989827 0.9982229 0.9993205
0.9995595 0.9983975 0.9993565
0.9998679 0.9985199 0.9993897
0.8211026 1.0000000 1.0000000
0.9506167 0.9982463 0.9997669
0.9862456 0.9982431 0.9993554
0.9953911 0.9986537 0.9993082
0.9979808 0.9988962 0.9993612
0.9989953 0.9990439 0.9994007
0.9994969 0.9991465 0.9994390
0.9997429 0.9992359 0.9994893
0.8228416 1.0000000 1.0000000
0.9512894 0.9994277 0.9998136
0.9870255 0.9989726 0.9994023
0.9956449 0.9991735 0.9993723
0.9981465 0.9993280 0.9994278
0.9990465 0.9994206 0.9994678
0.9994864 0.9994880 0.9995194
0.9997159 0.9995418 0.9995505
0.8211857 1.0000000 1.0000000
0.9514213 1.0000000 0.9998437
0.9871128 0.9993809 0.9994532
0.9957591 0.9994444 0.9994443
0.9982708 0.9995556 0.9994825
0.9991174 0.9996213 0.9995364
0.9995116 0.9996647 0.9995690
0.9997051 0.9996946 0.9996058
0.8031694 0.7993761 1.0000000
0.9479494 0.8509927 1.0000000
0.9938062 0.8839130 1.0000000
1.0000000 0.9028543 1.0000000
1.0000000 0.9156846 1.0000000
1.0000000 0.9250119 1.0000000
1.0000000 0.9348584 1.0000000
1.0000000 0.9445118 1.0000000
0.8447251 0.9445412 1.0000000
0.9538089 0.9594097 1.0000000
0.9862657 0.9691833 1.0000000
0.9967492 0.9745413 1.0000000
1.0000000 0.9781375 1.0000000
1.0000000 0.9806814 1.0000000
1.0000000 0.9824929 1.0000000
1.0000000 0.9839025 1.0000000
0.8711459 0.9806119 1.0000000
0.9615866 0.9854971 1.0000000
0.9875491 0.9890561 1.0000000
0.9955496 0.9913641 1.0000000
0.9983413 0.9925179 0.9999138
0.9997055 0.9934515 0.9998465
1.0000000 0.9940128 0.9998145
1.0000000 0.9945253 0.9997942
0.8834251 0.9922825 1.0000000
0.9671640 0.9935991 1.0000000
0.9891946 0.9951835 0.9999537
0.9959328 0.9962760 0.9997905
0.9981047 0.9968107 0.9997440
0.9991905 0.9972444 0.9997244
0.9997084 0.9974837 0.9997213
1.0000000 0.9976795 0.9997321
0.8899471 0.9975001 1.0000000
0.9700969 0.9969010 1.0000000
0.9904891 0.9975966 0.9998409
0.9963613 0.9981682 0.9997419
0.9982866 0.9984672 0.9997213
0.9991179 0.9986545 0.9997209
0.9995450 0.9988169 0.9997352
0.9997804 0.9989055 0.9997430
0.8937745 1.0000000 1.0000000
0.9718165 0.9984518 1.0000000
0.9913754 0.9986778 0.9998122
0.9967745 0.9989738 0.9997437
0.9984595 0.9991673 0.9997368
0.9991612 0.9992779 0.9997503
0.9995360 0.9993551 0.9997597
0.9997285 0.9994060 0.9997694
0.8938738 1.0000000 1.0000000
0.9718267 0.9992299 1.0000000
0.9918271 0.9991785 0.9998132
0.9970667 0.9993665 0.9997584
0.9985851 0.9994791 0.9997642
0.9992353 0.9995522 0.9997728
0.9995484 0.9996004 0.9997833
0.9997258 0.9996426 0.9997946
0.8920369 1.0000000 1.0000000
0.9717619 0.9997072 1.0000000
0.9920827 0.9994720 0.9998223
0.9971707 0.9995660 0.9997821
0.9986771 0.9996443 0.9997827
0.9992797 0.9996957 0.9997924
0.9995793 0.9997362 0.9998043
0.9997355 0.9997600 0.9998143
0.8801973 0.8652262 1.0000000
0.9684560 0.9002787 1.0000000
0.9958513 0.9206461 1.0000000
1.0000000 0.9331757 1.0000000
1.0000000 0.9412702 1.0000000
1.0000000 0.9476507 1.0000000
1.0000000 0.9518875 1.0000000
1.0000000 0.9571266 1.0000000
0.9081042 0.9627017 1.0000000
0.9715354 0.9723636 1.0000000
0.9908634 0.9787704 1.0000000
0.9972377 0.9824309 1.0000000
0.9999373 0.9847997 1.0000000
1.0000000 0.9864672 1.0000000
1.0000000 0.9874706 1.0000000
1.0000000 0.9884737 1.0000000
0.9227221 0.9858757 1.0000000
0.9767777 0.9897681 1.0000000
0.9919150 0.9922075 1.0000000
0.9966429 0.9936731 1.0000000
0.9985951 0.9944851 1.0000000
0.9995909 0.9951564 1.0000000
1.0000000 0.9955354 0.9999823
1.0000000 0.9959018 0.9999599
0.9306377 0.9937961 1.0000000
0.9801691 0.9952766 1.0000000
0.9929429 0.9964336 1.0000000
0.9969574 0.9971178 0.9999660
0.9984873 0.9975609 0.9999185
0.9992633 0.9978327 0.9998960
0.9996741 0.9980599 0.9998839
0.9999059 0.9981896 0.9998793
0.9364505 0.9974370 1.0000000
0.9820729 0.9976090 1.0000000
0.9939851 0.9982373 0.9999731
0.9973815 0.9985970 0.9999024
0.9986517 0.9988096 0.9998789
0.9992657 0.9989749 0.9998699
0.9995735 0.9990661 0.9998682
0.9997660 0.9991362 0.9998688
0.9393621 0.9991821 1.0000000
0.9835332 0.9986994 1.0000000
0.9945199 0.9989949 0.9999410
0.9976496 0.9992068 0.9998894
0.9987925 0.9993372 0.9998754
0.9993123 0.9994212 0.9998727
0.9995855 0.9994897 0.9998742
0.9997424 0.9995303 0.9998770
0.9393715 1.0000000 1.0000000
0.9838946 0.9992501 1.0000000
0.9947897 0.9993482 0.9999330
0.9978710 0.9994974 0.9998897
0.9988990 0.9995823 0.9998809
0.9993637 0.9996380 0.9998809
0.9996131 0.9996774 0.9998838
0.9997494 0.9997104 0.9998879
0.9389961 1.0000000 1.0000000
0.9838074 0.9995801 1.0000000
0.9949352 0.9995565 0.9999326
0.9980025 0.9996468 0.9998940
0.9989687 0.9997071 0.9998879
0.9994180 0.9997536 0.9998895
0.9996328 0.9997804 0.9998931
0.9997562 0.9997997 0.9998971
0.9309667 0.9102066 1.0000000
0.9800510 0.9322209 1.0000000
0.9969937 0.9453601 1.0000000
1.0000000 0.9528081 1.0000000
1.0000000 0.9588624 1.0000000
1.0000000 0.9626034 1.0000000
1.0000000 0.9655441 1.0000000
1.0000000 0.9681594 1.0000000
0.9460733 0.9741701 1.0000000
0.9821915 0.9809805 1.0000000
0.9936983 0.9850981 1.0000000
0.9978263 0.9872758 1.0000000
0.9996972 0.9888562 1.0000000
1.0000000 0.9900266 1.0000000
1.0000000 0.9908891 1.0000000
1.0000000 0.9914276 1.0000000
0.9549572 0.9898158 1.0000000
0.9852298 0.9924863 1.0000000
0.9944144 0.9942806 1.0000000
0.9974687 0.9951773 1.0000000
0.9988253 0.9958347 1.0000000
0.9995732 0.9962479 1.0000000
0.9999563 0.9965940 1.0000000
1.0000000 0.9968051 1.0000000
0.9591973 0.9952110 1.0000000
0.9873179 0.9964191 1.0000000
0.9952584 0.9973351 1.0000000
0.9977102 0.9977909 1.0000000
0.9988109 0.9980850 0.9999814
0.9993603 0.9983181 0.9999602
0.9996768 0.9984576 0.9999492
0.9998598 0.9985909 0.9999418
0.9625614 0.9977376 1.0000000
0.9888862 0.9981920 1.0000000
0.9958477 0.9986321 1.0000000
0.9980166 0.9988899 0.9999631
0.9989254 0.9990698 0.9999414
0.9993817 0.9991762 0.9999319
0.9996287 0.9992492 0.9999277
0.9997659 0.9993145 0.9999261
0.9644589 0.9989538 1.0000000
0.9897695 0.9989626 1.0000000
0.9963248 0.9992059 0.9999830
0.9982501 0.9993613 0.9999464
0.9990383 0.9994695 0.9999329
0.9994287 0.9995344 0.9999281
0.9996367 0.9995784 0.9999268
0.9997590 0.9996099 0.9999270
0.9644943 0.9996590 1.0000000
0.9902057 0.9993507 1.0000000
0.9966198 0.9994828 0.9999714
0.9984052 0.9995849 0.9999424
0.9991413 0.9996594 0.9999328
0.9994836 0.9997030 0.9999304
0.9996643 0.9997326 0.9999305
0.9997707 0.9997529 0.9999301
0.9636649 1.0000000 1.0000000
0.9903613 0.9995770 1.0000000
0.9967138 0.9996335 0.9999687
0.9985160 0.9997116 0.9999425
0.9991976 0.9997597 0.9999354
0.9995155 0.9997918 0.9999341
0.9996893 0.9998139 0.9999335
0.9997842 0.9998292 0.9999352
