Plugins/FilmEmulator/Content/LUTs/FE_Kodak_Aerocolor_2460_High_64.cube
TITLE "FE_Kodak_Aerocolor_2460_High_33"
LUT_3D_SIZE 8
0.0001125 0.0000642 0.0000487
0.0434151 0.0002458 0.0004046
0.1994617 0.0009711 0.0019480
0.4374256 0.0023094 0.0053925
0.6616285 0.0042309 0.0107099
0.7950711 0.0067271 0.0181528
0.8668529 0.0102383 0.0280725
0.9111998 0.0144835 0.0389415
0.0002447 0.0353777 0.0011517
0.0523674 0.0488332 0.0038782
0.2178929 0.0624377 0.0089143
0.4638453 0.0752321 0.0163997
0.6738252 0.0861173 0.0259177
0.8030702 0.0995073 0.0377161
0.8764346 0.1110324 0.0511817
0.9144522 0.1264151 0.0676292
0.0009011 0.1573525 0.0061305
0.0593068 0.1868680 0.0125612
0.2286398 0.2089146 0.0213641
0.4805372 0.2363358 0.0334723
0.6887334 0.2569344 0.0467566
0.8130238 0.2772629 0.0614277
0.8787068 0.2975476 0.0784049
0.9160264 0.3183863 0.1002653
0.0021622 0.3480365 0.0170817
0.0642509 0.3805635 0.0270042
0.2384932 0.4108254 0.0392787
0.4953503 0.4306691 0.0545422
0.7017245 0.4563886 0.0715297
0.8151822 0.4724718 0.0909624
0.8801529 0.4875782 0.1126458
0.9200251 0.5106968 0.1394709
0.0040026 0.5129380 0.0341292
0.0691712 0.5419307 0.0462529
0.2549561 0.5634086 0.0623046
0.5090882 0.5896077 0.0816867
0.7037838 0.6050882 0.1006225
0.8229796 0.6198111 0.1246648
0.8854297 0.6335524 0.1534298
0.9207028 0.6454340 0.1772307
0.0066353 0.6364404 0.0554797
0.0766751 0.6595055 0.0704076
0.2640001 0.6770092 0.0893722
0.5108664 0.6923434 0.1135989
0.7148539 0.7054555 0.1362230
0.8240228 0.7177098 0.1670932
0.8861542 0.7281557 0.1925133
0.9240480 0.7380679 0.2202217
0.0104751 0.7258286 0.0813727
0.0821366 0.7380332 0.1000049
0.2728820 0.7524186 0.1235436
0.5236900 0.7649087 0.1521453
0.7254045 0.7752912 0.1757544
0.8308908 0.7800907 0.2070926
0.8907606 0.7886865 0.2363154
0.9244193 0.7966793 0.2678711
0.0150301 0.7843963 0.1150618
0.0879090 0.7976944 0.1339112
0.2817474 0.8052329 0.1640920
0.5362378 0.8150277 0.1891876
0.7263598 0.8240078 0.2224815
0.8315671 0.8276141 0.2527750
0.8912297 0.8344387 0.2787053
0.9247568 0.8407635 0.3060042
0.0008888 0.0029396 0.0508727
0.0676740 0.0050070 0.0653709
0.2384797 0.0075496 0.0839871
0.4876869 0.0108729 0.1037518
0.6963381 0.0149269 0.1270937
0.8113031 0.0198504 0.1497745
0.8776395 0.0255857 0.1753134
0.9153761 0.0331027 0.2035537
0.0014412 0.0826091 0.0918624
0.0757456 0.1003708 0.1114397
0.2624064 0.1130311 0.1341309
0.5103604 0.1261548 0.1605363
0.7052643 0.1431499 0.1858327
0.8235079 0.1537385 0.2130761
0.8857267 0.1682775 0.2369034
0.9208822 0.1847495 0.2626992
0.0024201 0.2467769 0.1293740
0.0822470 0.2773567 0.1548875
0.2741631 0.3007527 0.1840767
0.5268298 0.3230460 0.2114876
0.7187262 0.3365327 0.2347618
0.8263111 0.3579146 0.2661922
0.8876463 0.3787093 0.2933368
0.9222271 0.3989533 0.3211348
0.0043785 0.4354908 0.1733118
0.0886553 0.4706617 0.1994830
0.2847783 0.4891166 0.2280028
0.5301381 0.5137869 0.2589659
0.7214220 0.5284925 0.2851365
0.8341417 0.5422746 0.3124430
0.8889051 0.5625906 0.3411241
0.9230881 0.5740194 0.3631561
0.0073091 0.5933580 0.2183530
0.0951028 0.6168822 0.2485172
0.2948883 0.6329716 0.2739550
0.5437421 0.6471330 0.3010198
0.7323409 0.6599641 0.3288581
0.8354000 0.6715878 0.3576263
0.8937232 0.6825113 0.3874005
0.9264372 0.6922519 0.4094596
0.0111981 0.6955379 0.2673930
0.1017405 0.7136603 0.2940230
0.3050140 0.7271085 0.3220238
0.5566632 0.7331418 0.3498802
0.7422385 0.7433485 0.3721203
0.8420749 0.7528942 0.4019634
0.8943430 0.7611798 0.4242668
0.9268793 0.7689286 0.4469026
0.0160989 0.7665679 0.3065674
0.1086240 0.7756925 0.3343707
0.3151363 0.7867898 0.3633196
0.5693153 0.7961308 0.3859083
0.7433342 0.8045956 0.4157453
0.8427737 0.8075516 0.4376440
0.8986512 0.8144444 0.4604391
0.9298619 0.8208829 0.4831251
0.0223661 0.8168092 0.3540630
0.1158702 0.8232582 0.3758197
0.3253431 0.8325183 0.4061493
0.5816591 0.8403085 0.4285158
0.7525531 0.8432936 0.4505903
0.8489850 0.8494864 0.4735207
0.8990479 0.8514736 0.4953296
0.9301461 0.8568401 0.5174984
0.0040910 0.0133804 0.2237823
0.0916690 0.0186623 0.2506846
0.2885566 0.0252593 0.2797802
0.5376945 0.0318524 0.3029798
0.7189125 0.0399558 0.3263882
0.8263495 0.0501585 0.3576158
0.8876966 0.0602464 0.3822426
0.9222855 0.0717257 0.3996797
0.0053693 0.1306534 0.2955085
0.1008448 0.1497229 0.3238639
0.3046681 0.1659673 0.3460579
0.5573516 0.1837477 0.3685265
0.7339843 0.1975357 0.3980629
0.8364524 0.2167263 0.4215596
0.8943473 0.2305542 0.4370355
0.9241291 0.2514736 0.4605530
0.0066894 0.3194700 0.3517843
0.1089626 0.3497820 0.3740903
0.3176630 0.3736774 0.3967235
0.5618540 0.3966309 0.4270868
0.7459955 0.4097637 0.4422054
0.8388205 0.4306504 0.4650102
0.8959870 0.4514794 0.4879961
0.9279565 0.4634719 0.5102977
0.0083392 0.5086009 0.3960804
0.1170080 0.5326936 0.4183660
0.3294753 0.5494643 0.4483891
0.5759790 0.5711413 0.4640002
0.7482479 0.5842032 0.4861524
0.8460069 0.5963323 0.5083903
0.8969820 0.6071215 0.5234556
0.9286672 0.6179783 0.5447522
0.0119636 0.6430257 0.4439312
0.1253439 0.6626516 0.4594133
0.3408580 0.6766679 0.4815115
0.5891584 0.6891512 0.5037160
0.7581100 0.7003242 0.5259354
0.8471097 0.7099352 0.5407177
0.9014795 0.7191414 0.5617398
0.9292232 0.7272188 0.5758627
0.0172286 0.7295214 0.4815348
0.1299333 0.7446861 0.4965219
0.3518709 0.7563263 0.5187105
0.6017390 0.7664199 0.5408404
0.7592850 0.7747101 0.5551735
0.8533158 0.7778730 0.5754380
0.9020032 0.7849168 0.5894290
0.9321574 0.7916075 0.6032874
0.0231135 0.7932866 0.5105501
0.1386558 0.8008183 0.5320756
0.3627652 0.8100042 0.5470038
0.6029810 0.8182788 0.5680755
0.7681899 0.8211880 0.5815229
0.8539725 0.8278524 0.6020873
0.9060341 0.8338451 0.6158175
0.9324602 0.8353749 0.6285607
0.0309684 0.8344203 0.5448709
0.1478235 0.8436512 0.5595241
0.3736095 0.8477779 0.5797486
0.6149248 0.8544683 0.5937161
0.7768803 0.8604083 0.6075463
0.8597605 0.8624812 0.6270309
0.9064057 0.8673788 0.6401069
0.9351777 0.8687363 0.6524078
0.0104643 0.0369505 0.4143707
0.1224332 0.0464601 0.4394889
0.3367736 0.0567517 0.4643589
0.5748160 0.0683257 0.4820609
0.7475121 0.0816019 0.4997727
0.8454778 0.0936565 0.5234193
0.8966161 0.1068410 0.5401254
0.9283695 0.1172037 0.5555205
0.0128755 0.1849740 0.4830340
0.1294148 0.2089410 0.4990874
0.3524427 0.2255223 0.5211383
0.5923051 0.2479862 0.5371230
0.7603337 0.2646365 0.5522960
0.8485177 0.2815486 0.5738895
0.8986664 0.2982623 0.5884651
0.9298111 0.3153146 0.6028993
0.0151078 0.3903547 0.5270652
0.1394887 0.4198842 0.5490623
0.3659566 0.4354848 0.5633931
0.6071574 0.4582215 0.5783862
0.7631620 0.4713043 0.5922704
0.8558764 0.4920151 0.6066124
0.9036699 0.5034233 0.6200532
0.9307806 0.5225841 0.6340111
0.0182949 0.5645504 0.5629849
0.1494882 0.5851305 0.5838625
0.3784270 0.5998664 0.5978093
0.6096647 0.6128902 0.6113282
0.7730854 0.6323979 0.6253555
0.8571716 0.6432360 0.6385256
0.9045825 0.6533540 0.6514907
0.9339045 0.6629059 0.6642287
0.0212952 0.6830091 0.5939578
0.1550624 0.7003169 0.6141557
0.3904124 0.7124864 0.6274211
0.6223614 0.7171625 0.6399077
0.7743607 0.7267444 0.6528054
0.8631965 0.7356274 0.6654896
0.9086819 0.7437468 0.6779997
0.9343486 0.7509728 0.6844729
0.0247468 0.7555263 0.6208937
0.1653115 0.7691048 0.6340442
0.4020914 0.7790967 0.6470097
0.6346153 0.7877890 0.6597713
0.7831422 0.7954919 0.6723119
0.8638877 0.7979445 0.6841289
0.9091665 0.8044972 0.6963011
0.9347056 0.8105913 0.7082109
0.0319785 0.8099782 0.6460080
0.1710581 0.8206577 0.6587931
0.4140375 0.8290297 0.6713625
0.6463782 0.8322938 0.6831483
0.7914213 0.8387928 0.6953517
0.8694493 0.8446380 0.7072932
0.9095631 0.8459656 0.7129011
0.9373658 0.8511772 0.7244357
0.0410694 0.8517267 0.6699055
0.1821595 0.8565231 0.6817154
0.4258807 0.8634656 0.6939022
0.6473650 0.8658527 0.6996579
0.7921394 0.8712812 0.7115077
0.8699448 0.8761486 0.7230799
0.9131999 0.8775511 0.7338656
0.9376225 0.8815733 0.7396540
0.0217187 0.0737178 0.5662249
0.1526946 0.0869040 0.5823829
0.3779679 0.1005954 0.5983833
0.6211760 0.1149422 0.6140806
0.7734193 0.1296122 0.6294464
0.8572913 0.1415641 0.6376818
0.9046074 0.1543472 0.6520137
0.9313982 0.1677614 0.6660773
0.0247721 0.2500233 0.6175489
0.1653097 0.2719492 0.6316276
0.3934373 0.2909633 0.6393749
0.6262367 0.3101089 0.6532298
0.7770510 0.3292659 0.6668639
0.8597886 0.3483426 0.6802375
0.9063403 0.3670008 0.6875138
0.9351052 0.3862886 0.7004434
0.0290279 0.4522673 0.6490958
0.1724613 0.4798438 0.6627297
0.4075753 0.4950405 0.6754289
0.6404181 0.5171793 0.6885223
0.7870803 0.5294556 0.6949633
0.8665214 0.5495419 0.7076193
0.9108396 0.5608391 0.7193272
0.9358824 0.5711319 0.7253336
0.0326025 0.6070040 0.6796899
0.1845214 0.6317614 0.6868187
0.4208200 0.6454087 0.6990062
0.6532468 0.6576047 0.7109120
0.7887226 0.6679383 0.7170423
0.8675883 0.6780098 0.7284798
0.9115863 0.6874497 0.7395530
0.9364320 0.6959222 0.7452433
0.0364887 0.7113858 0.7001691
0.1910932 0.7257879 0.7120169
0.4334044 0.7366352 0.7181065
0.6548588 0.7465009 0.7295315
0.7972283 0.7554193 0.7405705
0.8730994 0.7631494 0.7462204
0.9121591 0.7705403 0.7567933
0.9391571 0.7773734 0.7622066
0.0407671 0.7830281 0.7183047
0.1976344 0.7898496 0.7292066
0.4457533 0.7990523 0.7402928
0.6665525 0.8067250 0.7459298
0.8052660 0.8138906 0.7564940
0.8736867 0.8157255 0.7614363
0.9156880 0.8218163 0.7715586
0.9394581 0.8271987 0.7767252
0.0454479 0.8282794 0.7341698
0.2102064 0.8378195 0.7451326
0.4579294 0.8415449 0.7552564
0.6778336 0.8479865 0.7606854
0.8060192 0.8538572 0.7708390
0.8786723 0.8554733 0.7755803
0.9160610 0.8604457 0.7852849
0.9397061 0.8615246 0.7898105
0.0523147 0.8631032 0.7540421
0.2169181 0.8672683 0.7590203
0.4700594 0.8736728 0.7692273
0.6787798 0.8789283 0.7744450
0.8135036 0.8808829 0.7837532
0.8791386 0.8851262 0.7887326
0.9193442 0.8862282 0.7932059
0.9420602 0.8901852 0.8021907
0.0373927 0.1183274 0.6719560
0.1894292 0.1359065 0.6861337
0.4327945 0.1498693 0.6936762
0.6548384 0.1644427 0.7067238
0.7897329 0.1792068 0.7139752
0.8680501 0.1950985 0.7265289
0.9118305 0.2128270 0.7336542
0.9366508 0.2259258 0.7451834
0.0423428 0.3133206 0.7076296
0.1981505 0.3372381 0.7199625
0.4486095 0.3590419 0.7266577
0.6592692 0.3803424 0.7384975
0.8001850 0.4009904 0.7449104
0.8701596 0.4127640 0.7556270
0.9132687 0.4320424 0.7616715
0.9377135 0.4510925 0.7675230
0.0475460 0.5112795 0.7336000
0.2120758 0.5290862 0.7445850
0.4518758 0.5515434 0.7508099
0.6724244 0.5651059 0.7613266
0.8021207 0.5769468 0.7667389
0.8761188 0.5960333 0.7770967
0.9142190 0.6060332 0.7821060
0.9405357 0.6158768 0.7870351
0.0513597 0.6517752 0.7538000
0.2198063 0.6672052 0.7641900
0.4651554 0.6794297 0.7695212
0.6845382 0.6908513 0.7794069
0.8105220 0.7006142 0.7843636
0.8770449 0.7095090 0.7892385
0.9179186 0.7183864 0.7983004
0.9410114 0.7263499 0.8029416
0.0572446 0.7416699 0.7704521
0.2278397 0.7541107 0.7803267
0.4779841 0.7640411 0.7853326
0.6958722 0.7676790 0.7897360
0.8115258 0.7757281 0.7987601
0.8820953 0.7829736 0.8033716
0.9184077 0.7894434 0.8078921
0.9413694 0.7958491 0.8163068
0.0615734 0.8026187 0.7850927
0.2429494 0.8080992 0.7895829
0.4904056 0.8164033 0.7985976
0.6970811 0.8234399 0.8031986
0.8187578 0.8256621 0.8073267
0.8826406 0.8316685 0.8157636
0.9217054 0.8371204 0.8200665
0.9437096 0.8421808 0.8242909
0.0681601 0.8409885 0.7976419
0.2511563 0.8491490 0.8022648
0.5027380 0.8560817 0.8108783
0.7077053 0.8584747 0.8148859
0.8257134 0.8637440 0.8192062
0.8873224 0.8684692 0.8234472
0.9220204 0.8698225 0.8309746
0.9439418 0.8740445 0.8349982
0.0729606 0.8732696 0.8095924
0.2594692 0.8799726 0.8140107
0.5148463 0.8825565 0.8179686
0.7086036 0.8875977 0.8260527
0.8262725 0.8891215 0.8298068
0.8877118 0.8930969 0.8338535
0.9223008 0.8940465 0.8374716
0.9441481 0.8975757 0.8412846
0.0568629 0.1694610 0.7505823
0.2272117 0.1875510 0.7570156
0.4783174 0.2016438 0.7629285
0.6869036 0.2212375 0.7692869
0.8116949 0.2358058 0.7795384
0.8778151 0.2563521 0.7855781
0.9153699 0.2715167 0.7910240
0.9392034 0.2941186 0.7968825
0.0638787 0.3760795 0.7734391
0.2374154 0.4009699 0.7836130
0.4939905 0.4234974 0.7890858
0.7005712 0.4449902 0.7944572
0.8143386 0.4569681 0.7992234
0.8796147 0.4774476 0.8085058
0.9195992 0.4886465 0.8129258
0.9421948 0.5080076 0.8177345
0.0689034 0.5600134 0.7938095
0.2543084 0.5837919 0.7990164
0.4969395 0.5975724 0.8077851
0.7029377 0.6097847 0.8122818
0.8223759 0.6208926 0.8166963
0.8850551 0.6385067 0.8213572
0.9204257 0.6480742 0.8255102
0.9427694 0.6572917 0.8295872
0.0740591 0.6859314 0.8098353
0.2634718 0.6994640 0.8142788
0.5101848 0.7107676 0.8186443
0.7142882 0.7209808 0.8229292
0.8236116 0.7303249 0.8306832
0.8858578 0.7383436 0.8346304
0.9238333 0.7459756 0.8385035
0.9431906 0.7529769 0.8423035
0.0819625 0.7634661 0.8190603
0.2724662 0.7746184 0.8271134
0.5231629 0.7836097 0.8311207
0.7155930 0.7914159 0.8350483
0.8305733 0.7939001 0.8385598
0.8905313 0.8003730 0.8423453
0.9242473 0.8063786 0.8460585
0.9454941 0.8120852 0.8496999
0.0877236 0.8158213 0.8306918
0.2814068 0.8245723 0.8346292
0.5358159 0.8320523 0.8384987
0.7259154 0.8346320 0.8419531
0.8313110 0.8407256 0.8490058
0.8910440 0.8460895 0.8525963
0.9245828 0.8473705 0.8557994
0.9457417 0.8521610 0.8592553
0.0937077 0.8557062 0.8412498
0.2904514 0.8628632 0.8449931
0.5482169 0.8656914 0.8483361
0.7358893 0.8711230 0.8519445
0.8378193 0.8727092 0.8551607
0.8953873 0.8771744 0.8586321
0.9276246 0.8812924 0.8620334
0.9459662 0.8821306 0.8650643
0.0999798 0.8822985 0.8473409
0.2994800 0.8882744 0.8509687
0.5604554 0.8906626 0.8542060
0.7366415 0.8951276 0.8576990
0.8383476 0.8964571 0.8608115
0.8957524 0.9001899 0.8641694
0.9278538 0.9012418 0.8700968
0.9480660 0.9045200 0.8732091
0.0816068 0.2239683 0.8010722
0.2725787 0.2473073 0.8065754
0.5248017 0.2647164 0.8115264
0.7171723 0.2818742 0.8163793
0.8252755 0.3064745 0.8253329
0.8869147 0.3237979 0.8299046
0.9216955 0.3413179 0.8343875
0.9436527 0.3593069 0.8387885
0.0882115 0.4409470 0.8229710
0.2837952 0.4654712 0.8275822
0.5287841 0.4796546 0.8316615
0.7204338 0.5013737 0.8360937
0.8334496 0.5132924 0.8399905
0.8884071 0.5324354 0.8442066
0.9227246 0.5430430 0.8479453
0.9444061 0.5614985 0.8519303
0.0947513 0.6050372 0.8351254
0.2940598 0.6197419 0.8390271
0.5428756 0.6399440 0.8432377
0.7316468 0.6514376 0.8469837
0.8349060 0.6617938 0.8506549
0.8933759 0.6714144 0.8542483
0.9261820 0.6802830 0.8577036
0.9468370 0.6887972 0.8610625
0.1014830 0.7167714 0.8446333
0.3044349 0.7289574 0.8515982
0.5560995 0.7391811 0.8551504
0.7417913 0.7482682 0.8586308
0.8417560 0.7563344 0.8619839
0.8940631 0.7583387 0.8649347
0.9266744 0.7654199 0.8681335
0.9471978 0.7721714 0.8712682
0.1084068 0.7829561 0.8551930
0.3146695 0.7925592 0.8586599
0.5687772 0.8008907 0.8620589
0.7429062 0.8080800 0.8653334
0.8425322 0.8145446 0.8685138
0.8984352 0.8163140 0.8713466
0.9297019 0.8219340 0.8744047
0.9474885 0.8271612 0.8774004
0.1156849 0.8316413 0.8617051
0.3249612 0.8395439 0.8650467
0.5811132 0.8426707 0.8679742
0.7522164 0.8487066 0.8711084
0.8487461 0.8541172 0.8741775
0.8988737 0.8554748 0.8769061
0.9300169 0.8601694 0.8798556
0.9477289 0.8645241 0.8827438
0.1196569 0.8653311 0.8703027
0.3352397 0.8719387 0.8733925
0.5821611 0.8744397 0.8761402
0.7530259 0.8794586 0.8791102
0.8493066 0.8839442 0.8820171
0.9029404 0.8851472 0.8845990
0.9303017 0.8887631 0.8848633
0.9497638 0.8896210 0.8873903
0.1276051 0.8903997 0.8753746
0.3455823 0.8958803 0.8783611
0.5941848 0.8979803 0.8810161
0.7619274 0.9021380 0.8838823
0.8551273 0.9033737 0.8864297
0.9032810 0.9067591 0.8891779
0.9330394 0.9075813 0.8916222
0.9499491 0.9105895 0.8942597
