Plugins/FilmEmulator/Content/LUTs/FE_Kodak_Ektachrome_Radiance_III_64.cube
TITLE "FE_Kodak_Ektachrome_Radiance_III_33"
LUT_3D_SIZE 64
0.0035917 0.0053061 0.0050837
0.0059645 0.0058246 0.0051470
0.0120655 0.0067810 0.0051481
0.0184370 0.0075288 0.0052243
0.0261575 0.0083506 0.0054621
0.0349578 0.0091157 0.0054995
0.0437339 0.0097885 0.0055891
0.0521547 0.0104568 0.0058371
0.0603482 0.0109933 0.0061412
0.0684683 0.0115011 0.0066317
0.0763444 0.0119901 0.0071659
0.0845464 0.0125616 0.0078276
0.0938523 0.0132741 0.0085021
0.1023610 0.0139729 0.0092444
0.1116719 0.0147443 0.0101612
0.1206609 0.0154921 0.0111407
0.1291039 0.0161990 0.0121238
0.1382875 0.0170784 0.0133967
0.1480535 0.0180081 0.0144519
0.1571478 0.0190270 0.0158418
0.1666045 0.0199882 0.0171590
0.1763003 0.0208461 0.0183289
0.1866938 0.0218542 0.0198643
0.1957724 0.0227231 0.0212332
0.2052808 0.0236097 0.0226855
0.2153385 0.0245455 0.0242165
0.2238321 0.0253749 0.0254917
0.2349482 0.0264494 0.0271702
0.2445167 0.0275088 0.0285454
0.2545296 0.0286272 0.0299907
0.2651238 0.0298807 0.0315267
0.2764556 0.0313752 0.0331591
0.2882704 0.0329445 0.0348762
0.2976188 0.0342741 0.0362652
0.3106523 0.0361998 0.0382064
0.3206899 0.0377125 0.0397313
0.3311093 0.0393238 0.0412853
0.3455962 0.0416217 0.0434484
0.3567252 0.0434292 0.0451461
0.3681924 0.0452987 0.0468618
0.3800043 0.0472304 0.0486280
0.3917974 0.0492361 0.0504641
0.3996458 0.0506156 0.0517284
0.4115616 0.0526443 0.0535581
0.4237568 0.0546998 0.0554508
0.4327344 0.0567588 0.0574390
0.4441437 0.0582874 0.0587428
0.4565571 0.0603901 0.0607311
0.4650071 0.0618207 0.0620935
0.4739863 0.0639400 0.0642262
0.4847873 0.0654996 0.0656417
0.4927394 0.0670332 0.0670658
0.5008537 0.0686614 0.0692607
0.5128517 0.0710296 0.0707659
0.5201672 0.0726701 0.0723099
0.5275871 0.0743467 0.0738764
0.5351711 0.0761058 0.0754669
0.5428646 0.0779054 0.0770916
0.5505209 0.0797429 0.0787522
0.5575380 0.0816028 0.0804541
0.5646442 0.0835045 0.0821909
0.5718001 0.0854166 0.0839605
0.5790383 0.0873646 0.0857676
0.5863677 0.0893558 0.0876133
0.0035193 0.0065925 0.0052405
0.0065346 0.0073490 0.0052776
0.0128745 0.0085111 0.0052673
0.0196990 0.0094809 0.0052298
0.0277295 0.0104217 0.0054624
0.0370441 0.0113084 0.0054932
0.0461915 0.0119991 0.0055104
0.0548295 0.0125915 0.0056681
0.0633555 0.0131823 0.0059195
0.0711030 0.0136525 0.0062985
0.0790960 0.0141089 0.0067751
0.0881372 0.0146453 0.0073486
0.0964129 0.0150507 0.0079355
0.1046560 0.0155112 0.0086673
0.1134824 0.0158794 0.0093389
0.1219306 0.0162467 0.0103161
0.1299135 0.0166357 0.0112043
0.1382445 0.0169443 0.0121999
0.1478545 0.0177862 0.0133084
0.1569345 0.0187920 0.0145767
0.1663709 0.0197366 0.0157639
0.1762500 0.0207268 0.0170809
0.1848841 0.0215848 0.0185250
0.1955196 0.0224769 0.0197971
0.2050273 0.0233817 0.0214617
0.2132252 0.0242646 0.0229492
0.2237742 0.0252703 0.0241664
0.2326347 0.0261515 0.0257838
0.2441078 0.0271888 0.0271187
0.2544631 0.0285172 0.0285000
0.2650706 0.0297944 0.0303325
0.2758996 0.0309716 0.0318895
0.2852127 0.0324514 0.0331313
0.2975575 0.0341732 0.0348514
0.3099459 0.0356820 0.0367042
0.3206246 0.0376019 0.0381838
0.3310658 0.0392490 0.0402321
0.3418714 0.0409570 0.0418029
0.3558803 0.0427902 0.0434117
0.3673369 0.0446458 0.0451084
0.3791224 0.0465517 0.0468224
0.3878842 0.0484715 0.0486157
0.3995979 0.0505230 0.0504544
0.4115157 0.0525539 0.0523192
0.4237099 0.0546061 0.0541683
0.4318164 0.0560137 0.0554391
0.4440962 0.0581889 0.0574030
0.4523432 0.0595893 0.0587289
0.4649591 0.0617195 0.0607166
0.4730691 0.0631704 0.0620830
0.4847382 0.0653933 0.0641968
0.4926915 0.0669279 0.0656367
0.5008052 0.0685540 0.0677878
0.5118775 0.0702312 0.0692361
0.5201182 0.0725561 0.0707713
0.5275384 0.0742309 0.0723162
0.5351229 0.0759880 0.0738850
0.5428162 0.0777849 0.0754764
0.5504967 0.0796813 0.0779240
0.5575140 0.0815398 0.0796086
0.5646202 0.0834401 0.0813293
0.5717760 0.0853510 0.0830818
0.5789909 0.0872298 0.0839815
0.5863205 0.0892181 0.0857900
0.0031239 0.0100816 0.0055106
0.0072178 0.0114625 0.0054963
0.0144333 0.0132396 0.0054134
0.0220772 0.0147088 0.0053966
0.0314694 0.0162027 0.0054628
0.0417127 0.0175344 0.0054601
0.0520127 0.0186610 0.0054024
0.0611396 0.0195920 0.0055055
0.0705949 0.0204901 0.0056986
0.0794000 0.0215064 0.0060576
0.0883120 0.0223196 0.0065533
0.0974130 0.0230871 0.0070549
0.1065222 0.0238380 0.0076971
0.1165192 0.0245804 0.0083113
0.1254453 0.0254945 0.0090871
0.1347231 0.0261643 0.0099313
0.1446224 0.0268527 0.0109327
0.1538096 0.0274651 0.0119393
0.1620521 0.0280257 0.0130811
0.1721469 0.0286445 0.0143396
0.1816511 0.0294835 0.0155264
0.1895152 0.0299335 0.0166233
0.1994030 0.0304719 0.0180369
0.2079983 0.0309182 0.0193100
0.2169820 0.0313621 0.0206661
0.2269042 0.0321480 0.0220967
0.2347838 0.0325409 0.0236418
0.2450299 0.0329380 0.0248676
0.2535785 0.0333178 0.0265385
0.2624470 0.0336532 0.0278916
0.2722299 0.0343638 0.0292970
0.2817926 0.0346941 0.0307658
0.2891883 0.0349395 0.0319314
0.2993587 0.0352609 0.0335522
0.3072464 0.0355330 0.0352885
0.3198959 0.0370636 0.0366742
0.3309998 0.0391335 0.0386664
0.3418052 0.0408387 0.0402050
0.3528626 0.0426136 0.0417761
0.3672664 0.0445172 0.0433827
0.3790758 0.0464656 0.0456625
0.3878376 0.0483819 0.0474130
0.3995267 0.0503826 0.0485923
0.4114447 0.0524111 0.0504278
0.4228097 0.0538867 0.0522737
0.4317695 0.0559168 0.0541521
0.4431778 0.0574739 0.0560519
0.4522953 0.0594879 0.0573847
0.4640819 0.0610248 0.0593469
0.4730209 0.0630661 0.0607016
0.4838247 0.0646589 0.0627499
0.4926425 0.0668184 0.0641871
0.5007334 0.0683916 0.0656276
0.5118283 0.0701205 0.0677579
0.5191302 0.0717410 0.0692380
0.5274898 0.0741135 0.0707730
0.5350746 0.0758688 0.0723201
0.5427921 0.0777244 0.0746795
0.5504485 0.0795576 0.0762895
0.5574660 0.0814131 0.0779399
0.5645726 0.0833105 0.0796258
0.5717290 0.0852185 0.0813467
0.5789675 0.0871621 0.0831002
0.5852303 0.0882914 0.0848610
0.0023452 0.0155207 0.0057491
0.0076513 0.0179330 0.0056676
0.0159164 0.0207553 0.0056602
0.0248292 0.0231159 0.0056273
0.0352155 0.0253197 0.0054756
0.0470143 0.0273983 0.0052550
0.0581264 0.0291035 0.0050753
0.0690262 0.0306773 0.0050695
0.0790361 0.0320726 0.0052251
0.0887290 0.0333961 0.0055304
0.0988958 0.0350143 0.0059675
0.1090893 0.0362962 0.0064310
0.1192759 0.0375545 0.0070317
0.1292657 0.0387575 0.0077284
0.1400720 0.0399803 0.0084750
0.1503845 0.0411208 0.0093004
0.1599393 0.0422046 0.0103187
0.1703679 0.0436393 0.0113175
0.1809991 0.0447316 0.0124500
0.1905327 0.0457387 0.0137452
0.2005485 0.0467049 0.0149528
0.2109379 0.0476807 0.0162933
0.2200026 0.0485020 0.0174985
0.2294156 0.0493291 0.0187945
0.2392444 0.0502274 0.0204947
0.2500517 0.0514499 0.0216284
0.2608616 0.0523019 0.0231814
0.2698739 0.0530461 0.0248246
0.2792083 0.0537261 0.0261784
0.2889033 0.0544046 0.0275740
0.2989733 0.0550793 0.0290000
0.3094019 0.0557544 0.0304955
0.3201993 0.0564328 0.0320862
0.3291554 0.0574583 0.0333329
0.3406410 0.0581440 0.0350695
0.3494024 0.0586587 0.0364710
0.3584023 0.0592395 0.0384575
0.3707530 0.0598551 0.0399503
0.3801450 0.0603560 0.0415025
0.3897805 0.0608544 0.0431075
0.3996657 0.0613506 0.0447715
0.4101371 0.0624106 0.0464798
0.4165548 0.0627875 0.0482437
0.4263522 0.0632549 0.0500357
0.4363852 0.0637193 0.0518910
0.4429766 0.0640134 0.0530834
0.4528792 0.0644473 0.0549231
0.4596067 0.0647347 0.0561832
0.4698902 0.0651627 0.0581255
0.4772408 0.0660667 0.0594288
0.4863927 0.0664522 0.0614040
0.4925939 0.0667073 0.0627552
0.5006846 0.0682786 0.0641734
0.5089317 0.0699418 0.0663301
0.5190817 0.0716269 0.0677553
0.5264879 0.0732813 0.0692361
0.5340536 0.0750553 0.0715194
0.5417331 0.0768328 0.0730829
0.5493753 0.0786461 0.0746592
0.5574186 0.0812856 0.0763006
0.5634733 0.0823585 0.0779263
0.5706407 0.0842652 0.0796122
0.5778661 0.0861885 0.0813333
0.5851829 0.0881541 0.0830873
0.0016828 0.0207173 0.0059413
0.0079053 0.0242176 0.0059488
0.0168464 0.0278417 0.0058271
0.0267467 0.0309261 0.0056019
0.0380214 0.0338039 0.0053281
0.0510549 0.0366167 0.0050250
0.0631721 0.0389322 0.0048150
0.0743676 0.0408845 0.0046728
0.0852550 0.0427056 0.0046660
0.0957650 0.0444850 0.0049007
0.1065692 0.0462867 0.0052969
0.1175632 0.0480552 0.0057877
0.1285650 0.0497203 0.0062770
0.1393245 0.0513477 0.0069294
0.1496063 0.0528737 0.0076600
0.1605874 0.0544804 0.0085724
0.1726261 0.0565793 0.0095179
0.1834691 0.0580613 0.0105231
0.1931895 0.0594285 0.0116811
0.2050799 0.0609631 0.0129369
0.2157916 0.0623079 0.0141445
0.2250122 0.0635264 0.0155167
0.2366265 0.0648243 0.0166883
0.2466905 0.0660780 0.0182953
0.2572382 0.0672608 0.0197028
0.2660344 0.0683046 0.0212267
0.2780360 0.0700221 0.0224268
0.2875887 0.0710886 0.0240981
0.2974939 0.0720685 0.0254599
0.3104288 0.0732124 0.0268375
0.3184526 0.0741246 0.0287270
0.3295266 0.0750247 0.0298196
0.3409775 0.0760210 0.0314145
0.3528341 0.0770246 0.0331002
0.3619864 0.0777794 0.0344195
0.3712489 0.0786300 0.0363452
0.3846978 0.0802444 0.0377759
0.3945551 0.0811125 0.0398895
0.4045052 0.0818723 0.0414752
0.4147116 0.0826326 0.0431149
0.4251812 0.0833938 0.0448152
0.4354786 0.0841322 0.0465545
0.4456685 0.0848502 0.0483235
0.4525972 0.0853289 0.0495376
0.4631969 0.0860469 0.0514125
0.4736217 0.0867362 0.0532729
0.4806213 0.0871885 0.0545200
0.4922058 0.0886555 0.0564454
0.4994931 0.0892004 0.0584745
0.5063528 0.0896308 0.0597924
0.5160033 0.0901599 0.0610984
0.5225574 0.0906521 0.0631994
0.5291874 0.0910596 0.0646124
0.5389013 0.0915715 0.0660141
0.5445864 0.0919310 0.0674394
0.5503473 0.0923700 0.0696599
0.5561578 0.0927281 0.0711573
0.5630333 0.0939379 0.0726995
0.5688283 0.0942929 0.0742485
0.5739157 0.0946206 0.0758238
0.5790507 0.0949475 0.0774298
0.5842333 0.0952736 0.0790670
0.5894642 0.0955989 0.0807360
0.5947437 0.0959232 0.0824360
0.0011873 0.0258258 0.0062640
0.0080853 0.0300731 0.0060967
0.0176532 0.0343611 0.0057991
0.0283644 0.0381388 0.0054864
0.0407952 0.0417707 0.0051585
0.0537265 0.0450298 0.0048816
0.0666026 0.0479147 0.0046592
0.0784705 0.0503608 0.0045249
0.0900685 0.0525826 0.0044311
0.1013112 0.0546197 0.0043913
0.1128322 0.0567423 0.0045889
0.1245000 0.0589322 0.0050381
0.1361573 0.0610433 0.0055617
0.1475558 0.0630632 0.0061817
0.1584370 0.0649595 0.0068839
0.1700585 0.0669559 0.0077621
0.1808266 0.0687121 0.0085636
0.1921397 0.0706334 0.0097291
0.2044255 0.0730430 0.0108087
0.2150944 0.0747816 0.0120856
0.2263041 0.0764705 0.0132848
0.2379540 0.0781831 0.0146060
0.2480986 0.0796369 0.0158091
0.2586129 0.0812179 0.0174152
0.2696401 0.0827154 0.0188188
0.2812052 0.0842328 0.0203036
0.2907965 0.0855713 0.0219288
0.3033529 0.0870042 0.0231956
0.3137497 0.0883568 0.0249541
0.3245882 0.0896107 0.0263896
0.3358289 0.0908616 0.0278395
0.3480500 0.0928248 0.0293409
0.3570368 0.0939017 0.0310072
0.3694386 0.0950843 0.0322268
0.3789749 0.0961775 0.0340508
0.3919511 0.0973686 0.0354150
0.4019460 0.0984800 0.0374627
0.4122208 0.0994763 0.0390250
0.4225850 0.1004617 0.0406263
0.4332156 0.1014475 0.0422686
0.4441190 0.1024372 0.0439718
0.4548409 0.1034035 0.0457375
0.4654497 0.1043413 0.0475120
0.4726526 0.1050857 0.0494012
0.4844844 0.1068599 0.0512959
0.4953606 0.1076643 0.0525132
0.5026503 0.1083794 0.0544528
0.5138029 0.1092853 0.0564058
0.5213785 0.1098901 0.0577439
0.5318416 0.1107365 0.0597701
0.5385603 0.1112794 0.0611343
0.5453662 0.1118224 0.0625271
0.5557409 0.1126378 0.0646715
0.5623720 0.1131620 0.0661336
0.5682801 0.1136428 0.0675851
0.5742529 0.1141236 0.0690655
0.5802899 0.1146046 0.0705756
0.5873467 0.1161131 0.0729372
0.5933664 0.1165906 0.0745149
0.5986478 0.1170314 0.0761210
0.6039780 0.1174720 0.0777584
0.6093574 0.1179125 0.0794276
0.6147870 0.1183528 0.0811294
0.6202605 0.1186893 0.0819639
0.0008255 0.0303835 0.0063896
0.0084030 0.0353612 0.0061015
0.0184136 0.0402309 0.0057449
0.0298102 0.0446593 0.0054104
0.0427326 0.0488658 0.0050980
0.0564374 0.0527151 0.0048142
0.0699805 0.0560898 0.0045718
0.0824930 0.0589644 0.0044228
0.0938628 0.0614563 0.0043902
0.1056413 0.0639068 0.0044091
0.1177666 0.0663107 0.0044789
0.1301036 0.0685961 0.0045271
0.1410809 0.0707130 0.0048262
0.1529071 0.0730581 0.0053971
0.1656542 0.0755354 0.0061311
0.1778300 0.0777775 0.0068223
0.1893526 0.0804849 0.0077228
0.2011558 0.0827465 0.0088588
0.2117728 0.0847494 0.0099888
0.2247422 0.0870011 0.0111984
0.2344040 0.0887721 0.0124311
0.2464536 0.0907850 0.0137320
0.2569063 0.0926225 0.0152219
0.2678061 0.0943616 0.0165211
0.2792050 0.0961309 0.0179143
0.2911584 0.0979276 0.0193925
0.3036439 0.0997464 0.0209599
0.3140123 0.1013464 0.0226636
0.3247816 0.1028223 0.0240324
0.3359799 0.1043177 0.0254711
0.3475945 0.1058100 0.0269188
0.3601943 0.1080834 0.0284056
0.3694691 0.1093650 0.0300641
0.3822577 0.1109161 0.0317638
0.3921273 0.1120873 0.0330947
0.4055077 0.1136549 0.0349801
0.4158464 0.1148450 0.0364800
0.4264261 0.1161862 0.0386315
0.4371257 0.1173732 0.0402487
0.4481000 0.1185624 0.0419074
0.4593550 0.1197580 0.0436279
0.4704205 0.1209268 0.0454125
0.4813688 0.1220627 0.0472062
0.4925772 0.1232039 0.0490642
0.5001972 0.1239674 0.0503395
0.5113916 0.1250795 0.0522718
0.5188911 0.1259397 0.0542383
0.5312278 0.1278350 0.0554758
0.5390256 0.1287081 0.0575520
0.5498304 0.1296116 0.0588734
0.5567439 0.1304055 0.0609840
0.5637614 0.1310701 0.0623945
0.5744702 0.1319382 0.0637850
0.5812935 0.1327124 0.0660474
0.5873815 0.1333025 0.0675190
0.5935357 0.1338933 0.0690200
0.5997562 0.1344847 0.0705511
0.6060439 0.1350769 0.0721129
0.6122357 0.1356609 0.0737081
0.6176652 0.1361987 0.0753215
0.6231447 0.1367366 0.0769665
0.6286748 0.1372750 0.0786436
0.6352352 0.1388483 0.0803545
0.6408753 0.1393926 0.0820989
0.0005719 0.0349025 0.0064396
0.0087855 0.0406293 0.0060947
0.0191288 0.0460554 0.0057415
0.0307702 0.0510014 0.0054344
0.0445254 0.0558558 0.0050768
0.0589422 0.0602586 0.0047649
0.0723231 0.0639682 0.0045856
0.0853411 0.0672916 0.0044679
0.0971662 0.0701959 0.0044938
0.1094613 0.0729829 0.0044817
0.1221263 0.0757009 0.0044996
0.1337456 0.0781370 0.0046149
0.1464604 0.0806665 0.0047413
0.1588875 0.0830222 0.0048715
0.1706756 0.0853749 0.0052860
0.1831988 0.0880013 0.0060591
0.1947448 0.0904497 0.0069739
0.2072180 0.0936455 0.0080400
0.2200521 0.0961695 0.0091001
0.2314960 0.0984949 0.0103382
0.2435006 0.1007607 0.0115004
0.2538332 0.1028105 0.0128300
0.2668292 0.1051655 0.0142540
0.2781358 0.1071593 0.0155360
0.2899761 0.1091925 0.0169137
0.2998068 0.1109912 0.0184390
0.3126457 0.1130793 0.0199922
0.3232979 0.1149211 0.0216991
0.3343710 0.1166189 0.0230566
0.3458417 0.1184918 0.0249149
0.3577837 0.1202136 0.0263699
0.3701442 0.1219515 0.0278916
0.3829744 0.1235581 0.0290191
0.3928208 0.1250456 0.0307725
0.4063379 0.1268359 0.0325465
0.4173452 0.1291017 0.0339206
0.4279293 0.1306444 0.0359899
0.4424995 0.1323298 0.0374908
0.4535828 0.1337135 0.0391132
0.4649511 0.1350975 0.0407631
0.4766097 0.1364903 0.0424747
0.4840206 0.1375523 0.0443296
0.4952637 0.1388802 0.0461325
0.5067742 0.1402116 0.0479843
0.5184906 0.1415455 0.0499037
0.5260637 0.1425667 0.0519189
0.5377128 0.1436896 0.0531326
0.5455788 0.1446989 0.0551661
0.5576665 0.1458302 0.0564514
0.5646493 0.1467644 0.0585944
0.5717494 0.1475363 0.0599745
0.5825713 0.1486977 0.0620995
0.5899026 0.1494742 0.0635536
0.5978386 0.1513276 0.0650279
0.6040829 0.1520256 0.0665221
0.6103749 0.1528687 0.0688347
0.6167555 0.1535659 0.0703836
0.6264749 0.1544657 0.0719173
0.6323501 0.1551243 0.0735385
0.6379407 0.1557594 0.0751722
0.6435829 0.1563950 0.0768380
0.6464065 0.1568601 0.0785749
0.6521273 0.1574973 0.0803062
0.6579006 0.1581354 0.0820714
0.0003670 0.0396739 0.0065268
0.0090279 0.0460725 0.0061657
0.0198010 0.0521155 0.0058099
0.0320506 0.0576822 0.0054778
0.0462071 0.0630688 0.0051222
0.0612956 0.0680756 0.0048302
0.0751921 0.0722645 0.0046714
0.0879106 0.0758652 0.0046396
0.1011557 0.0793099 0.0045830
0.1129830 0.0822649 0.0046216
0.1261661 0.0853051 0.0045980
0.1382278 0.0880859 0.0047523
0.1514523 0.0909152 0.0048441
0.1643485 0.0935919 0.0049969
0.1766260 0.0961063 0.0052407
0.1897694 0.0985809 0.0053679
0.2017707 0.1012216 0.0061093
0.2143071 0.1040720 0.0071777
0.2255825 0.1066131 0.0082662
0.2373041 0.1092054 0.0094876
0.2496048 0.1117275 0.0106216
0.2624152 0.1142929 0.0118710
0.2734945 0.1166405 0.0133343
0.2850734 0.1188675 0.0145978
0.2971447 0.1213038 0.0163046
0.3098379 0.1236186 0.0177752
0.3204001 0.1254922 0.0190120
0.3346895 0.1287743 0.0206091
0.3460893 0.1308636 0.0223663
0.3580136 0.1328181 0.0237974
0.3703606 0.1347769 0.0252550
0.3798569 0.1364201 0.0268329
0.3929698 0.1384109 0.0284189
0.4065394 0.1404329 0.0301130
0.4169575 0.1419570 0.0314413
0.4275082 0.1436661 0.0333826
0.4421115 0.1455603 0.0348069
0.4532457 0.1473098 0.0369725
0.4645848 0.1488732 0.0386044
0.4762151 0.1504382 0.0402639
0.4881422 0.1520140 0.0419858
0.4995589 0.1535336 0.0437874
0.5072122 0.1547187 0.0456739
0.5189847 0.1562279 0.0475383
0.5310076 0.1575578 0.0487466
0.5387396 0.1587256 0.0508046
0.5506239 0.1601756 0.0527233
0.5595828 0.1623177 0.0540072
0.5719351 0.1637930 0.0560358
0.5791082 0.1646901 0.0574464
0.5900444 0.1660219 0.0595341
0.5974534 0.1669114 0.0609557
0.6049252 0.1679757 0.0632065
0.6120924 0.1688401 0.0647116
0.6184723 0.1696356 0.0662200
0.6282016 0.1706590 0.0676862
0.6347548 0.1714547 0.0692343
0.6413494 0.1724200 0.0716663
0.6473499 0.1731722 0.0733039
0.6530584 0.1738975 0.0749546
0.6588196 0.1746241 0.0766376
0.6646337 0.1753521 0.0783536
0.6675341 0.1758834 0.0801457
0.6734286 0.1766136 0.0819295
0.0001534 0.0445512 0.0066651
0.0092918 0.0516515 0.0062972
0.0204846 0.0582704 0.0059195
0.0332810 0.0644444 0.0055786
0.0477720 0.0703571 0.0052527
0.0634991 0.0759796 0.0049964
0.0770988 0.0803661 0.0048361
0.0911350 0.0845411 0.0047182
0.1039714 0.0881717 0.0047126
0.1162072 0.0914935 0.0047894
0.1298540 0.0949164 0.0048048
0.1423669 0.0979622 0.0049056
0.1560498 0.1011485 0.0050421
0.1694236 0.1040582 0.0051124
0.1821043 0.1068943 0.0054146
0.1939065 0.1094166 0.0056787
0.2082038 0.1122739 0.0058995
0.2193611 0.1146118 0.0063166
0.2329164 0.1177194 0.0073223
0.2450645 0.1204421 0.0082924
0.2576718 0.1233794 0.0096266
0.2685819 0.1259117 0.0109174
0.2822979 0.1288248 0.0122919
0.2942405 0.1312974 0.0135344
0.3040903 0.1336743 0.0152894
0.3170692 0.1362447 0.0167451
0.3306322 0.1388495 0.0182821
0.3419228 0.1409652 0.0195874
0.3535515 0.1432740 0.0213420
0.3657234 0.1454312 0.0227568
0.3783245 0.1476017 0.0242159
0.3913698 0.1497803 0.0257061
0.4013951 0.1516155 0.0273501
0.4152443 0.1538499 0.0290220
0.4258200 0.1557285 0.0308665
0.4410753 0.1589267 0.0321233
0.4522202 0.1608696 0.0341979
0.4636466 0.1626191 0.0357628
0.4752314 0.1643696 0.0373911
0.4871144 0.1661213 0.0390423
0.4993002 0.1678846 0.0407509
0.5109624 0.1695855 0.0425404
0.5227984 0.1712794 0.0443669
0.5307947 0.1726097 0.0462983
0.5430337 0.1743063 0.0482195
0.5549845 0.1759648 0.0502208
0.5631066 0.1770509 0.0515004
0.5755174 0.1786884 0.0534736
0.5839005 0.1799811 0.0555911
0.5912130 0.1809818 0.0570118
0.6024054 0.1822780 0.0583427
0.6099160 0.1834605 0.0605454
0.6175662 0.1844567 0.0620073
0.6248298 0.1856131 0.0643332
0.6346470 0.1867599 0.0657981
0.6412538 0.1876470 0.0673279
0.6479313 0.1885366 0.0688885
0.6546803 0.1894286 0.0704805
0.6618407 0.1916670 0.0720872
0.6676623 0.1924876 0.0737499
0.6735376 0.1933076 0.0754328
0.6794671 0.1941292 0.0771488
0.6854502 0.1949529 0.0788984
0.6884262 0.1955531 0.0807293
0.0001828 0.0496414 0.0068703
0.0094354 0.0570376 0.0064573
0.0208465 0.0642059 0.0061372
0.0345067 0.0711569 0.0057907
0.0498688 0.0777904 0.0054932
0.0647950 0.0834135 0.0052402
0.0795958 0.0884616 0.0050562
0.0932346 0.0927488 0.0049283
0.1064691 0.0967606 0.0049555
0.1191133 0.1003710 0.0049984
0.1331975 0.1041451 0.0050330
0.1460897 0.1075387 0.0051991
0.1587612 0.1106408 0.0052801
0.1723615 0.1140120 0.0055846
0.1853578 0.1170336 0.0058060
0.1992086 0.1201438 0.0060681
0.2120030 0.1230100 0.0064378
0.2253883 0.1259054 0.0068325
0.2373995 0.1285280 0.0073327
0.2499722 0.1310176 0.0076319
0.2628896 0.1340492 0.0087037
0.2763696 0.1371546 0.0099086
0.2880006 0.1399837 0.0113207
0.3001118 0.1428728 0.0128695
0.3128794 0.1456368 0.0142088
0.3234419 0.1480828 0.0157177
0.3372684 0.1509308 0.0172363
0.3487101 0.1534466 0.0189344
0.3606243 0.1557741 0.0202747
0.3729656 0.1583370 0.0221126
0.3864393 0.1618561 0.0235165
0.3997585 0.1642634 0.0250088
0.4135402 0.1666992 0.0265772
0.4241887 0.1685526 0.0278236
0.4386900 0.1710380 0.0295703
0.4497587 0.1731267 0.0314956
0.4611738 0.1750381 0.0329855
0.4727497 0.1771825 0.0351530
0.4845528 0.1791071 0.0367875
0.4966600 0.1810337 0.0384450
0.5090752 0.1829740 0.0401602
0.5209548 0.1848462 0.0419581
0.5330108 0.1867115 0.0437932
0.5411478 0.1881756 0.0457391
0.5536137 0.1900454 0.0476697
0.5658443 0.1916486 0.0489212
0.5740573 0.1930717 0.0509677
0.5866979 0.1948784 0.0529509
0.5952818 0.1960893 0.0543103
0.6064842 0.1977463 0.0564428
0.6140758 0.1988414 0.0578489
0.6217144 0.2001465 0.0600700
0.6295031 0.2012474 0.0615412
0.6402876 0.2025988 0.0629914
0.6469361 0.2035896 0.0645395
0.6546510 0.2062629 0.0668596
0.6614565 0.2072552 0.0684326
0.6683347 0.2082503 0.0700374
0.6745611 0.2091887 0.0716871
0.6804825 0.2100967 0.0733633
0.6864587 0.2110043 0.0750600
0.6924896 0.2119140 0.0767901
0.6985756 0.2128260 0.0785541
0.7040199 0.2136847 0.0803642
0.0002899 0.0549709 0.0071021
0.0095338 0.0626779 0.0067542
0.0214802 0.0705099 0.0064350
0.0352130 0.0778046 0.0060737
0.0513169 0.0850277 0.0056982
0.0667538 0.0911485 0.0054489
0.0811536 0.0963995 0.0053379
0.0951523 0.1010830 0.0052377
0.1088083 0.1054037 0.0052179
0.1218208 0.1093621 0.0052953
0.1363175 0.1135211 0.0053868
0.1496395 0.1171236 0.0054569
0.1626005 0.1207134 0.0057920
0.1766511 0.1242604 0.0059709
0.1899983 0.1276074 0.0062789
0.2042221 0.1310251 0.0066029
0.2174498 0.1339913 0.0067963
0.2311768 0.1371596 0.0072415
0.2434962 0.1400183 0.0077809
0.2564228 0.1427458 0.0081171
0.2698516 0.1455091 0.0084882
0.2814074 0.1481285 0.0092281
0.2933163 0.1509919 0.0103331
0.3056407 0.1541184 0.0118615
0.3186386 0.1571098 0.0131768
0.3322231 0.1601582 0.0145892
0.3434580 0.1628464 0.0161684
0.3581646 0.1659856 0.0177661
0.3710149 0.1697095 0.0190328
0.3836983 0.1725149 0.0208514
0.3934839 0.1746947 0.0223975
0.4070398 0.1773077 0.0238706
0.4210657 0.1799530 0.0254192
0.4318301 0.1821886 0.0271570
0.4465862 0.1848922 0.0289064
0.4579150 0.1869327 0.0302792
0.4694557 0.1892443 0.0323345
0.4813003 0.1913354 0.0338882
0.4974521 0.1938864 0.0354118
0.5056222 0.1955319 0.0371615
0.5181788 0.1978880 0.0395361
0.5302615 0.1999290 0.0413410
0.5425237 0.2019633 0.0431834
0.5551482 0.2037580 0.0443303
0.5635393 0.2053573 0.0463363
0.5759161 0.2073510 0.0483332
0.5842602 0.2089037 0.0503938
0.5971797 0.2106451 0.0516256
0.6058451 0.2122005 0.0537510
0.6172969 0.2137763 0.0550958
0.6249514 0.2152084 0.0573091
0.6327696 0.2164070 0.0587418
0.6447437 0.2179850 0.0601274
0.6515971 0.2193177 0.0624811
0.6583533 0.2204015 0.0640394
0.6651855 0.2214744 0.0655748
0.6731564 0.2241551 0.0670932
0.6800884 0.2254694 0.0695694
0.6864136 0.2264966 0.0712308
0.6924282 0.2274906 0.0729194
0.6984986 0.2284843 0.0746286
0.7046241 0.2294810 0.0763715
0.7108052 0.2304803 0.0781486
0.7163329 0.2314212 0.0799729
0.0003184 0.0608939 0.0074219
0.0098034 0.0690031 0.0070508
0.0217903 0.0772278 0.0067626
0.0363884 0.0853240 0.0063737
0.0526586 0.0930142 0.0060361
0.0686347 0.0995858 0.0057129
0.0835604 0.1052516 0.0055540
0.0970467 0.1100658 0.0055112
0.1109453 0.1140340 0.0055909
0.1243102 0.1183392 0.0057082
0.1392546 0.1227726 0.0057385
0.1529317 0.1267179 0.0058737
0.1663089 0.1304637 0.0060775
0.1807182 0.1343538 0.0063364
0.1944206 0.1379728 0.0066687
0.2070985 0.1413002 0.0070976
0.2204903 0.1446948 0.0075584
0.2345385 0.1479322 0.0078057
0.2471418 0.1508480 0.0081577
0.2602165 0.1540060 0.0088085
0.2738851 0.1569925 0.0092140
0.2881822 0.1600331 0.0096535
0.3005271 0.1627080 0.0102007
0.3133936 0.1654233 0.0107718
0.3267366 0.1686443 0.0120597
0.3382078 0.1729143 0.0138336
0.3527454 0.1760369 0.0149376
0.3646883 0.1789929 0.0165969
0.3770699 0.1819816 0.0183441
0.3900337 0.1847647 0.0197200
