Plugins/FilmEmulator/Content/LUTs/FE_Kodak_8mm_64.cube
# FilmEmulator LUT (resampled to 64)
LUT_3D_SIZE 8
0.000610 0.000610 0.000000
0.090799 0.009857 0.008532
0.188494 0.020002 0.023202
0.293819 0.022020 0.029907
0.411486 0.030613 0.042359
0.527308 0.047564 0.059823
0.645700 0.065373 0.078631
0.740021 0.075684 0.093628
0.017234 0.054604 0.023974
0.098377 0.093956 0.017592
0.217116 0.109681 0.029872
0.340843 0.107442 0.037453
0.469103 0.110446 0.058745
0.595995 0.125724 0.080926
0.714329 0.140634 0.104241
0.805542 0.151044 0.116097
0.039507 0.112980 0.041993
0.100278 0.153607 0.039242
0.245234 0.217614 0.028896
0.385523 0.231710 0.050503
0.525766 0.244692 0.075673
0.657297 0.255748 0.100853
0.778685 0.263882 0.125518
0.870213 0.270621 0.139365
0.055917 0.170153 0.044739
0.099473 0.214061 0.045792
0.260968 0.299744 0.047141
0.418800 0.353130 0.060347
0.565607 0.372151 0.087107
0.700310 0.386864 0.114983
0.825086 0.398277 0.139056
0.917402 0.409175 0.152200
0.071341 0.232583 0.044948
0.115534 0.288920 0.059994
0.296029 0.390357 0.077582
0.457067 0.462121 0.082226
0.601309 0.498909 0.099714
0.741105 0.516067 0.129762
0.869183 0.531899 0.154834
0.964290 0.541234 0.165553
0.101776 0.298344 0.061628
0.147043 0.370853 0.082440
0.341831 0.479896 0.113629
0.498501 0.560847 0.113943
0.644057 0.613642 0.125084
0.780271 0.643765 0.140319
0.910466 0.658086 0.162921
0.992693 0.667267 0.169220
0.129883 0.364733 0.081478
0.190629 0.454688 0.104336
0.382002 0.565724 0.144187
0.547852 0.651246 0.151541
0.693284 0.713933 0.153938
0.822980 0.759406 0.164366
0.942484 0.782166 0.168380
1.000000 0.788191 0.170122
0.155670 0.408203 0.090454
0.220694 0.516575 0.124673
0.430603 0.628671 0.163509
0.597024 0.708200 0.178724
0.737213 0.778591 0.178423
0.859166 0.833413 0.186314
0.952493 0.863377 0.183986
1.000000 0.879700 0.170959
0.018808 0.026241 0.069205
0.081365 0.026433 0.090679
0.197756 0.026661 0.113842
0.307330 0.027983 0.116779
0.426059 0.038269 0.126303
0.540951 0.054408 0.133691
0.656149 0.068378 0.148842
0.749782 0.078831 0.162872
0.029365 0.073775 0.091769
0.098839 0.098446 0.102632
0.227693 0.123354 0.128968
0.358942 0.127505 0.138944
0.488748 0.127421 0.145199
0.613405 0.134729 0.158761
0.727031 0.148906 0.174920
0.816292 0.159493 0.185403
0.053839 0.136518 0.110235
0.100928 0.175069 0.119689
0.255365 0.232828 0.130604
0.403202 0.251880 0.137250
0.541889 0.262680 0.150274
0.673269 0.272021 0.169569
0.791303 0.279111 0.190713
0.882127 0.287603 0.204543
0.073709 0.201992 0.118064
0.107002 0.250326 0.118392
0.280245 0.333225 0.120891
0.440264 0.381259 0.133968
0.583716 0.395430 0.156267
0.718050 0.408885 0.180348
0.839357 0.421562 0.200547
0.930940 0.432256 0.213473
0.094597 0.272295 0.118450
0.135239 0.336855 0.117993
0.319549 0.439004 0.126060
0.478162 0.497707 0.138748
0.620659 0.530245 0.164546
0.760842 0.544205 0.193125
0.885876 0.558700 0.213640
0.977617 0.568660 0.221414
0.127238 0.345228 0.125673
0.174983 0.428382 0.123826
0.358926 0.538206 0.147323
0.525403 0.607687 0.158996
0.666547 0.651393 0.177141
0.799334 0.676448 0.200849
0.925539 0.689995 0.220854
0.999369 0.699152 0.224903
0.164110 0.415684 0.131780
0.212578 0.514814 0.145334
0.394653 0.629328 0.174484
0.574475 0.709273 0.188344
0.715557 0.762968 0.196597
0.842044 0.799774 0.214977
0.945461 0.816237 0.225036
1.000000 0.823956 0.226373
0.192588 0.467791 0.172403
0.248305 0.581232 0.185378
0.432442 0.697572 0.202128
0.615277 0.772305 0.216866
0.755298 0.837605 0.225004
0.872150 0.880199 0.228596
0.952493 0.903951 0.233424
1.000000 0.917956 0.228926
0.045846 0.054827 0.152239
0.072016 0.059228 0.174276
0.185297 0.042046 0.218434
0.314697 0.035267 0.239856
0.436661 0.049702 0.250431
0.550628 0.065378 0.254937
0.665686 0.080791 0.268809
0.756304 0.090188 0.281150
0.057617 0.105561 0.199767
0.083712 0.120186 0.222040
0.219356 0.138364 0.253936
0.362584 0.144074 0.278575
0.497135 0.144124 0.289290
0.621672 0.150991 0.300622
0.734726 0.165378 0.312589
0.823298 0.175849 0.324464
0.074024 0.174277 0.230063
0.098658 0.207054 0.254290
0.266368 0.258464 0.269920
0.397424 0.285971 0.301961
0.547069 0.301419 0.320780
0.680354 0.312805 0.333876
0.799530 0.321345 0.345989
0.890735 0.330806 0.359598
0.091364 0.246292 0.249806
0.118833 0.296152 0.272256
0.286263 0.360204 0.297803
0.433046 0.405564 0.314685
0.585423 0.429757 0.326812
0.725231 0.445516 0.341123
0.849963 0.458550 0.352551
0.941574 0.469050 0.364694
0.123769 0.321496 0.263654
0.163370 0.390858 0.290475
0.322316 0.478758 0.319330
0.477678 0.527932 0.323907
0.622657 0.558791 0.324092
0.766408 0.577230 0.339782
0.893623 0.589375 0.346692
0.987703 0.599453 0.357410
0.165860 0.398437 0.284138
0.211729 0.485436 0.308729
0.359204 0.585631 0.341411
0.531209 0.649286 0.340157
0.667475 0.682815 0.330647
0.804945 0.708990 0.333662
0.935867 0.722193 0.343104
1.000000 0.732705 0.352543
0.205301 0.475293 0.313132
0.256462 0.574357 0.343640
0.391853 0.686547 0.370696
0.584269 0.764115 0.369696
0.724652 0.811052 0.349578
0.847398 0.839443 0.342841
0.945461 0.852907 0.346078
1.000000 0.862087 0.353291
0.231132 0.525788 0.370375
0.290835 0.638862 0.405253
0.425647 0.753105 0.429280
0.627248 0.833618 0.441424
0.763482 0.891893 0.421297
0.880110 0.925861 0.400609
0.952493 0.948833 0.383463
1.000000 0.959604 0.384940
0.053467 0.061232 0.229967
0.065304 0.066759 0.260986
0.158717 0.062000 0.303323
0.288049 0.054959 0.342164
0.434254 0.058024 0.366621
0.555353 0.072009 0.370614
0.669103 0.087623 0.381535
0.759618 0.098227 0.393114
0.071127 0.123097 0.297045
0.091039 0.141963 0.333951
0.213902 0.165642 0.372429
0.350451 0.159406 0.400850
0.497234 0.155880 0.422286
0.624857 0.162220 0.431390
0.738709 0.175502 0.440443
0.826001 0.184116 0.449883
0.100839 0.200602 0.337311
0.122548 0.239835 0.382335
0.265743 0.289758 0.394498
0.397898 0.312561 0.424407
0.543685 0.321571 0.451909
0.679690 0.331308 0.465562
0.799234 0.340653 0.477233
0.890211 0.348525 0.490166
0.122957 0.279947 0.366165
0.146041 0.332292 0.406371
0.290219 0.390875 0.425983
0.449223 0.439256 0.453612
0.572730 0.458287 0.474329
0.720725 0.474152 0.488573
0.847630 0.489192 0.503652
0.939855 0.499796 0.514560
0.148399 0.357301 0.388891
0.179442 0.426204 0.426766
0.307664 0.507406 0.456959
0.484325 0.545936 0.478236
0.607755 0.574864 0.489691
0.756974 0.599437 0.495592
0.888294 0.615361 0.507555
0.987382 0.626750 0.516389
0.181095 0.433905 0.409421
0.229211 0.521155 0.451893
0.338086 0.618718 0.484916
0.530538 0.674868 0.503476
0.659446 0.703625 0.500099
0.793576 0.728466 0.498423
0.932744 0.747776 0.509640
1.000000 0.757467 0.517408
0.221440 0.509243 0.443619
0.273783 0.606218 0.484038
0.362692 0.719964 0.513398
0.579044 0.792782 0.539225
0.718467 0.836012 0.531334
0.837255 0.857412 0.517026
0.945461 0.875453 0.516054
1.000000 0.884249 0.521570
0.246652 0.556213 0.498234
0.300338 0.668878 0.542139
0.388836 0.786072 0.566211
0.607490 0.861241 0.591137
0.751657 0.914833 0.585653
0.865693 0.945303 0.562985
0.952493 0.965923 0.550111
1.000000 0.976484 0.546526
0.058637 0.072244 0.308877
0.075129 0.083764 0.338737
0.154991 0.093299 0.379608
0.266329 0.091372 0.424637
0.404427 0.082071 0.458528
0.544558 0.083929 0.480323
0.669687 0.094350 0.493141
0.760106 0.104915 0.504333
0.093252 0.149814 0.387314
0.111368 0.168014 0.430591
0.214347 0.196451 0.475447
0.341523 0.189401 0.512141
0.480211 0.173511 0.539173
0.617505 0.176786 0.552822
0.738268 0.183957 0.562441
0.824492 0.193242 0.570595
0.129006 0.232919 0.444061
0.147541 0.270750 0.488878
0.252169 0.324676 0.528793
0.404688 0.346551 0.554002
0.536099 0.345667 0.572569
0.672793 0.350002 0.589070
0.795277 0.354977 0.597652
0.884444 0.363209 0.608488
0.151570 0.310311 0.471029
0.176448 0.364083 0.520347
0.280535 0.430746 0.560093
0.461182 0.470906 0.567585
0.578760 0.489335 0.588257
0.714156 0.493017 0.609090
0.838983 0.502666 0.620894
0.930970 0.511780 0.633155
0.178749 0.387650 0.499858
0.207597 0.459859 0.545273
0.290841 0.538719 0.589159
0.497877 0.571960 0.593197
0.622988 0.609187 0.623597
0.744685 0.622858 0.631445
0.878321 0.634162 0.637301
0.977547 0.645662 0.646467
0.206556 0.464939 0.522877
0.241559 0.548158 0.573390
0.317966 0.643719 0.612193
0.520756 0.693268 0.622831
0.663251 0.721103 0.638806
0.780106 0.740060 0.641143
0.919124 0.762837 0.642400
1.000000 0.774926 0.651255
0.234860 0.536256 0.555641
0.280397 0.632941 0.603502
0.353805 0.745275 0.635966
0.553982 0.813011 0.652465
0.710654 0.853731 0.661752
0.825984 0.870561 0.650518
0.944830 0.886210 0.647997
1.000000 0.897085 0.655496
0.257376 0.580519 0.608424
0.307345 0.693820 0.655158
0.378140 0.809850 0.680510
0.584469 0.880096 0.698496
0.743895 0.932854 0.708007
0.856159 0.960517 0.693380
0.952493 0.977123 0.678703
1.000000 0.988809 0.677760
0.077414 0.093724 0.373540
0.089595 0.107957 0.412408
0.160401 0.121587 0.457096
0.256739 0.123807 0.496769
0.384523 0.116642 0.538521
0.518725 0.107720 0.567279
0.651324 0.110843 0.593039
0.759373 0.111406 0.611873
0.116142 0.171572 0.466692
0.132197 0.191630 0.518101
0.220486 0.222743 0.569604
0.340026 0.222817 0.608586
0.469286 0.205787 0.640002
0.599546 0.196551 0.658482
0.724380 0.199952 0.673570
0.823191 0.202655 0.682418
0.153534 0.264955 0.535145
0.170406 0.304707 0.585751
0.254870 0.358609 0.638658
0.414698 0.388436 0.668360
0.539185 0.386614 0.688263
0.663390 0.378730 0.703889
0.785580 0.378618 0.717567
0.882203 0.378767 0.724848
0.175419 0.344548 0.567881
0.204948 0.397620 0.625636
0.273677 0.464996 0.675026
0.460607 0.506166 0.698694
0.592215 0.518234 0.709721
0.711167 0.519269 0.724814
0.833558 0.525840 0.742500
0.924509 0.525660 0.750824
0.206142 0.418270 0.599785
0.233545 0.489735 0.653657
0.292969 0.570450 0.706433
0.491239 0.611522 0.720062
0.640696 0.640043 0.731174
0.748790 0.648811 0.745858
0.873232 0.656434 0.762648
0.969097 0.658803 0.763012
0.229854 0.493877 0.625081
0.270004 0.578545 0.686269
0.321543 0.671975 0.728276
0.516262 0.720553 0.740301
0.675065 0.745037 0.753842
0.783398 0.768605 0.780712
0.912731 0.782986 0.773278
0.999751 0.787701 0.774235
0.260996 0.562399 0.662037
0.294874 0.657575 0.709687
0.353520 0.767158 0.748187
0.543678 0.832091 0.772222
0.708710 0.870905 0.783918
0.832225 0.889229 0.785154
0.944387 0.898290 0.778533
1.000000 0.906619 0.777665
0.279445 0.604597 0.696935
0.316324 0.714200 0.748428
0.372416 0.826800 0.783994
0.564413 0.897516 0.804075
0.730040 0.947203 0.813926
0.849511 0.974483 0.809339
0.953812 0.985587 0.793581
1.000000 0.997667 0.793601
0.094709 0.118090 0.443250
0.108356 0.131372 0.486114
0.165592 0.146259 0.538078
0.256408 0.158425 0.571615
0.373430 0.154189 0.614405
0.498982 0.146450 0.650605
0.626316 0.136458 0.680196
0.731637 0.134439 0.704406
0.136562 0.197501 0.548068
0.152283 0.218405 0.605702
0.224605 0.252304 0.665545
0.342446 0.260669 0.703377
0.464261 0.246486 0.736356
0.589025 0.236464 0.762188
0.708473 0.224975 0.780335
0.804514 0.225049 0.795328
0.174681 0.297094 0.621590
0.194125 0.339879 0.684070
0.257755 0.394337 0.746470
0.426811 0.435589 0.780548
0.548519 0.434259 0.808736
0.666481 0.426119 0.827750
0.777262 0.414844 0.836033
0.869290 0.411869 0.845049
0.206257 0.380123 0.668986
0.232704 0.435310 0.727572
0.278202 0.503158 0.787720
0.465954 0.551263 0.823399
0.608526 0.567795 0.840925
0.720212 0.564893 0.854614
0.827556 0.557777 0.860398
0.913863 0.555695 0.867979
0.231229 0.456306 0.697358
0.261057 0.524654 0.761879
0.308610 0.600785 0.822572
0.487882 0.656361 0.847503
0.647315 0.683225 0.863998
0.761776 0.684455 0.872567
0.866574 0.681446 0.878232
0.957325 0.682313 0.883427
0.257200 0.526622 0.728105
0.290588 0.605247 0.793775
0.334032 0.697978 0.840401
0.510442 0.760213 0.867577
0.678522 0.790747 0.883258
0.801093 0.802759 0.889889
0.905647 0.803432 0.892614
0.986878 0.805413 0.899558
0.281616 0.588142 0.758301
0.313148 0.681143 0.813714
0.353819 0.790568 0.853315
0.523246 0.857491 0.885121
0.700977 0.893418 0.900827
0.828100 0.908151 0.907330
0.924584 0.911094 0.914381
0.999948 0.920936 0.908859
0.294555 0.624224 0.779192
0.326344 0.733218 0.832316
0.366806 0.841499 0.867964
0.538320 0.907033 0.903788
0.714154 0.955081 0.926586
0.840266 0.984489 0.931394
0.952052 0.992451 0.923188
1.000000 1.000000 0.922071
0.109344 0.135986 0.497437
0.123134 0.148934 0.543745
0.173200 0.168065 0.598881
0.260602 0.181013 0.632874
0.371316 0.186088 0.672926
0.488360 0.177774 0.714477
0.608263 0.172346 0.750392
0.707397 0.160736 0.779419
0.152566 0.221510 0.612684
0.170658 0.246360 0.672742
0.223681 0.285351 0.735769
0.346528 0.301518 0.778673
0.462724 0.294431 0.812929
0.583865 0.279641 0.846147
0.703556 0.270222 0.869496
0.792711 0.261727 0.884892
0.191685 0.328383 0.688887
0.214566 0.374449 0.751341
0.259041 0.425094 0.821069
0.423732 0.473050 0.858115
0.555903 0.485129 0.889391
0.672475 0.477244 0.916679
0.781179 0.464168 0.932348
0.861690 0.452894 0.940835
0.226388 0.408512 0.732618
0.246945 0.466613 0.797964
0.287626 0.529227 0.856383
0.452261 0.579908 0.901667
0.610588 0.612685 0.933502
0.719199 0.610415 0.955761
0.825372 0.599397 0.965701
0.903085 0.587576 0.968336
0.246508 0.481061 0.763157
0.276858 0.547591 0.828286
0.315648 0.620505 0.890844
0.465689 0.679662 0.930391
0.636679 0.719293 0.960801
0.758536 0.723551 0.979273
0.860559 0.717898 0.989587
0.938332 0.707930 0.987043
0.273036 0.546077 0.795052
0.300638 0.619741 0.855130
0.332276 0.711658 0.912378
0.475633 0.776325 0.951421
0.655312 0.817919 0.980735
0.787852 0.832900 0.999721
0.900628 0.826836 0.998789
0.971662 0.819767 0.996782
0.292554 0.601515 0.815826
0.318248 0.694099 0.872056
0.345301 0.796437 0.918405
0.474034 0.864942 0.959830
0.668638 0.910609 0.999975
0.812818 0.931540 1.000000
0.932551 0.932385 1.000000
0.994333 0.930524 1.000000
0.300629 0.632019 0.827454
0.329808 0.739302 0.883240
0.351562 0.841613 0.921927
0.484135 0.910462 0.964338
0.683214 0.962027 1.000000
0.824267 0.994673 1.000000
0.945470 0.999769 1.000000
1.000000 1.000000 1.000000
