Plugins/FilmEmulator/Content/LUTs/FE_Kodak_5203_64.cube
TITLE "FE_Kodak_5203_33"
LUT_3D_SIZE 64
0.0015255 0.0010972 0.0016533
0.0045885 0.0011094 0.0016426
0.0121846 0.0011227 0.0016557
0.0217092 0.0011590 0.0017352
0.0326759 0.0012530 0.0019017
0.0427661 0.0013679 0.0020843
0.0539335 0.0015207 0.0023229
0.0638852 0.0016744 0.0025557
0.0754717 0.0019180 0.0028853
0.0865827 0.0021609 0.0032161
0.0966212 0.0024636 0.0036398
0.1116395 0.0027399 0.0040190
0.1215366 0.0029923 0.0043531
0.1359113 0.0033653 0.0048420
0.1476263 0.0036751 0.0052442
0.1601432 0.0040533 0.0057126
0.1689693 0.0043266 0.0060477
0.1829644 0.0047715 0.0065875
0.1926296 0.0052683 0.0071825
0.2082869 0.0056480 0.0076185
0.2191246 0.0060537 0.0080829
0.2303528 0.0064885 0.0085754
0.2419915 0.0069543 0.0090978
0.2540391 0.0074513 0.0096529
0.2664959 0.0079732 0.0102480
0.2728740 0.0082476 0.0105591
0.2859007 0.0088249 0.0112096
0.2992627 0.0094423 0.0118999
0.3060822 0.0097669 0.0122606
0.3199894 0.0104497 0.0130150
0.3270723 0.0108078 0.0134221
0.3414874 0.0115611 0.0142744
0.3488149 0.0119570 0.0147204
0.3562065 0.0123664 0.0151803
0.3633905 0.0132252 0.0161473
0.3787341 0.0136795 0.0166466
0.3863753 0.0141472 0.0171658
0.3940775 0.0146307 0.0177010
0.4018368 0.0151306 0.0182592
0.4096495 0.0156474 0.0188382
0.4175127 0.0161816 0.0194353
0.4254227 0.0167338 0.0200510
0.4333755 0.0173046 0.0206859
0.4413426 0.0178946 0.0213405
0.4493447 0.0185045 0.0220156
0.4573773 0.0191348 0.0227116
0.4654368 0.0197862 0.0234292
0.4735190 0.0204595 0.0241690
0.4816192 0.0211554 0.0249305
0.4897337 0.0218749 0.0257128
0.4978580 0.0226185 0.0265192
0.5059878 0.0233868 0.0273504
0.5141186 0.0241807 0.0282069
0.5141186 0.0241807 0.0282069
0.5222445 0.0250011 0.0290897
0.5303618 0.0258488 0.0299994
0.5384671 0.0267245 0.0309369
0.5384671 0.0267245 0.0309369
0.5465561 0.0276292 0.0319029
0.5546249 0.0285639 0.0328982
0.5626691 0.0295294 0.0339237
0.5626691 0.0295294 0.0339237
0.5706852 0.0305279 0.0349547
0.5786684 0.0315592 0.0360162
0.0014808 0.0042217 0.0017115
0.0046750 0.0045194 0.0017293
0.0121595 0.0048370 0.0018214
0.0215720 0.0053613 0.0019838
0.0314542 0.0057540 0.0021761
0.0411915 0.0061740 0.0024335
0.0520127 0.0066233 0.0026878
0.0634991 0.0068650 0.0030273
0.0730434 0.0073606 0.0033858
0.0839293 0.0078808 0.0037336
0.0966717 0.0084378 0.0041195
0.1086416 0.0087352 0.0045743
0.1183577 0.0093491 0.0049524
0.1326731 0.0096771 0.0053563
0.1442093 0.0103570 0.0058310
0.1567011 0.0107182 0.0063431
0.1701178 0.0110903 0.0067089
0.1793592 0.0118652 0.0073100
0.1943187 0.0122769 0.0077479
0.2047516 0.0127010 0.0082141
0.2156069 0.0131396 0.0087082
0.2268647 0.0135932 0.0092318
0.2385450 0.0140623 0.0097879
0.2504800 0.0150404 0.0103912
0.2629906 0.0155589 0.0110237
0.2693139 0.0160904 0.0113581
0.2824114 0.0166446 0.0120489
0.2959021 0.0172148 0.0124108
0.3026317 0.0178049 0.0131686
0.3166857 0.0184143 0.0135768
0.3236805 0.0190451 0.0144327
0.3384620 0.0190531 0.0148692
0.3457567 0.0197021 0.0153336
0.3530669 0.0203762 0.0162989
0.3682138 0.0210722 0.0168029
0.3757650 0.0217893 0.0173269
0.3833817 0.0225302 0.0178670
0.3912712 0.0225368 0.0184176
0.3990098 0.0233027 0.0190015
0.4068031 0.0240942 0.0196037
0.4146482 0.0249121 0.0202247
0.4225415 0.0257571 0.0208650
0.4306972 0.0257645 0.0215103
0.4386517 0.0266378 0.0221906
0.4466422 0.0275400 0.0228921
0.4548862 0.0275478 0.0235989
0.4629378 0.0284802 0.0243440
0.4710132 0.0294433 0.0251108
0.4793315 0.0294515 0.0258808
0.4874422 0.0304478 0.0266924
0.4955639 0.0314770 0.0275289
0.5039163 0.0314857 0.0283713
0.5121032 0.0325436 0.0283833
0.5118231 0.0336378 0.0292794
0.5201740 0.0336471 0.0301740
0.5282932 0.0347812 0.0311169
0.5366810 0.0347850 0.0311084
0.5364018 0.0359524 0.0320883
0.5444951 0.0371618 0.0330893
0.5527917 0.0371720 0.0340971
0.5608969 0.0384148 0.0341114
0.5608428 0.0384209 0.0351333
0.5688659 0.0397105 0.0362000
0.5771305 0.0397147 0.0361902
0.0014482 0.0112144 0.0018002
0.0048460 0.0116384 0.0018947
0.0122962 0.0120720 0.0020696
0.0217801 0.0129349 0.0022712
0.0317365 0.0133971 0.0025163
0.0415656 0.0138716 0.0027903
0.0509996 0.0143612 0.0031425
0.0622873 0.0148656 0.0034407
0.0737803 0.0153888 0.0038842
0.0824835 0.0159253 0.0042919
0.0951123 0.0164803 0.0046411
0.1069093 0.0170555 0.0051533
0.1200168 0.0176482 0.0055838
0.1307004 0.0182596 0.0060743
0.1422206 0.0188891 0.0064246
0.1545682 0.0195429 0.0069886
0.1678343 0.0202160 0.0073967
0.1771301 0.0209099 0.0078419
0.1920466 0.0209268 0.0085511
0.2023855 0.0216450 0.0090653
0.2131807 0.0223839 0.0093346
0.2243451 0.0231512 0.0098968
0.2359312 0.0239444 0.0104995
0.2481022 0.0239575 0.0111307
0.2605729 0.0247738 0.0114652
0.2734161 0.0256214 0.0121625
0.2798358 0.0264944 0.0129053
0.2934331 0.0265045 0.0132833
0.3001720 0.0274027 0.0136987
0.3141128 0.0283384 0.0145583
0.3213162 0.0283462 0.0150026
0.3357943 0.0293133 0.0159430
0.3430595 0.0303054 0.0164406
0.3505928 0.0303138 0.0169416
0.3656904 0.0313422 0.0174652
0.3732188 0.0324011 0.0180096
0.3810224 0.0324101 0.0185645
0.3886279 0.0335097 0.0197516
0.3965592 0.0335190 0.0203630
0.4043352 0.0346493 0.0210077
0.4121641 0.0358167 0.0216724
0.4284578 0.0358304 0.0223361
0.4364009 0.0370362 0.0230421
0.4446018 0.0370463 0.0237535
0.4443814 0.0382813 0.0237700
0.4526165 0.0382918 0.0245034
0.4606602 0.0395776 0.0252752
0.4687294 0.0409052 0.0260682
0.4770424 0.0409162 0.0268669
0.4851490 0.0422883 0.0277087
0.4934919 0.0422997 0.0285565
0.5016748 0.0437098 0.0285686
0.5100295 0.0437216 0.0294421
0.5097489 0.0451800 0.0303709
0.5181006 0.0451921 0.0312980
0.5262218 0.0467025 0.0322750
0.5346130 0.0467073 0.0322663
0.5343332 0.0482613 0.0332817
0.5426538 0.0482741 0.0342952
0.5510111 0.0482789 0.0342859
0.5590674 0.0498878 0.0353277
0.5590131 0.0498957 0.0363849
0.5670969 0.0515478 0.0364002
0.5753155 0.0515612 0.0374783
0.0015382 0.0197907 0.0019850
0.0051009 0.0205356 0.0021317
0.0125413 0.0212940 0.0023414
0.0214745 0.0220591 0.0025903
0.0313195 0.0220961 0.0028819
0.0410253 0.0228725 0.0031795
0.0518194 0.0236756 0.0035663
0.0614910 0.0244995 0.0039288
0.0729152 0.0245258 0.0043359
0.0838458 0.0253777 0.0048136
0.0940159 0.0262529 0.0052064
0.1057068 0.0271582 0.0056414
0.1187720 0.0271813 0.0061309
0.1293592 0.0281159 0.0066692
0.1407781 0.0290775 0.0070537
0.1531582 0.0290952 0.0074603
0.1662946 0.0300958 0.0081409
0.1755212 0.0311218 0.0086306
0.1903627 0.0311412 0.0091407
0.2006313 0.0322019 0.0096901
0.2113207 0.0332979 0.0102776
0.2225998 0.0333101 0.0105792
0.2341208 0.0344428 0.0112231
0.2462263 0.0344608 0.0118975
0.2586327 0.0356258 0.0122548
0.2715872 0.0356446 0.0129906
0.2780212 0.0368444 0.0133841
0.2913354 0.0380938 0.0142241
0.2982296 0.0381040 0.0146584
0.3121649 0.0393881 0.0151122
0.3192956 0.0394050 0.0160525
0.3337734 0.0407315 0.0165490
0.3412153 0.0407424 0.0170532
0.3485270 0.0421092 0.0175850
0.3637368 0.0421316 0.0186787
0.3712462 0.0435440 0.0192709
0.3790320 0.0435557 0.0198676
0.3866743 0.0450139 0.0204969
0.3945902 0.0450259 0.0211310
0.4023520 0.0465314 0.0217995
0.4185220 0.0465486 0.0224671
0.4264369 0.0481028 0.0231772
0.4345893 0.0481156 0.0238926
0.4425612 0.0497198 0.0246468
0.4507889 0.0497330 0.0254054
0.4588820 0.0513803 0.0254163
0.4588266 0.0513887 0.0262025
0.4668898 0.0530969 0.0270240
0.4751983 0.0531108 0.0278513
0.4835254 0.0531248 0.0287034
0.4916419 0.0548879 0.0296014
0.5000479 0.0548934 0.0295934
0.5081779 0.0567122 0.0305186
0.5081217 0.0567215 0.0314586
0.5164741 0.0567363 0.0324181
0.5246525 0.0586041 0.0324318
0.5329900 0.0586193 0.0334201
0.5410897 0.0605570 0.0344615
0.5410351 0.0605665 0.0354935
0.5493965 0.0605724 0.0354839
0.5574576 0.0625706 0.0365610
0.5574033 0.0625805 0.0376540
0.5654925 0.0646311 0.0376698
0.5737177 0.0646474 0.0387843
0.0017110 0.0294892 0.0022392
0.0053915 0.0305879 0.0024132
0.0128442 0.0317070 0.0026620
0.0219565 0.0317735 0.0029722
0.0319481 0.0328911 0.0032761
0.0418399 0.0329378 0.0036872
0.0513168 0.0340790 0.0040608
0.0626666 0.0352594 0.0044919
0.0722290 0.0352894 0.0048540
0.0830646 0.0365051 0.0053886
0.0932190 0.0365343 0.0058456
0.1048369 0.0377795 0.0061811
0.1178070 0.0378108 0.0067172
0.1283192 0.0391003 0.0073067
0.1396578 0.0404266 0.0077416
0.1519537 0.0404508 0.0081995
0.1650332 0.0418228 0.0086903
0.1791631 0.0418479 0.0092038
0.1889562 0.0432620 0.0097570
0.1993050 0.0432840 0.0103413
0.2099401 0.0447449 0.0109708
0.2211647 0.0447608 0.0112926
0.2326317 0.0462695 0.0119795
0.2446831 0.0462932 0.0126989
0.2570362 0.0478440 0.0130801
0.2699362 0.0478687 0.0138782
0.2765202 0.0478811 0.0143020
0.2898338 0.0494831 0.0147449
0.3036771 0.0495088 0.0156584
0.3105534 0.0511577 0.0161472
0.3177108 0.0511709 0.0166394
0.3321495 0.0528778 0.0171538
0.3395234 0.0529001 0.0182193
0.3468162 0.0546565 0.0187937
0.3620411 0.0546761 0.0193707
0.3697421 0.0546904 0.0199705
0.3773056 0.0565033 0.0206029
0.3851443 0.0565181 0.0212403
0.3928353 0.0583890 0.0219122
0.4088732 0.0584100 0.0225832
0.4169478 0.0584252 0.0232806
0.4248536 0.0603572 0.0240159
0.4329976 0.0603728 0.0247568
0.4409621 0.0623655 0.0255365
0.4491833 0.0623816 0.0263192
0.4574928 0.0623877 0.0263121
0.4572151 0.0644367 0.0271443
0.4654962 0.0644534 0.0279753
0.4735776 0.0665726 0.0288511
0.4819014 0.0665897 0.0297330
0.4902401 0.0666068 0.0306411
0.4984199 0.0687813 0.0306541
0.5067737 0.0687989 0.0315897
0.5067176 0.0688099 0.0325619
0.5148457 0.0710631 0.0335773
0.5232498 0.0710698 0.0335682
0.5315892 0.0710880 0.0345902
0.5396929 0.0734104 0.0356410
0.5396929 0.0734104 0.0356410
0.5480031 0.0734287 0.0366973
0.5560682 0.0758223 0.0378101
0.5560682 0.0758223 0.0378101
0.5641080 0.0782881 0.0389555
0.5723386 0.0783076 0.0401068
0.0019508 0.0410252 0.0025636
0.0055265 0.0411555 0.0027379
0.0131860 0.0426526 0.0030654
0.0224875 0.0427380 0.0033816
0.0316803 0.0442298 0.0038117
0.0414984 0.0442863 0.0041925
0.0523909 0.0458127 0.0046449
0.0622211 0.0458547 0.0050180
0.0716626 0.0474148 0.0054262
0.0824969 0.0474555 0.0058851
0.0953118 0.0490703 0.0063986
0.1072462 0.0491028 0.0067609
0.1169372 0.0507627 0.0073542
0.1274987 0.0507923 0.0077864
0.1428777 0.0508267 0.0082446
0.1509788 0.0525384 0.0089988
0.1641086 0.0525693 0.0095304
0.1780769 0.0543252 0.0098107
0.1879559 0.0543523 0.0103981
0.1981227 0.0561685 0.0110311
0.2088548 0.0561966 0.0116940
0.2258092 0.0562212 0.0120335
0.2314607 0.0580918 0.0127686
0.2435079 0.0581119 0.0131426
0.2557787 0.0600493 0.0139542
0.2686786 0.0600703 0.0143764
0.2751991 0.0600952 0.0152715
0.2884729 0.0620854 0.0157441
0.3023230 0.0621071 0.0162197
0.3091813 0.0641540 0.0167259
0.3162734 0.0641805 0.0177652
0.3308730 0.0642030 0.0183010
0.3380819 0.0663149 0.0188780
0.3531448 0.0663382 0.0194575
0.3607583 0.0663551 0.0200600
0.3682397 0.0685335 0.0206952
0.3759984 0.0685510 0.0213353
0.3836153 0.0707966 0.0220103
0.3915066 0.0708147 0.0226904
0.4075252 0.0708395 0.0233847
0.4153742 0.0731551 0.0241232
0.4234890 0.0731737 0.0248673
0.4316257 0.0731923 0.0256325
0.4395841 0.0755793 0.0264366
0.4477993 0.0755984 0.0272463
0.4561037 0.0756055 0.0272390
0.4641582 0.0780655 0.0280922
0.4641026 0.0780779 0.0289593
0.4724040 0.0780976 0.0298444
0.4805014 0.0806326 0.0307773
0.4888938 0.0806400 0.0307690
0.4972410 0.0806603 0.0317080
0.5053695 0.0832739 0.0326975
0.5137225 0.0832947 0.0336937
0.5137225 0.0832947 0.0336937
0.5218465 0.0859867 0.0347434
0.5301889 0.0860078 0.0357740
0.5385734 0.0860157 0.0357643
0.5385188 0.0860289 0.0368342
0.5466084 0.0888016 0.0379510
0.5549545 0.0888096 0.0379408
0.5549002 0.0888233 0.0390736
0.5629438 0.0916781 0.0402560
0.5712332 0.0916863 0.0402452
0.0022424 0.0533158 0.0029473
0.0058599 0.0534733 0.0031655
0.0135515 0.0536227 0.0034981
0.0223195 0.0554914 0.0038425
0.0324542 0.0555765 0.0042225
0.0424359 0.0574780 0.0046767
0.0520572 0.0575426 0.0051853
0.0618282 0.0575946 0.0056016
0.0732619 0.0595417 0.0060892
0.0819963 0.0595789 0.0064345
0.0947403 0.0615857 0.0069957
0.1066106 0.0616258 0.0073916
0.1163378 0.0616704 0.0080574
0.1304526 0.0637303 0.0085375
0.1420580 0.0637670 0.0090420
0.1544171 0.0658870 0.0095829
0.1632158 0.0659190 0.0101529
0.1772192 0.0659573 0.0107605
0.1869588 0.0681294 0.0110840
0.1972223 0.0681629 0.0117500
0.2134521 0.0682026 0.0124523
0.2246622 0.0704438 0.0128262
0.2364183 0.0704784 0.0135959
0.2424574 0.0704961 0.0140111
0.2547319 0.0728080 0.0144451
0.2675539 0.0728445 0.0153402
0.2807820 0.0728694 0.0158038
0.2873406 0.0752469 0.0162971
0.3011121 0.0752845 0.0173055
0.3081430 0.0753033 0.0178325
0.3223406 0.0777615 0.0183832
0.3296463 0.0777811 0.0189494
0.3370393 0.0778007 0.0195364
0.3518763 0.0803346 0.0201499
0.3594769 0.0803548 0.0207734
0.3671532 0.0803750 0.0214159
0.3746930 0.0829805 0.0220934
0.3825093 0.0830013 0.0227760
0.3983900 0.0830297 0.0234729
0.4061782 0.0857143 0.0242141
0.4142353 0.0857357 0.0249609
0.4223434 0.0857571 0.0257290
0.4302548 0.0885223 0.0265360
0.4384268 0.0885444 0.0273487
0.4466368 0.0885663 0.0281858
0.4549367 0.0885743 0.0281782
0.4629877 0.0914225 0.0290602
0.4629321 0.0914369 0.0299564
0.4712302 0.0914595 0.0308713
0.4793248 0.0943921 0.0318354
0.4877152 0.0944005 0.0318268
0.4960612 0.0944238 0.0327972
0.5041893 0.0974425 0.0338198
0.5125983 0.0974512 0.0338106
0.5125422 0.0974664 0.0348492
0.5208932 0.0974900 0.0358828
0.5290123 0.1005967 0.0369717
0.5373987 0.1006057 0.0369617
0.5373442 0.1006210 0.0380662
0.5456598 0.1006452 0.0391921
0.5537857 0.1038266 0.0392086
0.5537314 0.1038424 0.0403780
0.5620552 0.1038515 0.0403671
0.5702943 0.1038763 0.0415586
0.0025390 0.0647805 0.0033334
0.0062241 0.0649631 0.0036247
0.0139275 0.0672583 0.0039708
0.0229161 0.0673816 0.0043614
0.0322384 0.0696766 0.0048334
0.0421977 0.0697561 0.0052171
0.0517764 0.0698239 0.0056343
0.0614455 0.0721573 0.0061248
0.0728715 0.0722237 0.0066530
0.0838883 0.0722739 0.0070282
0.0942451 0.0746735 0.0076484
0.1060582 0.0747221 0.0080985
0.1157615 0.0747642 0.0085772
0.1298154 0.0772307 0.0090880
0.1413723 0.0772742 0.0096248
0.1537947 0.0773180 0.0101944
0.1624447 0.0798489 0.0108151
0.1763946 0.0798945 0.0114620
0.1862310 0.0799209 0.0117980
0.2016332 0.0825397 0.0125120
0.2125339 0.0825670 0.0128785
0.2238245 0.0826068 0.0136513
0.2354272 0.0852865 0.0140743
0.2475774 0.0853285 0.0149467
0.2538134 0.0853494 0.0154027
0.2666473 0.0853781 0.0158681
0.2796244 0.0881541 0.0168621
0.2863467 0.0881756 0.0173758
0.3001351 0.0882052 0.0179001
0.3069642 0.0910427 0.0184579
0.3213241 0.0910733 0.0190212
0.3286171 0.0910959 0.0196103
0.3359979 0.0911185 0.0202174
0.3508120 0.0940499 0.0208519
0.3584015 0.0940731 0.0214968
0.3660671 0.0940963 0.0221613
0.3735974 0.0971060 0.0228619
0.3814041 0.0971299 0.0235678
0.3972672 0.0971624 0.0242885
0.4052628 0.0971863 0.0250375
0.4130969 0.1002852 0.0258259
0.4211983 0.1003097 0.0266173
0.4293228 0.1003342 0.0274325
0.4372698 0.1035232 0.0282917
0.4454748 0.1035484 0.0291569
0.4537701 0.1035575 0.0291490
0.4620401 0.1035827 0.0300398
0.4701123 0.1068642 0.0309786
0.4700565 0.1068808 0.0319325
0.4784285 0.1068901 0.0319239
0.4867615 0.1069160 0.0328972
0.4948818 0.1102916 0.0339228
0.5032339 0.1103183 0.0349552
0.5116429 0.1103279 0.0349458
0.5115880 0.1103445 0.0359919
0.5197147 0.1138167 0.0370840
0.5281143 0.1138265 0.0370740
0.5364479 0.1138535 0.0381715
0.5363933 0.1138706 0.0393110
0.5445417 0.1174238 0.0393275
0.5528395 0.1174514 0.0404894
0.5611120 0.1174790 0.0416844
0.5611120 0.1174790 0.0416844
0.5691333 0.1211493 0.0429430
0.0029183 0.0785526 0.0038482
0.0064067 0.0787413 0.0041117
0.0143376 0.0789464 0.0045122
0.0235311 0.0816285 0.0048642
0.0330784 0.0817462 0.0053866
0.0419947 0.0818324 0.0058264
0.0529936 0.0845512 0.0063300
0.0629398 0.0846155 0.0066854
0.0725409 0.0846855 0.0072635
0.0834452 0.0874584 0.0076840
0.0938414 0.0875138 0.0081362
0.1055898 0.0875829 0.0088694
0.1186585 0.0876391 0.0093908
0.1292786 0.0904751 0.0096669
0.1407944 0.0905254 0.0102390
0.1531737 0.0905762 0.0108517
0.1663451 0.0935131 0.0115089
0.1757295 0.0935434 0.0118463
0.1855048 0.0935878 0.0125577
0.2010015 0.0936405 0.0133078
0.2117296 0.0966449 0.0137070
0.2229865 0.0966916 0.0145569
0.2347158 0.0967235 0.0149971
0.2467168 0.0998178 0.0154613
0.2528968 0.0998574 0.0164230
0.2656998 0.0998902 0.0169189
0.2788688 0.0999231 0.0174295
0.2853990 0.1031005 0.0179729
0.2991600 0.1031343 0.0185149
0.3061635 0.1031594 0.0190851
0.3204536 0.1032097 0.0202853
0.3275402 0.1064810 0.0209275
0.3349084 0.1065069 0.0215747
0.3499006 0.1065420 0.0222355
0.3572762 0.1099076 0.0229384
0.3649310 0.1099342 0.0236466
0.3726592 0.1099607 0.0243763
0.3884294 0.1099799 0.0243631
0.3961453 0.1134427 0.0251319
0.4041329 0.1134700 0.0259051
0.4121767 0.1134974 0.0266989
0.4202724 0.1135247 0.0275165
0.4281723 0.1170866 0.0283783
0.4363338 0.1171146 0.0292461
0.4445898 0.1171247 0.0292382
0.4528262 0.1171527 0.0301316
0.4610930 0.1171807 0.0310517
0.4691622 0.1208435 0.0320213
0.4691065 0.1208620 0.0330064
0.4774764 0.1208723 0.0329975
0.4858077 0.1209011 0.0340026
0.4939266 0.1246655 0.0350617
0.5023341 0.1246762 0.0350522
0.5106884 0.1247053 0.0360916
0.5106335 0.1247239 0.0371710
0.5188154 0.1285722 0.0371867
0.5271612 0.1286021 0.0382874
0.5354962 0.1286320 0.0394196
0.5354962 0.1286320 0.0394196
0.5438159 0.1286619 0.0405842
0.5518925 0.1326349 0.0418107
0.5602221 0.1326460 0.0417994
0.5601679 0.1326656 0.0430433
0.5684684 0.1326767 0.0430317
0.0032889 0.0920673 0.0043584
0.0068465 0.0922630 0.0045581
0.0147615 0.0924938 0.0050286
0.0234164 0.0955863 0.0054224
0.0329238 0.0957103 0.0058598
0.0430542 0.0958190 0.0063598
0.0527919 0.0959122 0.0069062
0.0626516 0.0990251 0.0072989
0.0722108 0.0991067 0.0079441
0.0831344 0.0991745 0.0084098
0.0934219 0.1023702 0.0089108
0.1051424 0.1024345 0.0094346
0.1181621 0.1024991 0.0099889
0.1288178 0.1025554 0.0105840
0.1402179 0.1058255 0.0108992
0.1525546 0.1058837 0.0115510
0.1658030 0.1059421 0.0122415
0.1751628 0.1059758 0.0126002
0.1898447 0.1093596 0.0133622
0.2002642 0.1093945 0.0137534
0.2110717 0.1094465 0.0146060
0.2223400 0.1094820 0.0150477
0.2338872 0.1129407 0.0155134
0.2459816 0.1129943 0.0164738
0.2521900 0.1130211 0.0169758
0.2649689 0.1130577 0.0174881
0.2779370 0.1166168 0.0180284
0.2845886 0.1166623 0.0191544
0.2983249 0.1167002 0.0197423
0.3053167 0.1167282 0.0203534
0.3194398 0.1203892 0.0209920
0.3267094 0.1204181 0.0216412
0.3340674 0.1204468 0.0223100
0.3490408 0.1204859 0.0229929
0.3564078 0.1242394 0.0237193
0.3640539 0.1242689 0.0244512
0.3717738 0.1242984 0.0252052
0.3874754 0.1243385 0.0259735
0.3954511 0.1243491 0.0259665
0.4032189 0.1282073 0.0267808
0.4112563 0.1282376 0.0276008
0.4193462 0.1282678 0.0284454
0.4274603 0.1282981 0.0293152
0.4353980 0.1322622 0.0302319
0.4436497 0.1322733 0.0302237
0.4518822 0.1323044 0.0311465
0.4601456 0.1323355 0.0320968
0.4684358 0.1323666 0.0330752
0.4765801 0.1364182 0.0330892
0.4765242 0.1364387 0.0341062
0.4848536 0.1364707 0.0351441
0.4931977 0.1365021 0.0361862
0.5013798 0.1406620 0.0362015
0.5097339 0.1406944 0.0372740
0.5096791 0.1407148 0.0383875
0.5180861 0.1407265 0.0383772
0.5264326 0.1407587 0.0395120
0.5345992 0.1450287 0.0395286
0.5345445 0.1450499 0.0407072
0.5428661 0.1450829 0.0419084
0.5512226 0.1450949 0.0418971
0.5595005 0.1451280 0.0431322
0.5592238 0.1495191 0.0444448
0.5675278 0.1495313 0.0444328
0.0036443 0.1043767 0.0048447
0.0070659 0.1045779 0.0050761
0.0151979 0.1081281 0.0056040
0.0240841 0.1082996 0.0060608
0.0338138 0.1084246 0.0063917
0.0428536 0.1119340 0.0069437
0.0525479 0.1120411 0.0075400
0.0624144 0.1121247 0.0079771
0.0740230 0.1122088 0.0084425
0.0828401 0.1122759 0.0089396
0.0959078 0.1158569 0.0094693
0.1047780 0.1159192 0.0100284
0.1177574 0.1159914 0.0106229
0.1283811 0.1160543 0.0112583
0.1397481 0.1197057 0.0115934
0.1520499 0.1197705 0.0122864
0.1652623 0.1198355 0.0130204
0.1745974 0.1198730 0.0134016
0.1892406 0.1236485 0.0142252
0.1996335 0.1236877 0.0146554
0.2104509 0.1237270 0.0150985
0.2216574 0.1237850 0.0160335
0.2331787 0.1276388 0.0165294
0.2452877 0.1276792 0.0170284
0.2578289 0.1277197 0.0175422
0.2641965 0.1277689 0.0186316
0.2773169 0.1278096 0.0192001
0.2838232 0.1317610 0.0198086
0.2975372 0.1318030 0.0204161
0.3045180 0.1318341 0.0210477
0.3188127 0.1318762 0.0216926
0.3258792 0.1359359 0.0223787
0.3407001 0.1359791 0.0230636
0.3481819 0.1360109 0.0237756
0.3557442 0.1360427 0.0245092
0.3633838 0.1360747 0.0252649
0.3708894 0.1402449 0.0260603
0.3865760 0.1402892 0.0268515
0.3945444 0.1403008 0.0268442
0.4025205 0.1403335 0.0276661
0.4105532 0.1403661 0.0285126
0.4184210 0.1446479 0.0294049
0.4265297 0.1446814 0.0303033
0.4346828 0.1447149 0.0312285
0.4429312 0.1447268 0.0312200
0.4509387 0.1491208 0.0321948
0.4591988 0.1491553 0.0331761
0.4674862 0.1491896 0.0341865
0.4758521 0.1492018 0.0341772
0.4757964 0.1492239 0.0352267
0.4839014 0.1537321 0.0362963
0.4922988 0.1537445 0.0362865
0.5006504 0.1537792 0.0373614
0.5090043 0.1538138 0.0384672
0.5174117 0.1538263 0.0384568
0.5173568 0.1538486 0.0396045
0.5254794 0.1584731 0.0408025
0.5338716 0.1584858 0.0407915
0.5421945 0.1585213 0.0419951
0.5421945 0.1585213 0.0419951
0.5504985 0.1585569 0.0432329
0.5585560 0.1632983 0.0445365
0.5585560 0.1632983 0.0445365
0.5668084 0.1633346 0.0458463
0.0040435 0.1181492 0.0053918
0.0075504 0.1220306 0.0056550
0.0156625 0.1223016 0.0061014
0.0247744 0.1224933 0.0066108
0.0336829 0.1226227 0.0069735
0.0440060 0.1227578 0.0075681
0.0538892 0.1266467 0.0080104
0.0639938 0.1267399 0.0084777
0.0737448 0.1268422 0.0092396
0.0848822 0.1269264 0.0097806
0.0955724 0.1308849 0.0100653
0.1075343 0.1309650 0.0106619
0.1173536 0.1310347 0.0112997
0.1279456 0.1311046 0.0119752
0.1393839 0.1311556 0.0123227
0.1515466 0.1352368 0.0130681
0.1647516 0.1352894 0.0134470
0.1740322 0.1353512 0.0142672
0.1888043 0.1354046 0.0146946
0.1990041 0.1395894 0.0156159
0.2097958 0.1396328 0.0160877
0.2210135 0.1396765 0.0165735
0.2326680 0.1397200 0.0170738
0.2447180 0.1397844 0.0181295
0.2570707 0.1440630 0.0186892
0.2634676 0.1440963 0.0192647
0.2765641 0.1441415 0.0198558
0.2900601 0.1441868 0.0204648
0.2969355 0.1442202 0.0210979
0.3108341 0.1486139 0.0217595
0.3179939 0.1486481 0.0224319
0.3252455 0.1486825 0.0231248
0.3400512 0.1487290 0.0238321
0.3475259 0.1487633 0.0245673
0.3548775 0.1532608 0.0253425
0.3625083 0.1532959 0.0261221
0.3780431 0.1533435 0.0269151
0.3858885 0.1533786 0.0277391
0.3938515 0.1533911 0.0277316
0.4016077 0.1580050 0.0286000
0.4096342 0.1580410 0.0294744
0.4177139 0.1580770 0.0303748
0.4258187 0.1581130 0.0313021
0.4340228 0.1581257 0.0312937
0.4419917 0.1628574 0.0322707
0.4502175 0.1628943 0.0332542
0.4584752 0.1629311 0.0342669
0.4668160 0.1629442 0.0342577
0.4751244 0.1629811 0.0353000
0.4750698 0.1630045 0.0363564
0.4832283 0.1678312 0.0363718
0.4915700 0.1678683 0.0374491
0.4999210 0.1679055 0.0385574
0.5083296 0.1679189 0.0385470
0.5166823 0.1679562 0.0396866
0.5164024 0.1729128 0.0408980
0.5248053 0.1729264 0.0408870
0.5331436 0.1729645 0.0420933
0.5414683 0.1730026 0.0433339
0.5414683 0.1730026 0.0433339
0.5497740 0.1730407 0.0446097
0.5578879 0.1781071 0.0446284
0.5578337 0.1781321 0.0459531
0.5661428 0.1781460 0.0459408
0.0045140 0.1335045 0.0060111
0.0077985 0.1337192 0.0063278
0.0161545 0.1339951 0.0066502
0.0246778 0.1382806 0.0072125
0.0345927 0.1384348 0.0076060
0.0438362 0.1385761 0.0082801
0.0537268 0.1386874 0.0087606
0.0638025 0.1387881 0.0092714
0.0734814 0.1430899 0.0098213
0.0845820 0.1431833 0.0103975
0.0952945 0.1432698 0.0110165
0.1072449 0.1433358 0.0113332
0.1170409 0.1434111 0.0120107
0.1312274 0.1478273 0.0127338
0.1429164 0.1478838 0.0131031
0.1511566 0.1479494 0.0138892
0.1643327 0.1480068 0.0143054
0.1784431 0.1480642 0.0147339
0.1882018 0.1525784 0.0156577
0.1985504 0.1526252 0.0161306
0.2093232 0.1526720 0.0166177
0.2204851 0.1527412 0.0176456
0.2321192 0.1527881 0.0181778
0.2440268 0.1573997 0.0187390
0.2565234 0.1574482 0.0193107
0.2629108 0.1574841 0.0199086
0.2759894 0.1575326 0.0205191
0.2894678 0.1575813 0.0211481
0.2961500 0.1623000 0.0218173
0.3102167 0.1623497 0.0224853
