Plugins/FilmEmulator/Content/LUTs/FE_Kodak_Aerocolor_2460_64.cube
TITLE "FE_Kodak_Aerocolor_2460_33"
LUT_3D_SIZE 64
0.0002109 0.0002360 0.0002998
0.0006428 0.0002416 0.0003037
0.0024657 0.0002580 0.0003361
0.0055382 0.0002807 0.0004102
0.0104121 0.0003184 0.0005463
0.0161622 0.0003739 0.0007055
0.0237928 0.0004479 0.0009174
0.0312318 0.0005418 0.0011278
0.0405184 0.0006530 0.0013934
0.0509730 0.0007617 0.0016773
0.0621287 0.0008923 0.0019867
0.0734527 0.0010471 0.0023032
0.0870122 0.0012055 0.0026842
0.1001330 0.0013506 0.0030427
0.1190181 0.0015180 0.0035485
0.1368000 0.0017011 0.0040174
0.1516505 0.0019004 0.0044193
0.1731231 0.0020891 0.0049997
0.1902664 0.0023550 0.0055106
0.2086346 0.0025824 0.0060584
0.2283323 0.0028467 0.0066707
0.2494213 0.0030506 0.0073356
0.2643954 0.0033574 0.0078501
0.2877881 0.0037067 0.0086550
0.3040766 0.0039572 0.0092375
0.3298244 0.0042381 0.0101602
0.3479068 0.0046605 0.0108735
0.3663435 0.0049755 0.0116056
0.3852091 0.0053131 0.0123869
0.4044558 0.0056766 0.0132218
0.4255910 0.0060657 0.0141126
0.4470343 0.0064813 0.0150627
0.4685753 0.0067207 0.0160330
0.4796087 0.0071583 0.0166076
0.5014838 0.0076563 0.0177254
0.5234416 0.0079451 0.0188680
0.5348047 0.0084757 0.0195465
0.5571602 0.0090699 0.0208617
0.5682685 0.0093823 0.0215516
0.5902926 0.0100395 0.0229992
0.6011866 0.0103850 0.0237584
0.6225566 0.0107770 0.0252748
0.6330454 0.0114980 0.0261718
0.6428297 0.0118939 0.0270257
0.6619276 0.0123403 0.0287373
0.6714810 0.0131645 0.0297542
0.6807768 0.0136172 0.0307221
0.6899354 0.0140854 0.0317206
0.7077048 0.0145814 0.0327509
0.7164262 0.0151148 0.0347961
0.7251043 0.0161230 0.0359927
0.7334130 0.0166758 0.0371279
0.7415640 0.0172474 0.0382978
0.7495545 0.0178383 0.0395033
0.7573809 0.0184493 0.0407454
0.7650433 0.0190809 0.0420252
0.7725392 0.0197336 0.0433437
0.7798676 0.0204085 0.0447020
0.7870273 0.0211067 0.0461014
0.7940184 0.0218296 0.0475399
0.8008407 0.0225766 0.0490150
0.8075032 0.0233487 0.0505340
0.8140011 0.0241468 0.0520979
0.8203307 0.0249717 0.0537079
0.0002159 0.0009632 0.0003552
0.0006980 0.0011015 0.0004055
0.0026207 0.0012730 0.0005112
0.0059035 0.0014250 0.0006753
0.0106925 0.0015862 0.0008761
0.0171794 0.0017669 0.0010876
0.0243780 0.0019661 0.0013627
0.0329977 0.0021785 0.0016314
0.0413673 0.0023415 0.0019021
0.0519928 0.0026056 0.0022474
0.0632756 0.0028068 0.0025854
0.0746922 0.0030236 0.0030015
0.0884114 0.0033571 0.0034989
0.1052121 0.0036081 0.0039475
0.1207165 0.0038665 0.0043261
0.1386289 0.0041523 0.0048789
0.1535504 0.0044463 0.0053520
0.1751088 0.0046355 0.0060289
0.1922676 0.0049644 0.0066141
0.2107155 0.0053086 0.0070559
0.2304690 0.0056892 0.0077592
0.2515967 0.0059164 0.0085092
0.2665558 0.0063213 0.0090814
0.2898515 0.0065737 0.0099611
0.3062137 0.0070252 0.0106333
0.3319481 0.0072958 0.0113208
0.3499792 0.0078072 0.0120854
0.3683490 0.0081007 0.0128656
0.3871360 0.0084051 0.0136966
0.4064252 0.0089936 0.0146211
0.4274644 0.0093325 0.0155644
0.4488014 0.0096841 0.0165678
0.4703603 0.0100268 0.0171169
0.4814084 0.0107225 0.0182696
0.5031530 0.0111273 0.0194470
0.5251094 0.0115223 0.0200913
0.5363320 0.0119465 0.0213839
0.5585392 0.0123706 0.0220913
0.5696418 0.0128256 0.0235101
0.5915132 0.0132803 0.0242864
0.6023986 0.0137682 0.0258356
0.6237451 0.0142555 0.0266791
0.6342214 0.0152088 0.0276251
0.6439933 0.0157662 0.0293736
0.6629366 0.0158262 0.0302468
0.6723519 0.0163705 0.0312304
0.6816354 0.0169332 0.0322452
0.6907820 0.0175528 0.0342779
0.7085240 0.0181696 0.0353703
0.7172307 0.0187922 0.0364865
0.7257811 0.0194357 0.0376368
0.7340775 0.0201008 0.0388222
0.7422158 0.0207889 0.0400437
0.7501932 0.0215013 0.0413026
0.7579026 0.0215633 0.0424839
0.7655540 0.0223019 0.0438166
0.7730389 0.0230653 0.0451896
0.7803559 0.0238544 0.0466038
0.7875046 0.0246698 0.0480573
0.7943915 0.0247401 0.0494141
0.8012042 0.0255850 0.0509449
0.8078576 0.0264582 0.0525209
0.8143468 0.0273605 0.0541434
0.8205831 0.0274383 0.0556637
0.0002227 0.0029791 0.0004754
0.0007521 0.0031991 0.0006052
0.0028551 0.0035548 0.0007943
0.0062280 0.0039003 0.0010170
0.0112756 0.0042574 0.0012633
0.0174527 0.0046285 0.0015458
0.0247415 0.0048655 0.0018424
0.0334734 0.0052579 0.0021521
0.0419416 0.0055092 0.0025365
0.0526823 0.0059395 0.0029262
0.0640757 0.0062143 0.0033929
0.0756289 0.0066916 0.0038321
0.0894225 0.0069860 0.0043110
0.1063997 0.0075238 0.0048630
0.1220051 0.0078339 0.0053168
0.1400215 0.0081579 0.0058183
0.1550748 0.0087732 0.0065727
0.1768092 0.0091358 0.0071939
0.1940199 0.0094869 0.0076582
0.2125103 0.0098729 0.0083993
0.2322948 0.0102744 0.0092115
0.2536447 0.0110047 0.0098324
0.2685838 0.0114185 0.0104685
0.2919940 0.0118830 0.0114839
0.3083169 0.0123294 0.0122258
0.3341482 0.0128030 0.0130154
0.3521144 0.0132841 0.0138556
0.3705360 0.0137835 0.0147503
0.3893700 0.0143017 0.0157021
0.4085669 0.0148391 0.0167145
0.4296401 0.0153648 0.0172688
0.4510043 0.0159436 0.0183808
0.4725833 0.0165439 0.0195647
0.4834978 0.0171143 0.0202127
0.5052482 0.0177580 0.0215133
0.5272020 0.0183857 0.0222251
0.5382812 0.0184821 0.0235874
0.5604744 0.0191354 0.0243663
0.5715675 0.0198377 0.0259285
0.5934138 0.0205393 0.0267753
0.6042835 0.0212469 0.0276489
0.6255956 0.0220446 0.0293994
0.6357906 0.0221106 0.0302732
0.6455447 0.0228698 0.0312579
0.6645766 0.0237244 0.0332307
0.6739700 0.0245379 0.0343089
0.6832303 0.0253787 0.0354211
0.6922316 0.0254524 0.0364490
0.7099269 0.0263431 0.0375987
0.7186093 0.0272428 0.0387833
0.7270223 0.0273211 0.0398950
0.7352958 0.0282530 0.0411494
0.7434095 0.0292685 0.0436532
0.7513623 0.0302565 0.0450201
0.7590476 0.0303429 0.0463035
0.7666734 0.0313663 0.0477499
0.7741325 0.0324232 0.0492365
0.7813272 0.0324481 0.0492366
0.7884521 0.0335400 0.0507609
0.7954083 0.0346677 0.0523302
0.8021059 0.0347657 0.0538020
0.8087358 0.0359333 0.0554607
0.8152013 0.0371391 0.0571680
0.8214154 0.0372436 0.0587688
0.0002355 0.0061531 0.0007171
0.0008105 0.0066193 0.0009176
0.0029888 0.0071210 0.0011527
0.0065329 0.0075767 0.0014327
0.0113987 0.0082698 0.0017536
0.0182687 0.0087052 0.0020400
0.0258620 0.0091451 0.0023871
0.0337999 0.0095973 0.0028136
0.0437339 0.0100557 0.0032511
0.0531630 0.0105032 0.0036619
0.0646550 0.0109709 0.0041232
0.0788044 0.0114597 0.0046385
0.0901684 0.0119545 0.0052177
0.1072214 0.0124566 0.0057070
0.1229334 0.0129980 0.0064294
0.1410675 0.0135352 0.0070353
0.1614348 0.0140956 0.0077063
0.1779996 0.0146364 0.0082035
0.1953018 0.0152296 0.0089970
0.2138841 0.0158123 0.0095770
0.2337616 0.0164528 0.0105038
0.2551011 0.0170823 0.0111831
0.2777525 0.0177356 0.0119060
0.2935898 0.0184400 0.0130595
0.3099656 0.0191315 0.0139023
0.3357489 0.0192598 0.0147590
0.3537583 0.0199823 0.0157115
0.3722189 0.0206864 0.0162330
0.3910878 0.0214615 0.0172794
0.4103155 0.0222650 0.0183922
0.4312803 0.0223994 0.0195218
0.4526633 0.0231900 0.0201689
0.4742562 0.0240599 0.0214669
0.4851752 0.0248869 0.0221771
0.5067897 0.0250369 0.0235368
0.5287414 0.0259186 0.0243144
0.5399567 0.0268667 0.0258734
0.5621362 0.0278040 0.0267258
0.5730830 0.0279471 0.0283409
0.5949073 0.0289205 0.0292639
0.6057636 0.0299015 0.0302159
0.6269137 0.0300163 0.0311136
0.6372248 0.0310992 0.0330764
0.6469614 0.0321502 0.0341490
0.6658315 0.0322695 0.0351600
0.6752062 0.0333589 0.0362980
0.6844476 0.0344827 0.0374518
0.6934308 0.0346529 0.0396310
0.7110862 0.0358461 0.0408766
0.7196335 0.0359482 0.0420462
0.7281393 0.0371558 0.0433647
0.7363905 0.0384022 0.0447229
0.7443753 0.0385110 0.0459982
0.7523066 0.0397799 0.0474333
0.7599723 0.0398923 0.0487826
0.7675758 0.0411940 0.0502963
0.7750121 0.0425361 0.0518482
0.7821873 0.0426553 0.0533071
0.7892895 0.0440433 0.0549474
0.7961339 0.0441666 0.0564892
0.8029006 0.0455089 0.0566358
0.8094233 0.0456361 0.0582225
0.8158687 0.0471172 0.0600060
0.8220655 0.0472486 0.0616819
0.0002514 0.0103921 0.0010667
0.0008757 0.0111357 0.0012896
0.0031196 0.0119644 0.0016082
0.0065882 0.0126819 0.0019161
0.0119200 0.0133788 0.0022289
0.0184124 0.0140809 0.0026196
0.0260506 0.0143181 0.0029973
0.0351597 0.0150140 0.0034706
0.0440480 0.0156890 0.0039091
0.0552984 0.0164295 0.0045284
0.0651109 0.0171113 0.0049499
0.0793531 0.0178718 0.0055681
0.0939996 0.0186183 0.0060925
0.1078962 0.0188323 0.0068443
0.1236948 0.0196066 0.0074892
0.1419249 0.0203724 0.0079684
0.1623951 0.0212143 0.0087395
0.1789598 0.0214012 0.0095578
0.1963349 0.0222173 0.0101737
0.2149920 0.0231143 0.0111594
0.2349438 0.0239950 0.0118809
0.2562531 0.0241532 0.0126134
0.2789714 0.0250733 0.0134279
0.2948503 0.0260007 0.0142939
0.3196698 0.0269820 0.0152163
0.3371072 0.0271404 0.0161531
0.3551515 0.0281436 0.0171939
0.3736443 0.0291829 0.0183008
0.3924092 0.0292906 0.0188547
0.4116586 0.0303711 0.0200672
0.4327791 0.0314945 0.0213583
0.4540410 0.0316145 0.0220043
0.4756431 0.0327825 0.0234177
0.4864260 0.0328802 0.0241244
0.5081817 0.0340934 0.0256712
0.5301297 0.0352747 0.0265170
0.5412020 0.0354557 0.0281282
0.5633715 0.0366828 0.0290445
0.5743110 0.0367916 0.0299080
0.5961168 0.0381237 0.0317956
0.6069592 0.0393752 0.0328253
0.6280859 0.0395245 0.0337984
0.6383798 0.0408196 0.0348911
0.6479760 0.0410245 0.0369847
0.6669422 0.0423964 0.0381572
0.6761788 0.0425165 0.0392516
0.6854023 0.0439017 0.0404825
0.6944864 0.0453303 0.0417507
0.7119920 0.0454930 0.0429446
0.7206334 0.0469711 0.0442870
0.7290099 0.0471034 0.0455504
0.7372416 0.0486313 0.0469709
0.7452101 0.0487676 0.0483077
0.7531232 0.0503470 0.0498105
0.7607721 0.0504876 0.0512212
0.7683581 0.0521194 0.0528003
0.7756814 0.0522642 0.0542847
0.7829347 0.0539468 0.0559533
0.7899284 0.0540963 0.0575218
0.7968458 0.0558269 0.0592839
0.8035083 0.0559813 0.0609408
0.8100995 0.0576526 0.0610972
0.8164451 0.0578119 0.0628019
0.8227067 0.0596552 0.0647163
0.0002783 0.0159167 0.0014671
0.0009442 0.0165042 0.0017420
0.0032493 0.0176590 0.0020763
0.0068795 0.0186853 0.0024188
0.0119956 0.0197132 0.0028511
0.0185188 0.0200811 0.0032712
0.0262139 0.0210751 0.0037931
0.0353784 0.0220515 0.0042722
0.0442973 0.0223362 0.0047926
0.0556080 0.0233295 0.0053911
0.0676718 0.0243019 0.0058940
0.0797867 0.0253003 0.0064495
0.0944603 0.0256047 0.0072452
0.1084693 0.0266436 0.0079295
0.1243406 0.0276687 0.0084410
0.1425860 0.0279327 0.0092317
0.1631345 0.0290709 0.0101239
0.1797596 0.0292618 0.0107460
0.1971944 0.0303619 0.0114406
0.2224074 0.0315930 0.0125495
0.2358269 0.0317756 0.0133226
0.2572953 0.0329682 0.0141821
0.2800724 0.0342044 0.0150968
0.2958758 0.0344024 0.0160262
0.3207427 0.0356719 0.0170584
0.3382112 0.0358793 0.0181069
0.3562803 0.0370857 0.0187049
0.3746704 0.0373010 0.0198530
0.3935846 0.0386364 0.0211283
0.4128497 0.0399324 0.0218255
0.4338526 0.0401689 0.0231642
0.4552600 0.0415193 0.0239274
0.4767329 0.0417647 0.0253923
0.4984571 0.0431667 0.0262273
0.5092724 0.0433866 0.0278295
0.5312144 0.0448404 0.0287342
0.5422831 0.0449723 0.0295888
0.5644413 0.0465765 0.0314560
0.5862417 0.0467517 0.0323896
0.5971637 0.0482751 0.0334380
0.6078683 0.0485186 0.0354471
0.6291043 0.0501380 0.0365918
0.6392610 0.0502837 0.0376727
0.6489704 0.0519082 0.0388657
0.6677902 0.0520934 0.0399801
0.6771339 0.0537646 0.0412322
0.6862256 0.0539152 0.0424117
0.6952959 0.0556419 0.0437372
0.7127755 0.0559534 0.0462681
0.7214022 0.0577421 0.0477091
0.7297649 0.0579030 0.0490661
0.7379811 0.0597501 0.0505905
0.7459352 0.0599155 0.0520222
0.7538324 0.0616983 0.0521569
0.7614665 0.0618681 0.0536241
0.7690366 0.0638336 0.0552726
0.7763451 0.0640090 0.0568230
0.7834902 0.0641848 0.0584147
0.7905612 0.0662194 0.0602027
0.7973752 0.0664008 0.0618838
0.8041107 0.0685013 0.0637719
0.8106033 0.0686886 0.0655468
0.8170173 0.0707157 0.0657143
0.8231842 0.0709087 0.0675400
0.0003170 0.0221477 0.0019769
0.0010170 0.0228572 0.0022371
0.0033807 0.0243921 0.0026175
0.0071758 0.0258172 0.0030851
0.0125044 0.0263106 0.0034530
0.0192855 0.0276433 0.0040037
0.0272607 0.0289327 0.0045079
0.0355419 0.0293264 0.0050568
0.0459956 0.0306399 0.0056882
0.0558603 0.0309526 0.0062039
0.0679750 0.0322188 0.0067882
0.0801393 0.0335759 0.0076460
0.0948715 0.0338361 0.0081059
0.1089336 0.0351759 0.0088894
0.1291804 0.0355329 0.0097218
0.1431737 0.0368345 0.0103471
0.1637185 0.0371832 0.0113165
0.1804692 0.0385427 0.0120468
0.2040395 0.0399761 0.0128240
0.2231467 0.0403200 0.0140266
0.2436756 0.0417874 0.0149298
0.2581120 0.0420272 0.0158489
0.2809322 0.0434626 0.0163735
0.2967655 0.0437118 0.0173805
0.3216738 0.0452992 0.0184982
0.3391691 0.0455600 0.0196338
0.3572639 0.0471790 0.0208941
0.3756757 0.0473495 0.0215263
0.3946101 0.0490260 0.0229078
0.4137623 0.0492029 0.0235996
0.4349098 0.0509407 0.0251112
0.4561952 0.0511303 0.0258682
0.4778086 0.0529327 0.0275218
0.4994014 0.0531293 0.0283498
0.5103509 0.0549529 0.0301400
0.5321557 0.0551561 0.0310356
0.5542527 0.0553617 0.0319570
0.5653706 0.0571394 0.0329912
0.5871606 0.0574718 0.0349745
0.5980746 0.0593136 0.0361035
0.6087707 0.0594856 0.0371704
0.6299875 0.0614378 0.0383682
0.6401346 0.0616120 0.0394790
0.6592927 0.0637482 0.0418812
0.6686319 0.0639250 0.0430786
0.6779636 0.0659538 0.0444241
0.6870432 0.0661364 0.0456914
0.7047868 0.0663688 0.0469935
0.7135534 0.0684704 0.0484562
0.7220572 0.0686593 0.0498334
0.7305142 0.0708287 0.0513806
0.7386116 0.0710227 0.0528337
0.7465535 0.0712166 0.0543190
0.7544383 0.0734548 0.0559875
0.7620598 0.0736548 0.0575570
0.7696167 0.0759642 0.0593198
0.7769118 0.0760195 0.0593200
0.7840443 0.0762258 0.0609778
0.7911018 0.0786099 0.0628395
0.7979031 0.0788228 0.0645900
0.8046255 0.0812821 0.0665553
0.8111049 0.0815016 0.0684029
0.8174248 0.0817217 0.0702985
0.8236598 0.0840986 0.0704770
0.0003670 0.0295616 0.0024698
0.0010947 0.0304823 0.0028237
0.0035161 0.0324223 0.0032394
0.0072055 0.0332144 0.0037404
0.0125623 0.0348672 0.0042124
0.0193643 0.0355260 0.0048659
0.0273709 0.0370633 0.0053182
0.0368516 0.0375879 0.0059654
0.0461779 0.0391253 0.0065264
0.0560799 0.0396049 0.0073315
0.0682391 0.0412016 0.0080212
0.0804084 0.0415149 0.0085103
0.0952306 0.0431734 0.0093326
0.1130826 0.0436069 0.0102062
0.1296526 0.0452205 0.0108624
0.1485592 0.0456454 0.0118812
0.1642950 0.0472928 0.0126474
0.1866892 0.0476325 0.0134267
0.2046395 0.0493434 0.0142915
0.2237880 0.0496586 0.0151708
0.2443578 0.0514397 0.0161476
0.2588218 0.0517321 0.0171410
0.2816824 0.0535848 0.0182431
0.2975415 0.0538890 0.0193633
0.3224852 0.0556978 0.0200020
0.3400036 0.0560153 0.0212288
0.3581191 0.0579746 0.0225913
0.3765507 0.0581818 0.0232738
0.3953744 0.0585131 0.0246995
0.4146690 0.0604275 0.0255117
0.4356984 0.0607779 0.0270715
0.4571251 0.0627695 0.0279599
0.4786116 0.0631314 0.0296570
0.5003409 0.0651941 0.0306190
0.5111560 0.0653807 0.0315282
0.5329595 0.0657561 0.0334260
0.5551842 0.0679020 0.0345067
0.5661656 0.0680972 0.0355279
0.5880755 0.0703097 0.0366742
0.5988532 0.0706571 0.0388714
0.6201332 0.0709134 0.0399965
0.6307438 0.0731488 0.0412490
0.6408823 0.0733524 0.0424290
0.6600214 0.0757113 0.0437550
0.6693512 0.0759188 0.0450039
0.6785545 0.0761269 0.0462870
0.6877416 0.0785105 0.0477284
0.7054633 0.0787829 0.0490860
0.7142182 0.0812433 0.0506107
0.7227100 0.0814648 0.0520465
0.7310483 0.0816863 0.0535175
0.7392400 0.0842283 0.0551627
0.7471692 0.0844552 0.0567102
0.7549410 0.0846827 0.0582989
0.7626504 0.0873102 0.0600832
0.7700985 0.0875448 0.0617612
0.7774773 0.0902534 0.0636454
0.7845963 0.0903180 0.0636456
0.7915509 0.0905599 0.0654172
0.7984293 0.0933535 0.0674061
0.8050532 0.0936026 0.0692759
0.8115221 0.0938524 0.0711942
0.8179122 0.0967381 0.0733444
0.8240554 0.0968069 0.0733445
0.0004207 0.0370037 0.0031198
0.0011785 0.0391655 0.0034937
0.0036534 0.0404386 0.0040396
0.0075086 0.0425609 0.0045491
0.0130798 0.0433695 0.0051030
0.0201419 0.0453884 0.0057395
0.0274669 0.0459427 0.0062573
0.0369798 0.0464971 0.0068280
0.0463372 0.0484731 0.0076907
0.0581129 0.0488924 0.0081511
0.0684694 0.0508099 0.0089338
0.0833486 0.0513369 0.0097704
0.0955438 0.0533223 0.0107131
0.1134477 0.0537394 0.0113712
0.1300640 0.0557026 0.0121048
0.1490215 0.0562213 0.0132408
0.1647260 0.0565836 0.0140562
0.1872465 0.0586444 0.0149611
0.2051527 0.0590157 0.0158816
0.2244278 0.0611137 0.0169038
0.2449421 0.0615004 0.0179432
0.2595307 0.0636381 0.0190959
0.2823242 0.0639068 0.0196736
0.3063433 0.0643113 0.0208805
0.3231809 0.0665372 0.0222200
0.3407186 0.0667728 0.0228916
0.3588522 0.0690804 0.0243585
0.3866729 0.0693744 0.0250935
0.4056881 0.0697651 0.0266284
0.4259277 0.0720231 0.0275024
0.4364863 0.0723800 0.0291808
0.4579214 0.0747195 0.0301276
0.4794124 0.0749892 0.0310228
0.5010114 0.0754147 0.0328911
0.5119602 0.0777852 0.0339545
0.5337610 0.0780661 0.0349601
0.5558483 0.0785111 0.0370582
0.5669585 0.0809730 0.0382520
0.5887279 0.0812667 0.0393806
0.5996294 0.0838051 0.0406252
0.6208951 0.0841034 0.0417883
0.6313721 0.0843366 0.0429831
0.6416274 0.0869597 0.0443256
0.6606273 0.0872590 0.0455903
0.6699494 0.0874956 0.0468895
0.6792626 0.0903835 0.0497230
0.6883232 0.0906278 0.0511347
0.7060265 0.0909384 0.0525848
0.7147714 0.0937448 0.0542096
0.7232532 0.0938125 0.0542098
0.7315814 0.0940638 0.0557319
0.7397642 0.0969942 0.0574438
0.7476834 0.0972523 0.0590520
0.7555473 0.1002922 0.0608614
0.7631456 0.1005582 0.0625599
0.7705827 0.1008248 0.0643031
0.7850611 0.1040384 0.0662641
0.7920051 0.1043131 0.0681041
0.7920051 0.1043131 0.0681041
0.7987845 0.1045886 0.0699920
0.8054867 0.1078335 0.0721149
0.8119447 0.1081170 0.0741037
0.8182430 0.1084012 0.0761435
0.8244581 0.1115376 0.0763398
0.0004893 0.0461362 0.0038736
0.0012251 0.0472384 0.0042260
0.0037960 0.0500885 0.0047576
0.0078163 0.0511943 0.0053368
0.0131260 0.0536465 0.0060022
0.0202025 0.0544222 0.0065463
0.0285008 0.0551212 0.0071431
0.0371080 0.0574857 0.0080454
0.0464737 0.0579759 0.0085291
0.0583106 0.0603013 0.0093529
0.0709676 0.0609183 0.0102284
0.0835860 0.0613754 0.0108568
0.0991835 0.0637684 0.0119051
0.1137613 0.0642180 0.0126391
0.1304173 0.0665366 0.0134536
0.1494181 0.0670098 0.0142821
0.1651573 0.0675781 0.0156198
0.1877246 0.0700096 0.0166252
0.2056653 0.0703015 0.0171291
0.2249760 0.0727695 0.0182304
0.2455258 0.0732247 0.0193500
0.2675043 0.0736837 0.0205374
0.2829661 0.0762107 0.0218541
0.3070171 0.0765287 0.0225150
0.3237601 0.0769545 0.0238952
0.3414329 0.0794237 0.0246813
0.3594630 0.0798666 0.0261915
0.3873038 0.0802027 0.0269806
0.4064585 0.0829389 0.0287035
0.4265796 0.0832327 0.0295662
0.4372737 0.0860046 0.0314311
0.4585847 0.0863115 0.0323640
0.4800805 0.0866193 0.0333238
0.5018141 0.0893806 0.0344011
0.5126302 0.0898125 0.0364664
0.5344293 0.0901329 0.0375441
0.5566459 0.0930367 0.0387548
0.5676201 0.0932976 0.0398975
0.5893815 0.0936283 0.0410513
0.6002811 0.0967629 0.0435477
0.6215348 0.0971028 0.0447913
0.6320050 0.0973685 0.0460686
0.6422557 0.1004179 0.0475061
0.6612407 0.1007589 0.0488578
0.6705545 0.1010284 0.0502460
0.6798614 0.1041769 0.0518080
0.6889130 0.1044546 0.0532762
0.7065975 0.1048072 0.0547806
0.7153349 0.1080598 0.0564657
0.7238070 0.1083452 0.0580480
0.7321252 0.1086311 0.0596722
0.7402985 0.1119883 0.0614996
0.7482064 0.1120667 0.0614998
0.7559572 0.1123604 0.0632151
0.7635467 0.1126548 0.0649755
0.7783360 0.1162028 0.0669558
0.7854359 0.1165059 0.0688138
0.7923709 0.1168099 0.0707201
0.7992312 0.1203893 0.0728636
0.7992312 0.1203893 0.0728636
0.8058354 0.1207017 0.0748716
0.8123691 0.1243857 0.0771292
0.8186566 0.1247073 0.0792463
0.8247803 0.1247933 0.0792464
0.0005665 0.0556793 0.0046852
0.0013197 0.0569172 0.0051068
0.0038076 0.0601110 0.0055811
0.0078400 0.0614260 0.0062601
0.0136524 0.0624526 0.0068300
0.0209917 0.0651779 0.0074726
0.0285860 0.0660962 0.0083937
0.0371996 0.0667057 0.0089053
0.0481490 0.0693981 0.0097652
0.0584520 0.0700957 0.0106789
0.0711715 0.0726856 0.0113650
0.0838236 0.0733778 0.0124305
0.0994148 0.0739370 0.0131966
0.1140750 0.0765799 0.0140466
0.1307122 0.0771152 0.0149111
0.1497492 0.0776580 0.0158282
0.1711407 0.0804307 0.0168468
0.1881232 0.0809321 0.0178827
0.2060937 0.0814338 0.0189813
0.2254341 0.0842619 0.0201997
0.2460126 0.0846089 0.0208102
0.2680205 0.0851334 0.0220860
0.2835029 0.0880564 0.0235032
0.3075812 0.0884195 0.0242129
0.3243412 0.0889058 0.0256950
0.3420331 0.0917801 0.0265405
0.3692650 0.0923503 0.0281621
0.3879394 0.0926691 0.0290089
0.4071084 0.0958472 0.0308507
0.4272396 0.0961802 0.0317669
0.4484366 0.0965199 0.0327095
0.4592588 0.0997512 0.0347689
0.4807592 0.1001022 0.0357979
0.5023612 0.1004543 0.0368564
0.5241222 0.1036739 0.0380464
0.5351108 0.1041692 0.0403231
0.5571883 0.1045344 0.0414889
0.5682946 0.1077870 0.0427888
0.5900472 0.1081614 0.0440115
0.6008093 0.1084541 0.0452675
0.6221826 0.1119002 0.0466813
0.6326459 0.1122018 0.0480103
0.6427627 0.1125023 0.0493755
0.6618592 0.1160501 0.0509120
0.6711644 0.1163558 0.0523558
0.6803424 0.1166621 0.0538388
0.6982926 0.1170510 0.0553583
0.7071707 0.1206387 0.0570604
0.7157857 0.1209532 0.0586584
0.7242501 0.1212684 0.0602988
0.7326684 0.1249689 0.0621444
0.7407248 0.1252922 0.0638767
0.7486247 0.1256162 0.0656544
0.7563665 0.1257028 0.0656546
0.7714656 0.1296399 0.0676558
0.7787203 0.1299735 0.0695320
0.7858112 0.1303080 0.0714570
0.7928313 0.1343420 0.0736263
0.7995911 0.1346858 0.0756539
0.8061861 0.1347776 0.0756541
0.8061863 0.1350302 0.0777333
0.8127137 0.1391895 0.0800763
0.8189922 0.1395439 0.0822680
0.8251071 0.1396388 0.0822681
0.0006470 0.0650338 0.0054815
0.0013718 0.0682600 0.0059904
0.0039521 0.0700398 0.0065306
0.0081571 0.0714252 0.0071260
0.0136936 0.0746347 0.0077962
0.0210442 0.0756940 0.0085064
0.0296459 0.0766554 0.0092981
0.0385286 0.0797552 0.0101960
0.0482672 0.0805948 0.0111496
0.0585941 0.0812295 0.0118341
0.0713431 0.0842509 0.0125980
0.0840234 0.0850451 0.0137797
0.0996483 0.0856860 0.0146280
0.1143403 0.0887671 0.0155700
0.1310110 0.0893805 0.0165275
0.1500848 0.0900025 0.0175441
0.1715173 0.0932326 0.0186729
0.1885293 0.0938066 0.0198193
0.2065291 0.0941885 0.0204184
0.2259014 0.0974765 0.0217287
0.2465107 0.0980719 0.0230610
0.2685478 0.0984720 0.0237576
0.2840502 0.1018286 0.0252804
0.3081561 0.1022426 0.0260426
0.3249336 0.1027973 0.0276342
0.3425208 0.1031482 0.0284655
0.3698969 0.1067244 0.0302829
0.3885846 0.1070852 0.0311826
0.4076332 0.1074472 0.0321083
0.4279064 0.1110815 0.0341313
0.4491114 0.1114678 0.0351419
0.4598008 0.1117723 0.0361814
0.4814415 0.1155424 0.0384527
0.5030456 0.1159424 0.0395871
0.5246696 0.1163436 0.0407538
0.5356564 0.1166572 0.0419312
0.5578652 0.1203331 0.0432448
0.5688337 0.1206548 0.0444798
0.5905794 0.1210684 0.0457489
0.6014701 0.1248021 0.0471780
0.6227018 0.1252281 0.0485208
0.6331601 0.1258006 0.0513162
0.6432711 0.1261330 0.0527711
0.6623583 0.1301488 0.0544119
0.6716566 0.1302393 0.0544122
0.6808273 0.1305767 0.0559468
0.6988825 0.1347128 0.0576703
0.7076365 0.1350590 0.0592845
0.7162433 0.1354060 0.0609415
0.7246991 0.1357536 0.0626421
0.7331123 0.1399335 0.0645597
0.7411600 0.1402900 0.0663553
0.7490516 0.1406472 0.0681978
0.7643568 0.1411007 0.0700883
0.7718674 0.1451499 0.0702750
0.7791131 0.1455174 0.0722191
0.7861953 0.1458857 0.0742133
0.7932060 0.1503273 0.0764577
0.7999568 0.1507055 0.0785576
0.8065428 0.1508065 0.0785577
0.8129742 0.1511857 0.0807111
0.8130614 0.1556584 0.0831366
0.8193309 0.1560480 0.0854054
0.8254369 0.1561521 0.0854056
0.0007481 0.0759925 0.0064134
0.0014763 0.0772635 0.0067967
0.0041023 0.0815141 0.0074364
0.0084872 0.0831129 0.0081139
0.0142359 0.0844180 0.0088551
0.0210979 0.0880317 0.0097107
0.0297211 0.0891399 0.0106193
0.0386062 0.0899447 0.0112715
0.0483878 0.0934941 0.0123601
0.0587390 0.0942231 0.0131218
0.0714829 0.0949656 0.0139300
0.0842263 0.0983920 0.0148276
0.0998857 0.0993248 0.0162159
0.1145552 0.1000017 0.0172133
0.1312527 0.1004816 0.0177348
0.1504241 0.1040500 0.0188756
0.1718203 0.1047639 0.0200344
0.1888562 0.1054014 0.0212629
0.2069680 0.1090396 0.0226269
0.2262766 0.1094771 0.0233106
0.2469100 0.1101381 0.0247388
0.2690763 0.1136963 0.0255536
0.2844888 0.1143052 0.0271161
0.3086168 0.1147640 0.0279323
0.3254084 0.1153787 0.0296367
0.3521115 0.1191204 0.0306096
0.3704041 0.1197539 0.0324537
0.3891023 0.1201534 0.0334161
0.4082949 0.1240045 0.0345007
0.4284441 0.1244231 0.0355220
