Plugins/FilmEmulator/Content/LUTs/FE_Kodak_Vision3_500T_5230_64.cube
# FilmEmulator LUT (resampled to 64)
LUT_3D_SIZE 4
0.001587 0.000000 0.000000
0.295542 0.024251 0.000000
0.569509 0.049835 0.000000
0.798370 0.062317 0.000000
0.042969 0.189423 0.000000
0.273234 0.243385 0.000000
0.626129 0.324880 0.000000
0.862579 0.333415 0.003540
0.157562 0.415232 0.000000
0.408010 0.480425 0.000000
0.629659 0.539015 0.000560
0.897502 0.612040 0.030915
0.346130 0.643372 0.049683
0.545013 0.697082 0.066019
0.719391 0.720500 0.107269
0.840851 0.751495 0.136902
0.000000 0.038381 0.171204
0.198883 0.045987 0.188931
0.564494 0.029239 0.264571
0.814555 0.035441 0.258453
0.000000 0.188643 0.212704
0.332765 0.304405 0.282213
0.648129 0.341541 0.306349
0.885647 0.338888 0.302080
0.115746 0.400089 0.233032
0.419037 0.521210 0.288434
0.637067 0.564787 0.301398
0.928423 0.654121 0.355896
0.234690 0.619548 0.279765
0.518443 0.707133 0.365882
0.709106 0.735955 0.393111
0.836222 0.767080 0.392415
0.000264 0.106760 0.332448
0.087494 0.102105 0.429979
0.440453 0.100067 0.400055
0.727010 0.101908 0.445709
0.005520 0.235779 0.393466
0.189881 0.340073 0.518715
0.603873 0.379972 0.501864
0.815406 0.377808 0.537977
0.009020 0.404134 0.422933
0.211388 0.501556 0.496308
0.695804 0.657240 0.603439
0.895813 0.683831 0.630920
0.012899 0.575094 0.455556
0.371504 0.670214 0.525781
0.682047 0.744860 0.587680
0.824799 0.777303 0.599853
0.011841 0.156189 0.470947
0.017894 0.171315 0.549052
0.424988 0.197947 0.640381
0.651855 0.153351 0.599365
0.017100 0.280700 0.536489
0.111338 0.365130 0.628198
0.506887 0.395464 0.684489
0.750305 0.405538 0.675059
0.017629 0.408702 0.533020
0.134267 0.499868 0.618300
0.631809 0.658197 0.745385
0.837667 0.690735 0.760824
0.022888 0.581604 0.590698
0.222870 0.649272 0.647522
0.599050 0.701263 0.675436
0.907196 0.877258 0.830322
