Plugins/FilmEmulator/Content/LUTs/FE_Kodak_Polymax_Grade_Minus_1_64.cube
TITLE "FE_Kodak_Polymax_Grade_Minus_1_33"
LUT_3D_SIZE 64
0.0021657 0.0021657 0.0021657
0.0021657 0.0021657 0.0021657
0.0021657 0.0021657 0.0021657
0.0021657 0.0021657 0.0021657
0.0021657 0.0021657 0.0021657
0.0021657 0.0021657 0.0021657
0.0021657 0.0021657 0.0021657
0.0021657 0.0021657 0.0021657
0.0021657 0.0021657 0.0021657
0.0021657 0.0021657 0.0021657
0.0021657 0.0021657 0.0021657
0.0021657 0.0021657 0.0021657
0.0021657 0.0021657 0.0021657
0.0021657 0.0021657 0.0021657
0.0021657 0.0021657 0.0021657
0.0021657 0.0021657 0.0021657
0.0021657 0.0021657 0.0021657
0.0021657 0.0021657 0.0021657
0.0021657 0.0021657 0.0021657
0.0021657 0.0021657 0.0021657
0.0021657 0.0021657 0.0021657
0.0021657 0.0021657 0.0021657
0.0021661 0.0021661 0.0021661
0.0021732 0.0021732 0.0021732
0.0021789 0.0021789 0.0021789
0.0021825 0.0021825 0.0021825
0.0021853 0.0021853 0.0021853
0.0021877 0.0021877 0.0021877
0.0021877 0.0021877 0.0021877
0.0021877 0.0021877 0.0021877
0.0021877 0.0021877 0.0021877
0.0021880 0.0021880 0.0021880
0.0021882 0.0021882 0.0021882
0.0021884 0.0021884 0.0021884
0.0021934 0.0021934 0.0021934
0.0021985 0.0021985 0.0021985
0.0022036 0.0022036 0.0022036
0.0022110 0.0022110 0.0022110
0.0022171 0.0022171 0.0022171
0.0022264 0.0022264 0.0022264
0.0022326 0.0022326 0.0022326
0.0022461 0.0022461 0.0022461
0.0022586 0.0022586 0.0022586
0.0022775 0.0022775 0.0022775
0.0022902 0.0022902 0.0022902
0.0023030 0.0023030 0.0023030
0.0023304 0.0023304 0.0023304
0.0023489 0.0023489 0.0023489
0.0023674 0.0023674 0.0023674
0.0023862 0.0023862 0.0023862
0.0024072 0.0024072 0.0024072
0.0024326 0.0024326 0.0024326
0.0024583 0.0024583 0.0024583
0.0024843 0.0024843 0.0024843
0.0025105 0.0025105 0.0025105
0.0025386 0.0025386 0.0025386
0.0025567 0.0025567 0.0025567
0.0025934 0.0025934 0.0025934
0.0026306 0.0026306 0.0026306
0.0026683 0.0026683 0.0026683
0.0026873 0.0026873 0.0026873
0.0027258 0.0027258 0.0027258
0.0027827 0.0027827 0.0027827
0.0028116 0.0028116 0.0028116
0.0021657 0.0021657 0.0021657
0.0021657 0.0021657 0.0021657
0.0021657 0.0021657 0.0021657
0.0021657 0.0021657 0.0021657
0.0021657 0.0021657 0.0021657
0.0021657 0.0021657 0.0021657
0.0021657 0.0021657 0.0021657
0.0021657 0.0021657 0.0021657
0.0021657 0.0021657 0.0021657
0.0021657 0.0021657 0.0021657
0.0021657 0.0021657 0.0021657
0.0021657 0.0021657 0.0021657
0.0021657 0.0021657 0.0021657
0.0021657 0.0021657 0.0021657
0.0021657 0.0021657 0.0021657
0.0021676 0.0021676 0.0021676
0.0021747 0.0021747 0.0021747
0.0021804 0.0021804 0.0021804
0.0021832 0.0021832 0.0021832
0.0021860 0.0021860 0.0021860
0.0021877 0.0021877 0.0021877
0.0021877 0.0021877 0.0021877
0.0021877 0.0021877 0.0021877
0.0021878 0.0021878 0.0021878
0.0021880 0.0021880 0.0021880
0.0021882 0.0021882 0.0021882
0.0021901 0.0021901 0.0021901
0.0021951 0.0021951 0.0021951
0.0022002 0.0022002 0.0022002
0.0022036 0.0022036 0.0022036
0.0022110 0.0022110 0.0022110
0.0022202 0.0022202 0.0022202
0.0022264 0.0022264 0.0022264
0.0022357 0.0022357 0.0022357
0.0022461 0.0022461 0.0022461
0.0022649 0.0022649 0.0022649
0.0022775 0.0022775 0.0022775
0.0022966 0.0022966 0.0022966
0.0023121 0.0023121 0.0023121
0.0023304 0.0023304 0.0023304
0.0023489 0.0023489 0.0023489
0.0023674 0.0023674 0.0023674
0.0023862 0.0023862 0.0023862
0.0024072 0.0024072 0.0024072
0.0024326 0.0024326 0.0024326
0.0024583 0.0024583 0.0024583
0.0024843 0.0024843 0.0024843
0.0025105 0.0025105 0.0025105
0.0025386 0.0025386 0.0025386
0.0025750 0.0025750 0.0025750
0.0026119 0.0026119 0.0026119
0.0026306 0.0026306 0.0026306
0.0026683 0.0026683 0.0026683
0.0027065 0.0027065 0.0027065
0.0027258 0.0027258 0.0027258
0.0027827 0.0027827 0.0027827
0.0028408 0.0028408 0.0028408
0.0028703 0.0028703 0.0028703
0.0029302 0.0029302 0.0029302
0.0029606 0.0029606 0.0029606
0.0030224 0.0030224 0.0030224
0.0030599 0.0030599 0.0030599
0.0031425 0.0031425 0.0031425
0.0031846 0.0031846 0.0031846
0.0021657 0.0021657 0.0021657
0.0021657 0.0021657 0.0021657
0.0021657 0.0021657 0.0021657
0.0021657 0.0021657 0.0021657
0.0021657 0.0021657 0.0021657
0.0021657 0.0021657 0.0021657
0.0021657 0.0021657 0.0021657
0.0021657 0.0021657 0.0021657
0.0021690 0.0021690 0.0021690
0.0021761 0.0021761 0.0021761
0.0021811 0.0021811 0.0021811
0.0021839 0.0021839 0.0021839
0.0021867 0.0021867 0.0021867
0.0021877 0.0021877 0.0021877
0.0021877 0.0021877 0.0021877
0.0021877 0.0021877 0.0021877
0.0021878 0.0021878 0.0021878
0.0021880 0.0021880 0.0021880
0.0021882 0.0021882 0.0021882
0.0021901 0.0021901 0.0021901
0.0021951 0.0021951 0.0021951
0.0022002 0.0022002 0.0022002
0.0022053 0.0022053 0.0022053
0.0022141 0.0022141 0.0022141
0.0022202 0.0022202 0.0022202
0.0022295 0.0022295 0.0022295
0.0022398 0.0022398 0.0022398
0.0022523 0.0022523 0.0022523
0.0022649 0.0022649 0.0022649
0.0022839 0.0022839 0.0022839
0.0022966 0.0022966 0.0022966
0.0023121 0.0023121 0.0023121
0.0023396 0.0023396 0.0023396
0.0023581 0.0023581 0.0023581
0.0023768 0.0023768 0.0023768
0.0023956 0.0023956 0.0023956
0.0024198 0.0024198 0.0024198
0.0024454 0.0024454 0.0024454
0.0024712 0.0024712 0.0024712
0.0024973 0.0024973 0.0024973
0.0025237 0.0025237 0.0025237
0.0025386 0.0025386 0.0025386
0.0025750 0.0025750 0.0025750
0.0026119 0.0026119 0.0026119
0.0026493 0.0026493 0.0026493
0.0026683 0.0026683 0.0026683
0.0027065 0.0027065 0.0027065
0.0027541 0.0027541 0.0027541
0.0027827 0.0027827 0.0027827
0.0028408 0.0028408 0.0028408
0.0029001 0.0029001 0.0029001
0.0029302 0.0029302 0.0029302
0.0029914 0.0029914 0.0029914
0.0030224 0.0030224 0.0030224
0.0031009 0.0031009 0.0031009
0.0031425 0.0031425 0.0031425
0.0032273 0.0032273 0.0032273
0.0032706 0.0032706 0.0032706
0.0033144 0.0033144 0.0033144
0.0034039 0.0034039 0.0034039
0.0034495 0.0034495 0.0034495
0.0035004 0.0035004 0.0035004
0.0036239 0.0036239 0.0036239
0.0036873 0.0036873 0.0036873
0.0021657 0.0021657 0.0021657
0.0021704 0.0021704 0.0021704
0.0021775 0.0021775 0.0021775
0.0021818 0.0021818 0.0021818
0.0021846 0.0021846 0.0021846
0.0021874 0.0021874 0.0021874
0.0021877 0.0021877 0.0021877
0.0021877 0.0021877 0.0021877
0.0021877 0.0021877 0.0021877
0.0021879 0.0021879 0.0021879
0.0021881 0.0021881 0.0021881
0.0021883 0.0021883 0.0021883
0.0021918 0.0021918 0.0021918
0.0021968 0.0021968 0.0021968
0.0022019 0.0022019 0.0022019
0.0022079 0.0022079 0.0022079
0.0022141 0.0022141 0.0022141
0.0022233 0.0022233 0.0022233
0.0022326 0.0022326 0.0022326
0.0022398 0.0022398 0.0022398
0.0022586 0.0022586 0.0022586
0.0022712 0.0022712 0.0022712
0.0022839 0.0022839 0.0022839
0.0023030 0.0023030 0.0023030
0.0023213 0.0023213 0.0023213
0.0023396 0.0023396 0.0023396
0.0023581 0.0023581 0.0023581
0.0023768 0.0023768 0.0023768
0.0023956 0.0023956 0.0023956
0.0024198 0.0024198 0.0024198
0.0024454 0.0024454 0.0024454
0.0024712 0.0024712 0.0024712
0.0024973 0.0024973 0.0024973
0.0025237 0.0025237 0.0025237
0.0025567 0.0025567 0.0025567
0.0025934 0.0025934 0.0025934
0.0026119 0.0026119 0.0026119
0.0026493 0.0026493 0.0026493
0.0026873 0.0026873 0.0026873
0.0027258 0.0027258 0.0027258
0.0027541 0.0027541 0.0027541
0.0028116 0.0028116 0.0028116
0.0028408 0.0028408 0.0028408
0.0029001 0.0029001 0.0029001
0.0029302 0.0029302 0.0029302
0.0029914 0.0029914 0.0029914
0.0030599 0.0030599 0.0030599
0.0031009 0.0031009 0.0031009
0.0031425 0.0031425 0.0031425
0.0032273 0.0032273 0.0032273
0.0032706 0.0032706 0.0032706
0.0033588 0.0033588 0.0033588
0.0034039 0.0034039 0.0034039
0.0034495 0.0034495 0.0034495
0.0035616 0.0035616 0.0035616
0.0036239 0.0036239 0.0036239
0.0036873 0.0036873 0.0036873
0.0038173 0.0038173 0.0038173
0.0038841 0.0038841 0.0038841
0.0039520 0.0039520 0.0039520
0.0040914 0.0040914 0.0040914
0.0041629 0.0041629 0.0041629
0.0042471 0.0042471 0.0042471
0.0043330 0.0043330 0.0043330
0.0021877 0.0021877 0.0021877
0.0021877 0.0021877 0.0021877
0.0021879 0.0021879 0.0021879
0.0021882 0.0021882 0.0021882
0.0021884 0.0021884 0.0021884
0.0021934 0.0021934 0.0021934
0.0021985 0.0021985 0.0021985
0.0022036 0.0022036 0.0022036
0.0022079 0.0022079 0.0022079
0.0022171 0.0022171 0.0022171
0.0022264 0.0022264 0.0022264
0.0022326 0.0022326 0.0022326
0.0022461 0.0022461 0.0022461
0.0022586 0.0022586 0.0022586
0.0022775 0.0022775 0.0022775
0.0022902 0.0022902 0.0022902
0.0023030 0.0023030 0.0023030
0.0023213 0.0023213 0.0023213
0.0023489 0.0023489 0.0023489
0.0023674 0.0023674 0.0023674
0.0023862 0.0023862 0.0023862
0.0024072 0.0024072 0.0024072
0.0024326 0.0024326 0.0024326
0.0024583 0.0024583 0.0024583
0.0024843 0.0024843 0.0024843
0.0025105 0.0025105 0.0025105
0.0025237 0.0025237 0.0025237
0.0025567 0.0025567 0.0025567
0.0025934 0.0025934 0.0025934
0.0026306 0.0026306 0.0026306
0.0026683 0.0026683 0.0026683
0.0026873 0.0026873 0.0026873
0.0027258 0.0027258 0.0027258
0.0027827 0.0027827 0.0027827
0.0028116 0.0028116 0.0028116
0.0028703 0.0028703 0.0028703
0.0029001 0.0029001 0.0029001
0.0029606 0.0029606 0.0029606
0.0029914 0.0029914 0.0029914
0.0030599 0.0030599 0.0030599
0.0031009 0.0031009 0.0031009
0.0031846 0.0031846 0.0031846
0.0032273 0.0032273 0.0032273
0.0033144 0.0033144 0.0033144
0.0033588 0.0033588 0.0033588
0.0034039 0.0034039 0.0034039
0.0035004 0.0035004 0.0035004
0.0035616 0.0035616 0.0035616
0.0036239 0.0036239 0.0036239
0.0037517 0.0037517 0.0037517
0.0038173 0.0038173 0.0038173
0.0038841 0.0038841 0.0038841
0.0040211 0.0040211 0.0040211
0.0040914 0.0040914 0.0040914
0.0041629 0.0041629 0.0041629
0.0042471 0.0042471 0.0042471
0.0043330 0.0043330 0.0043330
0.0045101 0.0045101 0.0045101
0.0046014 0.0046014 0.0046014
0.0046944 0.0046944 0.0046944
0.0047894 0.0047894 0.0047894
0.0048862 0.0048862 0.0048862
0.0049851 0.0049851 0.0049851
0.0050858 0.0050858 0.0050858
0.0022036 0.0022036 0.0022036
0.0022110 0.0022110 0.0022110
0.0022202 0.0022202 0.0022202
0.0022264 0.0022264 0.0022264
0.0022357 0.0022357 0.0022357
0.0022461 0.0022461 0.0022461
0.0022649 0.0022649 0.0022649
0.0022775 0.0022775 0.0022775
0.0022902 0.0022902 0.0022902
0.0023121 0.0023121 0.0023121
0.0023304 0.0023304 0.0023304
0.0023489 0.0023489 0.0023489
0.0023674 0.0023674 0.0023674
0.0023862 0.0023862 0.0023862
0.0024072 0.0024072 0.0024072
0.0024326 0.0024326 0.0024326
0.0024583 0.0024583 0.0024583
0.0024843 0.0024843 0.0024843
0.0025105 0.0025105 0.0025105
0.0025386 0.0025386 0.0025386
0.0025750 0.0025750 0.0025750
0.0025934 0.0025934 0.0025934
0.0026306 0.0026306 0.0026306
0.0026683 0.0026683 0.0026683
0.0027065 0.0027065 0.0027065
0.0027258 0.0027258 0.0027258
0.0027827 0.0027827 0.0027827
0.0028408 0.0028408 0.0028408
0.0028703 0.0028703 0.0028703
0.0029302 0.0029302 0.0029302
0.0029606 0.0029606 0.0029606
0.0030224 0.0030224 0.0030224
0.0030599 0.0030599 0.0030599
0.0031425 0.0031425 0.0031425
0.0031846 0.0031846 0.0031846
0.0032706 0.0032706 0.0032706
0.0033144 0.0033144 0.0033144
0.0033588 0.0033588 0.0033588
0.0034495 0.0034495 0.0034495
0.0035004 0.0035004 0.0035004
0.0035616 0.0035616 0.0035616
0.0036873 0.0036873 0.0036873
0.0037517 0.0037517 0.0037517
0.0038173 0.0038173 0.0038173
0.0039520 0.0039520 0.0039520
0.0040211 0.0040211 0.0040211
0.0040914 0.0040914 0.0040914
0.0041629 0.0041629 0.0041629
0.0043330 0.0043330 0.0043330
0.0044207 0.0044207 0.0044207
0.0045101 0.0045101 0.0045101
0.0046014 0.0046014 0.0046014
0.0046944 0.0046944 0.0046944
0.0047894 0.0047894 0.0047894
0.0048862 0.0048862 0.0048862
0.0050858 0.0050858 0.0050858
0.0051989 0.0051989 0.0051989
0.0053198 0.0053198 0.0053198
0.0054435 0.0054435 0.0054435
0.0055700 0.0055700 0.0055700
0.0056995 0.0056995 0.0056995
0.0058319 0.0058319 0.0058319
0.0059674 0.0059674 0.0059674
0.0061061 0.0061061 0.0061061
0.0022839 0.0022839 0.0022839
0.0022966 0.0022966 0.0022966
0.0023121 0.0023121 0.0023121
0.0023304 0.0023304 0.0023304
0.0023581 0.0023581 0.0023581
0.0023768 0.0023768 0.0023768
0.0023956 0.0023956 0.0023956
0.0024198 0.0024198 0.0024198
0.0024454 0.0024454 0.0024454
0.0024712 0.0024712 0.0024712
0.0024973 0.0024973 0.0024973
0.0025105 0.0025105 0.0025105
0.0025386 0.0025386 0.0025386
0.0025750 0.0025750 0.0025750
0.0026119 0.0026119 0.0026119
0.0026493 0.0026493 0.0026493
0.0026683 0.0026683 0.0026683
0.0027065 0.0027065 0.0027065
0.0027541 0.0027541 0.0027541
0.0027827 0.0027827 0.0027827
0.0028408 0.0028408 0.0028408
0.0028703 0.0028703 0.0028703
0.0029302 0.0029302 0.0029302
0.0029914 0.0029914 0.0029914
0.0030224 0.0030224 0.0030224
0.0031009 0.0031009 0.0031009
0.0031425 0.0031425 0.0031425
0.0031846 0.0031846 0.0031846
0.0032706 0.0032706 0.0032706
0.0033144 0.0033144 0.0033144
0.0034039 0.0034039 0.0034039
0.0034495 0.0034495 0.0034495
0.0035004 0.0035004 0.0035004
0.0036239 0.0036239 0.0036239
0.0036873 0.0036873 0.0036873
0.0037517 0.0037517 0.0037517
0.0038841 0.0038841 0.0038841
0.0039520 0.0039520 0.0039520
0.0040211 0.0040211 0.0040211
0.0040914 0.0040914 0.0040914
0.0042471 0.0042471 0.0042471
0.0043330 0.0043330 0.0043330
0.0044207 0.0044207 0.0044207
0.0045101 0.0045101 0.0045101
0.0046014 0.0046014 0.0046014
0.0046944 0.0046944 0.0046944
0.0048862 0.0048862 0.0048862
0.0049851 0.0049851 0.0049851
0.0050858 0.0050858 0.0050858
0.0051989 0.0051989 0.0051989
0.0053198 0.0053198 0.0053198
0.0054435 0.0054435 0.0054435
0.0055700 0.0055700 0.0055700
0.0056995 0.0056995 0.0056995
0.0058319 0.0058319 0.0058319
0.0059674 0.0059674 0.0059674
0.0061061 0.0061061 0.0061061
0.0062479 0.0062479 0.0062479
0.0063930 0.0063930 0.0063930
0.0065457 0.0065457 0.0065457
0.0067108 0.0067108 0.0067108
0.0068800 0.0068800 0.0068800
0.0070534 0.0070534 0.0070534
0.0072312 0.0072312 0.0072312
0.0024198 0.0024198 0.0024198
0.0024454 0.0024454 0.0024454
0.0024712 0.0024712 0.0024712
0.0024973 0.0024973 0.0024973
0.0025237 0.0025237 0.0025237
0.0025567 0.0025567 0.0025567
0.0025750 0.0025750 0.0025750
0.0026119 0.0026119 0.0026119
0.0026493 0.0026493 0.0026493
0.0026873 0.0026873 0.0026873
0.0027065 0.0027065 0.0027065
0.0027541 0.0027541 0.0027541
0.0028116 0.0028116 0.0028116
0.0028408 0.0028408 0.0028408
0.0029001 0.0029001 0.0029001
0.0029302 0.0029302 0.0029302
0.0029914 0.0029914 0.0029914
0.0030224 0.0030224 0.0030224
0.0031009 0.0031009 0.0031009
0.0031425 0.0031425 0.0031425
0.0032273 0.0032273 0.0032273
0.0032706 0.0032706 0.0032706
0.0033588 0.0033588 0.0033588
0.0034039 0.0034039 0.0034039
0.0034495 0.0034495 0.0034495
0.0035616 0.0035616 0.0035616
0.0036239 0.0036239 0.0036239
0.0036873 0.0036873 0.0036873
0.0038173 0.0038173 0.0038173
0.0038841 0.0038841 0.0038841
0.0039520 0.0039520 0.0039520
0.0040211 0.0040211 0.0040211
0.0041629 0.0041629 0.0041629
0.0042471 0.0042471 0.0042471
0.0043330 0.0043330 0.0043330
0.0044207 0.0044207 0.0044207
0.0045101 0.0045101 0.0045101
0.0046944 0.0046944 0.0046944
0.0047894 0.0047894 0.0047894
0.0048862 0.0048862 0.0048862
0.0049851 0.0049851 0.0049851
0.0050858 0.0050858 0.0050858
0.0051989 0.0051989 0.0051989
0.0053198 0.0053198 0.0053198
0.0054435 0.0054435 0.0054435
0.0055700 0.0055700 0.0055700
0.0056995 0.0056995 0.0056995
0.0058319 0.0058319 0.0058319
0.0061061 0.0061061 0.0061061
0.0062479 0.0062479 0.0062479
0.0063930 0.0063930 0.0063930
0.0065457 0.0065457 0.0065457
0.0067108 0.0067108 0.0067108
0.0068800 0.0068800 0.0068800
0.0068800 0.0068800 0.0068800
0.0070534 0.0070534 0.0070534
0.0072312 0.0072312 0.0072312
0.0074135 0.0074135 0.0074135
0.0076003 0.0076003 0.0076003
0.0077917 0.0077917 0.0077917
0.0079880 0.0079880 0.0079880
0.0081891 0.0081891 0.0081891
0.0083953 0.0083953 0.0083953
0.0086157 0.0086157 0.0086157
0.0026306 0.0026306 0.0026306
0.0026493 0.0026493 0.0026493
0.0026873 0.0026873 0.0026873
0.0027258 0.0027258 0.0027258
0.0027541 0.0027541 0.0027541
0.0028116 0.0028116 0.0028116
0.0028703 0.0028703 0.0028703
0.0029001 0.0029001 0.0029001
0.0029606 0.0029606 0.0029606
0.0029914 0.0029914 0.0029914
0.0030599 0.0030599 0.0030599
0.0031009 0.0031009 0.0031009
0.0031846 0.0031846 0.0031846
0.0032273 0.0032273 0.0032273
0.0033144 0.0033144 0.0033144
0.0033588 0.0033588 0.0033588
0.0034039 0.0034039 0.0034039
0.0035004 0.0035004 0.0035004
0.0035616 0.0035616 0.0035616
0.0036239 0.0036239 0.0036239
0.0037517 0.0037517 0.0037517
0.0038173 0.0038173 0.0038173
0.0038841 0.0038841 0.0038841
0.0039520 0.0039520 0.0039520
0.0040914 0.0040914 0.0040914
0.0041629 0.0041629 0.0041629
0.0042471 0.0042471 0.0042471
0.0043330 0.0043330 0.0043330
0.0045101 0.0045101 0.0045101
0.0046014 0.0046014 0.0046014
0.0046944 0.0046944 0.0046944
0.0047894 0.0047894 0.0047894
0.0048862 0.0048862 0.0048862
0.0049851 0.0049851 0.0049851
0.0050858 0.0050858 0.0050858
0.0051989 0.0051989 0.0051989
0.0054435 0.0054435 0.0054435
0.0055700 0.0055700 0.0055700
0.0056995 0.0056995 0.0056995
0.0058319 0.0058319 0.0058319
0.0059674 0.0059674 0.0059674
0.0061061 0.0061061 0.0061061
0.0062479 0.0062479 0.0062479
0.0063930 0.0063930 0.0063930
0.0065457 0.0065457 0.0065457
0.0067108 0.0067108 0.0067108
0.0068800 0.0068800 0.0068800
0.0070534 0.0070534 0.0070534
0.0072312 0.0072312 0.0072312
0.0074135 0.0074135 0.0074135
0.0076003 0.0076003 0.0076003
0.0076003 0.0076003 0.0076003
0.0077917 0.0077917 0.0077917
0.0079880 0.0079880 0.0079880
0.0081891 0.0081891 0.0081891
0.0083953 0.0083953 0.0083953
0.0086157 0.0086157 0.0086157
0.0088418 0.0088418 0.0088418
0.0090738 0.0090738 0.0090738
0.0093118 0.0093118 0.0093118
0.0093118 0.0093118 0.0093118
0.0095560 0.0095560 0.0095560
0.0098065 0.0098065 0.0098065
0.0100635 0.0100635 0.0100635
0.0029302 0.0029302 0.0029302
0.0029606 0.0029606 0.0029606
0.0030224 0.0030224 0.0030224
0.0030599 0.0030599 0.0030599
0.0031425 0.0031425 0.0031425
0.0031846 0.0031846 0.0031846
0.0032273 0.0032273 0.0032273
0.0033144 0.0033144 0.0033144
0.0033588 0.0033588 0.0033588
0.0034495 0.0034495 0.0034495
0.0035004 0.0035004 0.0035004
0.0035616 0.0035616 0.0035616
0.0036873 0.0036873 0.0036873
0.0037517 0.0037517 0.0037517
0.0038173 0.0038173 0.0038173
0.0038841 0.0038841 0.0038841
0.0040211 0.0040211 0.0040211
0.0040914 0.0040914 0.0040914
0.0041629 0.0041629 0.0041629
0.0042471 0.0042471 0.0042471
0.0044207 0.0044207 0.0044207
0.0045101 0.0045101 0.0045101
0.0046014 0.0046014 0.0046014
0.0046944 0.0046944 0.0046944
0.0047894 0.0047894 0.0047894
0.0048862 0.0048862 0.0048862
0.0049851 0.0049851 0.0049851
0.0051989 0.0051989 0.0051989
0.0053198 0.0053198 0.0053198
0.0054435 0.0054435 0.0054435
0.0055700 0.0055700 0.0055700
0.0056995 0.0056995 0.0056995
0.0058319 0.0058319 0.0058319
0.0059674 0.0059674 0.0059674
0.0061061 0.0061061 0.0061061
0.0062479 0.0062479 0.0062479
0.0063930 0.0063930 0.0063930
0.0065457 0.0065457 0.0065457
0.0067108 0.0067108 0.0067108
0.0068800 0.0068800 0.0068800
0.0070534 0.0070534 0.0070534
0.0072312 0.0072312 0.0072312
0.0074135 0.0074135 0.0074135
0.0076003 0.0076003 0.0076003
0.0077917 0.0077917 0.0077917
0.0079880 0.0079880 0.0079880
0.0081891 0.0081891 0.0081891
0.0081891 0.0081891 0.0081891
0.0083953 0.0083953 0.0083953
0.0086157 0.0086157 0.0086157
0.0088418 0.0088418 0.0088418
0.0090738 0.0090738 0.0090738
0.0093118 0.0093118 0.0093118
0.0095560 0.0095560 0.0095560
0.0098065 0.0098065 0.0098065
0.0098065 0.0098065 0.0098065
0.0100635 0.0100635 0.0100635
0.0103273 0.0103273 0.0103273
0.0105978 0.0105978 0.0105978
0.0108753 0.0108753 0.0108753
0.0111667 0.0111667 0.0111667
0.0111667 0.0111667 0.0111667
0.0114691 0.0114691 0.0114691
0.0117796 0.0117796 0.0117796
0.0033144 0.0033144 0.0033144
0.0034039 0.0034039 0.0034039
0.0034495 0.0034495 0.0034495
0.0035004 0.0035004 0.0035004
0.0036239 0.0036239 0.0036239
0.0036873 0.0036873 0.0036873
0.0037517 0.0037517 0.0037517
0.0038841 0.0038841 0.0038841
0.0039520 0.0039520 0.0039520
0.0040211 0.0040211 0.0040211
0.0040914 0.0040914 0.0040914
0.0041629 0.0041629 0.0041629
0.0043330 0.0043330 0.0043330
0.0044207 0.0044207 0.0044207
0.0045101 0.0045101 0.0045101
0.0046014 0.0046014 0.0046014
0.0046944 0.0046944 0.0046944
0.0047894 0.0047894 0.0047894
0.0049851 0.0049851 0.0049851
0.0050858 0.0050858 0.0050858
0.0051989 0.0051989 0.0051989
0.0053198 0.0053198 0.0053198
0.0054435 0.0054435 0.0054435
0.0055700 0.0055700 0.0055700
0.0056995 0.0056995 0.0056995
0.0058319 0.0058319 0.0058319
0.0059674 0.0059674 0.0059674
0.0061061 0.0061061 0.0061061
0.0062479 0.0062479 0.0062479
0.0063930 0.0063930 0.0063930
0.0065457 0.0065457 0.0065457
0.0067108 0.0067108 0.0067108
0.0068800 0.0068800 0.0068800
0.0070534 0.0070534 0.0070534
0.0072312 0.0072312 0.0072312
0.0074135 0.0074135 0.0074135
0.0076003 0.0076003 0.0076003
0.0077917 0.0077917 0.0077917
0.0079880 0.0079880 0.0079880
0.0081891 0.0081891 0.0081891
0.0083953 0.0083953 0.0083953
0.0086157 0.0086157 0.0086157
0.0086157 0.0086157 0.0086157
0.0088418 0.0088418 0.0088418
0.0090738 0.0090738 0.0090738
0.0093118 0.0093118 0.0093118
0.0095560 0.0095560 0.0095560
0.0098065 0.0098065 0.0098065
0.0100635 0.0100635 0.0100635
0.0100635 0.0100635 0.0100635
0.0103273 0.0103273 0.0103273
0.0105978 0.0105978 0.0105978
0.0108753 0.0108753 0.0108753
0.0111667 0.0111667 0.0111667
0.0111667 0.0111667 0.0111667
0.0114691 0.0114691 0.0114691
0.0117796 0.0117796 0.0117796
0.0120984 0.0120984 0.0120984
0.0124258 0.0124258 0.0124258
0.0124258 0.0124258 0.0124258
0.0127618 0.0127618 0.0127618
0.0131069 0.0131069 0.0131069
0.0134612 0.0134612 0.0134612
0.0134612 0.0134612 0.0134612
0.0038841 0.0038841 0.0038841
0.0039520 0.0039520 0.0039520
0.0040211 0.0040211 0.0040211
0.0041629 0.0041629 0.0041629
0.0042471 0.0042471 0.0042471
0.0043330 0.0043330 0.0043330
0.0044207 0.0044207 0.0044207
0.0045101 0.0045101 0.0045101
0.0046014 0.0046014 0.0046014
0.0047894 0.0047894 0.0047894
0.0048862 0.0048862 0.0048862
0.0049851 0.0049851 0.0049851
0.0050858 0.0050858 0.0050858
0.0051989 0.0051989 0.0051989
0.0053198 0.0053198 0.0053198
0.0054435 0.0054435 0.0054435
0.0055700 0.0055700 0.0055700
0.0056995 0.0056995 0.0056995
0.0058319 0.0058319 0.0058319
0.0059674 0.0059674 0.0059674
0.0061061 0.0061061 0.0061061
0.0062479 0.0062479 0.0062479
0.0063930 0.0063930 0.0063930
0.0065457 0.0065457 0.0065457
0.0067108 0.0067108 0.0067108
0.0068800 0.0068800 0.0068800
0.0070534 0.0070534 0.0070534
0.0072312 0.0072312 0.0072312
0.0074135 0.0074135 0.0074135
0.0076003 0.0076003 0.0076003
0.0077917 0.0077917 0.0077917
0.0079880 0.0079880 0.0079880
0.0081891 0.0081891 0.0081891
0.0083953 0.0083953 0.0083953
0.0086157 0.0086157 0.0086157
0.0088418 0.0088418 0.0088418
0.0088418 0.0088418 0.0088418
0.0090738 0.0090738 0.0090738
0.0093118 0.0093118 0.0093118
0.0095560 0.0095560 0.0095560
0.0098065 0.0098065 0.0098065
0.0100635 0.0100635 0.0100635
0.0103273 0.0103273 0.0103273
0.0103273 0.0103273 0.0103273
0.0105978 0.0105978 0.0105978
0.0108753 0.0108753 0.0108753
0.0111667 0.0111667 0.0111667
0.0114691 0.0114691 0.0114691
0.0114691 0.0114691 0.0114691
0.0117796 0.0117796 0.0117796
0.0120984 0.0120984 0.0120984
0.0124258 0.0124258 0.0124258
0.0127618 0.0127618 0.0127618
0.0127618 0.0127618 0.0127618
0.0131069 0.0131069 0.0131069
0.0134612 0.0134612 0.0134612
0.0138248 0.0138248 0.0138248
0.0138248 0.0138248 0.0138248
0.0141982 0.0141982 0.0141982
0.0145798 0.0145798 0.0145798
0.0149679 0.0149679 0.0149679
0.0149679 0.0149679 0.0149679
0.0153662 0.0153662 0.0153662
0.0157750 0.0157750 0.0157750
0.0046014 0.0046014 0.0046014
0.0046944 0.0046944 0.0046944
0.0047894 0.0047894 0.0047894
0.0048862 0.0048862 0.0048862
0.0049851 0.0049851 0.0049851
0.0050858 0.0050858 0.0050858
0.0051989 0.0051989 0.0051989
0.0053198 0.0053198 0.0053198
0.0054435 0.0054435 0.0054435
0.0056995 0.0056995 0.0056995
0.0058319 0.0058319 0.0058319
0.0059674 0.0059674 0.0059674
0.0061061 0.0061061 0.0061061
0.0062479 0.0062479 0.0062479
0.0063930 0.0063930 0.0063930
0.0065457 0.0065457 0.0065457
0.0067108 0.0067108 0.0067108
0.0068800 0.0068800 0.0068800
0.0070534 0.0070534 0.0070534
0.0072312 0.0072312 0.0072312
0.0074135 0.0074135 0.0074135
0.0074135 0.0074135 0.0074135
0.0076003 0.0076003 0.0076003
0.0077917 0.0077917 0.0077917
0.0079880 0.0079880 0.0079880
0.0081891 0.0081891 0.0081891
0.0083953 0.0083953 0.0083953
0.0086157 0.0086157 0.0086157
0.0088418 0.0088418 0.0088418
0.0090738 0.0090738 0.0090738
