Plugins/FilmEmulator/Content/LUTs/FE_Kodak_Ektachrome_Radiance_III_64.cube
TITLE "FE_Kodak_Ektachrome_Radiance_III_33"
LUT_3D_SIZE 4
0.0035917 0.0053061 0.0050837
0.1763003 0.0208461 0.0183289
0.3996458 0.0506156 0.0517284
0.5863677 0.0893558 0.0876133
0.0007159 0.1154789 0.0127688
0.3250455 0.2625182 0.0168178
0.6191871 0.3352773 0.0324980
0.8043700 0.3834048 0.0715394
0.0060900 0.2618444 0.0364775
0.3739931 0.4688417 0.0405159
0.7083955 0.5779237 0.0518440
0.9039555 0.6349956 0.0687871
0.0313405 0.3647425 0.0658858
0.3998047 0.5669829 0.0702242
0.7405860 0.6832864 0.0802440
0.9305794 0.7432976 0.0988791
0.0387606 0.0179042 0.2787156
0.2655543 0.0621617 0.3689667
0.5034975 0.1072262 0.4322816
0.6588213 0.1463349 0.4837191
0.0096014 0.2611001 0.3769381
0.3446299 0.3840963 0.4372832
0.6412845 0.4473087 0.4814932
0.8042738 0.4799299 0.5247895
0.0025536 0.4394859 0.3980501
0.3796851 0.6237766 0.4497700
0.7051748 0.7265315 0.4958421
0.8707231 0.7718798 0.5392303
0.0216802 0.5178081 0.3989381
0.4074077 0.7133481 0.4500985
0.7372010 0.8215280 0.4901209
0.8945889 0.8692606 0.5330116
0.0952438 0.0564706 0.5771940
0.3447498 0.1093414 0.6592666
0.5816656 0.1554492 0.7065729
0.7090045 0.1941957 0.7371144
0.0686989 0.3332551 0.7057103
0.4053108 0.4367812 0.7599404
0.6892626 0.4927233 0.7891058
0.8197337 0.5177886 0.8081241
0.0588979 0.5448001 0.7515320
0.4351229 0.7007865 0.7983093
0.7372745 0.7850128 0.8235542
0.8738158 0.8180147 0.8416228
0.0781273 0.6287366 0.7630658
0.4595720 0.7934615 0.8060111
0.7634234 0.8842863 0.8296181
0.8915322 0.9181454 0.8474720
0.1548402 0.1014337 0.7003915
0.4204617 0.1571663 0.7625318
0.6421092 0.2054968 0.7964902
0.7471988 0.2429512 0.8150336
0.1454884 0.3826831 0.8166316
0.4811842 0.4738650 0.8559955
0.7315111 0.5212023 0.8733373
0.8368263 0.5420267 0.8813161
0.1415684 0.6045793 0.8667454
0.5140727 0.7427258 0.8983883
0.7776799 0.8122508 0.9132234
0.8862279 0.8372716 0.9186854
0.1634521 0.6892983 0.8807573
0.5369505 0.8316181 0.9092605
0.7971274 0.9060132 0.9215459
0.9027369 0.9324626 0.9277697
