Plugins/FilmEmulator/Content/LUTs/FE_Kodak_Vision_800T_5289_64.cube
# FilmEmulator LUT (resampled to 64)
LUT_3D_SIZE 8
0.000000 0.000000 0.000000
0.115823 0.025883 0.045031
0.235273 0.025609 0.059291
0.357888 0.026306 0.089739
0.481995 0.035571 0.127629
0.616904 0.045358 0.166482
0.759635 0.056096 0.203848
0.892883 0.112335 0.241455
0.018982 0.108098 0.063455
0.104841 0.117920 0.075027
0.233822 0.125910 0.085807
0.384097 0.105797 0.102818
0.521804 0.079686 0.131292
0.651779 0.101171 0.167964
0.785495 0.147355 0.209987
0.914263 0.205981 0.252036
0.010280 0.209128 0.106045
0.053892 0.224037 0.110142
0.212789 0.234824 0.127126
0.367776 0.243084 0.134398
0.522213 0.245669 0.156112
0.671611 0.253441 0.185926
0.807740 0.281244 0.225300
0.932748 0.325867 0.269213
0.008488 0.329137 0.164450
0.042559 0.340665 0.166672
0.187039 0.358453 0.166259
0.351680 0.371019 0.182287
0.513177 0.387747 0.195778
0.676014 0.402467 0.219992
0.829162 0.427092 0.255554
0.951403 0.464848 0.296762
0.015925 0.455754 0.215668
0.033485 0.463027 0.222538
0.173627 0.488067 0.209538
0.358978 0.504027 0.223034
0.514005 0.522772 0.245184
0.677690 0.546680 0.268222
0.829481 0.572595 0.292648
0.946110 0.598005 0.335479
0.024532 0.584277 0.261226
0.032737 0.590590 0.267005
0.153170 0.617576 0.261097
0.383163 0.641500 0.278708
0.545208 0.658955 0.293054
0.689480 0.676060 0.320737
0.818421 0.692901 0.355137
0.924787 0.712018 0.371211
0.035635 0.712036 0.305372
0.040455 0.718575 0.306421
0.203478 0.737918 0.313610
0.424807 0.760616 0.348679
0.575175 0.772277 0.363262
0.707474 0.779055 0.369869
0.815276 0.787060 0.391423
0.906010 0.797124 0.429025
0.119965 0.821259 0.359070
0.143846 0.827279 0.362741
0.267111 0.837420 0.370074
0.473750 0.850839 0.393951
0.611550 0.858677 0.417306
0.720211 0.860931 0.428868
0.818656 0.864009 0.441071
0.893707 0.867950 0.458588
0.009425 0.018180 0.097992
0.077061 0.031607 0.158377
0.242018 0.023006 0.133770
0.364102 0.027233 0.140208
0.489754 0.036443 0.173703
0.623691 0.046375 0.207358
0.769348 0.057050 0.242810
0.900361 0.121948 0.279401
0.014384 0.108258 0.135839
0.101813 0.117806 0.151090
0.242943 0.125887 0.138129
0.384476 0.117682 0.162908
0.528496 0.086760 0.186446
0.660988 0.108222 0.218539
0.794140 0.163028 0.257589
0.923786 0.224361 0.299655
0.011913 0.213136 0.144328
0.090015 0.223562 0.158497
0.221508 0.235360 0.181086
0.373336 0.246397 0.189793
0.528735 0.251729 0.212032
0.678605 0.258176 0.234777
0.818889 0.291997 0.275764
0.945156 0.343418 0.322848
0.008833 0.332862 0.203660
0.044985 0.342026 0.210844
0.203178 0.360356 0.223439
0.358919 0.375346 0.243606
0.522473 0.395786 0.252075
0.688712 0.411264 0.276838
0.841361 0.430475 0.309965
0.960041 0.468609 0.352470
0.014890 0.459506 0.259341
0.036165 0.463353 0.267036
0.184211 0.488189 0.270947
0.368246 0.508370 0.284716
0.521890 0.527812 0.305854
0.686054 0.553628 0.324638
0.835056 0.578019 0.354022
0.949491 0.602964 0.391027
0.024141 0.586244 0.299450
0.035423 0.590886 0.307008
0.173843 0.614745 0.309411
0.396688 0.644306 0.336881
0.551758 0.663083 0.353794
0.689017 0.676972 0.379938
0.818224 0.695428 0.410347
0.926554 0.714800 0.425047
0.035872 0.714523 0.343333
0.039981 0.720363 0.351381
0.217976 0.738391 0.364929
0.423821 0.758588 0.404302
0.580642 0.774383 0.421477
0.708747 0.780002 0.424912
0.813619 0.786733 0.444907
0.905739 0.798422 0.482759
0.135006 0.824894 0.405400
0.158321 0.830566 0.413575
0.292324 0.839521 0.421477
0.474800 0.849104 0.445015
0.612810 0.859177 0.471798
0.722837 0.862256 0.482849
0.818841 0.863844 0.490166
0.894008 0.868378 0.509003
0.013467 0.038478 0.167781
0.043523 0.055790 0.249495
0.206072 0.042269 0.289465
0.363640 0.035930 0.270487
0.504459 0.039711 0.253474
0.639165 0.050648 0.283794
0.783291 0.060560 0.315090
0.911481 0.130410 0.348737
0.013370 0.119601 0.202921
0.045117 0.130828 0.276605
0.218481 0.132624 0.281637
0.381097 0.133221 0.267812
0.520680 0.145280 0.268477
0.663453 0.150343 0.300305
0.806495 0.174020 0.330017
0.935200 0.232864 0.373020
0.009392 0.214308 0.257020
0.076384 0.225904 0.280706
0.243281 0.241386 0.271391
0.383640 0.253253 0.266874
0.533689 0.261801 0.297666
0.690742 0.272814 0.322412
0.834522 0.307612 0.359870
0.955195 0.360582 0.402539
0.008116 0.338552 0.262074
0.063448 0.348260 0.272609
0.236050 0.365055 0.298262
0.377978 0.384486 0.325985
0.535250 0.404026 0.332881
0.702251 0.419740 0.360256
0.854761 0.440827 0.387666
0.971231 0.477277 0.426822
0.013759 0.466634 0.324086
0.037404 0.472059 0.330953
0.214100 0.491239 0.349122
0.390746 0.518475 0.372735
0.536252 0.536347 0.394845
0.695897 0.560660 0.403667
0.846905 0.582078 0.432054
0.957171 0.606251 0.464799
0.023600 0.595646 0.369885
0.034621 0.599356 0.376658
0.214534 0.617998 0.388934
0.411744 0.648528 0.422581
0.562401 0.668756 0.439236
0.692737 0.679748 0.460503
0.821035 0.699746 0.480178
0.929157 0.718592 0.497074
0.034778 0.722565 0.408942
0.039243 0.726426 0.417829
0.253207 0.742091 0.440750
0.436496 0.758479 0.473464
0.588999 0.775316 0.491657
0.711353 0.781766 0.497518
0.813350 0.788285 0.516448
0.906090 0.801371 0.548924
0.153796 0.830126 0.463845
0.175130 0.835115 0.475232
0.331391 0.842150 0.492011
0.486478 0.849989 0.514149
0.612911 0.858675 0.540774
0.726040 0.863589 0.549030
0.819269 0.864934 0.554024
0.894253 0.869389 0.572292
0.017530 0.069829 0.252049
0.044295 0.081907 0.320436
0.131926 0.074316 0.432512
0.354236 0.058149 0.424699
0.496644 0.069630 0.416971
0.650511 0.078852 0.406082
0.786102 0.143316 0.409811
0.913901 0.185538 0.442692
0.017377 0.136432 0.301715
0.047812 0.150254 0.370309
0.187712 0.153217 0.424720
0.363587 0.160232 0.422137
0.513459 0.174017 0.419323
0.668938 0.193031 0.414522
0.807651 0.232537 0.432657
0.934289 0.267719 0.467754
0.013300 0.229242 0.343026
0.048547 0.248395 0.387001
0.207180 0.257321 0.427079
0.375576 0.264944 0.412727
0.533937 0.283655 0.416467
0.684525 0.307688 0.419561
0.831984 0.336120 0.459460
0.953199 0.377757 0.493079
0.005217 0.342796 0.394882
0.075841 0.355976 0.415495
0.250547 0.372331 0.423584
0.404826 0.395907 0.419043
0.549205 0.415746 0.428210
0.710659 0.431894 0.460786
0.861243 0.456669 0.488099
0.977823 0.494747 0.520033
0.018816 0.474484 0.395988
0.057988 0.483950 0.405483
0.259361 0.501530 0.427084
0.418745 0.529665 0.463896
0.555914 0.548860 0.490780
0.712429 0.569122 0.494583
0.854150 0.588177 0.520153
0.962695 0.612618 0.541938
0.021471 0.605303 0.451999
0.034834 0.612580 0.459272
0.251170 0.630940 0.477009
0.432622 0.653841 0.508184
0.578062 0.675249 0.529271
0.701643 0.685436 0.548958
0.826414 0.704079 0.553771
0.934731 0.722339 0.573483
0.033024 0.733522 0.495699
0.041739 0.739726 0.505881
0.274194 0.750488 0.526603
0.456947 0.762675 0.554859
0.597029 0.777260 0.575605
0.717753 0.785466 0.580607
0.814912 0.790178 0.594282
0.908502 0.804448 0.617322
0.180786 0.837987 0.545899
0.198086 0.841192 0.553071
0.351703 0.846491 0.570864
0.504186 0.852037 0.592433
0.623100 0.858791 0.611802
0.733052 0.865396 0.621347
0.819205 0.866585 0.624878
0.894043 0.870653 0.639068
0.022125 0.097330 0.355103
0.046085 0.106219 0.413345
0.085102 0.103198 0.552128
0.349071 0.097896 0.560321
0.509916 0.100324 0.556475
0.645730 0.127475 0.548985
0.791093 0.169004 0.549823
0.921535 0.215842 0.556270
0.023004 0.158966 0.402547
0.050732 0.173483 0.469577
0.137021 0.178404 0.552410
0.367903 0.190771 0.563220
0.528047 0.203349 0.564448
0.666758 0.225508 0.561240
0.813167 0.260984 0.567054
0.931695 0.301621 0.577276
0.019695 0.250754 0.444649
0.051826 0.268248 0.508969
0.187386 0.283067 0.569506
0.389684 0.294461 0.557796
0.541852 0.313831 0.559811
0.688126 0.340651 0.568037
0.831265 0.370690 0.578692
0.940821 0.413463 0.593610
0.008225 0.361502 0.503496
0.049155 0.382929 0.540285
0.203512 0.406009 0.573282
0.400548 0.416161 0.570446
0.552142 0.428985 0.559147
0.709306 0.453527 0.568982
0.848385 0.483462 0.586169
0.957502 0.516449 0.618950
0.009820 0.482798 0.531956
0.068636 0.496770 0.546849
0.293695 0.515428 0.562706
0.438890 0.535840 0.572316
0.579057 0.560322 0.571559
0.720874 0.579813 0.592347
0.855906 0.596894 0.619482
0.959285 0.623741 0.643415
0.038007 0.616819 0.539752
0.058505 0.625529 0.549643
0.301093 0.644491 0.568219
0.459771 0.665795 0.595995
0.594179 0.683171 0.622186
0.712571 0.694900 0.638890
0.833437 0.709053 0.640147
0.934930 0.726510 0.663721
0.043955 0.740810 0.584901
0.075983 0.749768 0.597307
0.315732 0.760791 0.616439
0.478856 0.770112 0.636415
0.610373 0.779813 0.656849
0.726418 0.790221 0.664935
0.817409 0.794500 0.677955
0.911559 0.807047 0.682983
0.203884 0.842351 0.628422
0.224192 0.847986 0.637826
0.372690 0.852433 0.652013
0.513945 0.855263 0.669443
0.634789 0.859402 0.687862
0.736844 0.866551 0.699905
0.822650 0.869278 0.699145
0.892897 0.872005 0.709926
0.027213 0.125929 0.469325
0.047995 0.131797 0.524137
0.080393 0.128111 0.659788
0.343590 0.136964 0.680218
0.521446 0.144198 0.688172
0.669829 0.161743 0.685251
0.794728 0.193564 0.678326
0.912650 0.244525 0.685224
0.027249 0.185868 0.515211
0.054402 0.197986 0.579075
0.114331 0.201826 0.668715
0.373238 0.220090 0.688441
0.549468 0.239126 0.699255
0.692532 0.257594 0.697105
0.817584 0.283535 0.696274
0.925626 0.329664 0.707394
0.024769 0.276438 0.567998
0.055882 0.295675 0.635437
0.176311 0.314733 0.701584
0.404467 0.329375 0.691342
0.562814 0.347795 0.698770
0.707996 0.368409 0.702598
0.830481 0.395394 0.708258
0.933689 0.438715 0.721414
0.011739 0.388147 0.605291
0.053218 0.413472 0.651177
0.192913 0.433158 0.715466
0.430706 0.446266 0.706005
0.578207 0.458890 0.695429
0.714894 0.479954 0.700622
0.839667 0.511554 0.715100
0.939621 0.540746 0.727673
0.006244 0.505298 0.655899
0.044069 0.527205 0.687191
0.290406 0.548206 0.703723
0.440998 0.565221 0.708108
0.584334 0.576131 0.707388
0.716208 0.590513 0.700915
0.847994 0.612239 0.713743
0.945964 0.638294 0.728337
0.036685 0.628315 0.672522
0.116658 0.640661 0.683676
0.342148 0.658576 0.696353
0.483396 0.672983 0.706707
0.606381 0.687240 0.713398
0.725327 0.702453 0.710398
0.834635 0.716421 0.726314
0.936818 0.730131 0.745969
0.175118 0.749139 0.679925
0.199962 0.756125 0.687724
0.359972 0.766155 0.699956
0.506036 0.775470 0.711518
0.625354 0.784402 0.729878
0.732835 0.794341 0.746123
0.821094 0.799589 0.755505
0.911930 0.809179 0.756349
0.231193 0.846130 0.711919
0.252648 0.851432 0.720264
0.403136 0.855140 0.731283
0.535617 0.858246 0.743252
0.649355 0.862051 0.756485
0.743229 0.867461 0.770554
0.826097 0.871695 0.768650
0.890839 0.873692 0.777422
0.031725 0.153861 0.591514
0.052092 0.157491 0.645794
0.083234 0.153725 0.752890
0.348724 0.166117 0.784896
0.530394 0.181593 0.800395
0.681439 0.199254 0.804765
0.809240 0.224726 0.801177
0.910370 0.266850 0.800132
0.032141 0.212854 0.638631
0.058067 0.224537 0.708929
0.112046 0.228194 0.779908
0.380629 0.245898 0.795096
0.558741 0.267296 0.810945
0.707073 0.287332 0.813673
0.828264 0.313038 0.814780
0.922618 0.349695 0.817135
0.028599 0.307897 0.698167
0.059531 0.328292 0.769160
0.230892 0.344826 0.809129
0.423828 0.353026 0.804547
0.580044 0.372498 0.812202
0.725245 0.396080 0.818068
0.844005 0.420412 0.819684
0.933351 0.452848 0.825473
0.017840 0.420632 0.720745
0.058348 0.441999 0.790403
0.228724 0.460427 0.850450
0.455691 0.476992 0.830361
0.601252 0.488583 0.813089
0.733799 0.506148 0.816696
0.847096 0.527961 0.819314
0.936126 0.554962 0.827791
0.005987 0.530819 0.765558
0.055978 0.556761 0.809418
0.290072 0.577654 0.827457
0.464752 0.592151 0.836353
0.616116 0.602986 0.824749
0.736439 0.612413 0.812359
0.843245 0.627717 0.813719
0.932280 0.655419 0.820775
0.022533 0.652585 0.798209
0.136566 0.667940 0.808575
0.356958 0.683634 0.818158
0.500085 0.696157 0.819758
0.617416 0.707367 0.818755
0.730971 0.713913 0.815609
0.829739 0.722979 0.806713
0.930547 0.737861 0.814011
0.184144 0.756171 0.789488
0.222305 0.764637 0.795667
0.397857 0.773384 0.801534
0.530865 0.781322 0.806417
0.641575 0.788249 0.811457
0.739729 0.796167 0.814735
0.826747 0.803645 0.812240
0.909189 0.812684 0.819855
0.285322 0.847547 0.794482
0.303856 0.852708 0.800621
0.441478 0.856121 0.803526
0.556630 0.861175 0.809025
0.660357 0.865142 0.814780
0.749254 0.869138 0.826014
0.827510 0.873236 0.832410
0.888847 0.875501 0.838026
0.036133 0.181213 0.724640
0.056109 0.182451 0.772570
0.088462 0.177534 0.855996
0.366150 0.190647 0.876713
0.544303 0.211827 0.892338
0.693735 0.229348 0.894536
0.821511 0.252446 0.897923
0.912476 0.292023 0.902222
0.033783 0.240487 0.772091
0.058771 0.250544 0.841863
0.178306 0.253151 0.877093
0.401621 0.267494 0.886009
0.572049 0.287411 0.898398
0.715416 0.311785 0.906782
0.837296 0.337574 0.909143
0.922246 0.373614 0.911368
0.033190 0.340262 0.832132
0.064114 0.357415 0.901406
0.303235 0.372000 0.899472
0.459037 0.377797 0.898634
0.595413 0.392221 0.903970
0.736605 0.418978 0.913358
0.854563 0.447249 0.914120
0.932116 0.473411 0.918204
0.027248 0.450662 0.861655
0.065008 0.470901 0.929966
0.312307 0.488115 0.943978
0.492949 0.501992 0.922988
0.623692 0.508815 0.908721
0.750600 0.526750 0.907525
0.860129 0.546219 0.909629
0.936746 0.568163 0.912157
0.011806 0.559583 0.872101
0.074589 0.584355 0.912815
0.325185 0.601124 0.930443
0.510066 0.614842 0.939161
0.645011 0.626443 0.919853
0.756836 0.634599 0.904315
0.853092 0.646849 0.901734
0.931065 0.665972 0.896981
0.017050 0.674085 0.899218
0.202377 0.685307 0.904462
0.386040 0.702672 0.914453
0.516123 0.715725 0.919236
0.638114 0.723897 0.918064
0.752536 0.731086 0.904510
0.839681 0.737491 0.890984
0.918671 0.744895 0.888271
0.206029 0.770769 0.888040
0.252698 0.780198 0.894192
0.423426 0.787393 0.897497
0.550983 0.795494 0.897167
0.659164 0.802851 0.894510
0.748091 0.807938 0.894329
0.831325 0.809942 0.890819
0.904279 0.814065 0.882233
0.294952 0.850403 0.876221
0.325156 0.855364 0.879617
0.464225 0.859274 0.881609
0.575880 0.863129 0.882961
0.673000 0.865892 0.884879
0.754843 0.869363 0.886946
0.831482 0.872445 0.886113
0.891632 0.875885 0.883972
