Plugins/FilmEmulator/Content/LUTs/FE_Kodak_5383_64.cube
TITLE "FE_Kodak_5383_33"
LUT_3D_SIZE 4
0.0007250 0.0228393 0.0492378
0.7834744 0.2326362 0.1693662
1.0000000 0.4472524 0.4226391
1.0000000 0.5759090 0.5893040
0.0909508 0.7945809 0.3575599
0.7017452 0.8569990 0.4439669
0.9536994 0.9137735 0.6066296
1.0000000 0.9411318 0.7322750
0.2724259 0.9802570 0.6164643
0.7561991 0.9814930 0.6781166
0.9456892 0.9891868 0.7505244
0.9832081 0.9929371 0.8031194
0.4356300 1.0000000 0.7530871
0.7983731 1.0000000 0.7911130
0.9532843 1.0000000 0.8362467
0.9833526 1.0000000 0.8687088
0.8476822 0.7873941 0.9678074
0.9771325 0.8729281 0.9743456
1.0000000 0.9169165 0.9805877
1.0000000 0.9407872 0.9850025
0.8750496 0.9623073 0.9735536
0.9689869 0.9768000 0.9803982
0.9897881 0.9842948 0.9856722
0.9958551 0.9881399 0.9893063
0.8987595 0.9872285 0.9776463
0.9738012 0.9920987 0.9840485
0.9906012 0.9946362 0.9886200
0.9954599 0.9960088 0.9914492
0.9124649 0.9950899 0.9803702
0.9779549 0.9967310 0.9859636
0.9919671 0.9978213 0.9902363
0.9959506 0.9983352 0.9927992
0.9772155 0.9724571 0.9977523
0.9916928 0.9808697 0.9977360
0.9960950 0.9853650 0.9979269
0.9978687 0.9882182 0.9981595
0.9815469 0.9911823 0.9976690
0.9922251 0.9938894 0.9978934
0.9957650 0.9953460 0.9982089
0.9972352 0.9962212 0.9984523
0.9851051 0.9962049 0.9979042
0.9936163 0.9973999 0.9982218
0.9963999 0.9979818 0.9984726
0.9975764 0.9983572 0.9987201
0.9873004 0.9980614 0.9981335
0.9946704 0.9986800 0.9984355
0.9969814 0.9989935 0.9987081
0.9979193 0.9991671 0.9988925
0.9933680 0.9927619 0.9995037
0.9960348 0.9942179 0.9994473
0.9972817 0.9951783 0.9994463
0.9979463 0.9958702 0.9994648
0.9946281 0.9971551 0.9994552
0.9966660 0.9977384 0.9994568
0.9976280 0.9981073 0.9994923
0.9981360 0.9983594 0.9995228
0.9956110 0.9986038 0.9995018
0.9972517 0.9988924 0.9995190
0.9980235 0.9990687 0.9995558
0.9984384 0.9991990 0.9995877
0.9962713 0.9991885 0.9995496
0.9976689 0.9993636 0.9995805
0.9983221 0.9994688 0.9996088
0.9986650 0.9995363 0.9996373
