Plugins/FilmEmulator/Content/LUTs/FE_Kodak_2383_64.cube
TITLE "FE_Kodak_2383_33"
LUT_3D_SIZE 8
0.0070548 0.0000000 0.0280123
0.5091972 0.0930449 0.0718083
1.0000000 0.2755606 0.1746227
1.0000000 0.4127710 0.2870803
1.0000000 0.5076953 0.3794893
1.0000000 0.5700610 0.4515892
1.0000000 0.6189297 0.5106522
1.0000000 0.6618434 0.5637360
0.0569539 0.5940599 0.1301123
0.4492583 0.6305004 0.1724306
0.8891181 0.7067561 0.2837230
1.0000000 0.7653294 0.3905532
1.0000000 0.8024825 0.4789649
1.0000000 0.8253343 0.5416806
1.0000000 0.8403164 0.5936875
1.0000000 0.8519734 0.6361867
0.2122788 0.9269421 0.2936476
0.4946126 0.9285968 0.3343709
0.8481544 0.9383812 0.4292504
0.9724967 0.9507380 0.5276419
1.0000000 0.9583483 0.6033971
1.0000000 0.9624211 0.6571734
1.0000000 0.9645577 0.6980580
1.0000000 0.9669043 0.7328858
0.3498319 1.0000000 0.4292963
0.5489851 1.0000000 0.4534103
0.8509501 0.9973329 0.5390359
0.9593506 0.9961773 0.6234984
0.9888947 0.9959062 0.6891851
0.9977067 0.9951847 0.7332219
1.0000000 0.9945709 0.7675322
1.0000000 0.9940837 0.7948521
0.4462678 1.0000000 0.5262160
0.5810634 1.0000000 0.5381230
0.8564298 1.0000000 0.6115030
0.9582509 1.0000000 0.6863983
0.9851193 1.0000000 0.7440480
0.9930400 1.0000000 0.7822171
0.9967708 1.0000000 0.8109921
0.9987102 1.0000000 0.8337735
0.5165526 1.0000000 0.5971184
0.5973491 1.0000000 0.6003737
0.8583198 1.0000000 0.6630835
0.9590152 1.0000000 0.7309506
0.9841021 1.0000000 0.7805833
0.9917302 1.0000000 0.8148824
0.9951540 1.0000000 0.8409830
0.9970654 1.0000000 0.8615044
0.5693612 1.0000000 0.6558792
0.6057273 1.0000000 0.6506993
0.8558410 1.0000000 0.7011210
0.9591083 1.0000000 0.7643992
0.9842517 1.0000000 0.8097627
0.9914538 1.0000000 0.8398018
0.9947779 1.0000000 0.8637934
0.9964908 1.0000000 0.8798732
0.6114844 1.0000000 0.7029005
0.6087051 1.0000000 0.6912013
0.8516631 1.0000000 0.7348917
0.9588372 1.0000000 0.7901629
0.9840862 1.0000000 0.8316119
0.9915797 1.0000000 0.8599981
0.9946993 1.0000000 0.8798447
0.9962983 1.0000000 0.8933557
0.0757580 0.1249426 0.7130252
0.6823653 0.2569610 0.7372426
1.0000000 0.4296846 0.7737536
1.0000000 0.5381727 0.8054731
1.0000000 0.6189174 0.8303393
1.0000000 0.6718910 0.8489422
1.0000000 0.7143767 0.8644881
1.0000000 0.7492052 0.8776976
0.1350271 0.6757220 0.7584169
0.6424954 0.7254522 0.7831931
0.9467193 0.7899277 0.8154689
1.0000000 0.8310656 0.8429093
1.0000000 0.8594215 0.8651261
1.0000000 0.8749994 0.8806905
1.0000000 0.8873243 0.8917831
1.0000000 0.8967172 0.9010195
0.2797945 0.9260954 0.8176396
0.6792118 0.9323574 0.8386580
0.9235926 0.9465085 0.8653643
0.9856228 0.9577671 0.8860953
1.0000000 0.9646698 0.9037279
1.0000000 0.9688717 0.9146391
1.0000000 0.9713372 0.9230044
1.0000000 0.9737241 0.9300666
0.4211387 0.9881471 0.8650118
0.7170516 0.9829250 0.8768953
0.9267118 0.9840964 0.8982522
0.9798550 0.9870999 0.9146015
0.9960576 0.9891717 0.9276021
1.0000000 0.9902324 0.9361543
1.0000000 0.9909435 0.9429255
1.0000000 0.9914466 0.9483725
0.5149002 1.0000000 0.8947878
0.7337502 0.9974092 0.9016972
0.9297570 0.9943913 0.9178997
0.9799550 0.9951364 0.9318135
0.9940937 0.9958409 0.9425567
0.9981812 0.9960881 0.9497607
0.9998355 0.9962975 0.9552206
1.0000000 0.9964476 0.9597707
0.5779350 1.0000000 0.9145517
0.7399310 1.0000000 0.9183633
0.9294423 0.9982458 0.9314514
0.9802273 0.9979951 0.9437685
0.9936138 0.9981388 0.9529034
0.9973448 0.9982283 0.9591117
0.9989138 0.9982669 0.9638439
0.9997155 0.9982626 0.9669327
0.6249368 1.0000000 0.9295003
0.7415873 1.0000000 0.9308821
0.9292605 0.9999494 0.9421967
0.9799337 0.9991457 0.9525256
0.9935101 0.9991343 0.9607565
0.9970309 0.9991150 0.9653816
0.9985214 0.9990885 0.9694741
0.9993011 0.9990518 0.9722303
0.6642619 1.0000000 0.9414380
0.7373242 1.0000000 0.9411137
0.9261761 1.0000000 0.9505252
0.9798471 0.9997259 0.9590049
0.9933298 0.9995741 0.9660809
0.9968966 0.9995403 0.9703267
0.9983802 0.9994665 0.9739025
0.9990834 0.9994373 0.9762898
0.2786408 0.3195806 0.9917221
0.8143220 0.4546378 0.9786353
1.0000000 0.5852906 0.9724382
1.0000000 0.6740767 0.9706448
1.0000000 0.7304628 0.9718322
1.0000000 0.7708322 0.9734576
1.0000000 0.8025060 0.9751468
1.0000000 0.8268023 0.9768303
0.3484058 0.7757961 0.9732130
0.7825006 0.8204758 0.9680379
0.9630961 0.8669088 0.9687094
1.0000000 0.8948244 0.9715352
1.0000000 0.9109423 0.9736698
1.0000000 0.9207414 0.9760088
1.0000000 0.9284818 0.9775783
1.0000000 0.9339720 0.9793693
0.4597888 0.9447405 0.9733647
0.8092362 0.9516330 0.9725498
0.9549905 0.9643592 0.9750600
0.9909199 0.9720522 0.9777792
1.0000000 0.9762885 0.9803684
1.0000000 0.9791951 0.9820628
1.0000000 0.9808918 0.9833695
1.0000000 0.9825945 0.9848493
0.5279020 0.9869463 0.9787877
0.8277388 0.9835361 0.9779398
0.9580141 0.9867799 0.9803328
0.9886702 0.9897711 0.9828123
0.9966243 0.9914209 0.9850035
0.9994088 0.9923652 0.9863501
1.0000000 0.9930394 0.9876894
1.0000000 0.9935086 0.9885676
0.5628715 1.0000000 0.9826714
0.8362364 0.9935659 0.9823369
0.9611223 0.9936379 0.9839512
0.9882873 0.9949983 0.9863241
0.9958993 0.9957970 0.9879072
0.9983709 0.9962847 0.9890776
0.9994631 0.9966142 0.9902053
1.0000000 0.9968411 0.9909229
0.6204129 1.0000000 0.9857860
0.8385015 0.9979225 0.9851806
0.9618093 0.9963163 0.9864171
0.9880754 0.9969891 0.9884571
0.9956653 0.9974961 0.9898877
0.9980296 0.9977996 0.9909105
0.9990396 0.9979900 0.9916856
0.9995705 0.9981002 0.9924582
0.6663103 1.0000000 0.9881415
0.8356845 1.0000000 0.9873443
0.9614392 0.9976435 0.9882803
0.9881218 0.9979553 0.9900688
0.9956520 0.9983039 0.9913369
0.9978982 0.9985119 0.9922267
0.9988867 0.9986250 0.9928928
0.9993800 0.9987161 0.9934372
0.7015159 1.0000000 0.9897287
0.8325008 1.0000000 0.9891163
0.9602477 0.9983870 0.9897379
0.9878101 0.9984649 0.9910864
0.9956371 0.9987241 0.9924313
0.9978282 0.9988670 0.9932022
0.9987906 0.9989692 0.9938079
0.9992703 0.9990246 0.9942728
0.4971377 0.4862599 1.0000000
0.8989656 0.6098616 1.0000000
1.0000000 0.6936412 1.0000000
1.0000000 0.7631424 1.0000000
1.0000000 0.8039049 0.9985439
1.0000000 0.8333995 0.9971462
1.0000000 0.8566096 0.9964914
1.0000000 0.8757224 0.9961034
0.5541537 0.8472720 1.0000000
0.8794981 0.8856457 0.9974229
0.9740204 0.9131740 0.9947959
1.0000000 0.9311020 0.9940512
1.0000000 0.9411068 0.9938666
1.0000000 0.9475229 0.9940704
1.0000000 0.9521887 0.9943261
1.0000000 0.9556484 0.9944429
0.6290302 0.9596117 0.9988164
0.8937393 0.9673769 0.9947910
0.9707271 0.9756187 0.9940146
0.9925394 0.9812708 0.9942393
0.9986705 0.9839296 0.9944899
1.0000000 0.9856215 0.9948600
1.0000000 0.9870645 0.9952035
1.0000000 0.9879007 0.9953904
0.6722363 0.9883768 0.9981471
0.9064397 0.9876319 0.9952839
0.9737942 0.9905809 0.9949621
0.9919317 0.9927765 0.9953297
0.9968114 0.9937633 0.9956077
0.9987380 0.9944604 0.9959496
0.9997015 0.9949546 0.9962443
1.0000000 0.9952918 0.9964145
0.6912456 0.9980220 0.9984755
0.9104180 0.9940224 0.9960173
0.9758013 0.9950651 0.9957701
0.9923447 0.9961711 0.9960301
0.9965931 0.9967893 0.9963960
0.9983057 0.9971722 0.9967035
0.9991064 0.9974128 0.9968826
0.9995663 0.9975632 0.9970921
0.7004034 1.0000000 0.9989280
0.9103487 0.9968371 0.9966399
0.9767486 0.9968991 0.9963660
0.9925501 0.9976069 0.9966149
0.9966292 0.9979862 0.9969400
0.9981967 0.9982340 0.9972101
0.9989506 0.9983931 0.9973710
0.9993432 0.9984866 0.9975498
0.7003495 1.0000000 0.9994131
0.9083680 0.9984367 0.9971620
0.9769964 0.9978166 0.9968250
0.9927540 0.9982843 0.9970419
0.9966808 0.9985629 0.9973329
0.9982104 0.9987442 0.9975194
0.9989055 0.9988483 0.9977129
0.9992729 0.9989274 0.9978279
0.7318639 1.0000000 0.9994441
0.9029645 0.9994947 0.9976289
0.9763231 0.9983468 0.9971156
0.9926490 0.9986438 0.9973638
0.9967068 0.9988854 0.9976348
0.9981927 0.9990181 0.9977975
0.9988721 0.9991132 0.9979773
0.9992409 0.9991677 0.9980780
0.6742553 0.6229835 1.0000000
0.9457765 0.7227623 1.0000000
1.0000000 0.7828018 1.0000000
1.0000000 0.8211901 1.0000000
1.0000000 0.8524112 1.0000000
1.0000000 0.8745476 1.0000000
1.0000000 0.8921844 1.0000000
1.0000000 0.9060705 1.0000000
0.7141078 0.8944528 1.0000000
0.9303730 0.9241617 1.0000000
0.9836066 0.9419832 0.9998237
1.0000000 0.9529077 0.9989828
1.0000000 0.9589646 0.9986095
1.0000000 0.9632084 0.9984178
1.0000000 0.9662951 0.9983830
1.0000000 0.9686619 0.9983340
0.7601169 0.9697714 1.0000000
0.9394076 0.9773434 0.9991695
0.9808861 0.9832010 0.9983186
0.9941276 0.9866361 0.9980648
0.9981257 0.9884049 0.9980369
0.9997923 0.9897646 0.9981045
1.0000000 0.9905589 0.9981424
1.0000000 0.9911497 0.9981853
0.7863439 0.9897276 1.0000000
0.9465540 0.9908134 0.9988685
0.9830420 0.9930950 0.9983219
0.9939707 0.9945253 0.9982447
0.9971662 0.9953189 0.9983212
0.9985981 0.9958181 0.9983771
0.9993168 0.9961574 0.9984326
0.9997199 0.9964063 0.9984839
0.7988466 0.9966038 1.0000000
0.9496191 0.9951286 0.9989216
0.9842585 0.9961642 0.9984927
0.9943607 0.9970628 0.9985013
0.9971504 0.9975030 0.9985564
0.9983876 0.9977813 0.9986173
0.9990090 0.9979340 0.9986678
0.9993739 0.9980800 0.9987358
0.8034296 0.9998978 1.0000000
0.9502609 0.9970100 0.9990392
0.9848968 0.9975193 0.9986507
0.9946788 0.9981103 0.9986724
0.9972398 0.9983812 0.9987266
0.9984028 0.9985721 0.9987847
0.9989541 0.9986787 0.9988487
0.9992846 0.9987692 0.9988911
0.8011011 1.0000000 1.0000000
0.9494999 0.9980541 0.9991632
0.9850573 0.9981982 0.9988071
0.9947391 0.9985973 0.9987947
0.9973699 0.9988307 0.9988496
0.9984141 0.9989551 0.9989002
0.9989570 0.9990518 0.9989645
0.9992484 0.9991044 0.9990003
0.7957017 1.0000000 1.0000000
0.9476129 0.9986978 0.9993128
0.9849546 0.9985755 0.9989017
0.9948170 0.9988808 0.9988863
0.9974078 0.9990699 0.9989391
0.9984513 0.9991774 0.9990053
0.9989690 0.9992530 0.9990493
0.9992452 0.9992959 0.9990832
0.8170278 0.7300718 1.0000000
0.9699925 0.7972681 1.0000000
1.0000000 0.8400435 1.0000000
1.0000000 0.8626534 1.0000000
1.0000000 0.8837303 1.0000000
1.0000000 0.9017462 1.0000000
1.0000000 0.9151946 1.0000000
1.0000000 0.9262754 1.0000000
0.8369465 0.9263784 1.0000000
0.9576113 0.9468476 1.0000000
0.9903296 0.9593208 1.0000000
0.9995930 0.9653219 0.9999091
1.0000000 0.9695327 0.9995951
1.0000000 0.9724256 0.9994215
1.0000000 0.9746771 0.9993095
1.0000000 0.9764073 0.9992415
0.8623731 0.9773670 1.0000000
0.9633788 0.9835650 0.9998830
0.9887407 0.9878910 0.9992042
0.9955110 0.9899048 0.9990246
0.9981841 0.9911109 0.9989645
0.9994853 0.9919267 0.9989460
1.0000000 0.9925178 0.9989453
1.0000000 0.9930875 0.9989542
0.8758962 0.9910715 1.0000000
0.9674075 0.9928392 0.9995243
0.9896498 0.9947169 0.9991152
0.9954472 0.9956905 0.9990385
0.9975998 0.9962438 0.9990326
0.9986842 0.9966226 0.9990453
0.9992239 0.9968739 0.9990636
0.9995570 0.9970680 0.9990831
0.8802879 0.9958401 1.0000000
0.9699899 0.9960077 0.9994623
0.9905972 0.9970413 0.9991573
0.9957464 0.9976152 0.9991332
0.9976688 0.9979130 0.9991413
0.9985650 0.9981253 0.9991621
0.9990535 0.9982737 0.9991843
0.9993430 0.9983568 0.9992037
0.8790166 0.9982884 1.0000000
0.9705618 0.9974064 0.9994977
0.9909217 0.9980239 0.9992287
0.9959689 0.9984020 0.9992022
0.9977551 0.9986306 0.9992189
0.9985980 0.9987620 0.9992406
0.9990358 0.9988617 0.9992646
0.9992945 0.9989343 0.9992870
0.8753766 0.9998032 1.0000000
0.9708323 0.9981471 0.9995397
0.9907304 0.9985090 0.9992920
0.9961100 0.9988137 0.9992673
0.9978196 0.9989883 0.9992869
0.9986190 0.9990904 0.9993106
0.9990484 0.9991681 0.9993348
0.9992780 0.9992107 0.9993538
0.8697116 1.0000000 1.0000000
0.9698802 0.9986001 0.9995947
0.9906575 0.9988005 0.9993436
0.9961813 0.9990491 0.9993212
0.9978909 0.9991867 0.9993401
0.9986582 0.9992794 0.9993649
0.9990489 0.9993327 0.9993860
0.9992843 0.9993779 0.9994065
0.9014816 0.8061215 1.0000000
0.9841169 0.8507721 1.0000000
1.0000000 0.8800624 1.0000000
1.0000000 0.8956874 1.0000000
1.0000000 0.9077178 1.0000000
1.0000000 0.9214265 1.0000000
1.0000000 0.9315147 1.0000000
1.0000000 0.9390407 1.0000000
0.9102167 0.9483278 1.0000000
0.9730009 0.9609743 1.0000000
0.9932522 0.9695385 1.0000000
0.9992621 0.9740291 1.0000000
1.0000000 0.9769964 0.9998831
1.0000000 0.9787973 0.9997591
1.0000000 0.9804344 0.9996722
1.0000000 0.9817425 0.9996149
0.9231724 0.9832318 1.0000000
0.9762385 0.9876764 1.0000000
0.9919670 0.9905603 0.9995493
0.9964199 0.9919807 0.9994152
0.9983876 0.9928871 0.9993598
0.9993091 0.9936106 0.9993373
0.9998642 0.9940515 0.9993261
1.0000000 0.9943753 0.9993235
0.9307473 0.9925696 1.0000000
0.9791467 0.9944196 0.9997225
0.9927479 0.9958237 0.9994478
0.9963955 0.9965039 0.9993884
0.9979830 0.9969267 0.9993708
0.9987832 0.9971527 0.9993616
0.9992317 0.9973565 0.9993665
0.9994841 0.9975029 0.9993739
0.9338230 0.9960191 1.0000000
0.9807585 0.9967712 0.9996682
0.9933645 0.9975650 0.9994621
0.9966864 0.9979890 0.9994250
0.9980561 0.9982432 0.9994220
0.9987352 0.9983842 0.9994269
0.9991196 0.9985038 0.9994363
0.9993377 0.9985886 0.9994460
0.9331418 0.9976774 1.0000000
0.9814742 0.9978158 0.9996766
0.9936174 0.9983378 0.9994977
0.9968587 0.9986426 0.9994707
0.9981226 0.9988042 0.9994715
0.9987515 0.9989192 0.9994755
0.9991036 0.9990007 0.9994863
0.9993137 0.9990468 0.9994952
0.9307716 0.9986839 1.0000000
0.9816239 0.9983636 0.9996893
0.9938447 0.9987515 0.9995236
0.9969624 0.9989717 0.9995021
0.9982136 0.9991128 0.9995069
0.9987944 0.9991916 0.9995161
0.9991220 0.9992527 0.9995270
0.9993169 0.9992888 0.9995361
0.9283735 0.9993251 1.0000000
0.9814305 0.9987114 0.9997137
0.9937957 0.9989779 0.9995522
0.9970260 0.9991751 0.9995328
0.9982464 0.9992843 0.9995378
0.9988343 0.9993598 0.9995447
0.9991430 0.9994032 0.9995548
0.9993277 0.9994330 0.9995639
0.9432532 0.8585174 1.0000000
0.9947720 0.8916285 1.0000000
1.0000000 0.9089186 1.0000000
1.0000000 0.9198003 1.0000000
1.0000000 0.9273939 1.0000000
1.0000000 0.9343802 1.0000000
1.0000000 0.9416346 1.0000000
1.0000000 0.9485513 1.0000000
0.9458408 0.9622576 1.0000000
0.9848277 0.9715994 1.0000000
0.9952363 0.9767193 1.0000000
0.9993197 0.9799256 1.0000000
1.0000000 0.9817151 0.9999104
1.0000000 0.9833102 0.9998021
1.0000000 0.9842597 0.9997334
1.0000000 0.9852830 0.9996820
0.9551620 0.9872391 1.0000000
0.9855823 0.9905994 0.9999014
0.9941102 0.9924388 0.9996393
0.9971873 0.9934712 0.9995337
0.9986029 0.9941400 0.9994884
0.9993155 0.9947073 0.9994655
0.9997432 0.9950465 0.9994550
0.9999943 0.9953049 0.9994508
0.9597613 0.9940606 1.0000000
0.9871617 0.9955630 0.9997082
0.9946048 0.9965068 0.9995505
0.9971374 0.9970201 0.9995039
0.9982935 0.9973436 0.9994889
0.9989169 0.9975657 0.9994815
0.9992720 0.9976851 0.9994820
0.9994829 0.9978064 0.9994859
0.9614282 0.9965020 1.0000000
0.9876757 0.9973392 0.9996874
0.9950569 0.9979527 0.9995586
0.9973496 0.9982502 0.9995307
0.9983499 0.9984491 0.9995266
0.9988852 0.9985855 0.9995297
0.9991900 0.9986585 0.9995304
0.9993713 0.9987298 0.9995365
0.9624829 0.9977223 1.0000000
0.9876574 0.9981219 0.9996965
0.9953228 0.9985763 0.9995832
0.9974751 0.9987918 0.9995605
0.9984331 0.9989376 0.9995607
0.9988971 0.9990162 0.9995648
0.9991803 0.9990842 0.9995715
0.9993551 0.9991333 0.9995754
0.9616792 0.9983951 1.0000000
0.9877082 0.9985623 0.9997080
0.9954741 0.9989085 0.9996029
0.9975569 0.9990798 0.9995881
0.9984767 0.9991925 0.9995873
0.9989349 0.9992577 0.9995928
0.9991995 0.9993091 0.9996000
0.9993595 0.9993390 0.9996058
0.9602320 0.9988528 1.0000000
0.9878693 0.9988578 0.9997217
0.9955555 0.9991140 0.9996202
0.9976084 0.9992559 0.9996080
0.9985333 0.9993545 0.9996117
0.9989686 0.9994083 0.9996179
0.9992208 0.9994509 0.9996229
0.9993713 0.9994754 0.9996289
