Plugins/FilmEmulator/Content/LUTs/FE_Kodak_Portra_160_64.cube
TITLE "FE_Kodak_Portra_160_33"
LUT_3D_SIZE 8
0.0018049 0.0028734 0.0016632
0.0546856 0.0031449 0.0020327
0.1713804 0.0047156 0.0038027
0.2902177 0.0077324 0.0069391
0.4158351 0.0115870 0.0112446
0.5104699 0.0163288 0.0153846
0.6072378 0.0211188 0.0201285
0.6763638 0.0261805 0.0252732
0.0054148 0.0826418 0.0025646
0.0764884 0.0876775 0.0049584
0.1918341 0.0933464 0.0085002
0.3109089 0.0995574 0.0126407
0.4303698 0.1062586 0.0171958
0.5273321 0.1134300 0.0223789
0.6125541 0.1210735 0.0279895
0.6817403 0.1292222 0.0336558
0.0162282 0.2016408 0.0060906
0.1011114 0.2064585 0.0101345
0.2195898 0.2119607 0.0144063
0.3384604 0.2177564 0.0195384
0.4506797 0.2238732 0.0244547
0.5487769 0.2301503 0.0305264
0.6335338 0.2367314 0.0353527
0.6902244 0.2433896 0.0423590
0.0317183 0.3190887 0.0115447
0.1280995 0.3176372 0.0163196
0.2511450 0.3252665 0.0212578
0.3688334 0.3332015 0.0265965
0.4730145 0.3413928 0.0319659
0.5711882 0.3407471 0.0383599
0.6434185 0.3491856 0.0442772
0.6993217 0.3577424 0.0510578
0.0508646 0.4189155 0.0177599
0.1552723 0.4176370 0.0230673
0.2767254 0.4264375 0.0288223
0.3896179 0.4354986 0.0346269
0.4962052 0.4348864 0.0400351
0.5820152 0.4441801 0.0461903
0.6537054 0.4436196 0.0532143
0.7191536 0.4530849 0.0591626
0.0742808 0.5073497 0.0250164
0.1869759 0.5063459 0.0300685
0.3041300 0.5156752 0.0361139
0.4227219 0.5150192 0.0417180
0.5197187 0.5144166 0.0480885
0.6053496 0.5239845 0.0554228
0.6753414 0.5235305 0.0615549
0.7284374 0.5332376 0.0683633
0.0991396 0.5770707 0.0325216
0.2158556 0.5761452 0.0390108
0.3334463 0.5854151 0.0450182
0.4451814 0.5847962 0.0518678
0.5433208 0.5843191 0.0576424
0.6164510 0.5937678 0.0640417
0.6855365 0.5933272 0.0710593
0.7377617 0.5929042 0.0787927
0.1261736 0.6349533 0.0406176
0.2479180 0.6342247 0.0468144
0.3648911 0.6335999 0.0539219
0.4687141 0.6426346 0.0599421
0.5668912 0.6421837 0.0665347
0.6394920 0.6417634 0.0738074
0.6956904 0.6507733 0.0818705
0.7468655 0.6504754 0.0877296
0.0026641 0.0104968 0.1103285
0.0666204 0.0147611 0.1186055
0.1824423 0.0192136 0.1274348
0.3068922 0.0238812 0.1322381
0.4249912 0.0285905 0.1418034
0.5210184 0.0329924 0.1518744
0.6057360 0.0394963 0.1574081
0.6752921 0.0439998 0.1684077
0.0105148 0.1045289 0.1227030
0.0905540 0.1115284 0.1312980
0.2065813 0.1192000 0.1358856
0.3310370 0.1273364 0.1454126
0.4420928 0.1315097 0.1554235
0.5395849 0.1404653 0.1607847
0.6245389 0.1450810 0.1662378
0.6926537 0.1547654 0.1776351
0.0237384 0.2211226 0.1286602
0.1145670 0.2272974 0.1375808
0.2361631 0.2338347 0.1471005
0.3602394 0.2406715 0.1520978
0.4632345 0.2476104 0.1625104
0.5612625 0.2547843 0.1680076
0.6337699 0.2620327 0.1794002
0.7011558 0.2695093 0.1853624
0.0413212 0.3381400 0.1388341
0.1446066 0.3374461 0.1482929
0.2692114 0.3459792 0.1533075
0.3803243 0.3546103 0.1637808
0.4856980 0.3634801 0.1693098
0.5838762 0.3631292 0.1806607
0.6552598 0.3721394 0.1866566
0.7102602 0.3719428 0.1927043
0.0605187 0.4316301 0.1492648
0.1744311 0.4409006 0.1542682
0.2959817 0.4404089 0.1646819
0.4127998 0.4500003 0.1702280
0.5090046 0.4496238 0.1816287
0.5946918 0.4593219 0.1876462
0.6654578 0.4590934 0.1937139
0.7194542 0.4687434 0.2064599
0.0844788 0.5114309 0.1549877
0.2016673 0.5209527 0.1655073
0.3245369 0.5205883 0.1709632
0.4347482 0.5304402 0.1766856
0.5324293 0.5300580 0.1884289
0.6177306 0.5399404 0.1946234
0.6756331 0.5397291 0.2008709
0.7288076 0.5393981 0.2138542
0.1123439 0.5817550 0.1608067
0.2321446 0.5910969 0.1717134
0.3444745 0.5907773 0.1773434
0.4578574 0.5903742 0.1891128
0.5558888 0.5999936 0.1953206
0.6287960 0.5997716 0.2015803
0.6967840 0.5994331 0.2145926
0.7477152 0.6090489 0.2214425
0.1369154 0.6398984 0.1722842
0.2569670 0.6395068 0.1779057
0.3762118 0.6485295 0.1898054
0.4814461 0.6482735 0.1959142
0.5673290 0.6480477 0.2021840
0.6513605 0.6570482 0.2153414
0.7066936 0.6568553 0.2220850
0.7566779 0.6566616 0.2289829
0.0062692 0.0284995 0.2684121
0.0814002 0.0339958 0.2767333
0.1950042 0.0392300 0.2853295
0.3249620 0.0453253 0.2941460
0.4347399 0.0504809 0.3031356
0.5315405 0.0562108 0.3123621
0.6163477 0.0625748 0.3217548
0.6850084 0.0696467 0.3221748
0.0171269 0.1311464 0.2823575
0.1022910 0.1397915 0.2906446
0.2217493 0.1442798 0.2990820
0.3410654 0.1539246 0.3079909
0.4534914 0.1588839 0.3169832
0.5513499 0.1694419 0.3172320
0.6359062 0.1748319 0.3263925
0.6923527 0.1803787 0.3357092
0.0320455 0.2468674 0.2934545
0.1292092 0.2536830 0.3018494
0.2529633 0.2608410 0.3106197
0.3710234 0.2682179 0.3196421
0.4752862 0.2758669 0.3197330
0.5732165 0.2835671 0.3289267
0.6452766 0.2914274 0.3382742
0.7009841 0.2994507 0.3477647
0.0512706 0.3624047 0.3039467
0.1563562 0.3618416 0.3125347
0.2783193 0.3707897 0.3125773
0.4027621 0.3797866 0.3216319
0.4981048 0.3795382 0.3306991
0.5838217 0.3887138 0.3400669
0.6553441 0.3884925 0.3494132
0.7205908 0.3977942 0.3590483
0.0748284 0.4484559 0.3140408
0.1880758 0.4579802 0.3140329
0.3057480 0.4576142 0.3229417
0.4244093 0.4672745 0.3321671
0.5214028 0.4670086 0.3413891
0.6069199 0.4767638 0.3509094
0.6767398 0.4766524 0.3508629
0.7296747 0.4864657 0.3605247
0.0997634 0.5289032 0.3152282
0.2169168 0.5385530 0.3242694
0.3349437 0.5382031 0.3333425
0.4466602 0.5480136 0.3427311
0.5447811 0.5477468 0.3520995
0.6298332 0.5476183 0.3520455
0.6867373 0.5574812 0.3617244
0.7388145 0.5572659 0.3713551
0.1268469 0.5987999 0.3253180
0.2490417 0.5983697 0.3343697
0.3661174 0.6078777 0.3437599
0.4701577 0.6076066 0.3531362
0.5682707 0.6074676 0.3530753
0.6406196 0.6169972 0.3627606
0.6968274 0.6167910 0.3724037
0.7478690 0.6165839 0.3821566
0.1541666 0.6468369 0.3352698
0.2749501 0.6558160 0.3446436
0.3875622 0.6555285 0.3540179
0.4939545 0.6553832 0.3539505
0.5797578 0.6644028 0.3636401
0.6515459 0.6641916 0.3732856
0.7173111 0.6639798 0.3830403
0.7567017 0.6730471 0.3831795
0.0120591 0.0504730 0.4190071
0.0916767 0.0560582 0.4296897
0.2164337 0.0623816 0.4300385
0.3338541 0.0693810 0.4410795
0.4450722 0.0744666 0.4413524
0.5424557 0.0827275 0.4524984
0.6271209 0.0886696 0.4635303
0.6949718 0.0950459 0.4638346
0.0249628 0.1587967 0.4351913
0.1201237 0.1690599 0.4352408
0.2375997 0.1743323 0.4459184
0.3620803 0.1798644 0.4459912
0.4650720 0.1914425 0.4569778
0.5630937 0.1973685 0.4678428
0.6354676 0.2035367 0.4679696
0.7026935 0.2097675 0.4788892
0.0415773 0.2756134 0.4382556
0.1453669 0.2829837 0.4488503
0.2704294 0.2907816 0.4488906
0.3817829 0.2987108 0.4596993
0.4874043 0.2984753 0.4703901
0.5853645 0.3066827 0.4705016
0.6566489 0.3149399 0.4814298
0.7113898 0.3234470 0.4815660
0.0634675 0.3791037 0.4509670
0.1752298 0.3880830 0.4509402
0.2970202 0.3972334 0.4617271
0.4141650 0.3969293 0.4724102
0.5102360 0.4063938 0.4725238
0.5960299 0.4061493 0.4832701
0.6665474 0.4157193 0.4833989
0.7205507 0.4155059 0.4941846
0.0884202 0.4765672 0.4526859
0.2024628 0.4760619 0.4632502
0.3254920 0.4858461 0.4633172
0.4359765 0.4855431 0.4740135
0.5336645 0.4852715 0.4847560
0.6188897 0.4952891 0.4848784
0.6877364 0.4950500 0.4956581
0.7296333 0.5051312 0.4958059
0.1127761 0.5472234 0.4646394
0.2330175 0.5468844 0.4644843
0.3561714 0.5566130 0.4753431
0.4589348 0.5563293 0.4860824
0.5569493 0.5662287 0.4861973
0.6298031 0.5659936 0.4969790
0.6976660 0.5658832 0.4969271
0.7485050 0.5756633 0.5079103
0.1429527 0.6068907 0.4656790
0.2576813 0.6162562 0.4765171
0.3772260 0.6159351 0.4872357
0.4825151 0.6157832 0.4871614
0.5805923 0.6252044 0.4981118
0.6523088 0.6250994 0.4980601
0.7075616 0.6248911 0.5088613
0.7573237 0.6343937 0.5090013
0.1664668 0.6638072 0.4775280
0.2937368 0.6634388 0.4882161
0.4102886 0.6632657 0.4881268
0.5062282 0.6721684 0.4990793
0.5921235 0.6720558 0.4990199
0.6630743 0.6718434 0.5098130
0.7173764 0.6717606 0.5097696
0.7660564 0.6805940 0.5207525
0.0187521 0.0772100 0.5408466
0.1075639 0.0826078 0.5521358
0.2315489 0.0885159 0.5523284
0.3540089 0.0948065 0.5638025
0.4558444 0.1015690 0.5640841
0.5537311 0.1087168 0.5755334
0.6379886 0.1163588 0.5758262
0.6942569 0.1203432 0.5759596
0.0336768 0.1914785 0.5568004
0.1352063 0.1972005 0.5567056
0.2541963 0.2031618 0.5679477
0.3725455 0.2094059 0.5680286
0.4892239 0.2157268 0.5792639
0.5748343 0.2223224 0.5793817
0.6467782 0.2290750 0.5795068
0.7129036 0.2358802 0.5906960
0.0537748 0.3068380 0.5595516
0.1632301 0.3063145 0.5705188
0.2887455 0.3145304 0.5705681
0.4040553 0.3229472 0.5706572
0.4993109 0.3314129 0.5818927
0.5973516 0.3312863 0.5818263
0.6677903 0.3398937 0.5929995
0.7215433 0.3487498 0.5931321
0.0751076 0.4062064 0.5726236
0.1888028 0.4058066 0.5724364
0.3165113 0.4152274 0.5724949
0.4254406 0.4246730 0.5837045
0.5224445 0.4245332 0.5836391
0.6079215 0.4340857 0.5947919
0.6776607 0.4339765 0.5947417
0.7305075 0.4436180 0.6058204
0.1000801 0.4952597 0.5741675
0.2176219 0.4948994 0.5740056
0.3358824 0.4945389 0.5850059
0.4476929 0.5045189 0.5851046
0.5458249 0.5042405 0.5960634
0.6306776 0.5142704 0.5961822
0.6876497 0.5140436 0.6070751
0.7395017 0.5241041 0.6072088
0.1272341 0.5660002 0.5753739
0.2497123 0.5655516 0.5863240
0.3670818 0.5653445 0.5862293
0.4710532 0.5750570 0.5973500
0.5691575 0.5749149 0.5972847
0.6414567 0.5846229 0.6083351
0.6975809 0.5845317 0.6082937
0.7485282 0.5844401 0.6082520
0.1545506 0.6249273 0.5874982
0.2756540 0.6246601 0.5873713
0.3884110 0.6243525 0.5982919
0.4947048 0.6337984 0.5983972
0.5806416 0.6335551 0.6092555
0.6523547 0.6334510 0.6092059
0.7178956 0.6428490 0.6093320
0.7573602 0.6426560 0.6201124
0.1864108 0.6717287 0.5883517
0.3034107 0.6713917 0.5992411
0.4218186 0.6712208 0.5991547
0.5185875 0.6800130 0.6101747
0.6043359 0.6799011 0.6101177
0.6743581 0.6798038 0.6100681
0.7275186 0.6885036 0.6210067
0.7660785 0.6884388 0.6209738
0.0262601 0.1016861 0.6411921
0.1210595 0.1087006 0.6412470
0.2475528 0.1162099 0.6520098
0.3639120 0.1242816 0.6522492
0.4794356 0.1284701 0.6523381
0.5650514 0.1372479 0.6630367
0.6489624 0.1418292 0.6631440
0.7042431 0.1513912 0.6736965
0.0436622 0.2159646 0.6449152
0.1519484 0.2221902 0.6553805
0.2716396 0.2288234 0.6554254
0.3944358 0.2356509 0.6555007
0.5010988 0.2425600 0.6659790
0.5867258 0.2497331 0.6660872
0.6579192 0.2569612 0.6764284
0.7125494 0.2644460 0.6765489
0.0664770 0.3314794 0.6578208
0.1759411 0.3310983 0.6576402
0.2980481 0.3396868 0.6576934
0.4152294 0.3483311 0.6681272
0.5114880 0.3482033 0.6680677
0.5970995 0.3570116 0.6783719
0.6675388 0.3660624 0.6784851
0.7214346 0.3659768 0.6784472
0.0887634 0.4245225 0.6594051
0.2030631 0.4339596 0.6594120
0.3264669 0.4335878 0.6696387
0.4369140 0.4432779 0.6697277
0.5345997 0.4431357 0.6696677
0.6198010 0.4527884 0.6799474
0.6885514 0.4526778 0.6799021
0.7403294 0.4624064 0.6900307
0.1178211 0.5042726 0.6606663
0.2335978 0.5139738 0.6710068
0.3570452 0.5137463 0.6709132
0.4597207 0.5237420 0.6710106
0.5579038 0.5234622 0.6811038
0.6305492 0.5334938 0.6812190
0.6983603 0.5332475 0.6911620
0.7492250 0.5331537 0.6911248
0.1433444 0.5747595 0.6720778
0.2671735 0.5844123 0.6721171
0.3779666 0.5842243 0.6720382
0.4833290 0.5839365 0.6821091
0.5813718 0.5937148 0.6822107
0.6530373 0.5936067 0.6821654
0.7082282 0.5933852 0.6921003
0.7579161 0.6031610 0.6922210
0.1733550 0.6334631 0.6730195
0.2943855 0.6332160 0.6729115
0.4109282 0.6424166 0.6831163
0.5070248 0.6422842 0.6830581
0.5928969 0.6421664 0.6830063
0.6636572 0.6513450 0.6930777
0.7179060 0.6512598 0.6930407
0.7666354 0.6510500 0.7027885
0.2007160 0.6797821 0.6738054
0.3232363 0.6794487 0.6838146
0.4332612 0.6881984 0.6839036
0.5308759 0.6880741 0.6838452
0.6163931 0.6878463 0.6937378
0.6742365 0.6965104 0.6938576
0.7275130 0.6964309 0.6938205
0.7751236 0.6962355 0.7035547
0.0370264 0.1286311 0.7129768
0.1360781 0.1372806 0.7130603
0.2644523 0.1417130 0.7224978
0.3852983 0.1512833 0.7227102
0.4909815 0.1562428 0.7227958
0.5764374 0.1665936 0.7321820
0.6482820 0.1719878 0.7322836
0.7142379 0.1775220 0.7323850
0.0564237 0.2428488 0.7158690
0.1639400 0.2496746 0.7251957
0.2898293 0.2568768 0.7252362
0.4053389 0.2642865 0.7253094
0.5129625 0.2717568 0.7344893
0.5985065 0.2794949 0.7345847
0.6688414 0.2873843 0.7346858
0.7225137 0.2953328 0.7435585
0.0786230 0.3573865 0.7271984
0.1965625 0.3570086 0.7270461
0.3174066 0.3659370 0.7271004
0.4264619 0.3749049 0.7362381
0.5234935 0.3747718 0.7361859
0.6089094 0.3840154 0.7362813
0.6785866 0.3837873 0.7449749
0.7313272 0.3931800 0.7450811
0.1046523 0.4431973 0.7284563
0.2261629 0.4527554 0.7284701
0.3472534 0.4523984 0.7374194
0.4485844 0.4621959 0.7375041
0.5467041 0.4620522 0.7374516
0.6315087 0.4719141 0.7375470
0.6884178 0.4716901 0.7462202
0.7401929 0.4816154 0.7463261
0.1328176 0.5235876 0.7295805
0.2502677 0.5332931 0.7386233
0.3677788 0.5330836 0.7385479
0.4717864 0.5430471 0.7386333
0.5698835 0.5429028 0.7385811
0.6422791 0.5426604 0.7472258
0.7088333 0.5526443 0.7473264
0.7490894 0.5525695 0.7473000
0.1610394 0.5936530 0.7395564
0.2762493 0.5933956 0.7394616
0.4003820 0.5931918 0.7393863
0.4954436 0.6029219 0.7394782
0.5936217 0.6026545 0.7480916
0.6643112 0.6123417 0.7481925
0.7185006 0.6122527 0.7481597
0.7579098 0.6120547 0.7566085
0.1868575 0.6420568 0.7402466
0.3039001 0.6512365 0.7403017
0.4223894 0.6510605 0.7402325
0.5193262 0.6508083 0.7488305
0.6049019 0.6599945 0.7489253
0.6748794 0.6598939 0.7488861
0.7281105 0.6596898 0.7573125
0.7665044 0.6688130 0.7574236
0.2158400 0.6878285 0.7409353
0.3333731 0.6963780 0.7409961
0.4450530 0.6961163 0.7495666
0.5431381 0.6959935 0.7495157
0.6282789 0.6958842 0.7494704
0.6852980 0.7043136 0.7580196
0.7375028 0.7042353 0.7579876
0.7751033 0.7041723 0.7579619
0.0479006 0.1564698 0.7664850
0.1527337 0.1667004 0.7665770
0.2728781 0.1719323 0.7746605
0.3959461 0.1774129 0.7747194
0.5026702 0.1830608 0.7747944
0.5881140 0.1948957 0.7750068
0.6592119 0.2009213 0.7829383
0.7137285 0.2071844 0.7830325
0.0667789 0.2721436 0.7687742
0.1833420 0.2795268 0.7767509
0.2989983 0.2873096 0.7767981
0.4163233 0.2952854 0.7768626
0.5249246 0.2951550 0.7768105
0.6103012 0.3032125 0.7846920
0.6685526 0.3115389 0.7847862
0.7323496 0.3199789 0.7848746
0.0928515 0.3750008 0.7782398
0.2112435 0.3840121 0.7782457
0.3273249 0.3837991 0.7781729
0.4378821 0.3931150 0.7782432
0.5354569 0.4024194 0.7860840
0.6207380 0.4022968 0.7860438
0.6892779 0.4118360 0.7861325
0.7410816 0.4117457 0.7861032
0.1181653 0.4622270 0.7793438
0.2424940 0.4718797 0.7793622
0.3578120 0.4716711 0.7792952
0.4728029 0.4813818 0.7870991
0.5587400 0.4812551 0.7870597
0.6430678 0.4912654 0.7871437
0.6990619 0.4911721 0.7871146
0.7497529 0.5010996 0.7947446
0.1436734 0.5430245 0.7803316
0.2678233 0.5427237 0.7802360
0.3897888 0.5524790 0.7880071
0.4963158 0.5523198 0.7879574
0.5820516 0.5622535 0.7880418
0.6536721 0.5621433 0.7880071
0.7088085 0.5619205 0.7954931
0.7584325 0.5718451 0.7955855
0.1737424 0.6028472 0.7810665
0.2948486 0.6122605 0.7888005
0.4115987 0.6120766 0.7887408
0.5077219 0.6119396 0.7886964
0.5934269 0.6215327 0.7887810
0.6642846 0.6213021 0.7962413
0.7184760 0.6212139 0.7962133
0.7670154 0.6307524 0.7963060
0.2010693 0.6600059 0.7894801
0.3237074 0.6597846 0.7894046
0.4339420 0.6596262 0.7893504
0.5314208 0.6686883 0.7894296
0.6169122 0.6684560 0.7968680
0.6859094 0.6683565 0.7968345
0.7380530 0.6682730 0.7968063
0.7754933 0.6772828 0.7969045
0.2317834 0.6958640 0.7899526
0.3545561 0.7042919 0.7900058
0.4571532 0.7041597 0.7899568
0.5553353 0.7039275 0.7973766
0.6282518 0.7038352 0.7973434
0.6961274 0.7122328 0.7974296
0.7472265 0.7121558 0.7974014
0.7838721 0.7119841 0.8046461
