Plugins/FilmEmulator/Content/LUTs/FE_Kodak_16mm_64.cube
# FilmEmulator LUT (resampled to 64)
LUT_3D_SIZE 4
0.031006 0.031006 0.019897
0.136668 0.027771 0.026825
0.330414 0.026398 0.032847
0.530731 0.024597 0.053619
0.035980 0.126852 0.022664
0.212314 0.164429 0.025502
0.473134 0.173336 0.051843
0.675822 0.169129 0.088216
0.082214 0.288798 0.020325
0.313751 0.412407 0.033549
0.606171 0.460053 0.074798
0.787598 0.462728 0.091034
0.142670 0.480316 0.027771
0.415721 0.640890 0.048391
0.694682 0.708801 0.084086
0.847351 0.712799 0.100861
0.039154 0.048808 0.162995
0.171281 0.055454 0.220028
0.402313 0.053243 0.248508
0.615549 0.051625 0.274129
0.067908 0.186324 0.235640
0.270738 0.255674 0.284430
0.559288 0.264825 0.314966
0.781226 0.268819 0.339155
0.133131 0.396023 0.263886
0.378985 0.534497 0.307522
0.696530 0.573930 0.318519
0.869480 0.579067 0.322459
0.211365 0.606567 0.340505
0.475681 0.790426 0.351953
0.782484 0.851512 0.358775
0.907969 0.852915 0.357687
0.044037 0.076935 0.367838
0.169963 0.090583 0.458601
0.412618 0.094136 0.519145
0.632558 0.097138 0.553101
0.082058 0.242048 0.502807
0.251357 0.319653 0.598711
0.547635 0.337315 0.638176
0.760230 0.333988 0.633138
0.143392 0.464369 0.542803
0.357057 0.585512 0.634136
0.661230 0.635636 0.670256
0.858144 0.626787 0.637576
0.216573 0.639994 0.611593
0.418762 0.811107 0.636227
0.757575 0.864041 0.678206
0.884837 0.860047 0.655324
0.039337 0.110107 0.581757
0.159577 0.133952 0.708781
0.402680 0.146067 0.768809
0.624359 0.155975 0.810150
0.075887 0.308075 0.730011
0.231394 0.372921 0.834768
0.516120 0.408339 0.890411
0.722209 0.405742 0.883525
0.147613 0.502482 0.768636
0.303369 0.588657 0.851111
0.596801 0.668054 0.896396
0.804047 0.655273 0.881256
0.196259 0.634460 0.795746
0.336090 0.784251 0.803924
0.659556 0.863841 0.892232
0.853180 0.859070 0.873657
