Plugins/FilmEmulator/Content/LUTs/FE_Kodak_Eastman_Color_Negative_50T_5251_64.cube
# FilmEmulator LUT (resampled to 64)
LUT_3D_SIZE 64
0.000000 0.000000 0.000000
0.006293 0.000000 0.000000
0.012665 0.000000 0.000000
0.021454 0.000000 0.000000
0.030245 0.000000 0.000000
0.039065 0.000000 0.000000
0.047905 0.000000 0.000000
0.056942 0.000000 0.000000
0.065995 0.000000 0.000000
0.075156 0.000000 0.000000
0.084317 0.000000 0.000000
0.093479 0.000000 0.000000
0.102677 0.000000 0.000000
0.112040 0.000000 0.000000
0.121389 0.000000 0.000000
0.130689 0.000000 0.000000
0.139982 0.000000 0.000000
0.149252 0.000000 0.000000
0.158556 0.000000 0.000000
0.167950 0.000000 0.000000
0.177334 0.000000 0.000000
0.186697 0.000000 0.000000
0.196059 0.000000 0.000000
0.205422 0.000000 0.000000
0.214796 0.000000 0.000000
0.224189 0.000000 0.000000
0.233514 0.000000 0.000000
0.242737 0.000000 0.000000
0.251933 0.000014 0.000000
0.261094 0.000045 0.000000
0.270241 0.000206 0.000000
0.279371 0.000516 0.000000
0.288431 0.000741 0.000000
0.297422 0.000881 0.000000
0.306462 0.001028 0.000000
0.315545 0.001183 0.000000
0.324585 0.001251 0.000000
0.333591 0.001251 0.000000
0.342634 0.001251 0.000000
0.351702 0.001251 0.000000
0.360780 0.001251 0.000000
0.369864 0.001251 0.000000
0.379028 0.001251 0.000000
0.388236 0.001251 0.000000
0.397465 0.001251 0.000000
0.406704 0.001251 0.000000
0.416031 0.001240 0.000000
0.425393 0.001225 0.000000
0.434779 0.001221 0.000000
0.444173 0.001221 0.000000
0.453627 0.001221 0.000000
0.463098 0.001221 0.000000
0.472632 0.001208 0.000000
0.482181 0.001192 0.000000
0.491756 0.001203 0.000000
0.501336 0.001219 0.000000
0.510901 0.001207 0.000000
0.520465 0.001191 0.000000
0.530100 0.001190 0.000000
0.539741 0.001190 0.000000
0.549369 0.001190 0.000000
0.558995 0.001190 0.000000
0.568321 0.001160 0.000000
0.577637 0.001129 0.000000
0.000000 0.008277 0.000000
0.006435 0.008333 0.000000
0.012948 0.008387 0.000000
0.021887 0.008418 0.000000
0.030820 0.008447 0.000000
0.039664 0.008423 0.000000
0.048532 0.008398 0.000000
0.057640 0.008359 0.000000
0.066762 0.008327 0.000000
0.075986 0.008350 0.000000
0.085245 0.008374 0.000000
0.094690 0.008398 0.000000
0.104153 0.008410 0.000000
0.113696 0.008370 0.000000
0.123209 0.008327 0.000000
0.132612 0.008272 0.000000
0.142025 0.008178 0.000000
0.151468 0.007965 0.000000
0.160921 0.007799 0.000000
0.170401 0.007752 0.000000
0.179882 0.007638 0.000000
0.189363 0.007379 0.000000
0.198830 0.007195 0.000000
0.208271 0.007155 0.000000
0.217703 0.007157 0.000000
0.227121 0.007228 0.000000
0.236491 0.007129 0.000000
0.245793 0.006783 0.000000
0.255057 0.006705 0.000000
0.264273 0.006972 0.000000
0.273486 0.007068 0.000000
0.282695 0.006968 0.000000
0.291822 0.006929 0.000000
0.300868 0.006950 0.000000
0.309938 0.007026 0.000000
0.319029 0.007150 0.000000
0.328112 0.007102 0.000000
0.337190 0.006921 0.000000
0.346252 0.006842 0.000000
0.355305 0.006835 0.000000
0.364431 0.006792 0.000000
0.373601 0.006729 0.000000
0.382790 0.006697 0.000000
0.391990 0.006681 0.000000
0.401227 0.006676 0.000000
0.410481 0.006676 0.000000
0.419808 0.006665 0.000000
0.429162 0.006650 0.000000
0.438534 0.006640 0.000000
0.447912 0.006632 0.000000
0.457369 0.006667 0.000000
0.466848 0.006715 0.000000
0.476384 0.006704 0.000000
0.485932 0.006681 0.000000
0.495461 0.006724 0.000000
0.504985 0.006779 0.000000
0.514531 0.006793 0.000000
0.524079 0.006801 0.000000
0.533640 0.006816 0.000000
0.543203 0.006832 0.000000
0.552722 0.006869 0.000000
0.562238 0.006909 0.000000
0.571538 0.006880 0.000000
0.580830 0.006849 0.000000
0.000000 0.016616 0.000000
0.006578 0.016728 0.000000
0.013234 0.016838 0.000000
0.022326 0.016904 0.000002
0.031404 0.016962 0.000003
0.040273 0.016916 0.000004
0.049171 0.016867 0.000004
0.058348 0.016788 0.000006
0.067539 0.016726 0.000007
0.076832 0.016777 0.000009
0.086193 0.016828 0.000010
0.095924 0.016879 0.000010
0.105655 0.016906 0.000008
0.115384 0.016830 0.000007
0.125064 0.016746 0.000006
0.134571 0.016637 0.000004
0.144106 0.016449 0.000002
0.153721 0.016030 0.000001
0.163323 0.015702 0.000000
0.172891 0.015605 0.000000
0.182469 0.015376 0.000000
0.192069 0.014858 0.000000
0.201641 0.014488 0.000000
0.211163 0.014401 0.000000
0.220656 0.014393 0.000000
0.230099 0.014516 0.000000
0.239517 0.014309 0.000000
0.248899 0.013620 0.000000
0.258233 0.013442 0.000000
0.267504 0.013923 0.000000
0.276782 0.013941 0.000000
0.286069 0.013434 0.000000
0.295262 0.013131 0.000000
0.304363 0.013031 0.000000
0.313463 0.013028 0.000000
0.322563 0.013111 0.000000
0.331688 0.012945 0.000000
0.340834 0.012586 0.000000
0.349916 0.012430 0.000000
0.358954 0.012413 0.000000
0.368126 0.012328 0.000000
0.377380 0.012203 0.000000
0.386593 0.012139 0.000000
0.395784 0.012107 0.000000
0.405029 0.012098 0.000000
0.414299 0.012098 0.000000
0.423624 0.012088 0.000000
0.432971 0.012073 0.000000
0.442330 0.012058 0.000000
0.451693 0.012044 0.000000
0.461152 0.012113 0.000000
0.470637 0.012206 0.000000
0.480172 0.012200 0.000000
0.489718 0.012170 0.000000
0.499200 0.012245 0.000000
0.508670 0.012339 0.000000
0.518195 0.012379 0.000000
0.527727 0.012410 0.000000
0.537213 0.012443 0.000000
0.546694 0.012476 0.000000
0.556106 0.012551 0.000000
0.565513 0.012629 0.000000
0.574781 0.012602 0.000000
0.584044 0.012572 0.000000
0.000000 0.026847 0.000000
0.006759 0.027061 0.000000
0.013599 0.027274 0.000002
0.022942 0.027458 0.000059
0.032262 0.027627 0.000113
0.041218 0.027581 0.000121
0.050196 0.027529 0.000133
0.059388 0.027427 0.000190
0.068623 0.027363 0.000247
0.078152 0.027564 0.000304
0.087773 0.027762 0.000346
0.097890 0.027946 0.000314
0.107992 0.028091 0.000280
0.118027 0.028062 0.000240
0.127982 0.028005 0.000192
0.137646 0.027848 0.000119
0.147338 0.027620 0.000056
0.157111 0.027177 0.000023
0.166864 0.026796 0.000000
0.176566 0.026573 0.000000
0.186278 0.026191 0.000000
0.196011 0.025460 0.000000
0.205720 0.024848 0.000000
0.215384 0.024462 0.000000
0.225004 0.024072 0.000000
0.234549 0.023676 0.000000
0.244076 0.023064 0.000000
0.253576 0.022139 0.000000
0.263000 0.021615 0.000000
0.272327 0.021607 0.000000
0.281649 0.021204 0.000000
0.290967 0.020350 0.000000
0.300203 0.019763 0.000000
0.309359 0.019443 0.000000
0.318502 0.019166 0.000000
0.327633 0.018925 0.000000
0.336768 0.018570 0.000000
0.345906 0.018124 0.000000
0.354998 0.017900 0.000000
0.364060 0.017828 0.000000
0.373231 0.017703 0.000000
0.382469 0.017546 0.000000
0.391661 0.017456 0.000000
0.400829 0.017401 0.000000
0.410078 0.017394 0.000000
0.419364 0.017411 0.000000
0.428688 0.017416 0.000000
0.438027 0.017416 0.000000
0.447389 0.017435 0.000000
0.456760 0.017460 0.000000
0.466184 0.017539 0.000000
0.475622 0.017632 0.000000
0.485103 0.017664 0.000000
0.494595 0.017681 0.000000
0.504028 0.017783 0.000000
0.513450 0.017901 0.000000
0.522941 0.017964 0.000000
0.532442 0.018019 0.000000
0.541775 0.018104 0.000000
0.551091 0.018192 0.000000
0.560426 0.018293 0.000000
0.569762 0.018395 0.000000
0.578845 0.018399 0.000000
0.587920 0.018401 0.000000
0.000000 0.037076 0.000007
0.006937 0.037390 0.000010
0.013957 0.037704 0.000017
0.023548 0.038003 0.000128
0.033105 0.038281 0.000232
0.042160 0.038243 0.000249
0.051230 0.038196 0.000274
0.060449 0.038079 0.000383
0.069735 0.038019 0.000492
0.079499 0.038361 0.000600
0.089376 0.038699 0.000681
0.099867 0.039013 0.000619
0.110327 0.039272 0.000555
0.120656 0.039293 0.000479
0.130877 0.039265 0.000388
0.140708 0.039064 0.000243
0.150565 0.038798 0.000118
0.160496 0.038336 0.000049
0.170402 0.037908 0.000000
0.180243 0.037566 0.000000
0.190092 0.037041 0.000000
0.199958 0.036113 0.000000
0.209802 0.035274 0.000000
0.219606 0.034606 0.000000
0.229351 0.033855 0.000000
0.238999 0.032966 0.000000
0.248633 0.031973 0.000000
0.258247 0.030827 0.000000
0.267761 0.029972 0.000000
0.277146 0.029491 0.000000
0.286513 0.028682 0.000000
0.295861 0.027501 0.000000
0.305143 0.026642 0.000000
0.314360 0.026105 0.000000
0.323546 0.025562 0.000000
0.332705 0.025015 0.000000
0.341850 0.024474 0.000000
0.350982 0.023939 0.000000
0.360089 0.023640 0.000000
0.369176 0.023505 0.000000
0.378347 0.023335 0.000000
0.387568 0.023145 0.000000
0.396742 0.023018 0.000000
0.405891 0.022925 0.000000
0.415143 0.022916 0.000000
0.424441 0.022944 0.000000
0.433762 0.022952 0.000000
0.443091 0.022952 0.000000
0.452454 0.022994 0.000000
0.461829 0.023050 0.000000
0.471218 0.023133 0.000000
0.480610 0.023222 0.000000
0.490035 0.023279 0.000000
0.499468 0.023328 0.000000
0.508853 0.023451 0.000000
0.518229 0.023589 0.000000
0.527678 0.023663 0.000000
0.537137 0.023729 0.000000
0.546324 0.023862 0.000000
0.555483 0.024001 0.000000
0.564738 0.024118 0.000000
0.574000 0.024234 0.000000
0.582903 0.024267 0.000000
0.591794 0.024297 0.000000
0.000000 0.047292 0.000115
0.007071 0.047669 0.000174
0.014226 0.048046 0.000235
0.023990 0.048424 0.000377
0.033727 0.048783 0.000512
0.043065 0.048862 0.000544
0.052410 0.048933 0.000584
0.061809 0.048926 0.000701
0.071281 0.048965 0.000816
0.081257 0.049323 0.000916
0.091344 0.049683 0.000992
0.102023 0.050060 0.000939
0.112653 0.050387 0.000884
0.123069 0.050494 0.000823
0.133425 0.050536 0.000727
0.143572 0.050343 0.000504
0.153708 0.050096 0.000294
0.163813 0.049690 0.000123
0.173903 0.049297 0.000000
0.183957 0.048939 0.000000
0.193986 0.048413 0.000000
0.203962 0.047516 0.000000
0.213919 0.046687 0.000000
0.223841 0.045988 0.000000
0.233699 0.045187 0.000000
0.243449 0.044220 0.000000
0.253163 0.043186 0.000000
0.262824 0.042056 0.000000
0.272412 0.041100 0.000000
0.281908 0.040367 0.000000
0.291341 0.039402 0.000000
0.300705 0.038174 0.000000
0.310066 0.037209 0.000000
0.319424 0.036506 0.000000
0.328664 0.035848 0.000000
0.337800 0.035230 0.000000
0.346956 0.034579 0.000000
0.356128 0.033901 0.000000
0.365292 0.033433 0.000000
0.374451 0.033109 0.000000
0.383624 0.032829 0.000000
0.392806 0.032576 0.000000
0.402002 0.032262 0.000000
0.411206 0.031917 0.000000
0.420454 0.031801 0.000000
0.429720 0.031791 0.000000
0.439004 0.031612 0.000000
0.448294 0.031368 0.000000
0.457606 0.031278 0.000000
0.466926 0.031240 0.000000
0.476283 0.031252 0.000000
0.485652 0.031279 0.000000
0.494983 0.031157 0.000000
0.504306 0.031002 0.000000
0.513648 0.031067 0.000000
0.522992 0.031172 0.000000
0.532272 0.031078 0.000000
0.541542 0.030955 0.000000
0.550676 0.031063 0.000000
0.559795 0.031194 0.000000
0.568929 0.031193 0.000000
0.578065 0.031183 0.000000
0.586865 0.031196 0.000000
0.595654 0.031211 0.000000
0.000000 0.057491 0.000271
0.007203 0.057928 0.000380
0.014492 0.058366 0.000492
0.024427 0.058827 0.000664
0.034342 0.059272 0.000828
0.043972 0.059477 0.000875
0.053600 0.059672 0.000930
0.063200 0.059784 0.001053
0.072873 0.059929 0.001173
0.083061 0.060306 0.001262
0.093353 0.060691 0.001330
0.104205 0.061126 0.001282
0.114993 0.061513 0.001234
0.125503 0.061695 0.001183
0.136001 0.061798 0.001078
0.146459 0.061621 0.000781
0.156873 0.061400 0.000492
0.167155 0.061050 0.000225
0.177430 0.060695 0.000029
0.187690 0.060326 0.000012
0.197896 0.059805 0.000000
0.207982 0.058950 0.000000
0.218053 0.058141 0.000000
0.228093 0.057420 0.000000
0.238063 0.056583 0.000000
0.247918 0.055555 0.000000
0.257715 0.054497 0.000000
0.267428 0.053397 0.000000
0.277095 0.052360 0.000000
0.286701 0.051406 0.000000
0.296204 0.050309 0.000000
0.305590 0.049051 0.000000
0.315028 0.047995 0.000000
0.324518 0.047142 0.000000
0.333813 0.046375 0.000000
0.342937 0.045684 0.000000
0.352112 0.044927 0.000000
0.361329 0.044119 0.000000
0.370550 0.043490 0.000000
0.379774 0.042985 0.000000
0.388951 0.042590 0.000000
0.398099 0.042260 0.000000
0.407317 0.041762 0.000000
0.416572 0.041176 0.000000
0.425814 0.040949 0.000000
0.435049 0.040885 0.000000
0.444295 0.040518 0.000000
0.453544 0.040031 0.000000
0.462806 0.039806 0.000000
0.472073 0.039668 0.000000
0.481392 0.039586 0.000000
0.490727 0.039521 0.000000
0.499965 0.039217 0.000000
0.509182 0.038859 0.000000
0.518473 0.038853 0.000000
0.527778 0.038914 0.000000
0.536894 0.038646 0.000000
0.545982 0.038332 0.000000
0.555063 0.038406 0.000000
0.564143 0.038519 0.000000
0.573151 0.038398 0.000000
0.582155 0.038261 0.000000
0.590857 0.038248 0.000000
0.599549 0.038239 0.000000
0.000000 0.067535 0.000875
0.007322 0.068004 0.001001
0.014730 0.068476 0.001128
0.024814 0.069063 0.001316
0.034893 0.069639 0.001495
0.044893 0.070040 0.001550
0.054892 0.070433 0.001611
0.064877 0.070741 0.001727
0.074914 0.071065 0.001834
0.085307 0.071498 0.001884
0.095774 0.071930 0.001917
0.106642 0.072364 0.001862
0.117473 0.072743 0.001797
0.128148 0.072886 0.001691
0.138836 0.072978 0.001537
0.149570 0.072887 0.001217
0.160243 0.072749 0.000902
0.170737 0.072470 0.000604
0.181208 0.072177 0.000334
0.191618 0.071847 0.000136
0.201961 0.071396 0.000000
0.212157 0.070674 0.000000
0.222340 0.069980 0.000000
0.232499 0.069337 0.000000
0.242590 0.068592 0.000000
0.252571 0.067673 0.000000
0.262485 0.066748 0.000000
0.272300 0.065813 0.000000
0.282076 0.064901 0.000000
0.291800 0.064017 0.000000
0.301403 0.063020 0.000000
0.310867 0.061896 0.000000
0.320364 0.060907 0.000000
0.329894 0.060055 0.000000
0.339258 0.059238 0.000000
0.348476 0.058452 0.000000
0.357746 0.057636 0.000000
0.367057 0.056795 0.000000
0.376326 0.056098 0.000000
0.385566 0.055499 0.000000
0.394763 0.054935 0.000000
0.403935 0.054393 0.000000
0.413166 0.053739 0.000000
0.422429 0.053028 0.000000
0.431651 0.052631 0.000000
0.440855 0.052378 0.000000
0.450058 0.051793 0.000000
0.459261 0.051078 0.000000
0.468481 0.050684 0.000000
0.477708 0.050396 0.000000
0.486914 0.049993 0.000000
0.496115 0.049557 0.000000
0.505271 0.049031 0.000000
0.514416 0.048483 0.000000
0.523597 0.048296 0.000000
0.532784 0.048175 0.000000
0.541789 0.047699 0.000000
0.550767 0.047172 0.000000
0.559802 0.047126 0.000000
0.568842 0.047129 0.000000
0.577671 0.046868 0.000000
0.586486 0.046589 0.000000
0.595136 0.046480 0.000000
0.603780 0.046377 0.000000
0.000000 0.077580 0.001482
0.007449 0.078089 0.001622
0.014985 0.078604 0.001764
0.025226 0.079319 0.001960
0.035475 0.080027 0.002148
0.045837 0.080616 0.002205
0.056197 0.081197 0.002267
0.066548 0.081698 0.002374
0.076931 0.082198 0.002469
0.087543 0.082687 0.002481
0.098200 0.083167 0.002482
0.109101 0.083605 0.002421
0.119993 0.083984 0.002341
0.130849 0.084107 0.002179
0.141736 0.084202 0.001979
0.152733 0.084196 0.001641
0.163659 0.084142 0.001301
0.174372 0.083939 0.000957
0.185042 0.083713 0.000608
0.195603 0.083427 0.000248
0.206092 0.083047 0.000000
0.216425 0.082462 0.000000
0.226738 0.081881 0.000000
0.237012 0.081305 0.000000
0.247228 0.080645 0.000000
0.257348 0.079844 0.000000
0.267385 0.079048 0.000000
0.277301 0.078261 0.000000
0.287185 0.077461 0.000000
0.297026 0.076644 0.000000
0.306732 0.075743 0.000000
0.316283 0.074746 0.000000
0.325842 0.073821 0.000000
0.335409 0.072967 0.000000
0.344844 0.072106 0.000000
0.354164 0.071239 0.000000
0.363522 0.070369 0.000000
0.372910 0.069496 0.000000
0.382223 0.068728 0.000000
0.391484 0.068033 0.000000
0.400700 0.067309 0.000000
0.409889 0.066567 0.000000
0.419126 0.065768 0.000000
0.428387 0.064939 0.000000
0.437586 0.064367 0.000000
0.446756 0.063912 0.000000
0.455914 0.063121 0.000000
0.465067 0.062198 0.000000
0.474237 0.061625 0.000000
0.483414 0.061169 0.000000
0.492509 0.060464 0.000000
0.501582 0.059689 0.000000
0.510651 0.058951 0.000000
0.519720 0.058223 0.000000
0.528782 0.057841 0.000000
0.537844 0.057524 0.000000
0.546743 0.056851 0.000000
0.555620 0.056128 0.000000
0.564584 0.055943 0.000000
0.573557 0.055812 0.000000
0.582221 0.055414 0.000000
0.590865 0.054999 0.000000
0.599449 0.054788 0.000000
0.608031 0.054584 0.000000
0.000000 0.087625 0.002102
0.007637 0.088236 0.002250
0.015363 0.088855 0.002398
0.025817 0.089712 0.002556
0.036284 0.090560 0.002704
0.046945 0.091275 0.002722
0.057597 0.091986 0.002746
0.068169 0.092652 0.002837
0.078785 0.093305 0.002915
0.089720 0.093856 0.002904
0.100673 0.094394 0.002886
0.111723 0.094864 0.002833
0.122791 0.095291 0.002749
0.133939 0.095532 0.002532
0.145093 0.095737 0.002294
0.156271 0.095810 0.001980
0.167398 0.095843 0.001621
0.178371 0.095759 0.001127
0.189272 0.095636 0.000661
0.199990 0.095412 0.000269
0.210688 0.095125 0.000000
0.221344 0.094698 0.000000
0.231904 0.094214 0.000000
0.242281 0.093623 0.000000
0.252646 0.093015 0.000000
0.262994 0.092379 0.000000
0.273202 0.091691 0.000000
0.283205 0.090927 0.000000
0.293185 0.090157 0.000000
0.303137 0.089380 0.000000
0.312971 0.088540 0.000000
0.322672 0.087630 0.000000
0.332314 0.086745 0.000000
0.341896 0.085884 0.000000
0.351423 0.085023 0.000000
0.360901 0.084164 0.000000
0.370301 0.083275 0.000000
0.379641 0.082362 0.000000
0.388967 0.081513 0.000000
0.398284 0.080707 0.000000
0.407506 0.079878 0.000000
0.416671 0.079034 0.000000
0.425858 0.078158 0.000000
0.435057 0.077266 0.000000
0.444198 0.076474 0.000000
0.453312 0.075728 0.000000
0.462410 0.074810 0.000000
0.471500 0.073824 0.000000
0.480560 0.073011 0.000000
0.489611 0.072256 0.000000
0.498611 0.071387 0.000000
0.507597 0.070486 0.000000
0.516554 0.069622 0.000000
0.525505 0.068768 0.000000
0.534396 0.068107 0.000000
0.543276 0.067483 0.000000
0.552119 0.066703 0.000000
0.560956 0.065901 0.000000
0.569674 0.065437 0.000000
0.578379 0.065007 0.000000
0.586982 0.064495 0.000000
0.595579 0.063977 0.000000
0.604001 0.063626 0.000000
0.612418 0.063280 0.000000
0.000000 0.097674 0.002693
0.007819 0.098395 0.002845
0.015727 0.099125 0.002997
0.026398 0.100128 0.003133
0.037087 0.101122 0.003261
0.048051 0.101961 0.003254
0.058999 0.102797 0.003255
0.069786 0.103609 0.003334
0.080633 0.104398 0.003399
0.091900 0.105020 0.003366
0.103159 0.105627 0.003331
0.114382 0.106144 0.003281
0.125645 0.106633 0.003190
0.137080 0.107000 0.002922
0.148499 0.107321 0.002647
0.159858 0.107482 0.002349
0.171185 0.107610 0.001967
0.182416 0.107643 0.001336
0.193555 0.107622 0.000760
0.204456 0.107467 0.000324
0.215377 0.107272 0.000020
0.226342 0.106991 0.000008
0.237148 0.106605 0.000000
0.247650 0.106019 0.000000
0.258177 0.105468 0.000000
0.268743 0.104976 0.000000
0.279124 0.104386 0.000000
0.289233 0.103654 0.000000
0.299325 0.102918 0.000000
0.309394 0.102177 0.000000
0.319358 0.101391 0.000000
0.329203 0.100557 0.000000
0.338931 0.099704 0.000000
0.348544 0.098832 0.000000
0.358159 0.097967 0.000000
0.367778 0.097107 0.000000
0.377220 0.096194 0.000000
0.386525 0.095241 0.000000
0.395861 0.094314 0.000000
0.405219 0.093403 0.000000
0.414443 0.092473 0.000000
0.423586 0.091531 0.000000
0.432723 0.090579 0.000000
0.441857 0.089623 0.000000
0.450941 0.088633 0.000000
0.460002 0.087627 0.000000
0.469033 0.086593 0.000000
0.478051 0.085549 0.000000
0.487001 0.084529 0.000000
0.495928 0.083517 0.000000
0.504832 0.082502 0.000000
0.513728 0.081484 0.000000
0.522563 0.080513 0.000000
0.531384 0.079552 0.000000
0.540115 0.078649 0.000000
0.548829 0.077756 0.000000
0.557591 0.076890 0.000000
0.566358 0.076026 0.000000
0.574850 0.075326 0.000000
0.583313 0.074643 0.000000
0.591846 0.074028 0.000000
0.600385 0.073417 0.000000
0.608640 0.072952 0.000000
0.616887 0.072493 0.000000
0.000000 0.107750 0.003127
0.007961 0.108620 0.003263
0.016014 0.109500 0.003402
0.026920 0.110677 0.003617
0.037851 0.111840 0.003822
0.049146 0.112789 0.003870
0.060412 0.113729 0.003922
0.071388 0.114580 0.004009
0.082448 0.115418 0.004080
0.094092 0.116159 0.004039
0.105717 0.116886 0.003994
0.117239 0.117537 0.003920
0.128795 0.118166 0.003804
0.140498 0.118698 0.003504
0.152165 0.119178 0.003199
0.163706 0.119472 0.002878
0.175232 0.119729 0.002461
0.186715 0.119871 0.001759
0.198125 0.119957 0.001100
0.209349 0.119896 0.000554
0.220566 0.119793 0.000151
0.231767 0.119599 0.000060
0.242815 0.119310 0.000000
0.253569 0.118842 0.000000
0.264315 0.118374 0.000000
0.275047 0.117905 0.000000
0.285612 0.117361 0.000000
0.295934 0.116709 0.000000
0.306214 0.116024 0.000000
0.316441 0.115298 0.000000
0.326540 0.114528 0.000000
0.336495 0.113709 0.000000
0.346334 0.112852 0.000000
0.356057 0.111957 0.000000
0.365749 0.111055 0.000000
0.375414 0.110148 0.000000
0.384895 0.109189 0.000000
0.394232 0.108188 0.000000
0.403562 0.107199 0.000000
0.412888 0.106218 0.000000
0.422090 0.105212 0.000000
0.431218 0.104191 0.000000
0.440303 0.103166 0.000000
0.449367 0.102139 0.000000
0.458396 0.101067 0.000000
0.467409 0.099975 0.000000
0.476342 0.098888 0.000000
0.485242 0.097804 0.000000
0.494080 0.096757 0.000000
0.502897 0.095722 0.000000
0.511696 0.094652 0.000000
0.520490 0.093571 0.000000
0.529146 0.092588 0.000000
0.537770 0.091627 0.000000
0.546404 0.090678 0.000000
0.555040 0.089730 0.000000
0.563584 0.088884 0.000000
0.572116 0.088052 0.000000
0.580493 0.087348 0.000000
0.588853 0.086657 0.000000
0.597269 0.086004 0.000000
0.605690 0.085354 0.000000
0.613751 0.084919 0.000000
0.621801 0.084490 0.000000
0.000000 0.117860 0.003619
0.008122 0.118873 0.003744
0.016338 0.119896 0.003874
0.027467 0.121240 0.004144
0.038627 0.122567 0.004402
0.050238 0.123630 0.004488
0.061811 0.124681 0.004574
0.073024 0.125598 0.004652
0.084335 0.126510 0.004715
0.096333 0.127376 0.004674
0.108305 0.128232 0.004625
0.120132 0.129032 0.004529
0.131985 0.129812 0.004392
0.143948 0.130509 0.004079
0.155865 0.131151 0.003757
0.167620 0.131594 0.003405
0.179369 0.131990 0.002959
0.191106 0.132246 0.002226
0.202795 0.132442 0.001512
0.214366 0.132486 0.000850
0.225896 0.132482 0.000332
0.237338 0.132375 0.000132
0.248639 0.132185 0.000000
0.259672 0.131838 0.000000
0.270656 0.131454 0.000000
0.281558 0.131009 0.000000
0.292318 0.130506 0.000000
0.302873 0.129921 0.000000
0.313347 0.129276 0.000000
0.323716 0.128557 0.000000
0.333953 0.127792 0.000000
0.344039 0.126974 0.000000
0.353990 0.126105 0.000000
0.363807 0.125184 0.000000
0.373565 0.124240 0.000000
0.383271 0.123276 0.000000
0.392785 0.122264 0.000000
0.402149 0.121215 0.000000
0.411470 0.120162 0.000000
0.420760 0.119107 0.000000
0.429932 0.118024 0.000000
0.439033 0.116924 0.000000
0.448064 0.115827 0.000000
0.457058 0.114730 0.000000
0.466017 0.113578 0.000000
0.474960 0.112400 0.000000
0.483787 0.111261 0.000000
0.492570 0.110136 0.000000
0.501294 0.109056 0.000000
0.509999 0.107992 0.000000
0.518677 0.106880 0.000000
0.527347 0.105754 0.000000
0.535834 0.104754 0.000000
0.544278 0.103782 0.000000
0.552792 0.102801 0.000000
0.561318 0.101818 0.000000
0.569656 0.100987 0.000000
0.577968 0.100178 0.000000
0.586223 0.099465 0.000000
0.594473 0.098762 0.000000
0.602750 0.098079 0.000000
0.611030 0.097399 0.000000
0.618922 0.096974 0.000000
0.626802 0.096557 0.000000
0.000000 0.128122 0.004363
0.008366 0.129245 0.004496
0.016824 0.130379 0.004632
0.028118 0.131865 0.004855
0.039449 0.133333 0.005067
0.051312 0.134531 0.005113
0.063155 0.135719 0.005155
0.074808 0.136817 0.005155
0.086536 0.137907 0.005153
0.098787 0.138931 0.005144
0.111023 0.139953 0.005119
0.123181 0.140965 0.005007
0.135345 0.141949 0.004869
0.147537 0.142812 0.004619
0.159710 0.143629 0.004334
0.171818 0.144285 0.003927
0.183898 0.144872 0.003475
0.195895 0.145254 0.002883
0.207898 0.145583 0.002232
0.219917 0.145776 0.001428
0.231837 0.145902 0.000737
0.243538 0.145881 0.000292
0.255146 0.145794 0.000000
0.266572 0.145581 0.000000
0.277873 0.145290 0.000000
0.288964 0.144868 0.000000
0.299968 0.144386 0.000000
0.310845 0.143816 0.000000
0.321535 0.143167 0.000000
0.331983 0.142416 0.000000
0.342365 0.141605 0.000000
0.352672 0.140724 0.000000
0.362745 0.139807 0.000000
0.372585 0.138855 0.000000
0.382362 0.137842 0.000000
0.392085 0.136775 0.000000
0.401610 0.135687 0.000000
0.410982 0.134584 0.000000
0.420273 0.133457 0.000000
0.429508 0.132315 0.000000
0.438615 0.131151 0.000000
0.447645 0.129972 0.000000
0.456610 0.128806 0.000000
0.465542 0.127647 0.000000
0.474362 0.126421 0.000000
0.483131 0.125165 0.000000
0.491825 0.123969 0.000000
0.500490 0.122796 0.000000
0.509096 0.121664 0.000000
0.517683 0.120544 0.000000
0.526162 0.119444 0.000000
0.534612 0.118350 0.000000
0.542974 0.117311 0.000000
0.551316 0.116285 0.000000
