Plugins/FilmEmulator/Content/LUTs/FE_Kodak_Vision_500T_5263_64.cube
# FilmEmulator LUT (resampled to 64)
LUT_3D_SIZE 64
0.000000 0.000000 0.000000
0.007983 0.000000 0.000000
0.016116 0.000000 0.000000
0.028873 0.000000 0.000000
0.041844 0.000000 0.000000
0.058027 0.000000 0.000000
0.074097 0.000001 0.000000
0.089071 0.000017 0.000000
0.103857 0.000031 0.000000
0.117327 0.000031 0.000000
0.130490 0.000406 0.000000
0.141992 0.002809 0.000000
0.153305 0.005583 0.000000
0.163799 0.009970 0.000000
0.174377 0.014357 0.000000
0.185259 0.018744 0.000000
0.196299 0.022735 0.000643
0.207817 0.025541 0.003217
0.219339 0.028451 0.005955
0.230871 0.031628 0.009118
0.242351 0.034932 0.012304
0.253713 0.038513 0.015544
0.265171 0.042009 0.018197
0.276812 0.045341 0.019732
0.288448 0.048808 0.021255
0.300073 0.052497 0.022758
0.311674 0.056174 0.024237
0.323237 0.059832 0.025678
0.334754 0.063484 0.026971
0.346209 0.067126 0.028071
0.357715 0.070754 0.029179
0.369279 0.074366 0.030295
0.380843 0.077962 0.031248
0.392407 0.081543 0.032039
0.404011 0.085099 0.032830
0.415653 0.088633 0.033620
0.427320 0.092280 0.034550
0.439008 0.096016 0.035589
0.450714 0.099817 0.036618
0.462433 0.103661 0.037641
0.474122 0.107690 0.038955
0.485795 0.111828 0.040443
0.497548 0.115987 0.041901
0.509345 0.120157 0.043343
0.521184 0.124369 0.044912
0.533042 0.128601 0.046539
0.544989 0.132844 0.048301
0.556971 0.137091 0.050115
0.569116 0.141467 0.052195
0.581315 0.145885 0.054365
0.593442 0.150968 0.057117
0.605549 0.156239 0.060031
0.617819 0.161610 0.062970
0.630127 0.167004 0.065916
0.642474 0.172372 0.068913
0.654828 0.177736 0.071920
0.667331 0.183180 0.074955
0.679856 0.188636 0.077993
0.692437 0.194135 0.081045
0.705024 0.199638 0.084099
0.717408 0.205097 0.087356
0.729777 0.210553 0.090627
0.740525 0.216881 0.094303
0.751221 0.223236 0.097992
0.000000 0.009580 0.008355
0.003928 0.010391 0.013252
0.008317 0.011145 0.017834
0.026996 0.010137 0.012621
0.045425 0.009256 0.007489
0.060128 0.010271 0.003560
0.074838 0.011193 0.000000
0.089624 0.011200 0.000000
0.104238 0.011233 0.000000
0.117661 0.011437 0.000000
0.130792 0.012016 0.000000
0.142341 0.014615 0.000000
0.153708 0.017510 0.000000
0.164289 0.021684 0.000000
0.174982 0.025683 0.000000
0.186076 0.029054 0.000000
0.197284 0.032260 0.000551
0.208833 0.034971 0.002754
0.220329 0.037756 0.005331
0.231688 0.040729 0.008863
0.243026 0.043735 0.012356
0.254317 0.046811 0.015761
0.265678 0.049919 0.018729
0.277169 0.053086 0.020862
0.288705 0.056334 0.022746
0.300315 0.059717 0.024219
0.311900 0.063048 0.025608
0.323448 0.066305 0.026876
0.334966 0.069627 0.028013
0.346445 0.073033 0.028979
0.357945 0.076388 0.030005
0.369469 0.079685 0.031098
0.381021 0.083033 0.032043
0.392601 0.086433 0.032842
0.404213 0.089879 0.033632
0.415855 0.093366 0.034414
0.427517 0.096904 0.035336
0.439197 0.100483 0.036367
0.450909 0.104135 0.037464
0.462644 0.107837 0.038605
0.474354 0.111675 0.039874
0.486050 0.115593 0.041221
0.497812 0.119599 0.042624
0.509608 0.123650 0.044058
0.521436 0.127750 0.045695
0.533279 0.131871 0.047425
0.545227 0.136016 0.049204
0.557217 0.140168 0.051002
0.569370 0.144496 0.053067
0.581577 0.148883 0.055222
0.593718 0.153880 0.057945
0.605840 0.159048 0.060827
0.618088 0.164323 0.063755
0.630364 0.169623 0.066692
0.642719 0.174910 0.069668
0.655089 0.180195 0.072651
0.667595 0.185609 0.075745
0.680119 0.191041 0.078855
0.692686 0.196431 0.081906
0.705257 0.201815 0.084952
0.717729 0.207164 0.088098
0.730193 0.212510 0.091250
0.740997 0.218613 0.094839
0.751748 0.224739 0.098442
0.000000 0.019256 0.016368
0.000108 0.020839 0.025883
0.000968 0.022311 0.034785
0.025146 0.020371 0.024717
0.048646 0.018675 0.014799
0.061966 0.020660 0.007146
0.075412 0.022458 0.000205
0.090065 0.022452 0.000139
0.104562 0.022499 0.000076
0.117959 0.022906 0.000035
0.131074 0.023683 0.000000
0.142670 0.026461 0.000000
0.154095 0.029455 0.000000
0.164778 0.033386 0.000000
0.175597 0.036976 0.000000
0.186901 0.039350 0.000000
0.198273 0.041781 0.000460
0.209848 0.044387 0.002299
0.221314 0.047037 0.004715
0.232504 0.049799 0.008607
0.243704 0.052506 0.012396
0.254925 0.055092 0.015961
0.266189 0.057820 0.019237
0.277534 0.060819 0.021959
0.288971 0.063847 0.024206
0.300561 0.066921 0.025660
0.312127 0.069909 0.026971
0.323659 0.072771 0.028072
0.335178 0.075768 0.029057
0.346679 0.078940 0.029893
0.358174 0.082025 0.030837
0.369662 0.085012 0.031902
0.381203 0.088115 0.032838
0.392797 0.091335 0.033643
0.404416 0.094668 0.034435
0.416057 0.098102 0.035213
0.427715 0.101530 0.036129
0.439387 0.104954 0.037152
0.451105 0.108458 0.038311
0.462855 0.112016 0.039562
0.474586 0.115664 0.040790
0.486306 0.119365 0.042002
0.498076 0.123219 0.043357
0.509872 0.127152 0.044786
0.521690 0.131140 0.046487
0.533518 0.135151 0.048313
0.545468 0.139196 0.050109
0.557465 0.143254 0.051894
0.569625 0.147535 0.053945
0.581839 0.151889 0.056084
0.593994 0.156800 0.058779
0.606131 0.161866 0.061631
0.618357 0.167045 0.064545
0.630604 0.172250 0.067474
0.642967 0.177457 0.070431
0.655352 0.182664 0.073393
0.667859 0.188045 0.076542
0.680384 0.193450 0.079716
0.692936 0.198733 0.082766
0.705492 0.204002 0.085803
0.718047 0.209240 0.088841
0.730601 0.214476 0.091878
0.741466 0.220354 0.095377
0.752277 0.226252 0.098891
0.000000 0.031936 0.013763
0.003556 0.033078 0.019223
0.007522 0.034167 0.024391
0.024166 0.033603 0.020503
0.040704 0.033169 0.016545
0.055670 0.034674 0.011522
0.070762 0.036020 0.006765
0.087069 0.035842 0.004581
0.103091 0.035754 0.002500
0.117117 0.036303 0.001144
0.130768 0.037137 0.000000
0.142387 0.039513 0.000000
0.153942 0.041955 0.000000
0.165216 0.044681 0.000000
0.176525 0.047236 0.000000
0.187963 0.049176 0.000000
0.199398 0.051175 0.000415
0.210823 0.053348 0.002073
0.222167 0.055572 0.004363
0.233302 0.057924 0.008270
0.244451 0.060323 0.012073
0.255633 0.062822 0.015646
0.266850 0.065409 0.019032
0.278131 0.068164 0.022062
0.289476 0.070912 0.024654
0.300924 0.073648 0.026517
0.312394 0.076361 0.028074
0.323894 0.079042 0.029183
0.335391 0.081855 0.030162
0.346885 0.084838 0.030975
0.358390 0.087745 0.031840
0.369909 0.090566 0.032763
0.381466 0.093512 0.033624
0.393061 0.096582 0.034422
0.404663 0.099716 0.035277
0.416272 0.102905 0.036182
0.427921 0.106200 0.037144
0.439601 0.109577 0.038151
0.451318 0.112935 0.039224
0.463059 0.116281 0.040341
0.474817 0.119770 0.041592
0.486585 0.123345 0.042923
0.498366 0.127089 0.044375
0.510154 0.130920 0.045890
0.521980 0.134800 0.047537
0.533824 0.138701 0.049245
0.545772 0.142641 0.051070
0.557761 0.146597 0.052942
0.569908 0.150828 0.055002
0.582106 0.155151 0.057125
0.594270 0.159975 0.059805
0.606423 0.164938 0.062641
0.618665 0.170015 0.065527
0.630927 0.175118 0.068424
0.643279 0.180282 0.071430
0.655649 0.185458 0.074455
0.668154 0.190718 0.077522
0.680679 0.195990 0.080594
0.693217 0.201238 0.083606
0.705756 0.206484 0.086611
0.718273 0.211617 0.089632
0.730789 0.216743 0.092654
0.741858 0.222388 0.095992
0.752881 0.228050 0.099341
0.000000 0.044658 0.011364
0.006574 0.045421 0.013021
0.013243 0.046183 0.014685
0.022848 0.046896 0.016592
0.032887 0.047629 0.018229
0.049423 0.048658 0.015828
0.066076 0.049563 0.013283
0.083863 0.049264 0.009352
0.101273 0.049084 0.005564
0.116043 0.049736 0.002775
0.130337 0.050590 0.000392
0.142053 0.052534 0.000201
0.153794 0.054408 0.000040
0.165640 0.055977 0.000018
0.177427 0.057536 0.000000
0.189004 0.059060 0.000000
0.200509 0.060640 0.000369
0.211795 0.062388 0.001846
0.223025 0.064195 0.004010
0.234111 0.066152 0.007933
0.245214 0.068246 0.011750
0.256356 0.070643 0.015331
0.267525 0.073080 0.018822
0.278745 0.075594 0.022140
0.289998 0.078068 0.025067
0.301305 0.080473 0.027341
0.312676 0.082917 0.029158
0.324138 0.085417 0.030306
0.335612 0.088043 0.031294
0.347099 0.090832 0.032077
0.358614 0.093558 0.032863
0.370162 0.096214 0.033653
0.381733 0.099002 0.034442
0.393327 0.101921 0.035231
0.404913 0.104857 0.036145
0.416492 0.107808 0.037167
0.428133 0.110965 0.038172
0.439820 0.114283 0.039164
0.451536 0.117496 0.040159
0.463271 0.120639 0.041158
0.475055 0.123972 0.042432
0.486868 0.127420 0.043871
0.498661 0.131048 0.045414
0.510442 0.134771 0.047010
0.522277 0.138539 0.048611
0.534135 0.142329 0.050212
0.546082 0.146167 0.052066
0.558064 0.150023 0.054017
0.570198 0.154201 0.056089
0.582384 0.158487 0.058202
0.594555 0.163223 0.060866
0.606724 0.168086 0.063684
0.618979 0.173059 0.066541
0.631254 0.178059 0.069407
0.643598 0.183176 0.072452
0.655955 0.188315 0.075529
0.668457 0.193457 0.078521
0.680981 0.198600 0.081501
0.693505 0.203808 0.084476
0.706028 0.209022 0.087450
0.718505 0.214052 0.090448
0.730979 0.219070 0.093449
0.742257 0.224472 0.096625
0.753497 0.229887 0.099808
0.000000 0.058020 0.012030
0.003125 0.059334 0.013664
0.006466 0.060622 0.015305
0.016481 0.061091 0.017204
0.026931 0.061570 0.018990
0.043908 0.062198 0.019092
0.060856 0.062802 0.019176
0.077525 0.063180 0.019071
0.094263 0.063534 0.018231
0.111482 0.063714 0.012238
0.128029 0.064029 0.006671
0.140951 0.065075 0.003409
0.153725 0.066137 0.000686
0.165862 0.067265 0.000301
0.177924 0.068442 0.000000
0.189722 0.069792 0.000000
0.201398 0.071168 0.000322
0.212708 0.072617 0.001609
0.223966 0.074153 0.003645
0.235091 0.075913 0.007592
0.246206 0.077768 0.011429
0.257301 0.079835 0.015026
0.268423 0.081985 0.018530
0.279596 0.084294 0.021856
0.290772 0.086566 0.024950
0.301954 0.088775 0.027658
0.313198 0.091028 0.029940
0.324535 0.093347 0.031599
0.335941 0.095751 0.032820
0.347436 0.098264 0.033477
0.358951 0.100766 0.034189
0.370491 0.103257 0.034963
0.382051 0.105879 0.035737
0.393629 0.108633 0.036510
0.405212 0.111408 0.037408
0.416799 0.114201 0.038414
0.428438 0.117152 0.039408
0.440118 0.120226 0.040392
0.451840 0.123303 0.041445
0.463590 0.126382 0.042545
0.475395 0.129604 0.043838
0.487232 0.132910 0.045246
0.499043 0.136350 0.046778
0.510841 0.139860 0.048375
0.522680 0.143475 0.050029
0.534538 0.147139 0.051709
0.546480 0.150896 0.053567
0.558453 0.154689 0.055496
0.570603 0.158757 0.057615
0.582812 0.162916 0.059798
0.594989 0.167564 0.062447
0.607158 0.172348 0.065227
0.619394 0.177211 0.068051
0.631645 0.182092 0.070885
0.644012 0.187091 0.073825
0.656400 0.192112 0.076784
0.668893 0.197184 0.079809
0.681401 0.202264 0.082844
0.693909 0.207337 0.085796
0.706417 0.212410 0.088738
0.718819 0.217357 0.091639
0.731214 0.222296 0.094538
0.742765 0.227300 0.097535
0.754288 0.232305 0.100536
0.000000 0.071245 0.013157
0.000000 0.073050 0.014693
0.000322 0.074806 0.016238
0.010632 0.075042 0.018094
0.021377 0.075279 0.019982
0.038654 0.075530 0.022333
0.055786 0.075845 0.024775
0.071519 0.076781 0.028106
0.087680 0.077579 0.029976
0.106838 0.077418 0.021621
0.125234 0.077317 0.013600
0.139520 0.077538 0.007379
0.153471 0.077852 0.002145
0.165968 0.078564 0.001190
0.178356 0.079379 0.000443
0.190360 0.080561 0.000443
0.202202 0.081741 0.000713
0.213563 0.082917 0.001793
0.224873 0.084203 0.003650
0.236056 0.085771 0.007495
0.247198 0.087394 0.011260
0.258252 0.089137 0.014852
0.269332 0.091000 0.018349
0.280458 0.093089 0.021665
0.291561 0.095152 0.024894
0.302625 0.097168 0.027979
0.313750 0.099232 0.030684
0.324963 0.101364 0.032832
0.336296 0.103543 0.034303
0.347781 0.105784 0.034904
0.359289 0.108068 0.035573
0.370823 0.110402 0.036321
0.382372 0.112863 0.037079
0.393938 0.115452 0.037849
0.405519 0.118070 0.038730
0.417115 0.120713 0.039708
0.428754 0.123466 0.040692
0.440426 0.126304 0.041679
0.452154 0.129240 0.042787
0.463919 0.132242 0.043978
0.475741 0.135345 0.045292
0.487596 0.138509 0.046681
0.499426 0.141764 0.048205
0.511244 0.145067 0.049798
0.523091 0.148531 0.051498
0.534951 0.152067 0.053245
0.546892 0.155737 0.055105
0.558863 0.159461 0.057009
0.571028 0.163423 0.059168
0.583256 0.167465 0.061413
0.595436 0.172016 0.064051
0.607603 0.176710 0.066800
0.619823 0.181461 0.069591
0.632055 0.186227 0.072393
0.644441 0.191107 0.075235
0.656856 0.196008 0.078085
0.669340 0.201008 0.081135
0.681833 0.206022 0.084215
0.694325 0.210960 0.087142
0.706817 0.215890 0.090054
0.719141 0.220748 0.092863
0.731453 0.225601 0.095665
0.743251 0.230239 0.098499
0.755033 0.234869 0.101333
0.000000 0.083150 0.018738
0.000000 0.084860 0.019454
0.000297 0.086521 0.020195
0.009795 0.086631 0.021681
0.019714 0.086741 0.023207
0.035928 0.086859 0.025338
0.052174 0.086996 0.027548
0.068725 0.087325 0.030524
0.085229 0.087709 0.032808
0.101395 0.088477 0.030239
0.117722 0.089141 0.026808
0.134921 0.089244 0.018713
0.151430 0.089429 0.011472
0.164951 0.089968 0.007935
0.178153 0.090621 0.005171
0.190219 0.091676 0.005171
0.202186 0.092757 0.005345
0.213854 0.093909 0.006039
0.225451 0.095138 0.007247
0.236870 0.096564 0.009768
0.248182 0.098010 0.012558
0.259260 0.099502 0.015937
0.270342 0.101075 0.019232
0.281428 0.102802 0.022367
0.292492 0.104582 0.025424
0.303516 0.106449 0.028352
0.314580 0.108325 0.031068
0.325699 0.110212 0.033476
0.336902 0.112151 0.035365
0.348215 0.114156 0.036588
0.359634 0.116282 0.037525
0.371175 0.118545 0.038139
0.382737 0.120888 0.038886
0.394318 0.123311 0.039766
0.405911 0.125810 0.040623
0.417514 0.128374 0.041460
0.429161 0.131008 0.042443
0.440842 0.133697 0.043540
0.452572 0.136441 0.044679
0.464338 0.139222 0.045847
0.476140 0.142149 0.047212
0.487964 0.145164 0.048695
0.499819 0.148269 0.050230
0.511691 0.151423 0.051792
0.523572 0.154742 0.053455
0.535456 0.158137 0.055163
0.547443 0.161671 0.056989
0.559470 0.165261 0.058862
0.571636 0.169160 0.060990
0.583849 0.173163 0.063203
0.596007 0.177545 0.065871
0.608150 0.182034 0.068666
0.620384 0.186670 0.071435
0.632640 0.191341 0.074197
0.645017 0.196093 0.077006
0.657416 0.200861 0.079825
0.669891 0.205768 0.082823
0.682376 0.210696 0.085847
0.694853 0.215483 0.088749
0.707330 0.220256 0.091637
0.719542 0.224964 0.094407
0.731736 0.229667 0.097170
0.743538 0.234254 0.099979
0.755327 0.238838 0.102790
0.000000 0.094842 0.023834
0.000280 0.096388 0.023834
0.000830 0.097885 0.023871
0.009770 0.097885 0.025048
0.019097 0.097885 0.026271
0.034225 0.097885 0.028188
0.049519 0.097871 0.030172
0.066422 0.097715 0.032800
0.082902 0.097766 0.035405
0.096422 0.099268 0.037852
0.110859 0.100552 0.038505
0.130242 0.100658 0.029466
0.148737 0.100836 0.021057
0.163384 0.101322 0.015376
0.177526 0.101902 0.010829
0.189863 0.102817 0.010332
0.202107 0.103786 0.010052
0.214070 0.104915 0.010424
0.225946 0.106089 0.011057
0.237601 0.107376 0.012354
0.249096 0.108657 0.014180
0.260240 0.109925 0.017171
0.271352 0.111233 0.020154
0.282403 0.112620 0.023126
0.293431 0.114128 0.026021
0.304423 0.115839 0.028790
0.315433 0.117525 0.031498
0.326467 0.119174 0.034116
0.337553 0.120881 0.036367
0.348706 0.122664 0.038148
0.360030 0.124623 0.039376
0.371546 0.126780 0.039978
0.383103 0.128994 0.040765
0.394701 0.131264 0.041739
0.406306 0.133639 0.042581
0.417917 0.136108 0.043308
0.429572 0.138622 0.044294
0.441259 0.141170 0.045483
0.452994 0.143741 0.046646
0.464760 0.146329 0.047790
0.476548 0.149089 0.049194
0.488349 0.151954 0.050755
0.500227 0.154911 0.052304
0.512146 0.157915 0.053846
0.524060 0.161086 0.055477
0.535973 0.164331 0.057148
0.548009 0.167732 0.058941
0.560093 0.171193 0.060782
0.572259 0.175025 0.062885
0.584452 0.178980 0.065076
0.596592 0.183201 0.067766
0.608717 0.187497 0.070597
0.620965 0.192014 0.073338
0.633242 0.196583 0.076060
0.645608 0.201209 0.078843
0.657991 0.205847 0.081637
0.670457 0.210651 0.084577
0.682935 0.215479 0.087537
0.695399 0.220122 0.090409
0.707861 0.224746 0.093272
0.719958 0.229305 0.096005
0.732030 0.233859 0.098729
0.743836 0.238388 0.101511
0.755633 0.242916 0.104296
0.000000 0.105041 0.025539
0.002516 0.105934 0.025539
0.005270 0.106798 0.025580
0.015423 0.106798 0.026875
0.025809 0.106798 0.028198
0.039684 0.106798 0.029950
0.053570 0.106818 0.031755
0.067552 0.107024 0.034076
0.081449 0.107313 0.036364
0.094749 0.108185 0.038426
0.108543 0.109071 0.039623
0.125004 0.110027 0.036151
0.141473 0.111043 0.032439
0.157970 0.112317 0.027686
0.173935 0.113458 0.022995
0.187997 0.114129 0.018522
0.201587 0.114911 0.015292
0.213762 0.116025 0.015790
0.225857 0.117155 0.016362
0.237748 0.118324 0.017124
0.249519 0.119514 0.018075
0.261026 0.120749 0.019444
0.272370 0.121972 0.021350
0.283404 0.123170 0.024282
0.294429 0.124484 0.027091
0.305437 0.125989 0.029695
0.316449 0.127473 0.032247
0.327468 0.128926 0.034722
0.338518 0.130468 0.036942
0.349608 0.132124 0.038834
0.360780 0.133854 0.040515
0.372045 0.135665 0.041959
0.383487 0.137670 0.043156
0.395108 0.139869 0.044106
0.406729 0.142098 0.044996
0.418348 0.144355 0.045833
0.430006 0.146731 0.046845
0.441693 0.149200 0.047995
0.453432 0.151735 0.049127
0.465206 0.154315 0.050248
0.477022 0.156979 0.051619
0.488863 0.159694 0.053140
0.500744 0.162506 0.054716
0.512647 0.165369 0.056322
0.524599 0.168354 0.057956
0.536575 0.171395 0.059604
0.548680 0.174676 0.061368
0.560835 0.178051 0.063177
0.572983 0.181784 0.065302
0.585129 0.185637 0.067532
0.597277 0.189750 0.070194
0.609425 0.193935 0.072977
0.621678 0.198303 0.075665
0.633955 0.202715 0.078332
0.646308 0.207230 0.081132
0.658676 0.211766 0.083958
0.671132 0.216392 0.086791
0.683602 0.221031 0.089626
0.696065 0.225578 0.092450
0.708528 0.230115 0.095274
0.720484 0.234528 0.097975
0.732407 0.238933 0.100667
0.744216 0.243350 0.103403
0.756021 0.247768 0.106140
0.000627 0.115030 0.027152
0.005345 0.115344 0.027237
0.010258 0.115649 0.027362
0.021241 0.115660 0.028731
0.032323 0.115672 0.030114
0.044896 0.115697 0.031701
0.057366 0.115771 0.033326
0.068839 0.116323 0.035305
0.080495 0.116854 0.037251
0.093430 0.117238 0.038967
0.106510 0.117810 0.040619
0.120379 0.119396 0.041936
0.134970 0.121037 0.042297
0.152687 0.122911 0.038513
0.169952 0.124526 0.033988
0.185605 0.125217 0.026819
0.200504 0.126007 0.021456
0.213140 0.127093 0.021513
0.225634 0.128174 0.021610
0.237763 0.129242 0.021809
0.249802 0.130350 0.021953
0.261640 0.131544 0.021975
0.273225 0.132692 0.022921
0.284326 0.133750 0.025633
0.295405 0.134905 0.028226
0.306449 0.136222 0.030622
0.317477 0.137517 0.033001
0.328484 0.138781 0.035355
0.339503 0.140157 0.037554
0.350537 0.141681 0.039555
0.361579 0.143195 0.041635
0.372628 0.144699 0.043803
0.383952 0.146497 0.045405
0.395550 0.148588 0.046441
0.407160 0.150667 0.047436
0.418782 0.152734 0.048396
0.430441 0.154979 0.049451
0.442130 0.157360 0.050579
0.453873 0.159837 0.051698
0.465654 0.162380 0.052809
0.477492 0.164944 0.054153
0.489365 0.167521 0.055636
0.501251 0.170200 0.057220
0.513146 0.172932 0.058856
0.525140 0.175753 0.060493
0.537181 0.178616 0.062131
0.549356 0.181778 0.063868
0.561583 0.185056 0.065643
0.573722 0.188693 0.067788
0.585832 0.192450 0.070058
0.597987 0.196454 0.072690
0.610154 0.200528 0.075423
0.622410 0.204747 0.078058
0.634685 0.208999 0.080669
0.647030 0.213402 0.083475
0.659388 0.217833 0.086317
0.671833 0.222281 0.089054
0.684291 0.226733 0.091776
0.696732 0.231171 0.094552
0.709171 0.235608 0.097334
0.721002 0.239873 0.100000
0.732792 0.244127 0.102659
0.744603 0.248433 0.105340
0.756413 0.252741 0.108022
0.004642 0.123881 0.028268
0.011375 0.124022 0.028897
0.018202 0.124161 0.029543
0.027949 0.124243 0.030746
0.037774 0.124332 0.031964
0.048772 0.124514 0.033394
0.059789 0.124755 0.034827
0.070979 0.125566 0.036278
0.082243 0.126359 0.037746
0.094027 0.127019 0.039327
0.106010 0.127736 0.040960
0.119060 0.128764 0.042867
0.132575 0.129874 0.043929
0.148103 0.131338 0.041326
0.163850 0.132950 0.038646
0.180376 0.135090 0.035688
0.196381 0.136942 0.032608
0.210820 0.137934 0.029162
0.224681 0.138945 0.026541
0.237063 0.140005 0.026032
0.249327 0.141078 0.025733
0.261330 0.142178 0.025897
0.273199 0.143307 0.026525
0.284812 0.144491 0.028040
0.296264 0.145687 0.029720
0.307449 0.146901 0.031675
0.318565 0.148075 0.033785
0.329580 0.149189 0.036123
0.340596 0.150405 0.038362
0.351615 0.151755 0.040474
0.362640 0.153133 0.042652
0.373674 0.154543 0.044907
0.384853 0.156140 0.046891
0.396175 0.157924 0.048604
0.407640 0.159825 0.050017
0.419229 0.161830 0.051166
0.430879 0.163971 0.052347
0.442576 0.166219 0.053554
0.454322 0.168525 0.054747
0.466103 0.170871 0.055929
0.477936 0.173317 0.057280
0.489801 0.175824 0.058732
0.501706 0.178426 0.060212
0.513631 0.181079 0.061706
0.525691 0.183854 0.063343
0.537810 0.186686 0.065043
0.550064 0.189731 0.066763
0.562370 0.192859 0.068491
0.574546 0.196412 0.070655
0.586680 0.200106 0.072963
0.598834 0.204004 0.075555
0.610993 0.207960 0.078226
0.623240 0.212022 0.080803
0.635508 0.216109 0.083360
0.647872 0.220386 0.086104
0.660253 0.224699 0.088883
0.672674 0.228974 0.091578
0.685100 0.233244 0.094260
0.697403 0.237509 0.096983
0.709692 0.241773 0.099709
0.721477 0.245880 0.102328
0.733228 0.249976 0.104940
0.745029 0.254170 0.107520
0.756832 0.258368 0.110098
0.009026 0.132834 0.029623
0.017245 0.132809 0.030617
0.025476 0.132788 0.031613
0.034115 0.132902 0.032654
0.042816 0.133027 0.033711
0.052441 0.133332 0.035011
0.062178 0.133699 0.036288
0.073006 0.134662 0.037354
0.083834 0.135618 0.038465
0.094667 0.136528 0.039888
0.105727 0.137404 0.041445
0.118012 0.138092 0.043717
0.130545 0.138864 0.045321
0.144153 0.139994 0.044027
0.158476 0.141559 0.043090
0.175354 0.144676 0.043427
0.192004 0.147295 0.042206
0.207970 0.148416 0.036314
0.223071 0.149537 0.031765
0.235959 0.150654 0.030646
0.248642 0.151748 0.029896
0.260875 0.152792 0.029960
0.273047 0.153910 0.030179
0.285099 0.155168 0.030695
0.296897 0.156378 0.031568
0.308271 0.157507 0.033038
0.319527 0.158588 0.034814
0.330612 0.159599 0.037035
0.341673 0.160700 0.039236
0.352704 0.161916 0.041411
0.363728 0.163179 0.043665
0.374745 0.164495 0.046010
0.385801 0.165912 0.048331
0.396897 0.167430 0.050630
0.408218 0.169152 0.052470
0.419737 0.171055 0.053907
0.431348 0.173074 0.055289
0.443031 0.175182 0.056629
0.454775 0.177329 0.057907
0.466560 0.179503 0.059141
0.478392 0.181834 0.060489
0.490254 0.184260 0.061907
0.502176 0.186782 0.063295
0.514130 0.189354 0.064669
0.526251 0.192076 0.066296
0.538448 0.194865 0.068037
0.550773 0.197799 0.069745
0.563147 0.200790 0.071441
0.575402 0.204241 0.073577
0.587617 0.207846 0.075860
0.599792 0.211634 0.078386
0.611957 0.215473 0.080981
0.624180 0.219401 0.083537
0.636416 0.223349 0.086084
0.648767 0.227504 0.088799
0.661140 0.231698 0.091547
0.673532 0.235807 0.094198
0.685927 0.239904 0.096835
0.698085 0.243990 0.099493
0.710219 0.248075 0.102152
0.721963 0.252035 0.104724
0.733681 0.255987 0.107290
0.745469 0.260063 0.109792
0.757259 0.264142 0.112292
0.015009 0.142228 0.032010
0.022417 0.142069 0.032603
0.029846 0.141914 0.033205
0.037934 0.141885 0.034096
0.046086 0.141876 0.035013
0.055207 0.142158 0.036296
0.064422 0.142473 0.037580
0.074549 0.143113 0.038875
0.084753 0.143804 0.040152
0.095491 0.144856 0.041316
0.106388 0.145948 0.042558
0.118137 0.147250 0.044216
0.130093 0.148519 0.045670
0.142945 0.149642 0.046243
0.156259 0.150968 0.046614
0.171224 0.153022 0.046266
0.186522 0.155119 0.045067
0.202819 0.157343 0.041317
0.218608 0.159351 0.038256
0.233103 0.160807 0.036956
0.247050 0.162169 0.035722
0.259795 0.163322 0.034636
0.272346 0.164461 0.034052
0.284524 0.165570 0.034426
0.296549 0.166680 0.034957
0.308316 0.167793 0.035750
0.319944 0.168906 0.036899
0.331367 0.170020 0.038570
0.342677 0.171196 0.040399
0.353842 0.172452 0.042432
0.364926 0.173691 0.044659
0.375919 0.174912 0.047105
0.386956 0.176238 0.049573
0.398036 0.177670 0.052060
0.409224 0.179210 0.054370
0.420507 0.180845 0.056523
0.431953 0.182653 0.058427
0.443525 0.184596 0.060137
0.455238 0.186639 0.061546
0.467047 0.188750 0.062749
0.478898 0.190979 0.064056
0.490775 0.193278 0.065426
0.502713 0.195700 0.066778
0.514683 0.198186 0.068120
0.526858 0.200821 0.069699
0.539126 0.203524 0.071385
0.551487 0.206371 0.073101
0.563885 0.209276 0.074827
0.576394 0.212551 0.076741
0.588939 0.215951 0.078717
0.601236 0.219608 0.081072
0.613464 0.223337 0.083533
0.625590 0.227225 0.086217
0.637692 0.231150 0.088952
