Plugins/FilmEmulator/Content/LUTs/FE_Kodak_Vision2_100T_5212_64.cube
# FilmEmulator LUT (resampled to 64)
LUT_3D_SIZE 4
0.000000 0.000000 0.000000
0.219869 0.000000 0.010254
0.447174 0.000000 0.021047
0.702362 0.000000 0.033447
0.084371 0.281189 0.075398
0.320190 0.252387 0.007799
0.540158 0.234995 0.000000
0.896312 0.136373 0.000000
0.282694 0.642802 0.266235
0.393745 0.629733 0.211287
0.665029 0.591943 0.111308
0.911662 0.553914 0.000000
0.437866 0.978210 0.413361
0.522756 0.962647 0.406332
0.720124 0.941172 0.289714
0.981476 0.893005 0.000000
0.000000 0.089223 0.308441
0.170047 0.064379 0.137302
0.459134 0.003771 0.096439
0.700297 0.000000 0.118968
0.025201 0.352298 0.200921
0.289596 0.289053 0.253941
0.619949 0.239955 0.093607
0.886665 0.160601 0.085673
0.261983 0.678230 0.335182
0.390529 0.645013 0.358839
0.672865 0.603275 0.296189
0.925995 0.560062 0.085673
0.426829 0.997762 0.463369
0.514866 0.977346 0.477407
0.719116 0.957126 0.384464
0.998006 0.916667 0.085673
0.000000 0.207703 0.655853
0.001265 0.277680 0.582716
0.390632 0.188324 0.333428
0.556020 0.124654 0.307190
0.000000 0.430210 0.494039
0.027962 0.495547 0.603446
0.494286 0.390466 0.460708
0.716234 0.338748 0.384803
0.193505 0.776703 0.522193
0.327717 0.747283 0.550295
0.655743 0.653896 0.602936
0.991357 0.601488 0.431424
0.315592 1.000000 0.596964
0.444271 1.000000 0.622660
0.712009 0.984205 0.658475
1.000000 0.944153 0.540762
0.000000 0.606964 1.000000
0.000031 0.584239 1.000000
0.368479 0.508921 0.804098
0.695770 0.417603 0.635223
0.000000 0.736521 0.990682
0.000031 0.720018 0.987712
0.369521 0.630703 0.930654
0.749929 0.552307 0.702433
0.214183 0.942749 0.885803
0.252746 0.936496 0.903106
0.448788 0.874023 0.997315
0.866343 0.769338 0.843811
0.529144 1.000000 0.859192
0.585348 1.000000 0.875641
0.746154 1.000000 0.928477
0.996796 0.996796 0.996826
