Plugins/FilmEmulator/Content/LUTs/FE_Kodak_5203_64.cube
TITLE "FE_Kodak_5203_33"
LUT_3D_SIZE 4
0.0015255 0.0010972 0.0016533
0.2303528 0.0064885 0.0085754
0.4333755 0.0173046 0.0206859
0.5786684 0.0315592 0.0360162
0.0100827 0.2640931 0.0121103
0.2224775 0.2807958 0.0250896
0.4283216 0.3038383 0.0404026
0.5609381 0.3197355 0.0554026
0.0256969 0.5035707 0.0294716
0.2291379 0.5149165 0.0439105
0.4299104 0.5340143 0.0598872
0.5628811 0.5437447 0.0768080
0.0433840 0.6616881 0.0507192
0.2378946 0.6632920 0.0644726
0.4340699 0.6722733 0.0800793
0.5671861 0.6808664 0.0967571
0.0225460 0.0108826 0.2862664
0.2560881 0.0236307 0.2982541
0.4560746 0.0376230 0.3127306
0.5871739 0.0539644 0.3278890
0.0291997 0.2756589 0.3154257
0.2548052 0.2988000 0.3254490
0.4402359 0.3144003 0.3388338
0.5734739 0.3302236 0.3455819
0.0433528 0.5169328 0.3337360
0.2565668 0.5274078 0.3371549
0.4426937 0.5370667 0.3506409
0.5758767 0.5554289 0.3651839
0.0604602 0.6648751 0.3507663
0.2664211 0.6741021 0.3549329
0.4470749 0.6826554 0.3688249
0.5806989 0.6830720 0.3833438
0.0542307 0.0287954 0.5178882
0.2912710 0.0444096 0.5243053
0.4762252 0.0615836 0.5329045
0.5994340 0.0796479 0.5417941
0.0588600 0.2914462 0.5402951
0.2862653 0.3074029 0.5449154
0.4632040 0.3309661 0.5522442
0.5880323 0.3472024 0.5599663
0.0663882 0.5274859 0.5536626
0.2881526 0.5377486 0.5583537
0.4659084 0.5472973 0.5652754
0.5909186 0.5566282 0.5727686
0.0800197 0.6742250 0.5647926
0.2989966 0.6752796 0.5696213
0.4706136 0.6837358 0.5765804
0.5955297 0.6919318 0.5840275
0.0865836 0.0521878 0.6601058
0.3160689 0.0700728 0.6659785
0.4895450 0.0876892 0.6732418
0.6127859 0.1058854 0.6732454
0.0903254 0.3071900 0.6775524
0.3130937 0.3234287 0.6822580
0.4871660 0.3395805 0.6811406
0.6032370 0.3560053 0.6879430
0.0995938 0.5375696 0.6891297
0.3225803 0.5475671 0.6863963
0.4898851 0.5570382 0.6925253
0.6060904 0.5663092 0.6990367
0.1106597 0.6751186 0.6914791
0.3267013 0.6839707 0.6962437
0.4946122 0.6922870 0.7022677
0.6026076 0.7002817 0.7016042
