Plugins/FilmEmulator/Content/LUTs/FE_Kodak_Gold_200_64.cube
TITLE "FE_Kodak_Gold_200_33"
LUT_3D_SIZE 8
0.0019029 0.0024473 0.0027910
0.0653966 0.0030345 0.0022481
0.1859198 0.0052206 0.0036974
0.3144761 0.0085216 0.0061400
0.4272975 0.0121292 0.0091762
0.5305111 0.0168044 0.0131613
0.6142918 0.0215636 0.0170772
0.6756258 0.0276848 0.0221594
0.0023830 0.0847620 0.0026907
0.0694341 0.0923301 0.0043193
0.1857843 0.0977586 0.0068299
0.3155593 0.1035204 0.0101539
0.4294773 0.1096202 0.0139911
0.5240639 0.1160507 0.0186218
0.6086961 0.1228322 0.0232690
0.6709630 0.1299717 0.0281853
0.0043946 0.2146749 0.0050296
0.0733860 0.2197516 0.0076689
0.1895756 0.2251841 0.0111387
0.3212099 0.2307958 0.0153187
0.4359396 0.2426448 0.0197485
0.5307503 0.2486574 0.0246502
0.6152412 0.2547939 0.0298384
0.6771623 0.2610475 0.0350285
0.0075003 0.3394820 0.0085928
0.0804951 0.3463408 0.0121021
0.1998885 0.3535568 0.0161074
0.3278899 0.3532763 0.0207190
0.4436421 0.3607037 0.0258537
0.5385676 0.3682407 0.0313066
0.6136144 0.3758803 0.0367429
0.6757467 0.3757192 0.0431815
0.0118100 0.4505574 0.0135249
0.0855834 0.4499816 0.0173827
0.2050287 0.4579914 0.0216760
0.3350967 0.4577076 0.0270106
0.4423833 0.4658689 0.0327187
0.5372825 0.4740908 0.0383897
0.6124818 0.4739117 0.0451458
0.6745962 0.4821912 0.0514333
0.0166226 0.5344408 0.0187400
0.0940342 0.5423599 0.0226178
0.2104811 0.5420209 0.0281690
0.3341520 0.5501504 0.0341287
0.4508118 0.5499452 0.0400045
0.5458118 0.5581445 0.0455988
0.6206750 0.5579659 0.0535981
0.6823053 0.5578430 0.0591767
0.0226430 0.6085573 0.0251067
0.1000682 0.6081598 0.0293390
0.2224293 0.6158794 0.0355320
0.3418774 0.6156636 0.0416742
0.4594726 0.6154892 0.0474408
0.5450394 0.6233070 0.0540286
0.6199298 0.6231586 0.0616751
0.6815270 0.6309499 0.0681992
0.0287647 0.6631098 0.0315438
0.1064853 0.6627882 0.0357764
0.2284216 0.6700381 0.0419832
0.3497801 0.6698343 0.0493595
0.4588072 0.6696768 0.0561401
0.5538992 0.6769432 0.0642103
0.6283547 0.6768284 0.0709159
0.6894235 0.6767184 0.0782749
0.0062181 0.0067061 0.1022728
0.0872175 0.0093672 0.1102026
0.2139888 0.0123751 0.1187259
0.3382077 0.0157058 0.1277448
0.4545952 0.0195026 0.1372946
0.5489691 0.0242746 0.1469155
0.6229352 0.0302248 0.1565213
0.6837995 0.0364489 0.1665084
0.0084126 0.1030389 0.1185656
0.0934616 0.1090414 0.1266598
0.2152739 0.1154682 0.1354746
0.3404984 0.1222524 0.1448700
0.4576819 0.1293944 0.1542471
0.5525935 0.1369035 0.1635267
0.6269981 0.1407891 0.1683159
0.6879478 0.1488632 0.1783001
0.0111877 0.2359812 0.1302268
0.0986910 0.2417040 0.1389200
0.2196329 0.2477123 0.1483344
0.3464855 0.2538703 0.1577370
0.4550223 0.2601466 0.1670327
0.5500188 0.2665321 0.1718924
0.6245580 0.2730083 0.1818860
0.6857890 0.2795895 0.1923448
0.0141064 0.3600508 0.1413601
0.1046360 0.3596448 0.1505779
0.2248405 0.3671730 0.1600464
0.3534642 0.3748484 0.1646929
0.4627334 0.3825962 0.1743203
0.5579056 0.3824928 0.1842565
0.6320456 0.3903267 0.1948139
0.6843535 0.3982575 0.2003337
0.0179105 0.4652365 0.1526200
0.1110719 0.4648308 0.1618657
0.2370434 0.4730563 0.1665034
0.3610236 0.4729083 0.1760390
0.4709903 0.4812111 0.1861955
0.5566850 0.4811322 0.1913427
0.6308888 0.4894732 0.2022146
0.6917357 0.4894049 0.2077160
0.0235451 0.5493907 0.1589797
0.1179853 0.5490285 0.1679491
0.2430684 0.5571946 0.1776470
0.3600963 0.5570534 0.1876971
0.4699717 0.5652966 0.1930153
0.5651641 0.5651872 0.2037766
0.6300240 0.5651205 0.2093105
0.6908570 0.5733432 0.2191211
0.0298909 0.6149936 0.1693778
0.1253681 0.6146780 0.1788559
0.2493539 0.6224681 0.1890595
0.3680972 0.6223586 0.1942235
0.4786637 0.6301583 0.2051886
0.5643606 0.6300843 0.2107359
0.6382405 0.6299988 0.2204098
0.6984249 0.6377910 0.2253361
0.0366375 0.6692461 0.1801751
0.1290750 0.6690040 0.1849810
0.2558229 0.6762557 0.1954571
0.3762825 0.6761312 0.2062832
0.4780594 0.6760517 0.2118368
0.5731169 0.6833054 0.2217088
0.6375782 0.6832513 0.2264759
0.6979070 0.6831964 0.2313168
0.0175117 0.0166406 0.2566327
0.1120597 0.0207028 0.2632157
0.2384349 0.0249848 0.2699987
0.3622451 0.0292277 0.2767771
0.4718990 0.0341756 0.2837045
0.5666020 0.0387141 0.2905445
0.6399593 0.0438325 0.2975052
0.6996937 0.0496125 0.3045773
0.0210239 0.1257611 0.2758417
0.1169360 0.1292530 0.2815215
0.2410298 0.1367306 0.2877578
0.3659511 0.1446008 0.2941588
0.4763327 0.1486634 0.3004664
0.5712475 0.1571908 0.3071009
0.6357078 0.1615932 0.3136239
0.6959783 0.1707332 0.3208131
0.0247460 0.2538251 0.2873228
0.1234668 0.2599411 0.2931807
0.2459747 0.2662629 0.2993651
0.3724542 0.2727216 0.3056979
0.4833551 0.2793005 0.3121504
0.5688971 0.2859931 0.3187117
0.6424105 0.2927882 0.3257213
0.7022374 0.2996846 0.3328244
0.0292169 0.3747784 0.2970959
0.1307310 0.3823470 0.3031026
0.2587337 0.3821932 0.3091858
0.3797959 0.3900132 0.3156477
0.4817126 0.3979178 0.3222277
0.5768090 0.3978397 0.3290261
0.6409800 0.4058230 0.3361667
0.7009306 0.4138799 0.3433872
0.0345417 0.4728387 0.3059520
0.1386017 0.4809709 0.3120951
0.2649645 0.4808128 0.3182915
0.3875862 0.4891405 0.3248599
0.4899992 0.4974948 0.3319100
0.5755979 0.4974181 0.3388268
0.6487415 0.5057802 0.3460652
0.6999636 0.5057438 0.3459976
0.0381382 0.5569938 0.3145283
0.1424934 0.5650558 0.3207892
0.2714719 0.5648998 0.3270805
0.3866214 0.5731024 0.3341231
0.4986084 0.5730096 0.3410308
0.5840790 0.5729578 0.3409311
0.6478862 0.5811662 0.3482032
0.7073175 0.5811015 0.3553102
0.0436035 0.6222840 0.3227635
0.1511862 0.6299490 0.3291342
0.2782809 0.6298060 0.3358910
0.3949547 0.6297280 0.3357376
0.4977860 0.6374991 0.3429084
0.5832835 0.6374279 0.3499408
0.6559643 0.6451479 0.3572933
0.7066348 0.6450927 0.3644987
0.0498364 0.6760873 0.3243130
0.1603884 0.6832089 0.3307207
0.2852761 0.6830826 0.3375053
0.4033647 0.6829897 0.3444267
0.5066134 0.6901741 0.3516887
0.5919383 0.6901089 0.3588074
0.6554116 0.6900530 0.3660157
0.7061255 0.6900017 0.3732999
0.0335452 0.0301381 0.3879150
0.1390454 0.0352161 0.3966135
0.2652929 0.0398875 0.3973694
0.3876073 0.0451596 0.4062210
0.4993458 0.0495532 0.4149191
0.5843393 0.0560576 0.4158437
0.6567182 0.0614495 0.4246539
0.7070673 0.0673221 0.4335411
0.0377197 0.1446237 0.4090406
0.1454709 0.1528351 0.4090669
0.2688867 0.1570938 0.4171613
0.3923057 0.1660035 0.4256364
0.4949851 0.1706091 0.4257632
0.5802861 0.1801544 0.4343611
0.6531260 0.1850665 0.4427525
0.7119877 0.1901015 0.4429286
0.0428603 0.2727826 0.4151691
0.1535212 0.2792188 0.4230849
0.2743901 0.2858529 0.4312727
0.3991883 0.2926324 0.4313501
0.5022388 0.2995082 0.4396892
0.5875284 0.3064891 0.4480914
0.6511263 0.3135946 0.4482671
0.7101783 0.3207707 0.4567285
0.0488264 0.3900729 0.4273744
0.1574594 0.3978182 0.4353919
0.2805794 0.4057471 0.4354088
0.4068320 0.4056377 0.4434571
0.5102342 0.4136707 0.4518508
0.5860171 0.4218058 0.4520144
0.6586045 0.4217355 0.4602141
0.7089787 0.4299034 0.4687291
0.0538149 0.4891895 0.4386527
0.1666919 0.4974091 0.4384901
0.2872782 0.4972676 0.4465043
0.4056497 0.5055925 0.4548730
0.5090953 0.5055276 0.4547375
0.5942477 0.5138847 0.4631976
0.6575774 0.5138177 0.4714446
0.7160261 0.5222070 0.4716203
0.0593013 0.5731544 0.4412177
0.1713061 0.5729232 0.4490744
0.2941623 0.5810577 0.4573924
0.4139255 0.5809763 0.4572198
0.5177103 0.5808886 0.4654004
0.5933546 0.5890079 0.4739036
0.6654491 0.5889615 0.4738036
0.7152678 0.5970475 0.4823509
0.0653656 0.6375923 0.4515209
0.1814397 0.6373805 0.4594280
0.3013990 0.6372787 0.4592070
0.4223684 0.6449660 0.4676184
0.5168972 0.6448892 0.4758403
0.6019383 0.6448406 0.4757282
0.6647173 0.6524959 0.4842671
0.7146740 0.6524631 0.4841915
0.0697097 0.6830131 0.4530547
0.1864996 0.6900822 0.4612388
0.3087496 0.6899672 0.4693456
0.4310560 0.6898968 0.4691722
0.5257116 0.6970007 0.4776590
0.6012552 0.6969399 0.4859262
0.6641646 0.6969050 0.4858384
0.7219903 0.7039337 0.4945078
0.0538302 0.0465763 0.4996690
0.1666152 0.0510762 0.5087805
0.2944330 0.0577583 0.5183423
0.4139108 0.0633054 0.5189690
0.5173860 0.0693434 0.5283647
0.6021563 0.0736665 0.5287854
0.6646934 0.0806209 0.5382144
0.7223754 0.0855701 0.5386562
0.0585987 0.1660503 0.5198281
0.1745259 0.1753153 0.5199443
0.2989163 0.1800851 0.5287076
0.4194258 0.1849767 0.5375193
0.5231815 0.1951624 0.5379161
0.5986561 0.2003885 0.5467816
0.6702597 0.2057360 0.5469474
0.7196746 0.2111809 0.5558116
0.0642543 0.2927103 0.5256613
0.1785963 0.2994727 0.5342569
0.3050037 0.3064007 0.5429949
0.4265677 0.3134711 0.5430862
0.5211128 0.3206313 0.5519122
0.6058988 0.3279086 0.5520644
0.6684099 0.3352275 0.5608969
0.7180589 0.3351960 0.5608222
0.0705833 0.4138419 0.5385770
0.1886371 0.4136280 0.5468953
0.3116928 0.4217026 0.5469373
0.4251693 0.4216022 0.5554513
0.5291942 0.4297668 0.5555789
0.6045163 0.4379656 0.5643878
0.6672064 0.4379245 0.5643011
0.7247331 0.4461667 0.5730861
0.0751106 0.5056943 0.5414625
0.1935977 0.5054783 0.5497859
0.3188251 0.5137777 0.5584924
0.4333606 0.5137004 0.5583321
0.5280666 0.5220475 0.5671056
0.6127217 0.5219941 0.5669946
0.6747924 0.5303501 0.5757672
0.7238960 0.5303138 0.5756931
0.0826507 0.5810364 0.5524833
0.1987897 0.5808638 0.5521408
0.3262221 0.5889218 0.5608381
0.4418079 0.5888215 0.5693036
0.5366546 0.5969110 0.5694405
0.6118426 0.5968401 0.5779301
0.6739687 0.6048976 0.5781023
0.7231508 0.6048372 0.5867006
0.0879961 0.6450375 0.5545500
0.2041943 0.6448575 0.5628704
0.3339035 0.6447332 0.5712671
0.4410007 0.6523858 0.5713793
0.5359467 0.6523088 0.5798360
0.6201970 0.6599043 0.5799837
0.6818447 0.6598427 0.5885599
0.7303449 0.6598098 0.5884861
0.0937270 0.6899329 0.5647309
0.2159739 0.6969635 0.5646610
0.3416730 0.6968549 0.5730625
0.4497837 0.6967958 0.5729154
0.5447487 0.7038118 0.5816213
0.6196235 0.7037506 0.5901766
0.6813068 0.7037159 0.5900909
0.7298552 0.7036858 0.5900172
0.0774057 0.0652665 0.5982640
0.1986819 0.0693237 0.5984229
0.3257723 0.0758872 0.6075260
0.4410517 0.0805843 0.6078832
0.5356914 0.0881022 0.6170044
0.6198037 0.0934648 0.6174030
0.6812610 0.0991153 0.6262273
0.7296286 0.1050832 0.6266571
0.0815620 0.1901035 0.6077338
0.2022093 0.1951470 0.6161303
0.3309765 0.2003531 0.6161721
0.4469711 0.2111495 0.6249401
0.5418814 0.2167062 0.6250751
0.6167504 0.2223599 0.6335729
0.6785180 0.2281429 0.6337408
0.7272116 0.2340377 0.6339200
0.0864621 0.3135569 0.6212617
0.2068725 0.3206405 0.6211866
0.3375144 0.3278474 0.6296012
0.4450283 0.3351637 0.6297095
0.5399267 0.3425517 0.6381401
0.6149702 0.3425103 0.6380469
0.6768698 0.3500178 0.6382115
0.7334391 0.3575803 0.6465946
0.0948342 0.4299403 0.6249889
0.2120520 0.4297557 0.6330308
0.3362376 0.4379258 0.6330819
0.4531176 0.4378244 0.6412006
0.5480958 0.4460760 0.6413317
0.6227088 0.4543733 0.6414853
0.6841640 0.4543055 0.6495928
0.7323725 0.4626434 0.6497672
0.1007842 0.5222135 0.6360378
0.2238804 0.5220509 0.6357385
0.3436589 0.5303783 0.6358004
0.4614293 0.5302749 0.6438940
0.5469649 0.5386336 0.6440355
0.6217377 0.5385599 0.6521065
0.6832597 0.5385180 0.6520259
0.7315575 0.5468494 0.6602770
0.1071845 0.5889185 0.6379901
0.2297247 0.5969130 0.6379484
0.3514523 0.5967942 0.6459876
0.4605095 0.6048240 0.6460930
0.5556747 0.6047423 0.6541211
0.6300103 0.6046969 0.6540297
0.6908383 0.6126781 0.6622463
0.7385427 0.6126429 0.6621779
0.1139637 0.6524634 0.6399289
0.2358324 0.6523034 0.6478597
0.3593569 0.6598597 0.6479195
0.4692702 0.6597723 0.6559062
0.5549617 0.6597252 0.6558042
0.6292464 0.6671970 0.6639893
0.6902170 0.6671598 0.6639099
0.7379792 0.6671274 0.6638417
0.1212094 0.6968372 0.6495572
0.2420515 0.7038038 0.6495372
0.3675443 0.7037022 0.6574624
0.4686608 0.7036488 0.6573380
0.5637435 0.7105963 0.6574631
0.6376512 0.7105361 0.6653935
0.6896867 0.7105066 0.6653256
0.7375052 0.7104549 0.6731968
0.1002702 0.0830383 0.6744877
0.2226514 0.0880903 0.6746747
0.3503142 0.0962382 0.6751944
0.4591324 0.1020344 0.6833519
0.5540284 0.1081555 0.6837079
0.6282536 0.1146014 0.6840847
0.6890946 0.1213733 0.6921773
0.7367696 0.1285065 0.6925696
0.1056854 0.2112231 0.6822155
0.2333737 0.2167146 0.6821689
0.3560973 0.2223374 0.6899635
0.4656006 0.2281020 0.6900657
0.5606433 0.2339823 0.6901893
0.6345286 0.2460935 0.6981900
0.6949779 0.2523074 0.6983429
0.7346360 0.2586249 0.6985167
0.1119309 0.3352650 0.6866138
0.2386572 0.3425686 0.6942537
0.3629975 0.3500290 0.6943108
0.4732246 0.3499662 0.6941826
0.5588064 0.3575193 0.7018877
0.6328806 0.3651772 0.7020272
0.6934667 0.3729135 0.7021769
0.7409302 0.3728552 0.7095775
0.1187255 0.4462447 0.6974469
0.2444741 0.4460980 0.6971943
0.3705384 0.4543473 0.6972517
0.4718967 0.4542568 0.7046697
0.5669535 0.4625726 0.7047888
0.6405727 0.4709255 0.7049283
0.6924061 0.4708630 0.7122897
0.7398820 0.4792472 0.7124475
0.1260527 0.5303811 0.6996870
0.2505404 0.5386500 0.6996712
0.3695914 0.5385339 0.7070143
0.4802618 0.5468578 0.7071113
0.5659338 0.5468051 0.7070177
0.6396208 0.5551038 0.7145475
0.6997678 0.5550619 0.7144748
0.7466469 0.5550254 0.7144123
0.1338190 0.6049133 0.7016864
0.2569512 0.6047571 0.7089300
0.3775795 0.6127173 0.7089947
0.4889557 0.6126500 0.7088704
0.5745727 0.6125745 0.7161443
0.6388545 0.6205252 0.7162893
0.6990666 0.6204853 0.7162169
0.7460208 0.6204254 0.7234109
0.1377409 0.6598539 0.7106847
0.2635457 0.6597320 0.7104586
0.3858360 0.6671896 0.7105222
0.4882470 0.6671087 0.7177516
0.5738667 0.6670619 0.7176600
0.6471111 0.6744648 0.7177930
0.6984627 0.6744097 0.7249632
0.7454687 0.6743776 0.7249020
0.1462719 0.7037120 0.7119720
0.2702711 0.7105999 0.7119744
0.3942725 0.7105051 0.7191418
0.4971628 0.7104527 0.7190301
0.5825661 0.7173120 0.7191529
0.6465546 0.7172571 0.7262924
0.7060964 0.7172235 0.7262216
0.7449967 0.7171988 0.7261709
0.1251482 0.1020586 0.7285488
0.2558120 0.1081518 0.7287378
0.3759762 0.1145854 0.7290140
0.4870412 0.1213491 0.7363317
0.5724226 0.1284773 0.7366616
0.6456195 0.1359676 0.7370005
0.7051647 0.1398319 0.7440231
0.7439539 0.1478889 0.7443844
0.1318917 0.2340989 0.7348919
0.2606458 0.2400309 0.7348793
0.3821700 0.2460867 0.7418633
0.4842370 0.2522852 0.7419649
0.5791796 0.2585828 0.7420757
0.6432211 0.2649547 0.7490113
0.7029692 0.2714501 0.7491472
0.7494556 0.2780519 0.7492923
0.1395290 0.3576966 0.7386359
0.2665087 0.3575501 0.7452852
0.3894828 0.3651703 0.7453460
0.4920020 0.3728860 0.7454447
0.5774646 0.3806575 0.7523018
0.6505750 0.3806135 0.7522265
0.7015688 0.3884915 0.7523698
0.7481998 0.3964071 0.7591296
0.1478001 0.4627374 0.7481194
0.2727928 0.4626091 0.7479215
0.3882151 0.4709257 0.7479919
0.5003023 0.4708292 0.7545772
0.5856317 0.4791972 0.7546929
0.6494355 0.4791556 0.7546273
0.7086397 0.4875240 0.7613376
0.7473283 0.4874934 0.7612912
0.1519216 0.5469640 0.7501320
0.2794500 0.5468356 0.7499351
0.3962721 0.5550987 0.7566662
0.4992689 0.5550344 0.7565643
0.5846232 0.5633280 0.7566789
0.6573058 0.5632548 0.7631477
0.7078621 0.5632190 0.7630924
0.7538890 0.5714982 0.7632315
0.1611056 0.6127447 0.7517175
0.2863857 0.6126024 0.7581651
0.4045831 0.6205134 0.7582322
0.5079819 0.6204523 0.7581308
0.5931681 0.6283076 0.7647573
0.6565570 0.6282685 0.7646934
0.7071726 0.6282346 0.7646385
0.7532691 0.6360665 0.7647759
0.1657072 0.6671899 0.7597081
0.2934230 0.6745250 0.7597196
0.4130557 0.6744522 0.7595913
0.5072726 0.6743777 0.7659897
0.5925705 0.6743315 0.7659085
0.6559032 0.6816582 0.7660357
0.7145929 0.6816214 0.7659719
0.7528119 0.6815720 0.7722971
0.1756871 0.7105203 0.7608532
0.3007371 0.7173271 0.7608736
0.4124738 0.7172439 0.7672219
0.5161964 0.7171925 0.7671233
0.6011633 0.7239564 0.7672322
0.6640776 0.7239239 0.7671689
0.7140937 0.7238740 0.7734631
0.7595893 0.7238449 0.7734092
