Plugins/FilmEmulator/Content/LUTs/FE_Kodak_Polymax_Grade_4_64.cube
TITLE "FE_Kodak_Polymax_Grade_4_33"
LUT_3D_SIZE 8
0.0021919 0.0021919 0.0021919
0.0021919 0.0021919 0.0021919
0.0021919 0.0021919 0.0021919
0.0021919 0.0021919 0.0021919
0.0022103 0.0022103 0.0022103
0.0022286 0.0022286 0.0022286
0.0022346 0.0022346 0.0022346
0.0022346 0.0022346 0.0022346
0.0022346 0.0022346 0.0022346
0.0022369 0.0022369 0.0022369
0.0022561 0.0022561 0.0022561
0.0022847 0.0022847 0.0022847
0.0023341 0.0023341 0.0023341
0.0024052 0.0024052 0.0024052
0.0025259 0.0025259 0.0025259
0.0026943 0.0026943 0.0026943
0.0027568 0.0027568 0.0027568
0.0030163 0.0030163 0.0030163
0.0033190 0.0033190 0.0033190
0.0036986 0.0036986 0.0036986
0.0041364 0.0041364 0.0041364
0.0046238 0.0046238 0.0046238
0.0052405 0.0052405 0.0052405
0.0059777 0.0059777 0.0059777
0.0061629 0.0061629 0.0061629
0.0072341 0.0072341 0.0072341
0.0086654 0.0086654 0.0086654
0.0103810 0.0103810 0.0103810
0.0126698 0.0126698 0.0126698
0.0152647 0.0152647 0.0152647
0.0190528 0.0190528 0.0190528
0.0232617 0.0232617 0.0232617
0.0239532 0.0239532 0.0239532
0.0293910 0.0293910 0.0293910
0.0350869 0.0350869 0.0350869
0.0431301 0.0431301 0.0431301
0.0514685 0.0514685 0.0514685
0.0614840 0.0614840 0.0614840
0.0712391 0.0712391 0.0712391
0.0849006 0.0849006 0.0849006
0.0873986 0.0873986 0.0873986
0.1037896 0.1037896 0.1037896
0.1194045 0.1194045 0.1194045
0.1369877 0.1369877 0.1369877
0.1566503 0.1566503 0.1566503
0.1785714 0.1785714 0.1785714
0.1978300 0.1978300 0.1978300
0.2240480 0.2240480 0.2240480
0.2296330 0.2296330 0.2296330
0.2590033 0.2590033 0.2590033
0.2841898 0.2841898 0.2841898
0.3112049 0.3112049 0.3112049
0.3396085 0.3396085 0.3396085
0.3771563 0.3771563 0.3771563
0.4086709 0.4086709 0.4086709
0.4409545 0.4409545 0.4409545
0.4409545 0.4409545 0.4409545
0.4742972 0.4742972 0.4742972
0.5078707 0.5078707 0.5078707
0.5415114 0.5415114 0.5415114
0.5666556 0.5666556 0.5666556
0.5996342 0.5996342 0.5996342
0.6317955 0.6317955 0.6317955
0.6552185 0.6552185 0.6552185
0.0137238 0.0137238 0.0137238
0.0165570 0.0165570 0.0165570
0.0207237 0.0207237 0.0207237
0.0253968 0.0253968 0.0253968
0.0302738 0.0302738 0.0302738
0.0372119 0.0372119 0.0372119
0.0444242 0.0444242 0.0444242
0.0529990 0.0529990 0.0529990
0.0545938 0.0545938 0.0545938
0.0652266 0.0652266 0.0652266
0.0777913 0.0777913 0.0777913
0.0899625 0.0899625 0.0899625
0.1067608 0.1067608 0.1067608
0.1227615 0.1227615 0.1227615
0.1407463 0.1407463 0.1407463
0.1608482 0.1608482 0.1608482
0.1651366 0.1651366 0.1651366
0.1880115 0.1880115 0.1880115
0.2080304 0.2080304 0.2080304
0.2353152 0.2353152 0.2353152
0.2590033 0.2590033 0.2590033
0.2907830 0.2907830 0.2907830
0.3181835 0.3181835 0.3181835
0.3469041 0.3469041 0.3469041
0.3542717 0.3542717 0.3542717
0.3849488 0.3849488 0.3849488
0.4166788 0.4166788 0.4166788
0.4492514 0.4492514 0.4492514
0.4826800 0.4826800 0.4826800
0.5162641 0.5162641 0.5162641
0.5499222 0.5499222 0.5499222
0.5749680 0.5749680 0.5749680
0.5832383 0.5832383 0.5832383
0.6158195 0.6158195 0.6158195
0.6396791 0.6396791 0.6396791
0.6628683 0.6628683 0.6628683
0.6925949 0.6925949 0.6925949
0.7138363 0.7138363 0.7138363
0.7341740 0.7341740 0.7341740
0.7598130 0.7598130 0.7598130
0.7598130 0.7598130 0.7598130
0.7778635 0.7778635 0.7778635
0.8003845 0.8003845 0.8003845
0.8161201 0.8161201 0.8161201
0.8311034 0.8311034 0.8311034
0.8451572 0.8451572 0.8451572
0.8539854 0.8539854 0.8539854
0.8664415 0.8664415 0.8664415
0.8703268 0.8703268 0.8703268
0.8814096 0.8814096 0.8814096
0.8916630 0.8916630 0.8916630
0.8980588 0.8980588 0.8980588
0.9067304 0.9067304 0.9067304
0.9145171 0.9145171 0.9145171
0.9193762 0.9193762 0.9193762
0.9261931 0.9261931 0.9261931
0.9283007 0.9283007 0.9283007
0.9321816 0.9321816 0.9321816
0.9376389 0.9376389 0.9376389
0.9410467 0.9410467 0.9410467
0.9458322 0.9458322 0.9458322
0.9486316 0.9486316 0.9486316
0.9512936 0.9512936 0.9512936
0.9550427 0.9550427 0.9550427
0.4994718 0.4994718 0.4994718
0.5246493 0.5246493 0.5246493
0.5583054 0.5583054 0.5583054
0.5914613 0.5914613 0.5914613
0.6158195 0.6158195 0.6158195
0.6474882 0.6474882 0.6474882
0.6704338 0.6704338 0.6704338
0.6925949 0.6925949 0.6925949
0.6997728 0.6997728 0.6997728
0.7274982 0.7274982 0.7274982
0.7472081 0.7472081 0.7472081
0.7659426 0.7659426 0.7659426
0.7836593 0.7836593 0.7836593
0.8003845 0.8003845 0.8003845
0.8161201 0.8161201 0.8161201
0.8311034 0.8311034 0.8311034
0.8358973 0.8358973 0.8358973
0.8496248 0.8496248 0.8496248
0.8623926 0.8623926 0.8623926
0.8741157 0.8741157 0.8741157
0.8814096 0.8814096 0.8814096
0.8916630 0.8916630 0.8916630
0.9011292 0.9011292 0.9011292
0.9093944 0.9093944 0.9093944
0.9093944 0.9093944 0.9093944
0.9169790 0.9169790 0.9169790
0.9217098 0.9217098 0.9217098
0.9283007 0.9283007 0.9283007
0.9340483 0.9340483 0.9340483
0.9376389 0.9376389 0.9376389
0.9426844 0.9426844 0.9426844
0.9458322 0.9458322 0.9458322
0.9472495 0.9472495 0.9472495
0.9499794 0.9499794 0.9499794
0.9525752 0.9525752 0.9525752
0.9562300 0.9562300 0.9562300
0.9585156 0.9585156 0.9585156
0.9604632 0.9604632 0.9604632
0.9631585 0.9631585 0.9631585
0.9648561 0.9648561 0.9648561
0.9648561 0.9648561 0.9648561
0.9672620 0.9672620 0.9672620
0.9686007 0.9686007 0.9686007
0.9698014 0.9698014 0.9698014
0.9709576 0.9709576 0.9709576
0.9720708 0.9720708 0.9720708
0.9731426 0.9731426 0.9731426
0.9741020 0.9741020 0.9741020
0.9745337 0.9745337 0.9745337
0.9753761 0.9753761 0.9753761
0.9761913 0.9761913 0.9761913
0.9769802 0.9769802 0.9769802
0.9777435 0.9777435 0.9777435
0.9783289 0.9783289 0.9783289
0.9788694 0.9788694 0.9788694
0.9793966 0.9793966 0.9793966
0.9793966 0.9793966 0.9793966
0.9799110 0.9799110 0.9799110
0.9804127 0.9804127 0.9804127
0.9808472 0.9808472 0.9808472
0.9812453 0.9812453 0.9812453
0.9816353 0.9816353 0.9816353
0.9818273 0.9818273 0.9818273
0.9822054 0.9822054 0.9822054
0.9358671 0.9358671 0.9358671
0.9393653 0.9393653 0.9393653
0.9442791 0.9442791 0.9442791
0.9472495 0.9472495 0.9472495
0.9499794 0.9499794 0.9499794
0.9538246 0.9538246 0.9538246
0.9562300 0.9562300 0.9562300
0.9585156 0.9585156 0.9585156
0.9595236 0.9595236 0.9595236
0.9613820 0.9613820 0.9613820
0.9640169 0.9640169 0.9640169
0.9656764 0.9656764 0.9656764
0.9672620 0.9672620 0.9672620
0.9686007 0.9686007 0.9686007
0.9698014 0.9698014 0.9698014
0.9715195 0.9715195 0.9715195
0.9715195 0.9715195 0.9715195
0.9726118 0.9726118 0.9726118
0.9736633 0.9736633 0.9736633
0.9745337 0.9745337 0.9745337
0.9753761 0.9753761 0.9753761
0.9761913 0.9761913 0.9761913
0.9769802 0.9769802 0.9769802
0.9777435 0.9777435 0.9777435
0.9780537 0.9780537 0.9780537
0.9786009 0.9786009 0.9786009
0.9791346 0.9791346 0.9791346
0.9796554 0.9796554 0.9796554
0.9801634 0.9801634 0.9801634
0.9804127 0.9804127 0.9804127
0.9808472 0.9808472 0.9808472
0.9812453 0.9812453 0.9812453
0.9814413 0.9814413 0.9814413
0.9816353 0.9816353 0.9816353
0.9820173 0.9820173 0.9820173
0.9823915 0.9823915 0.9823915
0.9827148 0.9827148 0.9827148
0.9829895 0.9829895 0.9829895
0.9831252 0.9831252 0.9831252
0.9833935 0.9833935 0.9833935
0.9833935 0.9833935 0.9833935
0.9836577 0.9836577 0.9836577
0.9839177 0.9839177 0.9839177
0.9840264 0.9840264 0.9840264
0.9842223 0.9842223 0.9842223
0.9844159 0.9844159 0.9844159
0.9845117 0.9845117 0.9845117
0.9847018 0.9847018 0.9847018
0.9847018 0.9847018 0.9847018
0.9848895 0.9848895 0.9848895
0.9850483 0.9850483 0.9850483
0.9851205 0.9851205 0.9851205
0.9852637 0.9852637 0.9852637
0.9853348 0.9853348 0.9853348
0.9854760 0.9854760 0.9854760
0.9855462 0.9855462 0.9855462
0.9856159 0.9856159 0.9856159
0.9856853 0.9856853 0.9856853
0.9857776 0.9857776 0.9857776
0.9858235 0.9858235 0.9858235
0.9859149 0.9859149 0.9859149
0.9859604 0.9859604 0.9859604
0.9860508 0.9860508 0.9860508
0.9860959 0.9860959 0.9860959
0.9801634 0.9801634 0.9801634
0.9806451 0.9806451 0.9806451
0.9810473 0.9810473 0.9810473
0.9814413 0.9814413 0.9814413
0.9818273 0.9818273 0.9818273
0.9822054 0.9822054 0.9822054
0.9823915 0.9823915 0.9823915
0.9827148 0.9827148 0.9827148
0.9828527 0.9828527 0.9828527
0.9829895 0.9829895 0.9829895
0.9832599 0.9832599 0.9832599
0.9835261 0.9835261 0.9835261
0.9836577 0.9836577 0.9836577
0.9839177 0.9839177 0.9839177
0.9841247 0.9841247 0.9841247
0.9842223 0.9842223 0.9842223
0.9843194 0.9843194 0.9843194
0.9845117 0.9845117 0.9845117
0.9846070 0.9846070 0.9846070
0.9847959 0.9847959 0.9847959
0.9848895 0.9848895 0.9848895
0.9850483 0.9850483 0.9850483
0.9851922 0.9851922 0.9851922
0.9852637 0.9852637 0.9852637
0.9853348 0.9853348 0.9853348
0.9854056 0.9854056 0.9854056
0.9855462 0.9855462 0.9855462
0.9856159 0.9856159 0.9856159
0.9857315 0.9857315 0.9857315
0.9857776 0.9857776 0.9857776
0.9858693 0.9858693 0.9858693
0.9859149 0.9859149 0.9859149
0.9859149 0.9859149 0.9859149
0.9860057 0.9860057 0.9860057
0.9860508 0.9860508 0.9860508
0.9861408 0.9861408 0.9861408
0.9861789 0.9861789 0.9861789
0.9862481 0.9862481 0.9862481
0.9862826 0.9862826 0.9862826
0.9863514 0.9863514 0.9863514
0.9863514 0.9863514 0.9863514
0.9863856 0.9863856 0.9863856
0.9864539 0.9864539 0.9864539
0.9864879 0.9864879 0.9864879
0.9865195 0.9865195 0.9865195
0.9865736 0.9865736 0.9865736
0.9866005 0.9866005 0.9866005
0.9866275 0.9866275 0.9866275
0.9866543 0.9866543 0.9866543
0.9866810 0.9866810 0.9866810
0.9867078 0.9867078 0.9867078
0.9867611 0.9867611 0.9867611
0.9867877 0.9867877 0.9867877
0.9868069 0.9868069 0.9868069
0.9868453 0.9868453 0.9868453
0.9868644 0.9868644 0.9868644
0.9868644 0.9868644 0.9868644
0.9868835 0.9868835 0.9868835
0.9869217 0.9869217 0.9869217
0.9869407 0.9869407 0.9869407
0.9869597 0.9869597 0.9869597
0.9869787 0.9869787 0.9869787
0.9870043 0.9870043 0.9870043
0.9870160 0.9870160 0.9870160
0.9857315 0.9857315 0.9857315
0.9858235 0.9858235 0.9858235
0.9858693 0.9858693 0.9858693
0.9859604 0.9859604 0.9859604
0.9860057 0.9860057 0.9860057
0.9860959 0.9860959 0.9860959
0.9861408 0.9861408 0.9861408
0.9862136 0.9862136 0.9862136
0.9862136 0.9862136 0.9862136
0.9862481 0.9862481 0.9862481
0.9863170 0.9863170 0.9863170
0.9863514 0.9863514 0.9863514
0.9864198 0.9864198 0.9864198
0.9864539 0.9864539 0.9864539
0.9864879 0.9864879 0.9864879
0.9865466 0.9865466 0.9865466
0.9865466 0.9865466 0.9865466
0.9865736 0.9865736 0.9865736
0.9866275 0.9866275 0.9866275
0.9866543 0.9866543 0.9866543
0.9866810 0.9866810 0.9866810
0.9867345 0.9867345 0.9867345
0.9867611 0.9867611 0.9867611
0.9867877 0.9867877 0.9867877
0.9868069 0.9868069 0.9868069
0.9868261 0.9868261 0.9868261
0.9868453 0.9868453 0.9868453
0.9868644 0.9868644 0.9868644
0.9869026 0.9869026 0.9869026
0.9869217 0.9869217 0.9869217
0.9869407 0.9869407 0.9869407
0.9869597 0.9869597 0.9869597
0.9869787 0.9869787 0.9869787
0.9869927 0.9869927 0.9869927
0.9870043 0.9870043 0.9870043
0.9870160 0.9870160 0.9870160
0.9870392 0.9870392 0.9870392
0.9870508 0.9870508 0.9870508
0.9870623 0.9870623 0.9870623
0.9870739 0.9870739 0.9870739
0.9870739 0.9870739 0.9870739
0.9870970 0.9870970 0.9870970
0.9871071 0.9871071 0.9871071
0.9871143 0.9871143 0.9871143
0.9871214 0.9871214 0.9871214
0.9871286 0.9871286 0.9871286
0.9871357 0.9871357 0.9871357
0.9871500 0.9871500 0.9871500
0.9871500 0.9871500 0.9871500
0.9871572 0.9871572 0.9871572
0.9871643 0.9871643 0.9871643
0.9871714 0.9871714 0.9871714
0.9871786 0.9871786 0.9871786
0.9871838 0.9871838 0.9871838
0.9871944 0.9871944 0.9871944
0.9871997 0.9871997 0.9871997
0.9871997 0.9871997 0.9871997
0.9872050 0.9872050 0.9872050
0.9872102 0.9872102 0.9872102
0.9872155 0.9872155 0.9872155
0.9872208 0.9872208 0.9872208
0.9872260 0.9872260 0.9872260
0.9872313 0.9872313 0.9872313
0.9872369 0.9872369 0.9872369
0.9869026 0.9869026 0.9869026
0.9869217 0.9869217 0.9869217
0.9869597 0.9869597 0.9869597
0.9869787 0.9869787 0.9869787
0.9869927 0.9869927 0.9869927
0.9870043 0.9870043 0.9870043
0.9870276 0.9870276 0.9870276
0.9870392 0.9870392 0.9870392
0.9870392 0.9870392 0.9870392
0.9870508 0.9870508 0.9870508
0.9870739 0.9870739 0.9870739
0.9870855 0.9870855 0.9870855
0.9870970 0.9870970 0.9870970
0.9871071 0.9871071 0.9871071
0.9871143 0.9871143 0.9871143
0.9871214 0.9871214 0.9871214
0.9871286 0.9871286 0.9871286
0.9871357 0.9871357 0.9871357
0.9871429 0.9871429 0.9871429
0.9871500 0.9871500 0.9871500
0.9871572 0.9871572 0.9871572
0.9871643 0.9871643 0.9871643
0.9871714 0.9871714 0.9871714
0.9871838 0.9871838 0.9871838
0.9871838 0.9871838 0.9871838
0.9871891 0.9871891 0.9871891
0.9871944 0.9871944 0.9871944
0.9871997 0.9871997 0.9871997
0.9872050 0.9872050 0.9872050
0.9872102 0.9872102 0.9872102
0.9872155 0.9872155 0.9872155
0.9872208 0.9872208 0.9872208
0.9872260 0.9872260 0.9872260
0.9872313 0.9872313 0.9872313
0.9872369 0.9872369 0.9872369
0.9872426 0.9872426 0.9872426
0.9872484 0.9872484 0.9872484
0.9872541 0.9872541 0.9872541
0.9872599 0.9872599 0.9872599
0.9872656 0.9872656 0.9872656
0.9872656 0.9872656 0.9872656
0.9872713 0.9872713 0.9872713
0.9872770 0.9872770 0.9872770
0.9872828 0.9872828 0.9872828
0.9872885 0.9872885 0.9872885
0.9872952 0.9872952 0.9872952
0.9873037 0.9873037 0.9873037
0.9873122 0.9873122 0.9873122
0.9873122 0.9873122 0.9873122
0.9873207 0.9873207 0.9873207
0.9873292 0.9873292 0.9873292
0.9873378 0.9873378 0.9873378
0.9873462 0.9873462 0.9873462
0.9873548 0.9873548 0.9873548
0.9873632 0.9873632 0.9873632
0.9873717 0.9873717 0.9873717
0.9873717 0.9873717 0.9873717
0.9873802 0.9873802 0.9873802
0.9873975 0.9873975 0.9873975
0.9874148 0.9874148 0.9874148
0.9874320 0.9874320 0.9874320
0.9874492 0.9874492 0.9874492
0.9874665 0.9874665 0.9874665
0.9874836 0.9874836 0.9874836
0.9872102 0.9872102 0.9872102
0.9872155 0.9872155 0.9872155
0.9872208 0.9872208 0.9872208
0.9872260 0.9872260 0.9872260
0.9872313 0.9872313 0.9872313
0.9872369 0.9872369 0.9872369
0.9872426 0.9872426 0.9872426
0.9872484 0.9872484 0.9872484
0.9872484 0.9872484 0.9872484
0.9872541 0.9872541 0.9872541
0.9872599 0.9872599 0.9872599
0.9872656 0.9872656 0.9872656
0.9872713 0.9872713 0.9872713
0.9872770 0.9872770 0.9872770
0.9872828 0.9872828 0.9872828
0.9872885 0.9872885 0.9872885
0.9872952 0.9872952 0.9872952
0.9873037 0.9873037 0.9873037
0.9873122 0.9873122 0.9873122
0.9873207 0.9873207 0.9873207
0.9873292 0.9873292 0.9873292
0.9873378 0.9873378 0.9873378
0.9873462 0.9873462 0.9873462
0.9873462 0.9873462 0.9873462
0.9873548 0.9873548 0.9873548
0.9873632 0.9873632 0.9873632
0.9873717 0.9873717 0.9873717
0.9873802 0.9873802 0.9873802
0.9873975 0.9873975 0.9873975
0.9873975 0.9873975 0.9873975
0.9874148 0.9874148 0.9874148
0.9874320 0.9874320 0.9874320
0.9874492 0.9874492 0.9874492
0.9874492 0.9874492 0.9874492
0.9874665 0.9874665 0.9874665
0.9874836 0.9874836 0.9874836
0.9875008 0.9875008 0.9875008
0.9875180 0.9875180 0.9875180
0.9875351 0.9875351 0.9875351
0.9875522 0.9875522 0.9875522
0.9875522 0.9875522 0.9875522
0.9875787 0.9875787 0.9875787
0.9876099 0.9876099 0.9876099
0.9876411 0.9876411 0.9876411
0.9876722 0.9876722 0.9876722
0.9877033 0.9877033 0.9877033
0.9877342 0.9877342 0.9877342
0.9877342 0.9877342 0.9877342
0.9877651 0.9877651 0.9877651
0.9877651 0.9877651 0.9877651
0.9877958 0.9877958 0.9877958
0.9878265 0.9878265 0.9878265
0.9878572 0.9878572 0.9878572
0.9878889 0.9878889 0.9878889
0.9879230 0.9879230 0.9879230
0.9879570 0.9879570 0.9879570
0.9879570 0.9879570 0.9879570
0.9879909 0.9879909 0.9879909
0.9879909 0.9879909 0.9879909
0.9880247 0.9880247 0.9880247
0.9880584 0.9880584 0.9880584
0.9880921 0.9880921 0.9880921
0.9881256 0.9881256 0.9881256
0.9881590 0.9881590 0.9881590
