Plugins/FilmEmulator/Content/LUTs/FE_Kodak_5222_Dev9_64.cube
TITLE "FE_Kodak_5222_Dev9_33"
LUT_3D_SIZE 4
0.0010388 0.0010388 0.0010388
0.0222464 0.0222464 0.0222464
0.0632351 0.0632351 0.0632351
0.1133373 0.1133373 0.1133373
0.0632351 0.0632351 0.0632351
0.1133373 0.1133373 0.1133373
0.1646964 0.1646964 0.1646964
0.2167860 0.2167860 0.2167860
0.1646964 0.1646964 0.1646964
0.2167860 0.2167860 0.2167860
0.2656280 0.2656280 0.2656280
0.3103050 0.3103050 0.3103050
0.2656280 0.2656280 0.2656280
0.3103050 0.3103050 0.3103050
0.3528415 0.3528415 0.3528415
0.3923285 0.3923285 0.3923285
0.1775776 0.1775776 0.1775776
0.2284234 0.2284234 0.2284234
0.2787325 0.2787325 0.2787325
0.3242242 0.3242242 0.3242242
0.2787325 0.2787325 0.2787325
0.3242242 0.3242242 0.3242242
0.3674473 0.3674473 0.3674473
0.4022344 0.4022344 0.4022344
0.3674473 0.3674473 0.3674473
0.4022344 0.4022344 0.4022344
0.4374877 0.4374877 0.4374877
0.4678074 0.4678074 0.4678074
0.4374877 0.4374877 0.4374877
0.4678074 0.4678074 0.4678074
0.4982072 0.4982072 0.4982072
0.5230187 0.5230187 0.5230187
0.3773235 0.3773235 0.3773235
0.4122207 0.4122207 0.4122207
0.4476337 0.4476337 0.4476337
0.4779379 0.4779379 0.4779379
0.4476337 0.4476337 0.4476337
0.4779379 0.4779379 0.4779379
0.5031726 0.5031726 0.5031726
0.5329185 0.5329185 0.5329185
0.5031726 0.5031726 0.5031726
0.5329185 0.5329185 0.5329185
0.5524656 0.5524656 0.5524656
0.5760478 0.5760478 0.5760478
0.5524656 0.5524656 0.5524656
0.5760478 0.5760478 0.5760478
0.5946727 0.5946727 0.5946727
0.6122682 0.6122682 0.6122682
0.5131007 0.5131007 0.5131007
0.5378592 0.5378592 0.5378592
0.5619332 0.5619332 0.5619332
0.5807266 0.5807266 0.5807266
0.5619332 0.5619332 0.5619332
0.5807266 0.5807266 0.5807266
0.5991489 0.5991489 0.5991489
0.6166065 0.6166065 0.6166065
0.5991489 0.5991489 0.5991489
0.6166065 0.6166065 0.6166065
0.6337684 0.6337684 0.6337684
0.6462605 0.6462605 0.6462605
0.6337684 0.6337684 0.6337684
0.6462605 0.6462605 0.6462605
0.6583558 0.6583558 0.6583558
0.6702486 0.6702486 0.6702486
