Plugins/FilmEmulator/Content/LUTs/FE_Kodak_Gold_200_64.cube
TITLE "FE_Kodak_Gold_200_33"
LUT_3D_SIZE 4
0.0019029 0.0024473 0.0027910
0.2275750 0.0062998 0.0044558
0.5021813 0.0153676 0.0119289
0.6756258 0.0276848 0.0221594
0.0052738 0.2564813 0.0060294
0.2384480 0.2748790 0.0140337
0.5015308 0.2878380 0.0248000
0.6766287 0.3013266 0.0375510
0.0149901 0.5092549 0.0169988
0.2499270 0.5167301 0.0280790
0.5176377 0.5246642 0.0411996
0.6825682 0.5327114 0.0570628
0.0287647 0.6631098 0.0315438
0.2699507 0.6699585 0.0447976
0.5253182 0.6770073 0.0600705
0.6894235 0.6767184 0.0782749
0.0230548 0.0207073 0.2996667
0.2882297 0.0310985 0.3151168
0.5473807 0.0424757 0.3308576
0.6994687 0.0543963 0.3466663
0.0325238 0.3002620 0.3340759
0.3047482 0.3140506 0.3479214
0.5493509 0.3284436 0.3625393
0.7017522 0.3431672 0.3775447
0.0437733 0.5400707 0.3553118
0.3183040 0.5480134 0.3694066
0.5560106 0.5561825 0.3841811
0.7075310 0.5643772 0.3992940
0.0551491 0.6832673 0.3742078
0.3332881 0.6829056 0.3884295
0.5637866 0.6900003 0.4035086
0.7141112 0.6970462 0.4195704
0.0678956 0.0577691 0.5712982
0.3511606 0.0714517 0.5811695
0.5830876 0.0855412 0.5910774
0.7220047 0.0991350 0.6007624
0.0808122 0.3505971 0.5970536
0.3627182 0.3656249 0.6055140
0.5867849 0.3732498 0.6139795
0.7253612 0.3888993 0.6227241
0.0973926 0.5642393 0.6121511
0.3779666 0.5722396 0.6202989
0.6028840 0.5803514 0.6286489
0.7311251 0.5884303 0.6370280
0.1101329 0.6969214 0.6247904
0.3942755 0.7037548 0.6328578
0.6105298 0.7036211 0.6408626
0.7374843 0.7105210 0.6491242
0.1251482 0.1020586 0.7285488
0.4120354 0.1179228 0.7362009
0.6187519 0.1321746 0.7368214
0.7439539 0.1478889 0.7443844
0.1437398 0.3889107 0.7462984
0.4255807 0.4046975 0.7463254
0.6233270 0.4126665 0.7530550
0.7478833 0.4289494 0.7599166
0.1564043 0.5884576 0.7511277
0.4419197 0.5963520 0.7576065
0.6391045 0.6043086 0.7641337
0.7535015 0.6122766 0.7641978
0.1756871 0.7105203 0.7608532
0.4497041 0.7172250 0.7671859
0.6465102 0.7239331 0.7671871
0.7595893 0.7238449 0.7734092
