Plugins/FilmEmulator/Content/LUTs/FE_Kodak_TriX_400_Dev11_64.cube
TITLE "FE_Kodak_TriX_400_Dev11_33"
LUT_3D_SIZE 64
0.0004614 0.0004614 0.0004614
0.0004917 0.0004917 0.0004917
0.0006377 0.0006377 0.0006377
0.0008504 0.0008504 0.0008504
0.0011926 0.0011926 0.0011926
0.0015923 0.0015923 0.0015923
0.0021040 0.0021040 0.0021040
0.0027046 0.0027046 0.0027046
0.0035296 0.0035296 0.0035296
0.0043839 0.0043839 0.0043839
0.0053098 0.0053098 0.0053098
0.0064127 0.0064127 0.0064127
0.0075001 0.0075001 0.0075001
0.0087641 0.0087641 0.0087641
0.0099251 0.0099251 0.0099251
0.0115857 0.0115857 0.0115857
0.0127088 0.0127088 0.0127088
0.0143749 0.0143749 0.0143749
0.0162364 0.0162364 0.0162364
0.0177862 0.0177862 0.0177862
0.0194810 0.0194810 0.0194810
0.0213174 0.0213174 0.0213174
0.0233205 0.0233205 0.0233205
0.0247568 0.0247568 0.0247568
0.0270725 0.0270725 0.0270725
0.0287223 0.0287223 0.0287223
0.0313814 0.0313814 0.0313814
0.0332848 0.0332848 0.0332848
0.0352995 0.0352995 0.0352995
0.0374281 0.0374281 0.0374281
0.0396764 0.0396764 0.0396764
0.0420537 0.0420537 0.0420537
0.0445669 0.0445669 0.0445669
0.0472229 0.0472229 0.0472229
0.0500273 0.0500273 0.0500273
0.0529855 0.0529855 0.0529855
0.0545259 0.0545259 0.0545259
0.0577340 0.0577340 0.0577340
0.0611186 0.0611186 0.0611186
0.0628797 0.0628797 0.0628797
0.0665421 0.0665421 0.0665421
0.0684400 0.0684400 0.0684400
0.0723871 0.0723871 0.0723871
0.0744384 0.0744384 0.0744384
0.0787023 0.0787023 0.0787023
0.0809169 0.0809169 0.0809169
0.0831884 0.0831884 0.0831884
0.0879058 0.0879058 0.0879058
0.0903365 0.0903365 0.0903365
0.0928276 0.0928276 0.0928276
0.0953802 0.0953802 0.0953802
0.1006743 0.1006743 0.1006743
0.1034180 0.1034180 0.1034180
0.1062277 0.1062277 0.1062277
0.1091044 0.1091044 0.1091044
0.1120493 0.1120493 0.1120493
0.1150634 0.1150634 0.1150634
0.1181213 0.1181213 0.1181213
0.1212356 0.1212356 0.1212356
0.1244205 0.1244205 0.1244205
0.1276769 0.1276769 0.1276769
0.1310058 0.1310058 0.1310058
0.1344082 0.1344082 0.1344082
0.1378848 0.1378848 0.1378848
0.0006377 0.0006377 0.0006377
0.0008504 0.0008504 0.0008504
0.0011926 0.0011926 0.0011926
0.0015923 0.0015923 0.0015923
0.0021040 0.0021040 0.0021040
0.0027818 0.0027818 0.0027818
0.0035296 0.0035296 0.0035296
0.0043839 0.0043839 0.0043839
0.0053098 0.0053098 0.0053098
0.0064127 0.0064127 0.0064127
0.0075001 0.0075001 0.0075001
0.0087641 0.0087641 0.0087641
0.0099251 0.0099251 0.0099251
0.0115857 0.0115857 0.0115857
0.0127088 0.0127088 0.0127088
0.0143749 0.0143749 0.0143749
0.0162364 0.0162364 0.0162364
0.0177862 0.0177862 0.0177862
0.0194810 0.0194810 0.0194810
0.0213174 0.0213174 0.0213174
0.0233205 0.0233205 0.0233205
0.0247568 0.0247568 0.0247568
0.0270725 0.0270725 0.0270725
0.0287223 0.0287223 0.0287223
0.0313814 0.0313814 0.0313814
0.0332848 0.0332848 0.0332848
0.0352995 0.0352995 0.0352995
0.0374281 0.0374281 0.0374281
0.0396764 0.0396764 0.0396764
0.0420537 0.0420537 0.0420537
0.0445669 0.0445669 0.0445669
0.0472229 0.0472229 0.0472229
0.0500273 0.0500273 0.0500273
0.0529855 0.0529855 0.0529855
0.0545259 0.0545259 0.0545259
0.0577340 0.0577340 0.0577340
0.0611186 0.0611186 0.0611186
0.0628797 0.0628797 0.0628797
0.0665421 0.0665421 0.0665421
0.0684400 0.0684400 0.0684400
0.0723871 0.0723871 0.0723871
0.0744384 0.0744384 0.0744384
0.0787023 0.0787023 0.0787023
0.0809169 0.0809169 0.0809169
0.0831884 0.0831884 0.0831884
0.0879058 0.0879058 0.0879058
0.0903365 0.0903365 0.0903365
0.0928276 0.0928276 0.0928276
0.0953802 0.0953802 0.0953802
0.1006743 0.1006743 0.1006743
0.1034180 0.1034180 0.1034180
0.1062277 0.1062277 0.1062277
0.1091044 0.1091044 0.1091044
0.1120493 0.1120493 0.1120493
0.1150634 0.1150634 0.1150634
0.1181213 0.1181213 0.1181213
0.1212356 0.1212356 0.1212356
0.1244205 0.1244205 0.1244205
0.1276769 0.1276769 0.1276769
0.1310058 0.1310058 0.1310058
0.1344082 0.1344082 0.1344082
0.1378848 0.1378848 0.1378848
0.1414367 0.1414367 0.1414367
0.1450647 0.1450647 0.1450647
0.0011926 0.0011926 0.0011926
0.0015923 0.0015923 0.0015923
0.0021040 0.0021040 0.0021040
0.0027818 0.0027818 0.0027818
0.0035296 0.0035296 0.0035296
0.0043839 0.0043839 0.0043839
0.0053098 0.0053098 0.0053098
0.0064127 0.0064127 0.0064127
0.0075001 0.0075001 0.0075001
0.0087641 0.0087641 0.0087641
0.0099251 0.0099251 0.0099251
0.0115857 0.0115857 0.0115857
0.0127088 0.0127088 0.0127088
0.0143749 0.0143749 0.0143749
0.0162364 0.0162364 0.0162364
0.0177862 0.0177862 0.0177862
0.0194810 0.0194810 0.0194810
0.0213174 0.0213174 0.0213174
0.0233205 0.0233205 0.0233205
0.0247568 0.0247568 0.0247568
0.0270725 0.0270725 0.0270725
0.0287223 0.0287223 0.0287223
0.0313814 0.0313814 0.0313814
0.0332848 0.0332848 0.0332848
0.0352995 0.0352995 0.0352995
0.0374281 0.0374281 0.0374281
0.0396764 0.0396764 0.0396764
0.0420537 0.0420537 0.0420537
0.0445669 0.0445669 0.0445669
0.0472229 0.0472229 0.0472229
0.0500273 0.0500273 0.0500273
0.0529855 0.0529855 0.0529855
0.0545259 0.0545259 0.0545259
0.0577340 0.0577340 0.0577340
0.0611186 0.0611186 0.0611186
0.0628797 0.0628797 0.0628797
0.0665421 0.0665421 0.0665421
0.0684400 0.0684400 0.0684400
0.0723871 0.0723871 0.0723871
0.0744384 0.0744384 0.0744384
0.0787023 0.0787023 0.0787023
0.0809169 0.0809169 0.0809169
0.0831884 0.0831884 0.0831884
0.0879058 0.0879058 0.0879058
0.0903365 0.0903365 0.0903365
0.0928276 0.0928276 0.0928276
0.0953802 0.0953802 0.0953802
0.1006743 0.1006743 0.1006743
0.1034180 0.1034180 0.1034180
0.1062277 0.1062277 0.1062277
0.1091044 0.1091044 0.1091044
0.1120493 0.1120493 0.1120493
0.1150634 0.1150634 0.1150634
0.1181213 0.1181213 0.1181213
0.1212356 0.1212356 0.1212356
0.1244205 0.1244205 0.1244205
0.1276769 0.1276769 0.1276769
0.1310058 0.1310058 0.1310058
0.1344082 0.1344082 0.1344082
0.1378848 0.1378848 0.1378848
0.1414367 0.1414367 0.1414367
0.1450647 0.1450647 0.1450647
0.1487696 0.1487696 0.1487696
0.1525424 0.1525424 0.1525424
0.0021040 0.0021040 0.0021040
0.0027818 0.0027818 0.0027818
0.0035296 0.0035296 0.0035296
0.0043839 0.0043839 0.0043839
0.0053098 0.0053098 0.0053098
0.0064127 0.0064127 0.0064127
0.0075001 0.0075001 0.0075001
0.0087641 0.0087641 0.0087641
0.0099251 0.0099251 0.0099251
0.0115857 0.0115857 0.0115857
0.0127088 0.0127088 0.0127088
0.0143749 0.0143749 0.0143749
0.0162364 0.0162364 0.0162364
0.0177862 0.0177862 0.0177862
0.0194810 0.0194810 0.0194810
0.0213174 0.0213174 0.0213174
0.0233205 0.0233205 0.0233205
0.0247568 0.0247568 0.0247568
0.0270725 0.0270725 0.0270725
0.0287223 0.0287223 0.0287223
0.0313814 0.0313814 0.0313814
0.0332848 0.0332848 0.0332848
0.0352995 0.0352995 0.0352995
0.0374281 0.0374281 0.0374281
0.0396764 0.0396764 0.0396764
0.0420537 0.0420537 0.0420537
0.0445669 0.0445669 0.0445669
0.0472229 0.0472229 0.0472229
0.0500273 0.0500273 0.0500273
0.0529855 0.0529855 0.0529855
0.0545259 0.0545259 0.0545259
0.0577340 0.0577340 0.0577340
0.0611186 0.0611186 0.0611186
0.0628797 0.0628797 0.0628797
0.0665421 0.0665421 0.0665421
0.0684400 0.0684400 0.0684400
0.0723871 0.0723871 0.0723871
0.0744384 0.0744384 0.0744384
0.0787023 0.0787023 0.0787023
0.0809169 0.0809169 0.0809169
0.0831884 0.0831884 0.0831884
0.0879058 0.0879058 0.0879058
0.0903365 0.0903365 0.0903365
0.0928276 0.0928276 0.0928276
0.0953802 0.0953802 0.0953802
0.1006743 0.1006743 0.1006743
0.1034180 0.1034180 0.1034180
0.1062277 0.1062277 0.1062277
0.1091044 0.1091044 0.1091044
0.1120493 0.1120493 0.1120493
0.1150634 0.1150634 0.1150634
0.1181213 0.1181213 0.1181213
0.1212356 0.1212356 0.1212356
0.1244205 0.1244205 0.1244205
0.1276769 0.1276769 0.1276769
0.1310058 0.1310058 0.1310058
0.1344082 0.1344082 0.1344082
0.1378848 0.1378848 0.1378848
0.1414367 0.1414367 0.1414367
0.1450647 0.1450647 0.1450647
0.1487696 0.1487696 0.1487696
0.1525424 0.1525424 0.1525424
0.1563730 0.1563730 0.1563730
0.1602815 0.1602815 0.1602815
0.0035296 0.0035296 0.0035296
0.0043839 0.0043839 0.0043839
0.0053098 0.0053098 0.0053098
0.0064127 0.0064127 0.0064127
0.0075001 0.0075001 0.0075001
0.0087641 0.0087641 0.0087641
0.0099251 0.0099251 0.0099251
0.0115857 0.0115857 0.0115857
0.0127088 0.0127088 0.0127088
0.0143749 0.0143749 0.0143749
0.0162364 0.0162364 0.0162364
0.0177862 0.0177862 0.0177862
0.0194810 0.0194810 0.0194810
0.0213174 0.0213174 0.0213174
0.0233205 0.0233205 0.0233205
0.0247568 0.0247568 0.0247568
0.0270725 0.0270725 0.0270725
0.0287223 0.0287223 0.0287223
0.0313814 0.0313814 0.0313814
0.0332848 0.0332848 0.0332848
0.0352995 0.0352995 0.0352995
0.0374281 0.0374281 0.0374281
0.0396764 0.0396764 0.0396764
0.0420537 0.0420537 0.0420537
0.0445669 0.0445669 0.0445669
0.0472229 0.0472229 0.0472229
0.0500273 0.0500273 0.0500273
0.0529855 0.0529855 0.0529855
0.0545259 0.0545259 0.0545259
0.0577340 0.0577340 0.0577340
0.0611186 0.0611186 0.0611186
0.0628797 0.0628797 0.0628797
0.0665421 0.0665421 0.0665421
0.0684400 0.0684400 0.0684400
0.0723871 0.0723871 0.0723871
0.0744384 0.0744384 0.0744384
0.0787023 0.0787023 0.0787023
0.0809169 0.0809169 0.0809169
0.0831884 0.0831884 0.0831884
0.0879058 0.0879058 0.0879058
0.0903365 0.0903365 0.0903365
0.0928276 0.0928276 0.0928276
0.0953802 0.0953802 0.0953802
0.1006743 0.1006743 0.1006743
0.1034180 0.1034180 0.1034180
0.1062277 0.1062277 0.1062277
0.1091044 0.1091044 0.1091044
0.1120493 0.1120493 0.1120493
0.1150634 0.1150634 0.1150634
0.1181213 0.1181213 0.1181213
0.1212356 0.1212356 0.1212356
0.1244205 0.1244205 0.1244205
0.1276769 0.1276769 0.1276769
0.1310058 0.1310058 0.1310058
0.1344082 0.1344082 0.1344082
0.1378848 0.1378848 0.1378848
0.1414367 0.1414367 0.1414367
0.1450647 0.1450647 0.1450647
0.1487696 0.1487696 0.1487696
0.1525424 0.1525424 0.1525424
0.1563730 0.1563730 0.1563730
0.1602815 0.1602815 0.1602815
0.1642688 0.1642688 0.1642688
0.1642688 0.1642688 0.1642688
0.0053098 0.0053098 0.0053098
0.0064127 0.0064127 0.0064127
0.0075001 0.0075001 0.0075001
0.0087641 0.0087641 0.0087641
0.0099251 0.0099251 0.0099251
0.0115857 0.0115857 0.0115857
0.0127088 0.0127088 0.0127088
0.0143749 0.0143749 0.0143749
0.0162364 0.0162364 0.0162364
0.0177862 0.0177862 0.0177862
0.0194810 0.0194810 0.0194810
0.0213174 0.0213174 0.0213174
0.0233205 0.0233205 0.0233205
0.0247568 0.0247568 0.0247568
0.0270725 0.0270725 0.0270725
0.0287223 0.0287223 0.0287223
0.0313814 0.0313814 0.0313814
0.0332848 0.0332848 0.0332848
0.0352995 0.0352995 0.0352995
0.0374281 0.0374281 0.0374281
0.0396764 0.0396764 0.0396764
0.0420537 0.0420537 0.0420537
0.0445669 0.0445669 0.0445669
0.0472229 0.0472229 0.0472229
0.0500273 0.0500273 0.0500273
0.0529855 0.0529855 0.0529855
0.0545259 0.0545259 0.0545259
0.0577340 0.0577340 0.0577340
0.0611186 0.0611186 0.0611186
0.0628797 0.0628797 0.0628797
0.0665421 0.0665421 0.0665421
0.0684400 0.0684400 0.0684400
0.0723871 0.0723871 0.0723871
0.0744384 0.0744384 0.0744384
0.0787023 0.0787023 0.0787023
0.0809169 0.0809169 0.0809169
0.0831884 0.0831884 0.0831884
0.0879058 0.0879058 0.0879058
0.0903365 0.0903365 0.0903365
0.0928276 0.0928276 0.0928276
0.0953802 0.0953802 0.0953802
0.1006743 0.1006743 0.1006743
0.1034180 0.1034180 0.1034180
0.1062277 0.1062277 0.1062277
0.1091044 0.1091044 0.1091044
0.1120493 0.1120493 0.1120493
0.1150634 0.1150634 0.1150634
0.1181213 0.1181213 0.1181213
0.1212356 0.1212356 0.1212356
0.1244205 0.1244205 0.1244205
0.1276769 0.1276769 0.1276769
0.1310058 0.1310058 0.1310058
0.1344082 0.1344082 0.1344082
0.1378848 0.1378848 0.1378848
0.1414367 0.1414367 0.1414367
0.1450647 0.1450647 0.1450647
0.1487696 0.1487696 0.1487696
0.1525424 0.1525424 0.1525424
0.1563730 0.1563730 0.1563730
0.1602815 0.1602815 0.1602815
0.1642688 0.1642688 0.1642688
0.1642688 0.1642688 0.1642688
0.1683354 0.1683354 0.1683354
0.1724818 0.1724818 0.1724818
0.0075001 0.0075001 0.0075001
0.0087641 0.0087641 0.0087641
0.0099251 0.0099251 0.0099251
0.0115857 0.0115857 0.0115857
0.0127088 0.0127088 0.0127088
0.0143749 0.0143749 0.0143749
0.0162364 0.0162364 0.0162364
0.0177862 0.0177862 0.0177862
0.0194810 0.0194810 0.0194810
0.0213174 0.0213174 0.0213174
0.0233205 0.0233205 0.0233205
0.0247568 0.0247568 0.0247568
0.0270725 0.0270725 0.0270725
0.0287223 0.0287223 0.0287223
0.0313814 0.0313814 0.0313814
0.0332848 0.0332848 0.0332848
0.0352995 0.0352995 0.0352995
0.0374281 0.0374281 0.0374281
0.0396764 0.0396764 0.0396764
0.0420537 0.0420537 0.0420537
0.0445669 0.0445669 0.0445669
0.0472229 0.0472229 0.0472229
0.0500273 0.0500273 0.0500273
0.0529855 0.0529855 0.0529855
0.0545259 0.0545259 0.0545259
0.0577340 0.0577340 0.0577340
0.0611186 0.0611186 0.0611186
0.0628797 0.0628797 0.0628797
0.0665421 0.0665421 0.0665421
0.0684400 0.0684400 0.0684400
0.0723871 0.0723871 0.0723871
0.0744384 0.0744384 0.0744384
0.0787023 0.0787023 0.0787023
0.0809169 0.0809169 0.0809169
0.0831884 0.0831884 0.0831884
0.0879058 0.0879058 0.0879058
0.0903365 0.0903365 0.0903365
0.0928276 0.0928276 0.0928276
0.0953802 0.0953802 0.0953802
0.1006743 0.1006743 0.1006743
0.1034180 0.1034180 0.1034180
0.1062277 0.1062277 0.1062277
0.1091044 0.1091044 0.1091044
0.1120493 0.1120493 0.1120493
0.1150634 0.1150634 0.1150634
0.1181213 0.1181213 0.1181213
0.1212356 0.1212356 0.1212356
0.1244205 0.1244205 0.1244205
0.1276769 0.1276769 0.1276769
0.1310058 0.1310058 0.1310058
0.1344082 0.1344082 0.1344082
0.1378848 0.1378848 0.1378848
0.1414367 0.1414367 0.1414367
0.1450647 0.1450647 0.1450647
0.1487696 0.1487696 0.1487696
0.1525424 0.1525424 0.1525424
0.1563730 0.1563730 0.1563730
0.1602815 0.1602815 0.1602815
0.1642688 0.1642688 0.1642688
0.1642688 0.1642688 0.1642688
0.1683354 0.1683354 0.1683354
0.1724818 0.1724818 0.1724818
0.1767087 0.1767087 0.1767087
0.1810166 0.1810166 0.1810166
0.0099251 0.0099251 0.0099251
0.0115857 0.0115857 0.0115857
0.0127088 0.0127088 0.0127088
0.0143749 0.0143749 0.0143749
0.0162364 0.0162364 0.0162364
0.0177862 0.0177862 0.0177862
0.0194810 0.0194810 0.0194810
0.0213174 0.0213174 0.0213174
0.0233205 0.0233205 0.0233205
0.0247568 0.0247568 0.0247568
0.0270725 0.0270725 0.0270725
0.0287223 0.0287223 0.0287223
0.0313814 0.0313814 0.0313814
0.0332848 0.0332848 0.0332848
0.0352995 0.0352995 0.0352995
0.0374281 0.0374281 0.0374281
0.0396764 0.0396764 0.0396764
0.0420537 0.0420537 0.0420537
0.0445669 0.0445669 0.0445669
0.0472229 0.0472229 0.0472229
0.0500273 0.0500273 0.0500273
0.0529855 0.0529855 0.0529855
0.0545259 0.0545259 0.0545259
0.0577340 0.0577340 0.0577340
0.0611186 0.0611186 0.0611186
0.0628797 0.0628797 0.0628797
0.0665421 0.0665421 0.0665421
0.0684400 0.0684400 0.0684400
0.0723871 0.0723871 0.0723871
0.0744384 0.0744384 0.0744384
0.0787023 0.0787023 0.0787023
0.0809169 0.0809169 0.0809169
0.0831884 0.0831884 0.0831884
0.0879058 0.0879058 0.0879058
0.0903365 0.0903365 0.0903365
0.0928276 0.0928276 0.0928276
0.0953802 0.0953802 0.0953802
0.1006743 0.1006743 0.1006743
0.1034180 0.1034180 0.1034180
0.1062277 0.1062277 0.1062277
0.1091044 0.1091044 0.1091044
0.1120493 0.1120493 0.1120493
0.1150634 0.1150634 0.1150634
0.1181213 0.1181213 0.1181213
0.1212356 0.1212356 0.1212356
0.1244205 0.1244205 0.1244205
0.1276769 0.1276769 0.1276769
0.1310058 0.1310058 0.1310058
0.1344082 0.1344082 0.1344082
0.1378848 0.1378848 0.1378848
0.1414367 0.1414367 0.1414367
0.1450647 0.1450647 0.1450647
0.1487696 0.1487696 0.1487696
0.1525424 0.1525424 0.1525424
0.1563730 0.1563730 0.1563730
0.1602815 0.1602815 0.1602815
0.1642688 0.1642688 0.1642688
0.1683354 0.1683354 0.1683354
0.1683354 0.1683354 0.1683354
0.1724818 0.1724818 0.1724818
0.1767087 0.1767087 0.1767087
0.1810166 0.1810166 0.1810166
0.1854058 0.1854058 0.1854058
0.1854058 0.1854058 0.1854058
0.0127088 0.0127088 0.0127088
0.0143749 0.0143749 0.0143749
0.0162364 0.0162364 0.0162364
0.0177862 0.0177862 0.0177862
0.0194810 0.0194810 0.0194810
0.0213174 0.0213174 0.0213174
0.0233205 0.0233205 0.0233205
0.0247568 0.0247568 0.0247568
0.0270725 0.0270725 0.0270725
0.0287223 0.0287223 0.0287223
0.0313814 0.0313814 0.0313814
0.0332848 0.0332848 0.0332848
0.0352995 0.0352995 0.0352995
0.0374281 0.0374281 0.0374281
0.0396764 0.0396764 0.0396764
0.0420537 0.0420537 0.0420537
0.0445669 0.0445669 0.0445669
0.0472229 0.0472229 0.0472229
0.0500273 0.0500273 0.0500273
0.0529855 0.0529855 0.0529855
0.0545259 0.0545259 0.0545259
0.0577340 0.0577340 0.0577340
0.0611186 0.0611186 0.0611186
0.0628797 0.0628797 0.0628797
0.0665421 0.0665421 0.0665421
0.0684400 0.0684400 0.0684400
0.0723871 0.0723871 0.0723871
0.0744384 0.0744384 0.0744384
0.0787023 0.0787023 0.0787023
0.0809169 0.0809169 0.0809169
0.0831884 0.0831884 0.0831884
0.0879058 0.0879058 0.0879058
0.0903365 0.0903365 0.0903365
0.0928276 0.0928276 0.0928276
0.0953802 0.0953802 0.0953802
0.1006743 0.1006743 0.1006743
0.1034180 0.1034180 0.1034180
0.1062277 0.1062277 0.1062277
0.1091044 0.1091044 0.1091044
0.1120493 0.1120493 0.1120493
0.1150634 0.1150634 0.1150634
0.1181213 0.1181213 0.1181213
0.1212356 0.1212356 0.1212356
0.1244205 0.1244205 0.1244205
0.1276769 0.1276769 0.1276769
0.1310058 0.1310058 0.1310058
0.1344082 0.1344082 0.1344082
0.1378848 0.1378848 0.1378848
0.1414367 0.1414367 0.1414367
0.1450647 0.1450647 0.1450647
0.1487696 0.1487696 0.1487696
0.1525424 0.1525424 0.1525424
0.1563730 0.1563730 0.1563730
0.1602815 0.1602815 0.1602815
0.1642688 0.1642688 0.1642688
0.1683354 0.1683354 0.1683354
0.1683354 0.1683354 0.1683354
0.1724818 0.1724818 0.1724818
0.1767087 0.1767087 0.1767087
0.1810166 0.1810166 0.1810166
0.1854058 0.1854058 0.1854058
0.1854058 0.1854058 0.1854058
0.1898767 0.1898767 0.1898767
0.1944297 0.1944297 0.1944297
0.0162364 0.0162364 0.0162364
0.0177862 0.0177862 0.0177862
0.0194810 0.0194810 0.0194810
0.0213174 0.0213174 0.0213174
0.0233205 0.0233205 0.0233205
0.0247568 0.0247568 0.0247568
0.0270725 0.0270725 0.0270725
0.0287223 0.0287223 0.0287223
0.0313814 0.0313814 0.0313814
0.0332848 0.0332848 0.0332848
0.0352995 0.0352995 0.0352995
0.0374281 0.0374281 0.0374281
0.0396764 0.0396764 0.0396764
0.0420537 0.0420537 0.0420537
0.0445669 0.0445669 0.0445669
0.0472229 0.0472229 0.0472229
0.0500273 0.0500273 0.0500273
0.0529855 0.0529855 0.0529855
0.0545259 0.0545259 0.0545259
0.0577340 0.0577340 0.0577340
0.0611186 0.0611186 0.0611186
0.0628797 0.0628797 0.0628797
0.0665421 0.0665421 0.0665421
0.0684400 0.0684400 0.0684400
0.0723871 0.0723871 0.0723871
0.0744384 0.0744384 0.0744384
0.0787023 0.0787023 0.0787023
0.0809169 0.0809169 0.0809169
0.0831884 0.0831884 0.0831884
0.0879058 0.0879058 0.0879058
0.0903365 0.0903365 0.0903365
0.0928276 0.0928276 0.0928276
0.0953802 0.0953802 0.0953802
0.1006743 0.1006743 0.1006743
0.1034180 0.1034180 0.1034180
0.1062277 0.1062277 0.1062277
0.1091044 0.1091044 0.1091044
0.1120493 0.1120493 0.1120493
0.1150634 0.1150634 0.1150634
0.1181213 0.1181213 0.1181213
0.1212356 0.1212356 0.1212356
0.1244205 0.1244205 0.1244205
0.1276769 0.1276769 0.1276769
0.1310058 0.1310058 0.1310058
0.1344082 0.1344082 0.1344082
0.1378848 0.1378848 0.1378848
0.1414367 0.1414367 0.1414367
0.1450647 0.1450647 0.1450647
0.1487696 0.1487696 0.1487696
0.1525424 0.1525424 0.1525424
0.1563730 0.1563730 0.1563730
0.1602815 0.1602815 0.1602815
0.1642688 0.1642688 0.1642688
0.1683354 0.1683354 0.1683354
0.1683354 0.1683354 0.1683354
0.1724818 0.1724818 0.1724818
0.1767087 0.1767087 0.1767087
0.1810166 0.1810166 0.1810166
0.1854058 0.1854058 0.1854058
0.1854058 0.1854058 0.1854058
0.1898767 0.1898767 0.1898767
0.1944297 0.1944297 0.1944297
0.1991292 0.1991292 0.1991292
0.1991292 0.1991292 0.1991292
0.0194810 0.0194810 0.0194810
0.0213174 0.0213174 0.0213174
0.0233205 0.0233205 0.0233205
0.0247568 0.0247568 0.0247568
0.0270725 0.0270725 0.0270725
0.0287223 0.0287223 0.0287223
0.0313814 0.0313814 0.0313814
0.0332848 0.0332848 0.0332848
0.0352995 0.0352995 0.0352995
0.0374281 0.0374281 0.0374281
0.0396764 0.0396764 0.0396764
0.0420537 0.0420537 0.0420537
0.0445669 0.0445669 0.0445669
0.0472229 0.0472229 0.0472229
0.0500273 0.0500273 0.0500273
0.0529855 0.0529855 0.0529855
0.0545259 0.0545259 0.0545259
0.0577340 0.0577340 0.0577340
0.0611186 0.0611186 0.0611186
0.0628797 0.0628797 0.0628797
0.0665421 0.0665421 0.0665421
0.0684400 0.0684400 0.0684400
0.0723871 0.0723871 0.0723871
0.0744384 0.0744384 0.0744384
0.0787023 0.0787023 0.0787023
0.0809169 0.0809169 0.0809169
0.0831884 0.0831884 0.0831884
0.0879058 0.0879058 0.0879058
0.0903365 0.0903365 0.0903365
0.0928276 0.0928276 0.0928276
0.0953802 0.0953802 0.0953802
0.1006743 0.1006743 0.1006743
0.1034180 0.1034180 0.1034180
0.1062277 0.1062277 0.1062277
0.1091044 0.1091044 0.1091044
0.1120493 0.1120493 0.1120493
0.1150634 0.1150634 0.1150634
0.1181213 0.1181213 0.1181213
0.1212356 0.1212356 0.1212356
0.1244205 0.1244205 0.1244205
0.1276769 0.1276769 0.1276769
0.1310058 0.1310058 0.1310058
0.1344082 0.1344082 0.1344082
0.1378848 0.1378848 0.1378848
0.1414367 0.1414367 0.1414367
0.1450647 0.1450647 0.1450647
0.1487696 0.1487696 0.1487696
0.1525424 0.1525424 0.1525424
0.1563730 0.1563730 0.1563730
0.1602815 0.1602815 0.1602815
0.1642688 0.1642688 0.1642688
0.1683354 0.1683354 0.1683354
0.1683354 0.1683354 0.1683354
0.1724818 0.1724818 0.1724818
0.1767087 0.1767087 0.1767087
0.1810166 0.1810166 0.1810166
0.1854058 0.1854058 0.1854058
0.1854058 0.1854058 0.1854058
0.1898767 0.1898767 0.1898767
0.1944297 0.1944297 0.1944297
0.1991292 0.1991292 0.1991292
0.1991292 0.1991292 0.1991292
0.2039136 0.2039136 0.2039136
0.2087831 0.2087831 0.2087831
0.0233205 0.0233205 0.0233205
0.0247568 0.0247568 0.0247568
0.0270725 0.0270725 0.0270725
0.0287223 0.0287223 0.0287223
0.0313814 0.0313814 0.0313814
0.0332848 0.0332848 0.0332848
0.0352995 0.0352995 0.0352995
0.0374281 0.0374281 0.0374281
0.0396764 0.0396764 0.0396764
0.0420537 0.0420537 0.0420537
0.0445669 0.0445669 0.0445669
0.0472229 0.0472229 0.0472229
0.0500273 0.0500273 0.0500273
0.0529855 0.0529855 0.0529855
0.0545259 0.0545259 0.0545259
0.0577340 0.0577340 0.0577340
0.0611186 0.0611186 0.0611186
0.0628797 0.0628797 0.0628797
0.0665421 0.0665421 0.0665421
0.0684400 0.0684400 0.0684400
0.0723871 0.0723871 0.0723871
0.0744384 0.0744384 0.0744384
0.0787023 0.0787023 0.0787023
0.0809169 0.0809169 0.0809169
0.0831884 0.0831884 0.0831884
0.0879058 0.0879058 0.0879058
0.0903365 0.0903365 0.0903365
0.0928276 0.0928276 0.0928276
0.0953802 0.0953802 0.0953802
0.1006743 0.1006743 0.1006743
0.1034180 0.1034180 0.1034180
0.1062277 0.1062277 0.1062277
0.1091044 0.1091044 0.1091044
0.1120493 0.1120493 0.1120493
0.1150634 0.1150634 0.1150634
0.1181213 0.1181213 0.1181213
0.1212356 0.1212356 0.1212356
0.1244205 0.1244205 0.1244205
0.1276769 0.1276769 0.1276769
0.1310058 0.1310058 0.1310058
0.1344082 0.1344082 0.1344082
0.1378848 0.1378848 0.1378848
0.1414367 0.1414367 0.1414367
0.1450647 0.1450647 0.1450647
0.1487696 0.1487696 0.1487696
0.1525424 0.1525424 0.1525424
0.1563730 0.1563730 0.1563730
0.1602815 0.1602815 0.1602815
0.1642688 0.1642688 0.1642688
0.1683354 0.1683354 0.1683354
0.1683354 0.1683354 0.1683354
0.1724818 0.1724818 0.1724818
0.1767087 0.1767087 0.1767087
0.1810166 0.1810166 0.1810166
0.1854058 0.1854058 0.1854058
0.1854058 0.1854058 0.1854058
0.1898767 0.1898767 0.1898767
0.1944297 0.1944297 0.1944297
0.1991292 0.1991292 0.1991292
0.1991292 0.1991292 0.1991292
0.2039136 0.2039136 0.2039136
0.2087831 0.2087831 0.2087831
0.2137375 0.2137375 0.2137375
0.2137375 0.2137375 0.2137375
0.0270725 0.0270725 0.0270725
0.0287223 0.0287223 0.0287223
0.0313814 0.0313814 0.0313814
0.0332848 0.0332848 0.0332848
0.0352995 0.0352995 0.0352995
0.0374281 0.0374281 0.0374281
0.0396764 0.0396764 0.0396764
0.0420537 0.0420537 0.0420537
0.0445669 0.0445669 0.0445669
0.0472229 0.0472229 0.0472229
0.0500273 0.0500273 0.0500273
0.0529855 0.0529855 0.0529855
0.0545259 0.0545259 0.0545259
0.0577340 0.0577340 0.0577340
0.0611186 0.0611186 0.0611186
0.0628797 0.0628797 0.0628797
0.0665421 0.0665421 0.0665421
0.0684400 0.0684400 0.0684400
0.0723871 0.0723871 0.0723871
0.0744384 0.0744384 0.0744384
0.0787023 0.0787023 0.0787023
0.0809169 0.0809169 0.0809169
0.0831884 0.0831884 0.0831884
0.0879058 0.0879058 0.0879058
0.0903365 0.0903365 0.0903365
0.0928276 0.0928276 0.0928276
0.0953802 0.0953802 0.0953802
0.1006743 0.1006743 0.1006743
0.1034180 0.1034180 0.1034180
0.1062277 0.1062277 0.1062277
