Plugins/FilmEmulator/Content/LUTs/FE_Kodak_Ektachrome_100D_64.cube
TITLE "FE_Kodak_Ektachrome_100D_33"
LUT_3D_SIZE 8
0.0011610 0.0005464 0.0003700
0.0301403 0.0009927 0.0009456
0.0880030 0.0045818 0.0039341
0.1541672 0.0126819 0.0103373
0.2260614 0.0257311 0.0199855
0.2971994 0.0411855 0.0317648
0.3668180 0.0589296 0.0448246
0.4330311 0.0783367 0.0581800
0.0041011 0.0504127 0.0000000
0.1003086 0.0944842 0.0000000
0.2038464 0.1245980 0.0000000
0.2897328 0.1499590 0.0037770
0.3690174 0.1729389 0.0124324
0.4489544 0.1984521 0.0256350
0.5203451 0.2208105 0.0397806
0.5859820 0.2428114 0.0539236
0.0101488 0.1293821 0.0000000
0.1389334 0.2001863 0.0000000
0.2676632 0.2449624 0.0000000
0.3670959 0.2761004 0.0054657
0.4555565 0.3028292 0.0149548
0.5359201 0.3256716 0.0257822
0.6076943 0.3483437 0.0367389
0.6730270 0.3682389 0.0471973
0.0205551 0.2085761 0.0000000
0.1640456 0.2904388 0.0000000
0.3086187 0.3436307 0.0024894
0.4174192 0.3796006 0.0114211
0.5135524 0.4093874 0.0213461
0.5977930 0.4351089 0.0322588
0.6741529 0.4565931 0.0435368
0.7422887 0.4772744 0.0539998
0.0334004 0.2832564 0.0043228
0.1819213 0.3678918 0.0039147
0.3385374 0.4267901 0.0102025
0.4548418 0.4632249 0.0201257
0.5543187 0.4929431 0.0300054
0.6418594 0.5181592 0.0410615
0.7204878 0.5384429 0.0515864
0.7890482 0.5563461 0.0628815
0.0482756 0.3473470 0.0134584
0.1936809 0.4264536 0.0145450
0.3581550 0.4873031 0.0211269
0.4789974 0.5248185 0.0300999
0.5821319 0.5540205 0.0407017
0.6718967 0.5777361 0.0509294
0.7501906 0.5978878 0.0611135
0.8204804 0.6161247 0.0730083
0.0634108 0.3989930 0.0244567
0.2032077 0.4729883 0.0260665
0.3747729 0.5352528 0.0330228
0.4989126 0.5735658 0.0418848
0.6029151 0.6014581 0.0516457
0.6953615 0.6257530 0.0614218
0.7749326 0.6450755 0.0732355
0.8466738 0.6632730 0.0844430
0.0804697 0.4439797 0.0370350
0.2113358 0.5108566 0.0386734
0.3867825 0.5740945 0.0449021
0.5124602 0.6116031 0.0536573
0.6194585 0.6401126 0.0629775
0.7140664 0.6648635 0.0731962
0.7953779 0.6846383 0.0853392
0.8677194 0.7014870 0.0965834
0.0058293 0.0000000 0.0717443
0.0613855 0.0000000 0.0992916
0.1301483 0.0019342 0.1199765
0.2025896 0.0125962 0.1419204
0.2766550 0.0273271 0.1626415
0.3490633 0.0447683 0.1809139
0.4180602 0.0640250 0.1971283
0.4831336 0.0834440 0.2125274
0.0000000 0.0892421 0.1313330
0.1123257 0.1311267 0.1564266
0.2301174 0.1574132 0.1723944
0.3243557 0.1787950 0.1859687
0.4096130 0.2005770 0.1984290
0.4908442 0.2219044 0.2110500
0.5636335 0.2437969 0.2241214
0.6269415 0.2623773 0.2361847
0.0000000 0.1901668 0.1463093
0.1406399 0.2556498 0.1663951
0.2815188 0.2910956 0.1807014
0.3881038 0.3164690 0.1932991
0.4821001 0.3388997 0.2048459
0.5672860 0.3600436 0.2167863
0.6421055 0.3783817 0.2278085
0.7104508 0.3964036 0.2394353
0.0000000 0.2740301 0.1518284
0.1612226 0.3504310 0.1686555
0.3155735 0.3945668 0.1808310
0.4320311 0.4246461 0.1929635
0.5333862 0.4499800 0.2055299
0.6228495 0.4702325 0.2173038
0.7021930 0.4905836 0.2282088
0.7697921 0.5067976 0.2398286
0.0074056 0.3466728 0.1540100
0.1769647 0.4262573 0.1674628
0.3428836 0.4762850 0.1801592
0.4640865 0.5080239 0.1920344
0.5693575 0.5318314 0.2031134
0.6629010 0.5538119 0.2147314
0.7406042 0.5709181 0.2271793
0.8133954 0.5884820 0.2387815
0.0254050 0.4050080 0.1545898
0.1905340 0.4810733 0.1667722
0.3627992 0.5339801 0.1790232
0.4885123 0.5663109 0.1907424
0.5951625 0.5911785 0.2017577
0.6878614 0.6118261 0.2134240
0.7702495 0.6297007 0.2242870
0.8408070 0.6454610 0.2375695
0.0440779 0.4490021 0.1556865
0.2021334 0.5215141 0.1646783
0.3767129 0.5770420 0.1765551
0.5060303 0.6112965 0.1880807
0.6149657 0.6362311 0.2004487
0.7098209 0.6579024 0.2120859
0.7901621 0.6742894 0.2230421
0.8648031 0.6906435 0.2346585
0.0648931 0.4880028 0.1552529
0.2124919 0.5542875 0.1638323
0.3901723 0.6121300 0.1754435
0.5198572 0.6460591 0.1869338
0.6311013 0.6719189 0.1977735
0.7269339 0.6926948 0.2093830
0.8092363 0.7114347 0.2218221
0.8811713 0.7262135 0.2335560
0.0163623 0.0000000 0.1668230
0.0888049 0.0011498 0.2046357
0.1664670 0.0075368 0.2303678
0.2376151 0.0166370 0.2530687
0.3050787 0.0270219 0.2718582
0.3783557 0.0442564 0.2921853
0.4471431 0.0645822 0.3097053
0.5120734 0.0854767 0.3263133
0.0000000 0.1024998 0.2566205
0.1333436 0.1384621 0.2889013
0.2519860 0.1640888 0.3078785
0.3479397 0.1856298 0.3214264
0.4343902 0.2078231 0.3341892
0.5145692 0.2293736 0.3457735
0.5882251 0.2498129 0.3568406
0.6529695 0.2685767 0.3672497
0.0000000 0.2118097 0.2846729
0.1611805 0.2709278 0.3130251
0.3015940 0.3049919 0.3293610
0.4094614 0.3292646 0.3407318
0.5044161 0.3510838 0.3514543
0.5896028 0.3698073 0.3611774
0.6652105 0.3897647 0.3709213
0.7327121 0.4074358 0.3802605
0.0000000 0.3016053 0.2987184
0.1817810 0.3728378 0.3228663
0.3339689 0.4127401 0.3360758
0.4515521 0.4411543 0.3485117
0.5536422 0.4650453 0.3585931
0.6449325 0.4865545 0.3678795
0.7229217 0.5036559 0.3769967
0.7922863 0.5192912 0.3858806
0.0127210 0.3784221 0.3068906
0.1973372 0.4537497 0.3260075
0.3603900 0.4984215 0.3401147
0.4818991 0.5259627 0.3519681
0.5885905 0.5500000 0.3616441
0.6801387 0.5703131 0.3705933
0.7602446 0.5864602 0.3794973
0.8319520 0.6028042 0.3882508
0.0300123 0.4380480 0.3117141
0.2111038 0.5119770 0.3284265
0.3775923 0.5582398 0.3419155
0.5039258 0.5879028 0.3516960
0.6136159 0.6113145 0.3629547
0.7069943 0.6303804 0.3717212
0.7892039 0.6469513 0.3805327
0.8615006 0.6613982 0.3873941
0.0491929 0.4850201 0.3147815
0.2210000 0.5545338 0.3297152
0.3930771 0.6038731 0.3428383
0.5203155 0.6331212 0.3523859
0.6300411 0.6573387 0.3616280
0.7276648 0.6760233 0.3703973
0.8083926 0.6925926 0.3791142
0.8812488 0.7058381 0.3877598
0.0700214 0.5240100 0.3169092
0.2316755 0.5892438 0.3305324
0.4037549 0.6383649 0.3413547
0.5342284 0.6707825 0.3527222
0.6456679 0.6943169 0.3618510
0.7420127 0.7132459 0.3705716
0.8264382 0.7291485 0.3792233
0.9002287 0.7427795 0.3878475
0.0292249 0.0021433 0.2517842
0.1150906 0.0097292 0.2907324
0.1980726 0.0187762 0.3161145
0.2710672 0.0298138 0.3366939
0.3411711 0.0414788 0.3530577
0.4076213 0.0541580 0.3688816
0.4706539 0.0682023 0.3823178
0.5339929 0.0875429 0.3967037
0.0187595 0.1096902 0.3460503
0.1571817 0.1438400 0.3782787
0.2718400 0.1679424 0.3942920
0.3674822 0.1898162 0.4077806
0.4553640 0.2125371 0.4198660
0.5342672 0.2327279 0.4291402
0.6047376 0.2532171 0.4390585
0.6711651 0.2739688 0.4471119
0.0131320 0.2280305 0.3831254
0.1857107 0.2804167 0.4106362
0.3217683 0.3124560 0.4234426
0.4285303 0.3361349 0.4340215
0.5238497 0.3559519 0.4430870
0.6066983 0.3762453 0.4502834
0.6828390 0.3942633 0.4582474
0.7509512 0.4119399 0.4644235
0.0141591 0.3177021 0.4000986
0.2076848 0.3852878 0.4235484
0.3540128 0.4219411 0.4361248
0.4700649 0.4492197 0.4457554
0.5731141 0.4725845 0.4541492
0.6608203 0.4933386 0.4604723
0.7374446 0.5098561 0.4676673
0.8074006 0.5253100 0.4730753
0.0284960 0.3974947 0.4118480
0.2242690 0.4692957 0.4314574
0.3806212 0.5097646 0.4430546
0.5003113 0.5357246 0.4518108
0.6051060 0.5585870 0.4580331
0.6984452 0.5786330 0.4654128
0.7772089 0.5941381 0.4707397
0.8495175 0.6100742 0.4773921
0.0468539 0.4588100 0.4191476
0.2369363 0.5289881 0.4357429
0.3978797 0.5709194 0.4466329
0.5222314 0.5987802 0.4550622
0.6299280 0.6207761 0.4608958
0.7221817 0.6390708 0.4679668
0.8058513 0.6552631 0.4731266
0.8757979 0.6690183 0.4795669
0.0664742 0.5053558 0.4239182
0.2473090 0.5729082 0.4383368
0.4108320 0.6154858 0.4487265
0.5386291 0.6448224 0.4553582
0.6491296 0.6681731 0.4625856
0.7427313 0.6854102 0.4694774
0.8248803 0.7015481 0.4745130
0.8983924 0.7143657 0.4808366
0.0869945 0.5457643 0.4275320
0.2585619 0.6087217 0.4401822
0.4241993 0.6529892 0.4502089
0.5521046 0.6816267 0.4565673
0.6642168 0.7041336 0.4636171
0.7593887 0.7220271 0.4704269
0.8427594 0.7385479 0.4753762
0.9140899 0.7512518 0.4800648
0.0440668 0.0121221 0.3201895
0.1410264 0.0223153 0.3569332
0.2260960 0.0333775 0.3801546
0.3020895 0.0453299 0.3985824
0.3739170 0.0589802 0.4140096
0.4404311 0.0719052 0.4278658
0.5023705 0.0855539 0.4403552
0.5588661 0.0994827 0.4505588
0.0398698 0.1164879 0.4047328
0.1798806 0.1478471 0.4352495
0.2913118 0.1717191 0.4521276
0.3859357 0.1939376 0.4650675
0.4716368 0.2153680 0.4762106
0.5506989 0.2375271 0.4864924
0.6220918 0.2583299 0.4942379
0.6855714 0.2772506 0.5021091
0.0391670 0.2406764 0.4466185
0.2114448 0.2879815 0.4724705
0.3401321 0.3165116 0.4854810
0.4466500 0.3398310 0.4950927
0.5406587 0.3612353 0.5034088
0.6238864 0.3796683 0.5093493
0.6994275 0.3997568 0.5163587
0.7643873 0.4151569 0.5222600
0.0408942 0.3330992 0.4655746
0.2338033 0.3962050 0.4895703
0.3758422 0.4308159 0.5012339
0.4888859 0.4550202 0.5094393
0.5895225 0.4777294 0.5167020
0.6784561 0.4984797 0.5218738
0.7530614 0.5144864 0.5276586
0.8218466 0.5320363 0.5331135
0.0483678 0.4117588 0.4777935
0.2513240 0.4802800 0.4990569
0.4004096 0.5175476 0.5096347
0.5194833 0.5426573 0.5171177
0.6244147 0.5650157 0.5236976
0.7132661 0.5841752 0.5281925
0.7928812 0.5995055 0.5335749
0.8617467 0.6128680 0.5384251
0.0663953 0.4734575 0.4861616
0.2649628 0.5412945 0.5044832
0.4179827 0.5795087 0.5143026
0.5415803 0.6062513 0.5214129
0.6464263 0.6272925 0.5260412
0.7399006 0.6453725 0.5316695
0.8184091 0.6606354 0.5368404
0.8879858 0.6723453 0.5414502
0.0881604 0.5211275 0.4919529
0.2758479 0.5846667 0.5077523
0.4335124 0.6251137 0.5171866
0.5581837 0.6529638 0.5240093
0.6650738 0.6734329 0.5283617
0.7574251 0.6916257 0.5338144
0.8397808 0.7059096 0.5388099
0.9112859 0.7198122 0.5420057
0.1099607 0.5608491 0.4962472
0.2856635 0.6207412 0.5101464
0.4444640 0.6611543 0.5191449
0.5717998 0.6900992 0.5242858
0.6807367 0.7113597 0.5299820
0.7740492 0.7285183 0.5352631
0.8545308 0.7428512 0.5401691
0.9262705 0.7553319 0.5432265
0.0613273 0.0246125 0.3749047
0.1654783 0.0369706 0.4069852
0.2514533 0.0500793 0.4273219
0.3296481 0.0628518 0.4428038
0.4009769 0.0765281 0.4568142
0.4679582 0.0907307 0.4684443
0.5312306 0.1050182 0.4786261
0.5851873 0.1178316 0.4869692
0.0627546 0.1230821 0.4484362
0.2010200 0.1530987 0.4757435
0.3090587 0.1757627 0.4911079
0.4037309 0.1984432 0.5026167
0.4897236 0.2203245 0.5121391
0.5667651 0.2409836 0.5201687
0.6366928 0.2618649 0.5280280
0.7004132 0.2808676 0.5341318
0.0667738 0.2501918 0.4927114
0.2351615 0.2945805 0.5154525
0.3592141 0.3218671 0.5270273
0.4629537 0.3448198 0.5347276
0.5565619 0.3662222 0.5410885
0.6383231 0.3846526 0.5463085
0.7108701 0.4025678 0.5508501
0.7772896 0.4203539 0.5558752
0.0718270 0.3486992 0.5138049
0.2593127 0.4037794 0.5340955
0.3957103 0.4363957 0.5433968
0.5060618 0.4618216 0.5506265
0.6052333 0.4820646 0.5555452
0.6922997 0.5023739 0.5599182
0.7675849 0.5183808 0.5633764
0.8365915 0.5359399 0.5667518
0.0776959 0.4268649 0.5262374
0.2782899 0.4894024 0.5447005
0.4205171 0.5220689 0.5526462
0.5363876 0.5479528 0.5590422
0.6404126 0.5698775 0.5634224
0.7264378 0.5864763 0.5669115
0.8045406 0.6034113 0.5700002
0.8735994 0.6166989 0.5726719
0.0894313 0.4851680 0.5341909
0.2926623 0.5497177 0.5506815
0.4386689 0.5848290 0.5580192
0.5582446 0.6101705 0.5638508
0.6649027 0.6310482 0.5677420
0.7532523 0.6481087 0.5709621
0.8324182 0.6632177 0.5736713
0.8997986 0.6762611 0.5761259
0.1113012 0.5343484 0.5405534
0.3043954 0.5953857 0.5545528
0.4526773 0.6321594 0.5614344
0.5751095 0.6573035 0.5659775
0.6814226 0.6788315 0.5705523
0.7739928 0.6951110 0.5735341
0.8514712 0.7101362 0.5760657
0.9224697 0.7221733 0.5783361
0.1319830 0.5736163 0.5451040
0.3146838 0.6320052 0.5573086
0.4663488 0.6690261 0.5637931
0.5889558 0.6948577 0.5680920
0.6967294 0.7154191 0.5724254
0.7882639 0.7334591 0.5753363
0.8694788 0.7476259 0.5777076
0.9382032 0.7595716 0.5798811
0.0812337 0.0397477 0.4136876
0.1883769 0.0541407 0.4422061
0.2757265 0.0680080 0.4597332
0.3542065 0.0815189 0.4737935
0.4280771 0.0952499 0.4857747
0.4949741 0.1098789 0.4964963
0.5544083 0.1229913 0.5052767
0.6107418 0.1356728 0.5124165
0.0861449 0.1287525 0.4738774
0.2206736 0.1575730 0.4989712
0.3265583 0.1803402 0.5133466
0.4191086 0.2033195 0.5247944
0.5049400 0.2255303 0.5343378
0.5806761 0.2464227 0.5416114
0.6479094 0.2655861 0.5483652
0.7118264 0.2846101 0.5545457
0.0963505 0.2603078 0.5195310
0.2577881 0.3008429 0.5398243
0.3784171 0.3272274 0.5501950
0.4812912 0.3500166 0.5577773
0.5711358 0.3691900 0.5636804
0.6510438 0.3875039 0.5680459
0.7243105 0.4055207 0.5726814
0.7881274 0.4232025 0.5769228
0.1044273 0.3609328 0.5410082
0.2837509 0.4104537 0.5590452
0.4138412 0.4413126 0.5679145
0.5249346 0.4664210 0.5741994
0.6206554 0.4861043 0.5781666
0.7056080 0.5059773 0.5823911
0.7786318 0.5217534 0.5858624
0.8475986 0.5392511 0.5892796
0.1136006 0.4416781 0.5538987
0.3041785 0.4972333 0.5701672
0.4394442 0.5276341 0.5776812
0.5559548 0.5530518 0.5823007
0.6563059 0.5742592 0.5864968
0.7430261 0.5908065 0.5898592
0.8186607 0.6072420 0.5929384
0.8846830 0.6201702 0.5955953
0.1208804 0.4991206 0.5613660
0.3173512 0.5577354 0.5763587
0.4581326 0.5907290 0.5825979
0.5755330 0.6151053 0.5873439
0.6809938 0.6355343 0.5910964
0.7670289 0.6521391 0.5941495
0.8466055 0.6670976 0.5968767
0.9138698 0.6800591 0.5993328
0.1341371 0.5439060 0.5667828
0.3298069 0.6038387 0.5796232
0.4746023 0.6371443 0.5861857
0.5927670 0.6625493 0.5906248
0.6971247 0.6817734 0.5940183
0.7879243 0.6992047 0.5969266
0.8650824 0.7124116 0.5993857
0.9334690 0.7257225 0.6017250
0.1546028 0.5831048 0.5713872
0.3404237 0.6394008 0.5824358
0.4866209 0.6754289 0.5887686
0.6068707 0.7002034 0.5929071
0.7131273 0.7201544 0.5961462
0.8016965 0.7360359 0.5988129
0.8831754 0.7500728 0.6011994
0.9485230 0.7614831 0.6033534
0.1032234 0.0565800 0.4459220
0.2118749 0.0717941 0.4705023
0.2999542 0.0863483 0.4862359
0.3799651 0.1006702 0.4991487
0.4519370 0.1134951 0.5093311
0.5173994 0.1269934 0.5179623
0.5784501 0.1412762 0.5263192
0.6328523 0.1537496 0.5326459
0.1097343 0.1353647 0.4941797
0.2394153 0.1621944 0.5166064
0.3427451 0.1850906 0.5305067
0.4345360 0.2084238 0.5412281
0.5189567 0.2291475 0.5501279
0.5933987 0.2500815 0.5579223
0.6620555 0.2711796 0.5643139
0.7225482 0.2884559 0.5696692
0.1242476 0.2691629 0.5398446
0.2793306 0.3068778 0.5580091
0.3960751 0.3324397 0.5677788
0.4968016 0.3531210 0.5741638
0.5863336 0.3742031 0.5801753
0.6673075 0.3927218 0.5851302
0.7356421 0.4105358 0.5888265
0.7995216 0.4283988 0.5926525
0.1358415 0.3715649 0.5615582
0.3069669 0.4166046 0.5774908
0.4323706 0.4461345 0.5857792
0.5415615 0.4706340 0.5911475
0.6367896 0.4924121 0.5959077
0.7187901 0.5094985 0.5989805
0.7921115 0.5252880 0.6022005
0.8580639 0.5424080 0.6051224
0.1463164 0.4539056 0.5745526
0.3267338 0.5039548 0.5888410
0.4588706 0.5330233 0.5958723
0.5732259 0.5576469 0.6003366
0.6719233 0.5784587 0.6042894
0.7565237 0.5946416 0.6067436
0.8294014 0.6105784 0.6095139
0.8952812 0.6234645 0.6116922
0.1554645 0.5126570 0.5821571
0.3428381 0.5654069 0.5953189
0.4781420 0.5963035 0.6011287
0.5931713 0.6198648 0.6055816
0.6939448 0.6394014 0.6090388
0.7806697 0.6559652 0.6112134
0.8574393 0.6704074 0.6136301
0.9237099 0.6814106 0.6154855
0.1637747 0.5560997 0.5870918
0.3557189 0.6103775 0.5994138
0.4951523 0.6430434 0.6048713
0.6107493 0.6675501 0.6090181
0.7132432 0.6861177 0.6121471
0.8010005 0.7013181 0.6140268
0.8759989 0.7157980 0.6162737
0.9434087 0.7272124 0.6174650
0.1772072 0.5929481 0.5911138
0.3649646 0.6473312 0.6023797
0.5071568 0.6799941 0.6074696
0.6246175 0.7037211 0.6113187
0.7289383 0.7230268 0.6143059
0.8155395 0.7399465 0.6161171
0.8941868 0.7534943 0.6181949
0.9592696 0.7647846 0.6192770
