Plugins/FilmEmulator/Content/LUTs/FE_Kodak_2302_64.cube
TITLE "FE_Kodak_2302_33"
LUT_3D_SIZE 64
0.0019024 0.0019024 0.0019024
0.0018977 0.0018977 0.0018977
0.0018684 0.0018684 0.0018684
0.0018933 0.0018933 0.0018933
0.0019143 0.0019143 0.0019143
0.0019365 0.0019365 0.0019365
0.0019764 0.0019764 0.0019764
0.0020796 0.0020796 0.0020796
0.0022116 0.0022116 0.0022116
0.0023197 0.0023197 0.0023197
0.0024213 0.0024213 0.0024213
0.0025252 0.0025252 0.0025252
0.0026335 0.0026335 0.0026335
0.0027673 0.0027673 0.0027673
0.0029158 0.0029158 0.0029158
0.0030871 0.0030871 0.0030871
0.0032570 0.0032570 0.0032570
0.0034509 0.0034509 0.0034509
0.0036264 0.0036264 0.0036264
0.0038358 0.0038358 0.0038358
0.0040639 0.0040639 0.0040639
0.0043344 0.0043344 0.0043344
0.0045725 0.0045725 0.0045725
0.0048366 0.0048366 0.0048366
0.0051434 0.0051434 0.0051434
0.0054696 0.0054696 0.0054696
0.0058631 0.0058631 0.0058631
0.0061890 0.0061890 0.0061890
0.0066517 0.0066517 0.0066517
0.0070517 0.0070517 0.0070517
0.0074797 0.0074797 0.0074797
0.0080906 0.0080906 0.0080906
0.0086034 0.0086034 0.0086034
0.0091553 0.0091553 0.0091553
0.0095426 0.0095426 0.0095426
0.0101542 0.0101542 0.0101542
0.0108625 0.0108625 0.0108625
0.0113616 0.0113616 0.0113616
0.0121531 0.0121531 0.0121531
0.0127108 0.0127108 0.0127108
0.0136846 0.0136846 0.0136846
0.0143821 0.0143821 0.0143821
0.0151146 0.0151146 0.0151146
0.0162828 0.0162828 0.0162828
0.0171915 0.0171915 0.0171915
0.0181928 0.0181928 0.0181928
0.0192512 0.0192512 0.0192512
0.0203700 0.0203700 0.0203700
0.0215524 0.0215524 0.0215524
0.0228712 0.0228712 0.0228712
0.0243425 0.0243425 0.0243425
0.0259059 0.0259059 0.0259059
0.0275669 0.0275669 0.0275669
0.0284357 0.0284357 0.0284357
0.0302539 0.0302539 0.0302539
0.0322772 0.0322772 0.0322772
0.0344508 0.0344508 0.0344508
0.0355899 0.0355899 0.0355899
0.0379779 0.0379779 0.0379779
0.0405193 0.0405193 0.0405193
0.0418504 0.0418504 0.0418504
0.0447116 0.0447116 0.0447116
0.0462299 0.0462299 0.0462299
0.0494149 0.0494149 0.0494149
0.0019024 0.0019024 0.0019024
0.0018654 0.0018654 0.0018654
0.0018855 0.0018855 0.0018855
0.0019088 0.0019088 0.0019088
0.0019303 0.0019303 0.0019303
0.0019620 0.0019620 0.0019620
0.0020441 0.0020441 0.0020441
0.0021722 0.0021722 0.0021722
0.0022909 0.0022909 0.0022909
0.0023895 0.0023895 0.0023895
0.0024998 0.0024998 0.0024998
0.0026030 0.0026030 0.0026030
0.0027332 0.0027332 0.0027332
0.0028714 0.0028714 0.0028714
0.0030325 0.0030325 0.0030325
0.0031993 0.0031993 0.0031993
0.0033832 0.0033832 0.0033832
0.0035552 0.0035552 0.0035552
0.0037917 0.0037917 0.0037917
0.0040172 0.0040172 0.0040172
0.0042200 0.0042200 0.0042200
0.0045118 0.0045118 0.0045118
0.0047628 0.0047628 0.0047628
0.0050650 0.0050650 0.0050650
0.0053862 0.0053862 0.0053862
0.0057583 0.0057583 0.0057583
0.0060784 0.0060784 0.0060784
0.0065329 0.0065329 0.0065329
0.0069146 0.0069146 0.0069146
0.0074797 0.0074797 0.0074797
0.0079334 0.0079334 0.0079334
0.0084269 0.0084269 0.0084269
0.0089676 0.0089676 0.0089676
0.0095426 0.0095426 0.0095426
0.0099461 0.0099461 0.0099461
0.0106211 0.0106211 0.0106211
0.0113616 0.0113616 0.0113616
0.0118834 0.0118834 0.0118834
0.0127108 0.0127108 0.0127108
0.0133484 0.0133484 0.0133484
0.0140290 0.0140290 0.0140290
0.0151146 0.0151146 0.0151146
0.0158839 0.0158839 0.0158839
0.0167114 0.0167114 0.0167114
0.0176852 0.0176852 0.0176852
0.0187147 0.0187147 0.0187147
0.0198029 0.0198029 0.0198029
0.0215524 0.0215524 0.0215524
0.0221685 0.0221685 0.0221685
0.0235956 0.0235956 0.0235956
0.0251123 0.0251123 0.0251123
0.0267238 0.0267238 0.0267238
0.0284357 0.0284357 0.0284357
0.0302539 0.0302539 0.0302539
0.0322772 0.0322772 0.0322772
0.0333469 0.0333469 0.0333469
0.0355899 0.0355899 0.0355899
0.0379779 0.0379779 0.0379779
0.0392289 0.0392289 0.0392289
0.0418504 0.0418504 0.0418504
0.0432408 0.0432408 0.0432408
0.0462299 0.0462299 0.0462299
0.0477972 0.0477972 0.0477972
0.0510845 0.0510845 0.0510845
0.0018696 0.0018696 0.0018696
0.0018778 0.0018778 0.0018778
0.0019027 0.0019027 0.0019027
0.0019233 0.0019233 0.0019233
0.0019493 0.0019493 0.0019493
0.0020137 0.0020137 0.0020137
0.0021412 0.0021412 0.0021412
0.0022620 0.0022620 0.0022620
0.0023587 0.0023587 0.0023587
0.0024643 0.0024643 0.0024643
0.0025768 0.0025768 0.0025768
0.0026995 0.0026995 0.0026995
0.0028276 0.0028276 0.0028276
0.0029838 0.0029838 0.0029838
0.0031427 0.0031427 0.0031427
0.0033167 0.0033167 0.0033167
0.0035201 0.0035201 0.0035201
0.0037051 0.0037051 0.0037051
0.0039255 0.0039255 0.0039255
0.0041639 0.0041639 0.0041639
0.0043928 0.0043928 0.0043928
0.0046964 0.0046964 0.0046964
0.0049877 0.0049877 0.0049877
0.0053040 0.0053040 0.0053040
0.0056554 0.0056554 0.0056554
0.0059698 0.0059698 0.0059698
0.0064162 0.0064162 0.0064162
0.0067800 0.0067800 0.0067800
0.0073342 0.0073342 0.0073342
0.0077792 0.0077792 0.0077792
0.0082540 0.0082540 0.0082540
0.0087836 0.0087836 0.0087836
0.0093470 0.0093470 0.0093470
0.0099461 0.0099461 0.0099461
0.0103850 0.0103850 0.0103850
0.0111093 0.0111093 0.0111093
0.0116196 0.0116196 0.0116196
0.0124289 0.0124289 0.0124289
0.0130204 0.0130204 0.0130204
0.0140290 0.0140290 0.0140290
0.0147439 0.0147439 0.0147439
0.0154946 0.0154946 0.0154946
0.0167114 0.0167114 0.0167114
0.0176852 0.0176852 0.0176852
0.0187147 0.0187147 0.0187147
0.0198029 0.0198029 0.0198029
0.0209530 0.0209530 0.0209530
0.0221685 0.0221685 0.0221685
0.0235956 0.0235956 0.0235956
0.0251123 0.0251123 0.0251123
0.0267238 0.0267238 0.0267238
0.0275669 0.0275669 0.0275669
0.0293311 0.0293311 0.0293311
0.0312407 0.0312407 0.0312407
0.0333469 0.0333469 0.0333469
0.0344508 0.0344508 0.0344508
0.0367653 0.0367653 0.0367653
0.0392289 0.0392289 0.0392289
0.0405193 0.0405193 0.0405193
0.0432408 0.0432408 0.0432408
0.0447116 0.0447116 0.0447116
0.0477972 0.0477972 0.0477972
0.0510845 0.0510845 0.0510845
0.0528073 0.0528073 0.0528073
0.0018709 0.0018709 0.0018709
0.0018964 0.0018964 0.0018964
0.0019170 0.0019170 0.0019170
0.0019413 0.0019413 0.0019413
0.0019838 0.0019838 0.0019838
0.0020999 0.0020999 0.0020999
0.0022216 0.0022216 0.0022216
0.0023392 0.0023392 0.0023392
0.0024320 0.0024320 0.0024320
0.0025380 0.0025380 0.0025380
0.0026499 0.0026499 0.0026499
0.0027845 0.0027845 0.0027845
0.0029383 0.0029383 0.0029383
0.0030871 0.0030871 0.0030871
0.0032862 0.0032862 0.0032862
0.0034509 0.0034509 0.0034509
0.0036625 0.0036625 0.0036625
0.0038804 0.0038804 0.0038804
0.0041111 0.0041111 0.0041111
0.0043344 0.0043344 0.0043344
0.0046341 0.0046341 0.0046341
0.0049116 0.0049116 0.0049116
0.0052231 0.0052231 0.0052231
0.0055543 0.0055543 0.0055543
0.0058631 0.0058631 0.0058631
0.0063016 0.0063016 0.0063016
0.0066517 0.0066517 0.0066517
0.0071916 0.0071916 0.0071916
0.0076280 0.0076280 0.0076280
0.0080906 0.0080906 0.0080906
0.0086034 0.0086034 0.0086034
0.0091553 0.0091553 0.0091553
0.0097423 0.0097423 0.0097423
0.0101542 0.0101542 0.0101542
0.0108625 0.0108625 0.0108625
0.0116196 0.0116196 0.0116196
0.0121531 0.0121531 0.0121531
0.0130204 0.0130204 0.0130204
0.0136846 0.0136846 0.0136846
0.0143821 0.0143821 0.0143821
0.0154946 0.0154946 0.0154946
0.0162828 0.0162828 0.0162828
0.0171915 0.0171915 0.0171915
0.0181928 0.0181928 0.0181928
0.0192512 0.0192512 0.0192512
0.0203700 0.0203700 0.0203700
0.0215524 0.0215524 0.0215524
0.0228712 0.0228712 0.0228712
0.0243425 0.0243425 0.0243425
0.0259059 0.0259059 0.0259059
0.0275669 0.0275669 0.0275669
0.0293311 0.0293311 0.0293311
0.0302539 0.0302539 0.0302539
0.0322772 0.0322772 0.0322772
0.0344508 0.0344508 0.0344508
0.0367653 0.0367653 0.0367653
0.0379779 0.0379779 0.0379779
0.0405193 0.0405193 0.0405193
0.0418504 0.0418504 0.0418504
0.0447116 0.0447116 0.0447116
0.0477972 0.0477972 0.0477972
0.0494149 0.0494149 0.0494149
0.0528073 0.0528073 0.0528073
0.0545848 0.0545848 0.0545848
0.0018893 0.0018893 0.0018893
0.0019111 0.0019111 0.0019111
0.0019326 0.0019326 0.0019326
0.0019677 0.0019677 0.0019677
0.0020594 0.0020594 0.0020594
0.0021918 0.0021918 0.0021918
0.0023005 0.0023005 0.0023005
0.0024107 0.0024107 0.0024107
0.0025125 0.0025125 0.0025125
0.0026172 0.0026172 0.0026172
0.0027502 0.0027502 0.0027502
0.0028935 0.0028935 0.0028935
0.0030597 0.0030597 0.0030597
0.0032280 0.0032280 0.0032280
0.0034169 0.0034169 0.0034169
0.0035906 0.0035906 0.0035906
0.0037917 0.0037917 0.0037917
0.0040172 0.0040172 0.0040172
0.0042768 0.0042768 0.0042768
0.0045118 0.0045118 0.0045118
0.0048366 0.0048366 0.0048366
0.0051434 0.0051434 0.0051434
0.0054696 0.0054696 0.0054696
0.0057583 0.0057583 0.0057583
0.0061890 0.0061890 0.0061890
0.0065329 0.0065329 0.0065329
0.0070517 0.0070517 0.0070517
0.0074797 0.0074797 0.0074797
0.0079334 0.0079334 0.0079334
0.0084269 0.0084269 0.0084269
0.0089676 0.0089676 0.0089676
0.0095426 0.0095426 0.0095426
0.0101542 0.0101542 0.0101542
0.0106211 0.0106211 0.0106211
0.0113616 0.0113616 0.0113616
0.0121531 0.0121531 0.0121531
0.0127108 0.0127108 0.0127108
0.0133484 0.0133484 0.0133484
0.0143821 0.0143821 0.0143821
0.0151146 0.0151146 0.0151146
0.0158839 0.0158839 0.0158839
0.0167114 0.0167114 0.0167114
0.0181928 0.0181928 0.0181928
0.0192512 0.0192512 0.0192512
0.0203700 0.0203700 0.0203700
0.0215524 0.0215524 0.0215524
0.0228712 0.0228712 0.0228712
0.0243425 0.0243425 0.0243425
0.0259059 0.0259059 0.0259059
0.0267238 0.0267238 0.0267238
0.0284357 0.0284357 0.0284357
0.0302539 0.0302539 0.0302539
0.0322772 0.0322772 0.0322772
0.0333469 0.0333469 0.0333469
0.0355899 0.0355899 0.0355899
0.0379779 0.0379779 0.0379779
0.0392289 0.0392289 0.0392289
0.0418504 0.0418504 0.0418504
0.0447116 0.0447116 0.0447116
0.0462299 0.0462299 0.0462299
0.0494149 0.0494149 0.0494149
0.0510845 0.0510845 0.0510845
0.0545848 0.0545848 0.0545848
0.0564187 0.0564187 0.0564187
0.0019058 0.0019058 0.0019058
0.0019256 0.0019256 0.0019256
0.0019533 0.0019533 0.0019533
0.0020288 0.0020288 0.0020288
0.0021517 0.0021517 0.0021517
0.0022719 0.0022719 0.0022719
0.0023790 0.0023790 0.0023790
0.0024752 0.0024752 0.0024752
0.0025899 0.0025899 0.0025899
0.0027163 0.0027163 0.0027163
0.0028494 0.0028494 0.0028494
0.0030068 0.0030068 0.0030068
0.0031709 0.0031709 0.0031709
0.0033498 0.0033498 0.0033498
0.0035552 0.0035552 0.0035552
0.0037482 0.0037482 0.0037482
0.0039711 0.0039711 0.0039711
0.0042200 0.0042200 0.0042200
0.0044519 0.0044519 0.0044519
0.0046964 0.0046964 0.0046964
0.0049877 0.0049877 0.0049877
0.0053040 0.0053040 0.0053040
0.0056554 0.0056554 0.0056554
0.0060784 0.0060784 0.0060784
0.0064162 0.0064162 0.0064162
0.0069146 0.0069146 0.0069146
0.0073342 0.0073342 0.0073342
0.0077792 0.0077792 0.0077792
0.0082540 0.0082540 0.0082540
0.0087836 0.0087836 0.0087836
0.0093470 0.0093470 0.0093470
0.0099461 0.0099461 0.0099461
0.0106211 0.0106211 0.0106211
0.0111093 0.0111093 0.0111093
0.0118834 0.0118834 0.0118834
0.0124289 0.0124289 0.0124289
0.0133484 0.0133484 0.0133484
0.0140290 0.0140290 0.0140290
0.0147439 0.0147439 0.0147439
0.0158839 0.0158839 0.0158839
0.0167114 0.0167114 0.0167114
0.0176852 0.0176852 0.0176852
0.0187147 0.0187147 0.0187147
0.0198029 0.0198029 0.0198029
0.0209530 0.0209530 0.0209530
0.0221685 0.0221685 0.0221685
0.0235956 0.0235956 0.0235956
0.0251123 0.0251123 0.0251123
0.0267238 0.0267238 0.0267238
0.0284357 0.0284357 0.0284357
0.0293311 0.0293311 0.0293311
0.0312407 0.0312407 0.0312407
0.0333469 0.0333469 0.0333469
0.0355899 0.0355899 0.0355899
0.0367653 0.0367653 0.0367653
0.0392289 0.0392289 0.0392289
0.0418504 0.0418504 0.0418504
0.0432408 0.0432408 0.0432408
0.0462299 0.0462299 0.0462299
0.0477972 0.0477972 0.0477972
0.0510845 0.0510845 0.0510845
0.0528073 0.0528073 0.0528073
0.0564187 0.0564187 0.0564187
0.0583104 0.0583104 0.0583104
0.0019196 0.0019196 0.0019196
0.0019445 0.0019445 0.0019445
0.0019987 0.0019987 0.0019987
0.0021205 0.0021205 0.0021205
0.0022417 0.0022417 0.0022417
0.0023489 0.0023489 0.0023489
0.0024535 0.0024535 0.0024535
0.0025509 0.0025509 0.0025509
0.0026663 0.0026663 0.0026663
0.0028059 0.0028059 0.0028059
0.0029610 0.0029610 0.0029610
0.0031148 0.0031148 0.0031148
0.0032862 0.0032862 0.0032862
0.0034853 0.0034853 0.0034853
0.0036625 0.0036625 0.0036625
0.0038804 0.0038804 0.0038804
0.0041111 0.0041111 0.0041111
0.0043928 0.0043928 0.0043928
0.0046341 0.0046341 0.0046341
0.0049116 0.0049116 0.0049116
0.0052231 0.0052231 0.0052231
0.0055543 0.0055543 0.0055543
0.0059698 0.0059698 0.0059698
0.0063016 0.0063016 0.0063016
0.0067800 0.0067800 0.0067800
0.0071916 0.0071916 0.0071916
0.0076280 0.0076280 0.0076280
0.0080906 0.0080906 0.0080906
0.0086034 0.0086034 0.0086034
0.0091553 0.0091553 0.0091553
0.0097423 0.0097423 0.0097423
0.0103850 0.0103850 0.0103850
0.0108625 0.0108625 0.0108625
0.0116196 0.0116196 0.0116196
0.0124289 0.0124289 0.0124289
0.0130204 0.0130204 0.0130204
0.0136846 0.0136846 0.0136846
0.0147439 0.0147439 0.0147439
0.0154946 0.0154946 0.0154946
0.0162828 0.0162828 0.0162828
0.0171915 0.0171915 0.0171915
0.0187147 0.0187147 0.0187147
0.0198029 0.0198029 0.0198029
0.0209530 0.0209530 0.0209530
0.0221685 0.0221685 0.0221685
0.0235956 0.0235956 0.0235956
0.0243425 0.0243425 0.0243425
0.0259059 0.0259059 0.0259059
0.0275669 0.0275669 0.0275669
0.0293311 0.0293311 0.0293311
0.0312407 0.0312407 0.0312407
0.0322772 0.0322772 0.0322772
0.0344508 0.0344508 0.0344508
0.0367653 0.0367653 0.0367653
0.0379779 0.0379779 0.0379779
0.0405193 0.0405193 0.0405193
0.0432408 0.0432408 0.0432408
0.0447116 0.0447116 0.0447116
0.0477972 0.0477972 0.0477972
0.0494149 0.0494149 0.0494149
0.0528073 0.0528073 0.0528073
0.0545848 0.0545848 0.0545848
0.0583104 0.0583104 0.0583104
0.0602614 0.0602614 0.0602614
0.0019365 0.0019365 0.0019365
0.0019735 0.0019735 0.0019735
0.0020796 0.0020796 0.0020796
0.0022116 0.0022116 0.0022116
0.0023197 0.0023197 0.0023197
0.0024213 0.0024213 0.0024213
0.0025252 0.0025252 0.0025252
0.0026335 0.0026335 0.0026335
0.0027673 0.0027673 0.0027673
0.0029158 0.0029158 0.0029158
0.0030597 0.0030597 0.0030597
0.0032570 0.0032570 0.0032570
0.0034169 0.0034169 0.0034169
0.0036264 0.0036264 0.0036264
0.0038358 0.0038358 0.0038358
0.0040639 0.0040639 0.0040639
0.0042768 0.0042768 0.0042768
0.0045725 0.0045725 0.0045725
0.0048366 0.0048366 0.0048366
0.0051434 0.0051434 0.0051434
0.0054696 0.0054696 0.0054696
0.0058631 0.0058631 0.0058631
0.0061890 0.0061890 0.0061890
0.0066517 0.0066517 0.0066517
0.0070517 0.0070517 0.0070517
0.0074797 0.0074797 0.0074797
0.0079334 0.0079334 0.0079334
0.0084269 0.0084269 0.0084269
0.0089676 0.0089676 0.0089676
0.0095426 0.0095426 0.0095426
0.0101542 0.0101542 0.0101542
0.0108625 0.0108625 0.0108625
0.0113616 0.0113616 0.0113616
0.0121531 0.0121531 0.0121531
0.0127108 0.0127108 0.0127108
0.0136846 0.0136846 0.0136846
0.0143821 0.0143821 0.0143821
0.0151146 0.0151146 0.0151146
0.0162828 0.0162828 0.0162828
0.0171915 0.0171915 0.0171915
0.0181928 0.0181928 0.0181928
0.0192512 0.0192512 0.0192512
0.0203700 0.0203700 0.0203700
0.0215524 0.0215524 0.0215524
0.0228712 0.0228712 0.0228712
0.0243425 0.0243425 0.0243425
0.0259059 0.0259059 0.0259059
0.0275669 0.0275669 0.0275669
0.0284357 0.0284357 0.0284357
0.0302539 0.0302539 0.0302539
0.0322772 0.0322772 0.0322772
0.0344508 0.0344508 0.0344508
0.0355899 0.0355899 0.0355899
0.0379779 0.0379779 0.0379779
0.0405193 0.0405193 0.0405193
0.0418504 0.0418504 0.0418504
0.0447116 0.0447116 0.0447116
0.0462299 0.0462299 0.0462299
0.0494149 0.0494149 0.0494149
0.0510845 0.0510845 0.0510845
0.0545848 0.0545848 0.0545848
0.0564187 0.0564187 0.0564187
0.0602614 0.0602614 0.0602614
0.0623989 0.0623989 0.0623989
0.0019591 0.0019591 0.0019591
0.0020441 0.0020441 0.0020441
0.0021722 0.0021722 0.0021722
0.0022909 0.0022909 0.0022909
0.0023895 0.0023895 0.0023895
0.0024872 0.0024872 0.0024872
0.0026030 0.0026030 0.0026030
0.0027332 0.0027332 0.0027332
0.0028714 0.0028714 0.0028714
0.0030325 0.0030325 0.0030325
0.0031993 0.0031993 0.0031993
0.0033832 0.0033832 0.0033832
0.0035552 0.0035552 0.0035552
0.0037482 0.0037482 0.0037482
0.0039711 0.0039711 0.0039711
0.0042200 0.0042200 0.0042200
0.0045118 0.0045118 0.0045118
0.0047628 0.0047628 0.0047628
0.0050650 0.0050650 0.0050650
0.0053862 0.0053862 0.0053862
0.0057583 0.0057583 0.0057583
0.0060784 0.0060784 0.0060784
0.0065329 0.0065329 0.0065329
0.0069146 0.0069146 0.0069146
0.0073342 0.0073342 0.0073342
0.0079334 0.0079334 0.0079334
0.0084269 0.0084269 0.0084269
0.0089676 0.0089676 0.0089676
0.0093470 0.0093470 0.0093470
0.0099461 0.0099461 0.0099461
0.0106211 0.0106211 0.0106211
0.0113616 0.0113616 0.0113616
0.0118834 0.0118834 0.0118834
0.0127108 0.0127108 0.0127108
0.0133484 0.0133484 0.0133484
0.0140290 0.0140290 0.0140290
0.0151146 0.0151146 0.0151146
0.0158839 0.0158839 0.0158839
0.0167114 0.0167114 0.0167114
0.0176852 0.0176852 0.0176852
0.0187147 0.0187147 0.0187147
0.0198029 0.0198029 0.0198029
0.0209530 0.0209530 0.0209530
0.0221685 0.0221685 0.0221685
0.0235956 0.0235956 0.0235956
0.0251123 0.0251123 0.0251123
0.0267238 0.0267238 0.0267238
0.0284357 0.0284357 0.0284357
0.0302539 0.0302539 0.0302539
0.0312407 0.0312407 0.0312407
0.0333469 0.0333469 0.0333469
0.0355899 0.0355899 0.0355899
0.0379779 0.0379779 0.0379779
0.0392289 0.0392289 0.0392289
0.0418504 0.0418504 0.0418504
0.0432408 0.0432408 0.0432408
0.0462299 0.0462299 0.0462299
0.0477972 0.0477972 0.0477972
0.0510845 0.0510845 0.0510845
0.0528073 0.0528073 0.0528073
0.0564187 0.0564187 0.0564187
0.0583104 0.0583104 0.0583104
0.0623989 0.0623989 0.0623989
0.0646070 0.0646070 0.0646070
0.0020137 0.0020137 0.0020137
0.0021308 0.0021308 0.0021308
0.0022518 0.0022518 0.0022518
0.0023587 0.0023587 0.0023587
0.0024643 0.0024643 0.0024643
0.0025768 0.0025768 0.0025768
0.0026829 0.0026829 0.0026829
0.0028276 0.0028276 0.0028276
0.0029838 0.0029838 0.0029838
0.0031427 0.0031427 0.0031427
0.0033167 0.0033167 0.0033167
0.0035201 0.0035201 0.0035201
0.0037051 0.0037051 0.0037051
0.0039255 0.0039255 0.0039255
0.0041639 0.0041639 0.0041639
0.0043928 0.0043928 0.0043928
0.0046964 0.0046964 0.0046964
0.0049877 0.0049877 0.0049877
0.0053040 0.0053040 0.0053040
0.0056554 0.0056554 0.0056554
0.0059698 0.0059698 0.0059698
0.0064162 0.0064162 0.0064162
0.0067800 0.0067800 0.0067800
0.0073342 0.0073342 0.0073342
0.0077792 0.0077792 0.0077792
0.0082540 0.0082540 0.0082540
0.0087836 0.0087836 0.0087836
0.0093470 0.0093470 0.0093470
0.0097423 0.0097423 0.0097423
0.0103850 0.0103850 0.0103850
0.0111093 0.0111093 0.0111093
0.0116196 0.0116196 0.0116196
0.0124289 0.0124289 0.0124289
0.0130204 0.0130204 0.0130204
0.0140290 0.0140290 0.0140290
0.0147439 0.0147439 0.0147439
0.0154946 0.0154946 0.0154946
0.0162828 0.0162828 0.0162828
0.0176852 0.0176852 0.0176852
0.0187147 0.0187147 0.0187147
0.0198029 0.0198029 0.0198029
0.0209530 0.0209530 0.0209530
0.0221685 0.0221685 0.0221685
0.0235956 0.0235956 0.0235956
0.0251123 0.0251123 0.0251123
0.0267238 0.0267238 0.0267238
0.0275669 0.0275669 0.0275669
0.0293311 0.0293311 0.0293311
0.0312407 0.0312407 0.0312407
0.0333469 0.0333469 0.0333469
0.0344508 0.0344508 0.0344508
0.0367653 0.0367653 0.0367653
0.0392289 0.0392289 0.0392289
0.0405193 0.0405193 0.0405193
0.0432408 0.0432408 0.0432408
0.0447116 0.0447116 0.0447116
0.0477972 0.0477972 0.0477972
0.0494149 0.0494149 0.0494149
0.0528073 0.0528073 0.0528073
0.0545848 0.0545848 0.0545848
0.0583104 0.0583104 0.0583104
0.0602614 0.0602614 0.0602614
0.0646070 0.0646070 0.0646070
0.0668877 0.0668877 0.0668877
0.0020999 0.0020999 0.0020999
0.0022216 0.0022216 0.0022216
0.0023294 0.0023294 0.0023294
0.0024320 0.0024320 0.0024320
0.0025380 0.0025380 0.0025380
0.0026499 0.0026499 0.0026499
0.0027845 0.0027845 0.0027845
0.0029383 0.0029383 0.0029383
0.0030871 0.0030871 0.0030871
0.0032570 0.0032570 0.0032570
0.0034509 0.0034509 0.0034509
0.0036264 0.0036264 0.0036264
0.0038804 0.0038804 0.0038804
0.0040639 0.0040639 0.0040639
0.0043344 0.0043344 0.0043344
0.0045725 0.0045725 0.0045725
0.0049116 0.0049116 0.0049116
0.0052231 0.0052231 0.0052231
0.0055543 0.0055543 0.0055543
0.0058631 0.0058631 0.0058631
0.0063016 0.0063016 0.0063016
0.0066517 0.0066517 0.0066517
0.0071916 0.0071916 0.0071916
0.0076280 0.0076280 0.0076280
0.0080906 0.0080906 0.0080906
0.0086034 0.0086034 0.0086034
0.0091553 0.0091553 0.0091553
0.0097423 0.0097423 0.0097423
0.0101542 0.0101542 0.0101542
0.0108625 0.0108625 0.0108625
0.0116196 0.0116196 0.0116196
0.0121531 0.0121531 0.0121531
0.0130204 0.0130204 0.0130204
0.0136846 0.0136846 0.0136846
0.0143821 0.0143821 0.0143821
0.0154946 0.0154946 0.0154946
0.0162828 0.0162828 0.0162828
0.0171915 0.0171915 0.0171915
0.0181928 0.0181928 0.0181928
0.0192512 0.0192512 0.0192512
0.0203700 0.0203700 0.0203700
0.0215524 0.0215524 0.0215524
0.0228712 0.0228712 0.0228712
0.0243425 0.0243425 0.0243425
0.0259059 0.0259059 0.0259059
0.0275669 0.0275669 0.0275669
0.0293311 0.0293311 0.0293311
0.0302539 0.0302539 0.0302539
0.0322772 0.0322772 0.0322772
0.0344508 0.0344508 0.0344508
0.0367653 0.0367653 0.0367653
0.0379779 0.0379779 0.0379779
0.0405193 0.0405193 0.0405193
0.0418504 0.0418504 0.0418504
0.0447116 0.0447116 0.0447116
0.0477972 0.0477972 0.0477972
0.0494149 0.0494149 0.0494149
0.0528073 0.0528073 0.0528073
0.0545848 0.0545848 0.0545848
0.0564187 0.0564187 0.0564187
0.0602614 0.0602614 0.0602614
0.0623989 0.0623989 0.0623989
0.0668877 0.0668877 0.0668877
0.0692430 0.0692430 0.0692430
0.0021918 0.0021918 0.0021918
0.0023005 0.0023005 0.0023005
0.0024001 0.0024001 0.0024001
0.0025125 0.0025125 0.0025125
0.0026172 0.0026172 0.0026172
0.0027502 0.0027502 0.0027502
0.0028935 0.0028935 0.0028935
0.0030325 0.0030325 0.0030325
0.0032280 0.0032280 0.0032280
0.0033832 0.0033832 0.0033832
0.0035906 0.0035906 0.0035906
0.0037917 0.0037917 0.0037917
0.0040172 0.0040172 0.0040172
0.0042768 0.0042768 0.0042768
0.0045118 0.0045118 0.0045118
0.0047628 0.0047628 0.0047628
0.0051434 0.0051434 0.0051434
0.0053862 0.0053862 0.0053862
0.0057583 0.0057583 0.0057583
0.0061890 0.0061890 0.0061890
0.0065329 0.0065329 0.0065329
0.0070517 0.0070517 0.0070517
0.0074797 0.0074797 0.0074797
0.0079334 0.0079334 0.0079334
0.0084269 0.0084269 0.0084269
0.0089676 0.0089676 0.0089676
0.0095426 0.0095426 0.0095426
0.0101542 0.0101542 0.0101542
0.0106211 0.0106211 0.0106211
0.0113616 0.0113616 0.0113616
0.0118834 0.0118834 0.0118834
0.0127108 0.0127108 0.0127108
0.0133484 0.0133484 0.0133484
0.0143821 0.0143821 0.0143821
0.0151146 0.0151146 0.0151146
0.0158839 0.0158839 0.0158839
0.0167114 0.0167114 0.0167114
0.0181928 0.0181928 0.0181928
0.0192512 0.0192512 0.0192512
0.0203700 0.0203700 0.0203700
0.0215524 0.0215524 0.0215524
0.0228712 0.0228712 0.0228712
0.0243425 0.0243425 0.0243425
0.0251123 0.0251123 0.0251123
0.0267238 0.0267238 0.0267238
0.0284357 0.0284357 0.0284357
0.0302539 0.0302539 0.0302539
0.0322772 0.0322772 0.0322772
0.0333469 0.0333469 0.0333469
0.0355899 0.0355899 0.0355899
0.0379779 0.0379779 0.0379779
0.0392289 0.0392289 0.0392289
0.0418504 0.0418504 0.0418504
0.0447116 0.0447116 0.0447116
0.0462299 0.0462299 0.0462299
0.0494149 0.0494149 0.0494149
0.0510845 0.0510845 0.0510845
0.0545848 0.0545848 0.0545848
0.0564187 0.0564187 0.0564187
0.0583104 0.0583104 0.0583104
0.0623989 0.0623989 0.0623989
0.0646070 0.0646070 0.0646070
0.0692430 0.0692430 0.0692430
0.0716748 0.0716748 0.0716748
0.0022719 0.0022719 0.0022719
0.0023686 0.0023686 0.0023686
0.0024752 0.0024752 0.0024752
0.0025899 0.0025899 0.0025899
0.0026995 0.0026995 0.0026995
0.0028494 0.0028494 0.0028494
0.0030068 0.0030068 0.0030068
0.0031709 0.0031709 0.0031709
0.0033498 0.0033498 0.0033498
0.0035201 0.0035201 0.0035201
0.0037482 0.0037482 0.0037482
0.0039711 0.0039711 0.0039711
0.0041639 0.0041639 0.0041639
0.0044519 0.0044519 0.0044519
0.0046964 0.0046964 0.0046964
0.0049877 0.0049877 0.0049877
0.0053040 0.0053040 0.0053040
0.0056554 0.0056554 0.0056554
0.0060784 0.0060784 0.0060784
0.0064162 0.0064162 0.0064162
0.0069146 0.0069146 0.0069146
0.0073342 0.0073342 0.0073342
0.0077792 0.0077792 0.0077792
0.0082540 0.0082540 0.0082540
0.0087836 0.0087836 0.0087836
0.0093470 0.0093470 0.0093470
0.0099461 0.0099461 0.0099461
0.0103850 0.0103850 0.0103850
0.0111093 0.0111093 0.0111093
0.0118834 0.0118834 0.0118834
