Plugins/FilmEmulator/Content/LUTs/FE_Look_Super8_64.cube
TITLE "FE_Look_Super8"
LUT_3D_SIZE 8
0.015156 0.013847 0.012962
0.053083 0.012515 0.011631
0.184493 0.007901 0.007017
0.397536 0.000421 0.000000
0.658518 0.000000 0.000000
0.920482 0.000000 0.000000
1.000000 0.000000 0.000000
1.000000 0.000000 0.000000
0.011006 0.046070 0.008812
0.048933 0.044739 0.007480
0.180343 0.040125 0.002866
0.393386 0.032645 0.000000
0.654367 0.023482 0.000000
0.916331 0.014284 0.000000
1.000000 0.007055 0.000000
1.000000 0.004091 0.000000
0.000000 0.157720 0.000000
0.034551 0.156388 0.000000
0.165962 0.151775 0.000000
0.379005 0.144295 0.000000
0.639986 0.135131 0.000000
0.901950 0.125934 0.000000
1.000000 0.118705 0.000000
1.000000 0.115741 0.000000
0.000000 0.338727 0.000000
0.011237 0.337396 0.000000
0.142647 0.332782 0.000000
0.355690 0.325302 0.000000
0.616671 0.316138 0.000000
0.878636 0.306941 0.000000
1.000000 0.299712 0.000000
1.000000 0.296748 0.000000
0.000000 0.560464 0.000000
0.000000 0.559133 0.000000
0.114086 0.554519 0.000000
0.327129 0.547039 0.000000
0.588111 0.537876 0.000000
0.850075 0.528678 0.000000
1.000000 0.521449 0.000000
1.000000 0.518485 0.000000
0.000000 0.783037 0.000000
0.000000 0.781705 0.000000
0.085418 0.777091 0.000000
0.298461 0.769611 0.000000
0.559442 0.760448 0.000000
0.821407 0.751250 0.000000
1.000000 0.744021 0.000000
1.000000 0.741058 0.000000
0.000000 0.957969 0.000000
0.000000 0.956638 0.000000
0.062886 0.952024 0.000000
0.275928 0.944544 0.000000
0.536910 0.935381 0.000000
0.798874 0.926183 0.000000
1.000000 0.918954 0.000000
1.000000 0.915990 0.000000
0.000000 1.000000 0.000000
0.000000 1.000000 0.000000
0.053649 1.000000 0.000000
0.266691 1.000000 0.000000
0.527673 1.000000 0.000000
0.789637 0.997896 0.000000
0.995531 0.990667 0.000000
1.000000 0.987704 0.000000
0.014760 0.013450 0.046992
0.052687 0.012118 0.045660
0.184097 0.007505 0.041046
0.397140 0.000025 0.033566
0.658121 0.000000 0.024403
0.920085 0.000000 0.015205
1.000000 0.000000 0.007976
1.000000 0.000000 0.005013
0.010609 0.045674 0.042841
0.048536 0.044342 0.041510
0.179946 0.039728 0.036896
0.392989 0.032248 0.029416
0.653971 0.023085 0.020253
0.915935 0.013887 0.011055
1.000000 0.006658 0.003826
1.000000 0.003695 0.000862
0.000000 0.157323 0.028460
0.034155 0.155992 0.027129
0.165565 0.151378 0.022515
0.378608 0.143898 0.015035
0.639589 0.134735 0.005872
0.901554 0.125537 0.000000
1.000000 0.118308 0.000000
1.000000 0.115345 0.000000
0.000000 0.338331 0.005146
0.010840 0.336999 0.003814
0.142250 0.332385 0.000000
0.355293 0.324905 0.000000
0.616275 0.315742 0.000000
0.878239 0.306544 0.000000
1.000000 0.299315 0.000000
1.000000 0.296352 0.000000
0.000000 0.560068 0.000000
0.000000 0.558736 0.000000
0.113690 0.554122 0.000000
0.326733 0.546642 0.000000
0.587714 0.537479 0.000000
0.849678 0.528281 0.000000
1.000000 0.521052 0.000000
1.000000 0.518089 0.000000
0.000000 0.782640 0.000000
0.000000 0.781308 0.000000
0.085021 0.776694 0.000000
0.298064 0.769214 0.000000
0.559046 0.760051 0.000000
0.821010 0.750854 0.000000
1.000000 0.743625 0.000000
1.000000 0.740661 0.000000
0.000000 0.957573 0.000000
0.000000 0.956241 0.000000
0.062489 0.951627 0.000000
0.275532 0.944147 0.000000
0.536513 0.934984 0.000000
0.798478 0.925786 0.000000
1.000000 0.918557 0.000000
1.000000 0.915594 0.000000
0.000000 1.000000 0.000000
0.000000 1.000000 0.000000
0.053252 1.000000 0.000000
0.266295 1.000000 0.000000
0.527276 1.000000 0.000000
0.789241 0.997499 0.000000
0.995134 0.990270 0.000000
1.000000 0.987307 0.000000
0.013386 0.012076 0.164899
0.051312 0.010744 0.163567
0.182723 0.006131 0.158953
0.395766 0.000000 0.151473
0.656747 0.000000 0.142310
0.918711 0.000000 0.133113
1.000000 0.000000 0.125884
1.000000 0.000000 0.122920
0.009235 0.044300 0.160748
0.047162 0.042968 0.159417
0.178572 0.038354 0.154803
0.391615 0.030874 0.147323
0.652596 0.021711 0.138160
0.914561 0.012513 0.128962
1.000000 0.005284 0.121733
1.000000 0.002321 0.118769
0.000000 0.155949 0.146367
0.032781 0.154618 0.145036
0.164191 0.150004 0.140422
0.377234 0.142524 0.132942
0.638215 0.133361 0.123779
0.900180 0.124163 0.114581
1.000000 0.116934 0.107352
1.000000 0.113971 0.104388
0.000000 0.336957 0.123053
0.009466 0.335625 0.121721
0.140876 0.331011 0.117107
0.353919 0.323531 0.109627
0.614901 0.314368 0.100464
0.876865 0.305170 0.091266
1.000000 0.297941 0.084037
1.000000 0.294978 0.081074
0.000000 0.558694 0.094492
0.000000 0.557362 0.093160
0.112316 0.552748 0.088546
0.325358 0.545268 0.081066
0.586340 0.536105 0.071903
0.848304 0.526907 0.062705
1.000000 0.519678 0.055476
1.000000 0.516715 0.052513
0.000000 0.781266 0.065823
0.000000 0.779934 0.064492
0.083647 0.775320 0.059878
0.296690 0.767840 0.052398
0.557672 0.758677 0.043235
0.819636 0.749480 0.034037
1.000000 0.742251 0.026808
1.000000 0.739287 0.023845
0.000000 0.956199 0.043291
0.000000 0.954867 0.041960
0.061115 0.950253 0.037346
0.274158 0.942773 0.029866
0.535139 0.933610 0.020703
0.797104 0.924412 0.011505
1.000000 0.917183 0.004276
1.000000 0.914220 0.001312
0.000000 1.000000 0.034054
0.000000 1.000000 0.032723
0.051878 1.000000 0.028109
0.264921 1.000000 0.020629
0.525902 1.000000 0.011466
0.787867 0.996125 0.002268
0.993760 0.988896 0.000000
1.000000 0.985933 0.000000
0.011158 0.009849 0.356051
0.049085 0.008517 0.354719
0.180495 0.003903 0.350105
0.393538 0.000000 0.342625
0.654519 0.000000 0.333462
0.916484 0.000000 0.324264
1.000000 0.000000 0.317035
1.000000 0.000000 0.314072
0.007008 0.042072 0.351900
0.044934 0.040741 0.350568
0.176344 0.036127 0.345954
0.389387 0.028647 0.338474
0.650369 0.019483 0.329311
0.912333 0.010286 0.320114
1.000000 0.003057 0.312885
1.000000 0.000093 0.309921
0.000000 0.153722 0.337519
0.030553 0.152390 0.336187
0.161963 0.147776 0.331573
0.375006 0.140296 0.324093
0.635988 0.131133 0.314930
0.897952 0.121936 0.305733
1.000000 0.114707 0.298504
1.000000 0.111743 0.295540
0.000000 0.334729 0.314204
0.007239 0.333397 0.312873
0.138649 0.328784 0.308259
0.351692 0.321303 0.300779
0.612673 0.312140 0.291616
0.874638 0.302943 0.282418
1.000000 0.295714 0.275189
1.000000 0.292750 0.272225
0.000000 0.556466 0.285643
0.000000 0.555135 0.284312
0.110088 0.550521 0.279698
0.323131 0.543041 0.272218
0.584112 0.533877 0.263055
0.846077 0.524680 0.253857
1.000000 0.517451 0.246628
1.000000 0.514487 0.243665
0.000000 0.779038 0.256975
0.000000 0.777707 0.255643
0.081420 0.773093 0.251030
0.294463 0.765613 0.243550
0.555444 0.756450 0.234386
0.817408 0.747252 0.225189
1.000000 0.740023 0.217960
1.000000 0.737059 0.214996
0.000000 0.953971 0.234443
0.000000 0.952639 0.233111
0.058887 0.948026 0.228497
0.271930 0.940546 0.221017
0.532912 0.931382 0.211854
0.794876 0.922185 0.202657
1.000000 0.914956 0.195428
1.000000 0.911992 0.192464
0.000000 1.000000 0.225206
0.000000 1.000000 0.223874
0.049650 1.000000 0.219260
0.262693 1.000000 0.211780
0.523675 1.000000 0.202617
0.785639 0.993898 0.193420
0.991533 0.986669 0.186191
1.000000 0.983705 0.183227
0.008429 0.007120 0.590215
0.046356 0.005788 0.588883
0.177766 0.001174 0.584270
0.390809 0.000000 0.576789
0.651791 0.000000 0.567626
0.913755 0.000000 0.558429
1.000000 0.000000 0.551200
1.000000 0.000000 0.548236
0.004279 0.039343 0.586064
0.042206 0.038012 0.584733
0.173616 0.033398 0.580119
0.386659 0.025918 0.572639
0.647640 0.016755 0.563476
0.909604 0.007557 0.554278
1.000000 0.000328 0.547049
1.000000 0.000000 0.544086
0.000000 0.150993 0.571683
0.027824 0.149661 0.570352
0.159235 0.145048 0.565738
0.372278 0.137568 0.558258
0.633259 0.128404 0.549095
0.895223 0.119207 0.539897
1.000000 0.111978 0.532668
1.000000 0.109014 0.529705
0.000000 0.332000 0.548369
0.004510 0.330669 0.547037
0.135920 0.326055 0.542423
0.348963 0.318575 0.534943
0.609944 0.309411 0.525780
0.871909 0.300214 0.516582
1.000000 0.292985 0.509353
1.000000 0.290021 0.506390
0.000000 0.553737 0.519808
0.000000 0.552406 0.518476
0.107359 0.547792 0.513862
0.320402 0.540312 0.506382
0.581384 0.531149 0.497219
0.843348 0.521951 0.488022
1.000000 0.514722 0.480793
1.000000 0.511758 0.477829
0.000000 0.776309 0.491140
0.000000 0.774978 0.489808
0.078691 0.770364 0.485194
0.291734 0.762884 0.477714
0.552715 0.753721 0.468551
0.814680 0.744523 0.459353
1.000000 0.737294 0.452124
1.000000 0.734331 0.449161
0.000000 0.951242 0.468607
0.000000 0.949911 0.467276
0.056159 0.945297 0.462662
0.269201 0.937817 0.455182
0.530183 0.928654 0.446019
0.792147 0.919456 0.436821
0.998041 0.912227 0.429592
1.000000 0.909263 0.426628
0.000000 1.000000 0.459370
0.000000 1.000000 0.458039
0.046922 1.000000 0.453425
0.259964 1.000000 0.445945
0.520946 1.000000 0.436782
0.782910 0.991169 0.427584
0.988804 0.983940 0.420355
1.000000 0.980977 0.417391
0.005690 0.004381 0.825261
0.043617 0.003049 0.823930
0.175027 0.000000 0.819316
0.388070 0.000000 0.811836
0.649052 0.000000 0.802673
0.911016 0.000000 0.793475
1.000000 0.000000 0.786246
1.000000 0.000000 0.783282
0.001540 0.036604 0.821111
0.039466 0.035273 0.819779
0.170877 0.030659 0.815165
0.383919 0.023179 0.807685
0.644901 0.014016 0.798522
0.906865 0.004818 0.789324
1.000000 0.000000 0.782095
1.000000 0.000000 0.779132
0.000000 0.148254 0.806730
0.025085 0.146922 0.805398
0.156496 0.142308 0.800784
0.369538 0.134828 0.793304
0.630520 0.125665 0.784141
0.892484 0.116468 0.774943
1.000000 0.109239 0.767714
1.000000 0.106275 0.764751
0.000000 0.329261 0.783415
0.001771 0.327929 0.782083
0.133181 0.323316 0.777469
0.346224 0.315836 0.769989
0.607205 0.306672 0.760826
0.869170 0.297475 0.751629
1.000000 0.290246 0.744400
1.000000 0.287282 0.741436
0.000000 0.550998 0.754854
0.000000 0.549667 0.753523
0.104620 0.545053 0.748909
0.317663 0.537573 0.741429
0.578645 0.528410 0.732265
0.840609 0.519212 0.723068
1.000000 0.511983 0.715839
1.000000 0.509019 0.712875
0.000000 0.773570 0.726186
0.000000 0.772239 0.724854
0.075952 0.767625 0.720240
0.288995 0.760145 0.712760
0.549976 0.750982 0.703597
0.811940 0.741784 0.694399
1.000000 0.734555 0.687170
1.000000 0.731592 0.684207
0.000000 0.948503 0.703654
0.000000 0.947172 0.702322
0.053419 0.942558 0.697708
0.266462 0.935078 0.690228
0.527444 0.925914 0.681065
0.789408 0.916717 0.671867
0.995302 0.909488 0.664638
1.000000 0.906524 0.661675
0.000000 1.000000 0.694417
0.000000 1.000000 0.693085
0.044182 1.000000 0.688471
0.257225 1.000000 0.680991
0.518207 0.997628 0.671828
0.780171 0.988430 0.662630
0.986065 0.981201 0.655401
1.000000 0.978237 0.652438
0.003537 0.002228 1.000000
0.041464 0.000896 1.000000
0.172874 0.000000 1.000000
0.385917 0.000000 0.996572
0.646899 0.000000 0.987409
0.908863 0.000000 0.978212
1.000000 0.000000 0.970983
1.000000 0.000000 0.968019
0.000000 0.034451 1.000000
0.037314 0.033120 1.000000
0.168724 0.028506 0.999902
0.381767 0.021026 0.992422
0.642748 0.011863 0.983259
0.904712 0.002665 0.974061
1.000000 0.000000 0.966832
1.000000 0.000000 0.963869
0.000000 0.146101 0.991466
0.022933 0.144769 0.990135
0.154343 0.140156 0.985521
0.367386 0.132676 0.978041
0.628367 0.123512 0.968878
0.890332 0.114315 0.959680
1.000000 0.107086 0.952451
1.000000 0.104122 0.949488
0.000000 0.327108 0.968152
0.000000 0.325777 0.966820
0.131028 0.321163 0.962206
0.344071 0.313683 0.954726
0.605053 0.304520 0.945563
0.867017 0.295322 0.936365
1.000000 0.288093 0.929136
1.000000 0.285129 0.926173
0.000000 0.548845 0.939591
0.000000 0.547514 0.938259
0.102467 0.542900 0.933645
0.315510 0.535420 0.926165
0.576492 0.526257 0.917002
0.838456 0.517059 0.907805
1.000000 0.509830 0.900576
1.000000 0.506867 0.897612
0.000000 0.771418 0.910923
0.000000 0.770086 0.909591
0.073799 0.765472 0.904977
0.286842 0.757992 0.897497
0.547823 0.748829 0.888334
0.809788 0.739631 0.879136
1.000000 0.732402 0.871907
1.000000 0.729439 0.868944
0.000000 0.946350 0.888390
0.000000 0.945019 0.887059
0.051267 0.940405 0.882445
0.264310 0.932925 0.874965
0.525291 0.923762 0.865802
0.787255 0.914564 0.856604
0.993149 0.907335 0.849375
1.000000 0.904371 0.846412
0.000000 1.000000 0.879153
0.000000 1.000000 0.877822
0.042030 1.000000 0.873208
0.255073 1.000000 0.865728
0.516054 0.995475 0.856565
0.778018 0.986277 0.847367
0.983912 0.979048 0.840138
1.000000 0.976085 0.837175
0.002655 0.001345 1.000000
0.040582 0.000014 1.000000
0.171992 0.000000 1.000000
0.385035 0.000000 1.000000
0.646016 0.000000 1.000000
0.907980 0.000000 1.000000
1.000000 0.000000 1.000000
1.000000 0.000000 1.000000
0.000000 0.033569 1.000000
0.036431 0.032237 1.000000
0.167841 0.027623 1.000000
0.380884 0.020143 1.000000
0.641866 0.010980 1.000000
0.903830 0.001783 1.000000
1.000000 0.000000 1.000000
1.000000 0.000000 1.000000
0.000000 0.145219 1.000000
0.022050 0.143887 1.000000
0.153460 0.139273 1.000000
0.366503 0.131793 1.000000
0.627485 0.122630 1.000000
0.889449 0.113432 1.000000
1.000000 0.106203 1.000000
1.000000 0.103240 1.000000
0.000000 0.326226 1.000000
0.000000 0.324894 1.000000
0.130146 0.320280 1.000000
0.343188 0.312800 1.000000
0.604170 0.303637 1.000000
0.866134 0.294439 1.000000
1.000000 0.287210 1.000000
1.000000 0.284247 1.000000
0.000000 0.547963 1.000000
0.000000 0.546631 1.000000
0.101585 0.542017 1.000000
0.314628 0.534537 1.000000
0.575609 0.525374 0.992735
0.837574 0.516177 0.983537
1.000000 0.508947 0.976308
1.000000 0.505984 0.973344
0.000000 0.770535 0.986655
0.000000 0.769203 0.985323
0.072916 0.764590 0.980709
0.285959 0.757110 0.973229
0.546941 0.747946 0.964066
0.808905 0.738749 0.954869
1.000000 0.731520 0.947640
1.000000 0.728556 0.944676
0.000000 0.945468 0.964123
0.000000 0.944136 0.962791
0.050384 0.939522 0.958177
0.263427 0.932042 0.950697
0.524409 0.922879 0.941534
0.786373 0.913681 0.932336
0.992266 0.906452 0.925107
1.000000 0.903489 0.922144
0.000000 1.000000 0.954886
0.000000 1.000000 0.953554
0.041147 1.000000 0.948940
0.254190 1.000000 0.941460
0.515172 0.994592 0.932297
0.777136 0.985395 0.923099
0.983029 0.978166 0.915870
1.000000 0.975202 0.912907
