Plugins/FilmEmulator/Content/LUTs/FE_Look_16mm_64.cube
TITLE "FE_Look_16mm"
LUT_3D_SIZE 8
0.000000 0.000000 0.000000
0.025092 0.000000 0.000000
0.127453 0.000000 0.000000
0.293402 0.002386 0.002363
0.496692 0.007039 0.007016
0.700747 0.011710 0.011686
0.861127 0.015380 0.015357
0.926874 0.016885 0.016862
0.000000 0.026556 0.000000
0.027355 0.027233 0.000000
0.129717 0.029575 0.000828
0.295665 0.033374 0.004626
0.498955 0.038027 0.009279
0.703011 0.042697 0.013950
0.863390 0.046368 0.017621
0.929137 0.047873 0.019125
0.005655 0.133923 0.005652
0.035198 0.134600 0.006328
0.137559 0.136942 0.008671
0.303508 0.140741 0.012469
0.506798 0.145394 0.017122
0.710853 0.150064 0.021792
0.871233 0.153735 0.025463
0.936980 0.155240 0.026968
0.018370 0.307987 0.018366
0.047912 0.308664 0.019042
0.150274 0.311006 0.021385
0.316222 0.314805 0.025184
0.519512 0.319458 0.029836
0.723568 0.324128 0.034507
0.883947 0.327799 0.038178
0.949695 0.329304 0.039683
0.033945 0.521219 0.033942
0.063488 0.521895 0.034618
0.165849 0.524238 0.036961
0.331798 0.528036 0.040759
0.535088 0.532689 0.045412
0.739143 0.537360 0.050082
0.899523 0.541031 0.053753
0.965270 0.542535 0.055258
0.049579 0.735254 0.049576
0.079122 0.735930 0.050252
0.181483 0.738273 0.052595
0.347432 0.742071 0.056393
0.550722 0.746724 0.061046
0.754777 0.751394 0.065717
0.915157 0.755065 0.069387
0.980904 0.756570 0.070892
0.061867 0.903477 0.061864
0.091410 0.904153 0.062540
0.193771 0.906496 0.064883
0.359720 0.910294 0.068681
0.563010 0.914947 0.073334
0.767065 0.919617 0.078004
0.927445 0.923288 0.081675
0.993192 0.924793 0.083180
0.066904 0.972439 0.066901
0.096447 0.973115 0.067577
0.198808 0.975458 0.069920
0.364757 0.979256 0.073718
0.568047 0.983909 0.078371
0.772103 0.988580 0.083042
0.932482 0.992250 0.086713
0.998229 0.993755 0.088217
0.000000 0.000000 0.024666
0.025322 0.000000 0.025343
0.127683 0.000000 0.027685
0.293631 0.002616 0.031484
0.496921 0.007269 0.036137
0.700977 0.011939 0.040807
0.861357 0.015610 0.044478
0.927104 0.017115 0.045983
0.000000 0.026786 0.026930
0.027585 0.027462 0.027606
0.129946 0.029805 0.029949
0.295895 0.033604 0.033747
0.499185 0.038257 0.038400
0.703241 0.042927 0.043071
0.863620 0.046598 0.046741
0.929367 0.048103 0.048246
0.005885 0.134153 0.034772
0.035428 0.134829 0.035449
0.137789 0.137172 0.037792
0.303737 0.140971 0.041590
0.507028 0.145623 0.046243
0.711083 0.150294 0.050913
0.871463 0.153965 0.054584
0.937210 0.155470 0.056089
0.018599 0.308217 0.047487
0.048142 0.308893 0.048163
0.150503 0.311236 0.050506
0.316452 0.315035 0.054304
0.519742 0.319687 0.058957
0.723798 0.324358 0.063628
0.884177 0.328029 0.067298
0.949924 0.329534 0.068803
0.034175 0.521449 0.063062
0.063718 0.522125 0.063739
0.166079 0.524468 0.066081
0.332027 0.528266 0.069880
0.535318 0.532919 0.074533
0.739373 0.537590 0.079203
0.899753 0.541260 0.082874
0.965500 0.542765 0.084379
0.049809 0.735484 0.078697
0.079352 0.736160 0.079373
0.181713 0.738503 0.081716
0.347662 0.742301 0.085514
0.550952 0.746954 0.090167
0.755007 0.751624 0.094837
0.915387 0.755295 0.098508
0.981134 0.756800 0.100013
0.062097 0.903706 0.090984
0.091640 0.904383 0.091661
0.194001 0.906725 0.094003
0.359949 0.910524 0.097802
0.563240 0.915177 0.102455
0.767295 0.919847 0.107125
0.927675 0.923518 0.110796
0.993422 0.925023 0.112301
0.067134 0.972669 0.096022
0.096677 0.973345 0.096698
0.199038 0.975688 0.099041
0.364987 0.979486 0.102839
0.568277 0.984139 0.107492
0.772332 0.988809 0.112162
0.932712 0.992480 0.115833
0.998459 0.993985 0.117338
0.000000 0.000000 0.125565
0.026118 0.000000 0.126241
0.128479 0.000000 0.128584
0.294428 0.003412 0.132382
0.497718 0.008065 0.137035
0.701773 0.012736 0.141706
0.862153 0.016406 0.145376
0.927900 0.017911 0.146881
0.000000 0.027583 0.127828
0.028382 0.028259 0.128505
0.130743 0.030602 0.130847
0.296691 0.034400 0.134646
0.499981 0.039053 0.139299
0.704037 0.043723 0.143969
0.864417 0.047394 0.147640
0.930164 0.048899 0.149145
0.006681 0.134950 0.135671
0.036224 0.135626 0.136347
0.138585 0.137969 0.138690
0.304534 0.141767 0.142488
0.507824 0.146420 0.147141
0.711879 0.151090 0.151812
0.872259 0.154761 0.155482
0.938006 0.156266 0.156987
0.019396 0.309014 0.148385
0.048939 0.309690 0.149062
0.151300 0.312033 0.151404
0.317248 0.315831 0.155203
0.520538 0.320484 0.159856
0.724594 0.325154 0.164526
0.884974 0.328825 0.168197
0.950721 0.330330 0.169702
0.034971 0.522245 0.163961
0.064514 0.522921 0.164637
0.166875 0.525264 0.166980
0.332824 0.529063 0.170778
0.536114 0.533716 0.175431
0.740170 0.538386 0.180102
0.900549 0.542057 0.183772
0.966296 0.543562 0.185277
0.050605 0.736280 0.179595
0.080148 0.736956 0.180271
0.182509 0.739299 0.182614
0.348458 0.743097 0.186412
0.551748 0.747750 0.191065
0.755804 0.752421 0.195736
0.916183 0.756091 0.199407
0.981930 0.757596 0.200911
0.062893 0.904503 0.191883
0.092436 0.905179 0.192559
0.194797 0.907522 0.194902
0.360746 0.911320 0.198700
0.564036 0.915973 0.203353
0.768091 0.920643 0.208024
0.928471 0.924314 0.211694
0.994218 0.925819 0.213199
0.067931 0.973465 0.196920
0.097473 0.974141 0.197596
0.199835 0.976484 0.199939
0.365783 0.980282 0.203738
0.569073 0.984935 0.208390
0.773129 0.989606 0.213061
0.933508 0.993277 0.216732
0.999256 0.994781 0.218237
0.000000 0.000000 0.289142
0.027409 0.000000 0.289818
0.129770 0.000905 0.292161
0.295719 0.004703 0.295959
0.499009 0.009356 0.300612
0.703064 0.014027 0.305283
0.863444 0.017697 0.308954
0.929191 0.019202 0.310458
0.000130 0.028874 0.291406
0.029672 0.029550 0.292082
0.132034 0.031893 0.294425
0.297982 0.035691 0.298223
0.501272 0.040344 0.302876
0.705328 0.045014 0.307546
0.865708 0.048685 0.311217
0.931455 0.050190 0.312722
0.007972 0.136241 0.299248
0.037515 0.136917 0.299924
0.139876 0.139260 0.302267
0.305825 0.143058 0.306065
0.509115 0.147711 0.310718
0.713171 0.152381 0.315389
0.873550 0.156052 0.319060
0.939297 0.157557 0.320564
0.020687 0.310305 0.311963
0.050230 0.310981 0.312639
0.152591 0.313324 0.314982
0.318539 0.317122 0.318780
0.521829 0.321775 0.323433
0.725885 0.326445 0.328103
0.886265 0.330116 0.331774
0.952012 0.331621 0.333279
0.036262 0.523536 0.327538
0.065805 0.524212 0.328214
0.168166 0.526555 0.330557
0.334115 0.530354 0.334355
0.537405 0.535007 0.339008
0.741461 0.539677 0.343679
0.901840 0.543348 0.347350
0.967587 0.544853 0.348854
0.051896 0.737571 0.343172
0.081439 0.738247 0.343848
0.183800 0.740590 0.346191
0.349749 0.744388 0.349990
0.553039 0.749041 0.354643
0.757095 0.753712 0.359313
0.917474 0.757382 0.362984
0.983221 0.758887 0.364489
0.064184 0.905794 0.355460
0.093727 0.906470 0.356136
0.196088 0.908813 0.358479
0.362037 0.912611 0.362277
0.565327 0.917264 0.366930
0.769382 0.921934 0.371601
0.929762 0.925605 0.375272
0.995509 0.927110 0.376776
0.069221 0.974756 0.360497
0.098764 0.975432 0.361174
0.201126 0.977775 0.363516
0.367074 0.981573 0.367315
0.570364 0.986226 0.371968
0.774420 0.990897 0.376638
0.934799 0.994568 0.380309
1.000000 0.996072 0.381814
0.000000 0.000000 0.489527
0.028990 0.000144 0.490203
0.131352 0.002486 0.492546
0.297300 0.006285 0.496345
0.500590 0.010938 0.500998
0.704646 0.015608 0.505668
0.865026 0.019279 0.509339
0.930773 0.020784 0.510844
0.001711 0.030455 0.491791
0.031254 0.031131 0.492467
0.133615 0.033474 0.494810
0.299564 0.037272 0.498608
0.502854 0.041925 0.503261
0.706909 0.046596 0.507931
0.867289 0.050267 0.511602
0.933036 0.051771 0.513107
0.009554 0.137822 0.499633
0.039097 0.138498 0.500310
0.141458 0.140841 0.502652
0.307406 0.144639 0.506451
0.510696 0.149292 0.511104
0.714752 0.153963 0.515774
0.875132 0.157634 0.519445
0.940879 0.159138 0.520950
0.022268 0.311886 0.512348
0.051811 0.312562 0.513024
0.154172 0.314905 0.515367
0.320121 0.318703 0.519165
0.523411 0.323356 0.523818
0.727466 0.328027 0.528489
0.887846 0.331698 0.532159
0.953593 0.333202 0.533664
0.037844 0.525118 0.527923
0.067387 0.525794 0.528600
0.169748 0.528137 0.530942
0.335696 0.531935 0.534741
0.538986 0.536588 0.539394
0.743042 0.541258 0.544064
0.903422 0.544929 0.547735
0.969169 0.546434 0.549240
0.053478 0.739152 0.543557
0.083021 0.739829 0.544234
0.185382 0.742171 0.546576
0.351330 0.745970 0.550375
0.554621 0.750623 0.555028
0.758676 0.755293 0.559698
0.919056 0.758964 0.563369
0.984803 0.760469 0.564874
0.065766 0.907375 0.555845
0.095309 0.908051 0.556521
0.197670 0.910394 0.558864
0.363618 0.914192 0.562663
0.566908 0.918845 0.567316
0.770964 0.923516 0.571986
0.931344 0.927187 0.575657
0.997091 0.928691 0.577162
0.070803 0.976338 0.560883
0.100346 0.977014 0.561559
0.202707 0.979357 0.563902
0.368656 0.983155 0.567700
0.571946 0.987808 0.572353
0.776001 0.992478 0.577023
0.936381 0.996149 0.580694
1.000000 0.997654 0.582199
0.001035 0.001055 0.690667
0.030578 0.001731 0.691343
0.132939 0.004074 0.693686
0.298888 0.007872 0.697484
0.502178 0.012525 0.702137
0.706233 0.017196 0.706808
0.866613 0.020866 0.710479
0.932360 0.022371 0.711983
0.003299 0.032042 0.692931
0.032841 0.032719 0.693607
0.135203 0.035062 0.695950
0.301151 0.038860 0.699748
0.504441 0.043513 0.704401
0.708497 0.048183 0.709071
0.868876 0.051854 0.712742
0.934624 0.053359 0.714247
0.011141 0.139409 0.700773
0.040684 0.140086 0.701449
0.143045 0.142429 0.703792
0.308994 0.146227 0.707590
0.512284 0.150880 0.712243
0.716339 0.155550 0.716914
0.876719 0.159221 0.720585
0.942466 0.160726 0.722089
0.023856 0.313473 0.713488
0.053399 0.314150 0.714164
0.155760 0.316493 0.716507
0.321708 0.320291 0.720305
0.524998 0.324944 0.724958
0.729054 0.329614 0.729628
0.889434 0.333285 0.733299
0.955181 0.334790 0.734804
0.039431 0.526705 0.729063
0.068974 0.527381 0.729739
0.171335 0.529724 0.732082
0.337284 0.533522 0.735880
0.540574 0.538175 0.740533
0.744629 0.542846 0.745204
0.905009 0.546517 0.748875
0.970756 0.548022 0.750379
0.055065 0.740740 0.744697
0.084608 0.741416 0.745373
0.186969 0.743759 0.747716
0.352918 0.747557 0.751515
0.556208 0.752210 0.756167
0.760264 0.756881 0.760838
0.920643 0.760551 0.764509
0.986390 0.762056 0.766014
0.067353 0.908963 0.756985
0.096896 0.909639 0.757661
0.199257 0.911982 0.760004
0.365206 0.915780 0.763802
0.568496 0.920433 0.768455
0.772551 0.925103 0.773126
0.932931 0.928774 0.776797
0.998678 0.930279 0.778301
0.072390 0.977925 0.762022
0.101933 0.978601 0.762699
0.204295 0.980944 0.765041
0.370243 0.984742 0.768840
0.573533 0.989395 0.773493
0.777589 0.994066 0.778163
0.937968 0.997736 0.781834
1.000000 0.999241 0.783339
0.002283 0.002303 0.848755
0.031826 0.002979 0.849431
0.134187 0.005322 0.851774
0.300135 0.009120 0.855572
0.503425 0.013773 0.860225
0.707481 0.018443 0.864896
0.867861 0.022114 0.868566
0.933608 0.023619 0.870071
0.004546 0.033290 0.851018
0.034089 0.033966 0.851695
0.136450 0.036309 0.854037
0.302399 0.040107 0.857836
0.505689 0.044760 0.862489
0.709745 0.049431 0.867159
0.870124 0.053102 0.870830
0.935871 0.054606 0.872335
0.012389 0.140657 0.858861
0.041932 0.141333 0.859537
0.144293 0.143676 0.861880
0.310241 0.147474 0.865678
0.513532 0.152127 0.870331
0.717587 0.156798 0.875002
0.877967 0.160469 0.878672
0.943714 0.161973 0.880177
0.025103 0.314721 0.871575
0.054646 0.315397 0.872252
0.157007 0.317740 0.874595
0.322956 0.321538 0.878393
0.526246 0.326191 0.883046
0.730302 0.330862 0.887716
0.890681 0.334533 0.891387
0.956428 0.336037 0.892892
0.040679 0.527953 0.887151
0.070222 0.528629 0.887827
0.172583 0.530972 0.890170
0.338531 0.534770 0.893968
0.541821 0.539423 0.898621
0.745877 0.544094 0.903292
0.906257 0.547764 0.906963
0.972004 0.549269 0.908467
0.056313 0.741987 0.902785
0.085856 0.742664 0.903461
0.188217 0.745007 0.905804
0.354165 0.748805 0.909602
0.557456 0.753458 0.914255
0.761511 0.758128 0.918926
0.921891 0.761799 0.922597
0.987638 0.763304 0.924101
0.068601 0.910210 0.915073
0.098144 0.910886 0.915749
0.200505 0.913229 0.918092
0.366453 0.917028 0.921890
0.569743 0.921680 0.926543
0.773799 0.926351 0.931214
0.934179 0.930022 0.934884
0.999926 0.931527 0.936389
0.073638 0.979173 0.920110
0.103181 0.979849 0.920786
0.205542 0.982192 0.923129
0.371491 0.985990 0.926928
0.574781 0.990643 0.931580
0.778836 0.995313 0.936251
0.939216 0.998984 0.939922
1.000000 1.000000 0.941427
0.002794 0.002814 0.913562
0.032337 0.003490 0.914239
0.134698 0.005833 0.916582
0.300647 0.009631 0.920380
0.503937 0.014284 0.925033
0.707992 0.018955 0.929703
0.868372 0.022626 0.933374
0.934119 0.024130 0.934879
0.005058 0.033802 0.915826
0.034601 0.034478 0.916502
0.136962 0.036821 0.918845
0.302910 0.040619 0.922643
0.506200 0.045272 0.927296
0.710256 0.049942 0.931967
0.870636 0.053613 0.935637
0.936383 0.055118 0.937142
0.012900 0.141169 0.923669
0.042443 0.141845 0.924345
0.144804 0.144188 0.926688
0.310753 0.147986 0.930486
0.514043 0.152639 0.935139
0.718099 0.157309 0.939809
0.878478 0.160980 0.943480
0.944225 0.162485 0.944985
0.025615 0.315233 0.936383
0.055158 0.315909 0.937059
0.157519 0.318252 0.939402
0.323467 0.322050 0.943200
0.526757 0.326703 0.947853
0.730813 0.331373 0.952524
0.891193 0.335044 0.956195
0.956940 0.336549 0.957699
0.041190 0.528464 0.951959
0.070733 0.529141 0.952635
0.173094 0.531483 0.954978
0.339043 0.535282 0.958776
0.542333 0.539935 0.963429
0.746389 0.544605 0.968099
0.906768 0.548276 0.971770
0.972515 0.549781 0.973275
0.056824 0.742499 0.967593
0.086367 0.743175 0.968269
0.188728 0.745518 0.970612
0.354677 0.749316 0.974410
0.557967 0.753969 0.979063
0.762023 0.758640 0.983733
0.922402 0.762310 0.987404
0.988149 0.763815 0.988909
0.069112 0.910722 0.979881
0.098655 0.911398 0.980557
0.201016 0.913741 0.982900
0.366965 0.917539 0.986698
0.570255 0.922192 0.991351
0.774311 0.926862 0.996021
0.934690 0.930533 0.999692
1.000000 0.932038 1.000000
0.074150 0.979684 0.984918
0.103692 0.980360 0.985594
0.206054 0.982703 0.987937
0.372002 0.986501 0.991735
0.575292 0.991154 0.996388
0.779348 0.995825 1.000000
0.939727 0.999496 1.000000
1.000000 1.000000 1.000000
