Plugins/FilmEmulator/Content/LUTs/FE_Look_SvemaBW_64.cube
TITLE "FE_Look_SvemaBW"
LUT_3D_SIZE 8
0.005000 0.005000 0.005000
0.011677 0.011677 0.011677
0.034810 0.034810 0.034810
0.072313 0.072313 0.072313
0.118255 0.118255 0.118255
0.164371 0.164371 0.164371
0.200616 0.200616 0.200616
0.215474 0.215474 0.215474
0.027460 0.027460 0.027460
0.034137 0.034137 0.034137
0.057270 0.057270 0.057270
0.094773 0.094773 0.094773
0.140716 0.140716 0.140716
0.186831 0.186831 0.186831
0.223076 0.223076 0.223076
0.237934 0.237934 0.237934
0.105281 0.105281 0.105281
0.111958 0.111958 0.111958
0.135091 0.135091 0.135091
0.172594 0.172594 0.172594
0.218537 0.218537 0.218537
0.264652 0.264652 0.264652
0.300897 0.300897 0.300897
0.315755 0.315755 0.315755
0.231445 0.231445 0.231445
0.238122 0.238122 0.238122
0.261255 0.261255 0.261255
0.298758 0.298758 0.298758
0.344700 0.344700 0.344700
0.390816 0.390816 0.390816
0.427061 0.427061 0.427061
0.441919 0.441919 0.441919
0.385998 0.385998 0.385998
0.392675 0.392675 0.392675
0.415808 0.415808 0.415808
0.453311 0.453311 0.453311
0.499254 0.499254 0.499254
0.545369 0.545369 0.545369
0.581614 0.581614 0.581614
0.596472 0.596472 0.596472
0.541133 0.541133 0.541133
0.547810 0.547810 0.547810
0.570943 0.570943 0.570943
0.608446 0.608446 0.608446
0.654389 0.654389 0.654389
0.700504 0.700504 0.700504
0.736749 0.736749 0.736749
0.751607 0.751607 0.751607
0.663063 0.663063 0.663063
0.669740 0.669740 0.669740
0.692873 0.692873 0.692873
0.730376 0.730376 0.730376
0.776319 0.776319 0.776319
0.822434 0.822434 0.822434
0.858679 0.858679 0.858679
0.873537 0.873537 0.873537
0.713048 0.713048 0.713048
0.719725 0.719725 0.719725
0.742858 0.742858 0.742858
0.780361 0.780361 0.780361
0.826303 0.826303 0.826303
0.872419 0.872419 0.872419
0.908664 0.908664 0.908664
0.923522 0.923522 0.923522
0.007267 0.007267 0.007267
0.013944 0.013944 0.013944
0.037077 0.037077 0.037077
0.074580 0.074580 0.074580
0.120523 0.120523 0.120523
0.166638 0.166638 0.166638
0.202883 0.202883 0.202883
0.217741 0.217741 0.217741
0.029728 0.029728 0.029728
0.036404 0.036404 0.036404
0.059537 0.059537 0.059537
0.097041 0.097041 0.097041
0.142983 0.142983 0.142983
0.189098 0.189098 0.189098
0.225343 0.225343 0.225343
0.240202 0.240202 0.240202
0.107549 0.107549 0.107549
0.114225 0.114225 0.114225
0.137358 0.137358 0.137358
0.174862 0.174862 0.174862
0.220804 0.220804 0.220804
0.266919 0.266919 0.266919
0.303164 0.303164 0.303164
0.318023 0.318023 0.318023
0.233712 0.233712 0.233712
0.240389 0.240389 0.240389
0.263522 0.263522 0.263522
0.301025 0.301025 0.301025
0.346968 0.346968 0.346968
0.393083 0.393083 0.393083
0.429328 0.429328 0.429328
0.444186 0.444186 0.444186
0.388266 0.388266 0.388266
0.394942 0.394942 0.394942
0.418075 0.418075 0.418075
0.455578 0.455578 0.455578
0.501521 0.501521 0.501521
0.547636 0.547636 0.547636
0.583881 0.583881 0.583881
0.598740 0.598740 0.598740
0.543401 0.543401 0.543401
0.550077 0.550077 0.550077
0.573210 0.573210 0.573210
0.610714 0.610714 0.610714
0.656656 0.656656 0.656656
0.702771 0.702771 0.702771
0.739016 0.739016 0.739016
0.753875 0.753875 0.753875
0.665331 0.665331 0.665331
0.672007 0.672007 0.672007
0.695140 0.695140 0.695140
0.732644 0.732644 0.732644
0.778586 0.778586 0.778586
0.824701 0.824701 0.824701
0.860946 0.860946 0.860946
0.875805 0.875805 0.875805
0.715315 0.715315 0.715315
0.721992 0.721992 0.721992
0.745125 0.745125 0.745125
0.782628 0.782628 0.782628
0.828571 0.828571 0.828571
0.874686 0.874686 0.874686
0.910931 0.910931 0.910931
0.925789 0.925789 0.925789
0.015123 0.015123 0.015123
0.021800 0.021800 0.021800
0.044933 0.044933 0.044933
0.082436 0.082436 0.082436
0.128379 0.128379 0.128379
0.174494 0.174494 0.174494
0.210739 0.210739 0.210739
0.225597 0.225597 0.225597
0.037584 0.037584 0.037584
0.044260 0.044260 0.044260
0.067393 0.067393 0.067393
0.104897 0.104897 0.104897
0.150839 0.150839 0.150839
0.196954 0.196954 0.196954
0.233199 0.233199 0.233199
0.248058 0.248058 0.248058
0.115405 0.115405 0.115405
0.122081 0.122081 0.122081
0.145214 0.145214 0.145214
0.182718 0.182718 0.182718
0.228660 0.228660 0.228660
0.274775 0.274775 0.274775
0.311020 0.311020 0.311020
0.325879 0.325879 0.325879
0.241569 0.241569 0.241569
0.248245 0.248245 0.248245
0.271378 0.271378 0.271378
0.308881 0.308881 0.308881
0.354824 0.354824 0.354824
0.400939 0.400939 0.400939
0.437184 0.437184 0.437184
0.452042 0.452042 0.452042
0.396122 0.396122 0.396122
0.402798 0.402798 0.402798
0.425931 0.425931 0.425931
0.463435 0.463435 0.463435
0.509377 0.509377 0.509377
0.555492 0.555492 0.555492
0.591737 0.591737 0.591737
0.606596 0.606596 0.606596
0.551257 0.551257 0.551257
0.557933 0.557933 0.557933
0.581066 0.581066 0.581066
0.618570 0.618570 0.618570
0.664512 0.664512 0.664512
0.710627 0.710627 0.710627
0.746872 0.746872 0.746872
0.761731 0.761731 0.761731
0.673187 0.673187 0.673187
0.679863 0.679863 0.679863
0.702996 0.702996 0.702996
0.740500 0.740500 0.740500
0.786442 0.786442 0.786442
0.832557 0.832557 0.832557
0.868802 0.868802 0.868802
0.883661 0.883661 0.883661
0.723171 0.723171 0.723171
0.729848 0.729848 0.729848
0.752981 0.752981 0.752981
0.790484 0.790484 0.790484
0.836427 0.836427 0.836427
0.882542 0.882542 0.882542
0.918787 0.918787 0.918787
0.933645 0.933645 0.933645
0.027860 0.027860 0.027860
0.034536 0.034536 0.034536
0.057669 0.057669 0.057669
0.095173 0.095173 0.095173
0.141115 0.141115 0.141115
0.187230 0.187230 0.187230
0.223475 0.223475 0.223475
0.238334 0.238334 0.238334
0.050320 0.050320 0.050320
0.056997 0.056997 0.056997
0.080130 0.080130 0.080130
0.117633 0.117633 0.117633
0.163575 0.163575 0.163575
0.209691 0.209691 0.209691
0.245936 0.245936 0.245936
0.260794 0.260794 0.260794
0.128141 0.128141 0.128141
0.134818 0.134818 0.134818
0.157951 0.157951 0.157951
0.195454 0.195454 0.195454
0.241396 0.241396 0.241396
0.287512 0.287512 0.287512
0.323757 0.323757 0.323757
0.338615 0.338615 0.338615
0.254305 0.254305 0.254305
0.260981 0.260981 0.260981
0.284114 0.284114 0.284114
0.321618 0.321618 0.321618
0.367560 0.367560 0.367560
0.413676 0.413676 0.413676
0.449920 0.449920 0.449920
0.464779 0.464779 0.464779
0.408858 0.408858 0.408858
0.415534 0.415534 0.415534
0.438668 0.438668 0.438668
0.476171 0.476171 0.476171
0.522113 0.522113 0.522113
0.568229 0.568229 0.568229
0.604474 0.604474 0.604474
0.619332 0.619332 0.619332
0.563993 0.563993 0.563993
0.570670 0.570670 0.570670
0.593803 0.593803 0.593803
0.631306 0.631306 0.631306
0.677248 0.677248 0.677248
0.723364 0.723364 0.723364
0.759609 0.759609 0.759609
0.774467 0.774467 0.774467
0.685923 0.685923 0.685923
0.692600 0.692600 0.692600
0.715733 0.715733 0.715733
0.753236 0.753236 0.753236
0.799178 0.799178 0.799178
0.845294 0.845294 0.845294
0.881539 0.881539 0.881539
0.896397 0.896397 0.896397
0.735908 0.735908 0.735908
0.742584 0.742584 0.742584
0.765717 0.765717 0.765717
0.803221 0.803221 0.803221
0.849163 0.849163 0.849163
0.895279 0.895279 0.895279
0.931523 0.931523 0.931523
0.946382 0.946382 0.946382
0.043462 0.043462 0.043462
0.050139 0.050139 0.050139
0.073272 0.073272 0.073272
0.110775 0.110775 0.110775
0.156717 0.156717 0.156717
0.202833 0.202833 0.202833
0.239078 0.239078 0.239078
0.253936 0.253936 0.253936
0.065922 0.065922 0.065922
0.072599 0.072599 0.072599
0.095732 0.095732 0.095732
0.133235 0.133235 0.133235
0.179178 0.179178 0.179178
0.225293 0.225293 0.225293
0.261538 0.261538 0.261538
0.276396 0.276396 0.276396
0.143743 0.143743 0.143743
0.150420 0.150420 0.150420
0.173553 0.173553 0.173553
0.211056 0.211056 0.211056
0.256999 0.256999 0.256999
0.303114 0.303114 0.303114
0.339359 0.339359 0.339359
0.354217 0.354217 0.354217
0.269907 0.269907 0.269907
0.276584 0.276584 0.276584
0.299717 0.299717 0.299717
0.337220 0.337220 0.337220
0.383162 0.383162 0.383162
0.429278 0.429278 0.429278
0.465523 0.465523 0.465523
0.480381 0.480381 0.480381
0.424460 0.424460 0.424460
0.431137 0.431137 0.431137
0.454270 0.454270 0.454270
0.491773 0.491773 0.491773
0.537716 0.537716 0.537716
0.583831 0.583831 0.583831
0.620076 0.620076 0.620076
0.634934 0.634934 0.634934
0.579595 0.579595 0.579595
0.586272 0.586272 0.586272
0.609405 0.609405 0.609405
0.646908 0.646908 0.646908
0.692851 0.692851 0.692851
0.738966 0.738966 0.738966
0.775211 0.775211 0.775211
0.790069 0.790069 0.790069
0.701525 0.701525 0.701525
0.708202 0.708202 0.708202
0.731335 0.731335 0.731335
0.768838 0.768838 0.768838
0.814781 0.814781 0.814781
0.860896 0.860896 0.860896
0.897141 0.897141 0.897141
0.911999 0.911999 0.911999
0.751510 0.751510 0.751510
0.758187 0.758187 0.758187
0.781320 0.781320 0.781320
0.818823 0.818823 0.818823
0.864765 0.864765 0.864765
0.910881 0.910881 0.910881
0.947126 0.947126 0.947126
0.961984 0.961984 0.961984
0.059123 0.059123 0.059123
0.065800 0.065800 0.065800
0.088933 0.088933 0.088933
0.126436 0.126436 0.126436
0.172378 0.172378 0.172378
0.218494 0.218494 0.218494
0.254739 0.254739 0.254739
0.269597 0.269597 0.269597
0.081583 0.081583 0.081583
0.088260 0.088260 0.088260
0.111393 0.111393 0.111393
0.148896 0.148896 0.148896
0.194839 0.194839 0.194839
0.240954 0.240954 0.240954
0.277199 0.277199 0.277199
0.292057 0.292057 0.292057
0.159404 0.159404 0.159404
0.166081 0.166081 0.166081
0.189214 0.189214 0.189214
0.226717 0.226717 0.226717
0.272660 0.272660 0.272660
0.318775 0.318775 0.318775
0.355020 0.355020 0.355020
0.369878 0.369878 0.369878
0.285568 0.285568 0.285568
0.292245 0.292245 0.292245
0.315378 0.315378 0.315378
0.352881 0.352881 0.352881
0.398823 0.398823 0.398823
0.444939 0.444939 0.444939
0.481184 0.481184 0.481184
0.496042 0.496042 0.496042
0.440121 0.440121 0.440121
0.446798 0.446798 0.446798
0.469931 0.469931 0.469931
0.507434 0.507434 0.507434
0.553377 0.553377 0.553377
0.599492 0.599492 0.599492
0.635737 0.635737 0.635737
0.650595 0.650595 0.650595
0.595256 0.595256 0.595256
0.601933 0.601933 0.601933
0.625066 0.625066 0.625066
0.662569 0.662569 0.662569
0.708512 0.708512 0.708512
0.754627 0.754627 0.754627
0.790872 0.790872 0.790872
0.805730 0.805730 0.805730
0.717186 0.717186 0.717186
0.723863 0.723863 0.723863
0.746996 0.746996 0.746996
0.784499 0.784499 0.784499
0.830442 0.830442 0.830442
0.876557 0.876557 0.876557
0.912802 0.912802 0.912802
0.927660 0.927660 0.927660
0.767171 0.767171 0.767171
0.773848 0.773848 0.773848
0.796981 0.796981 0.796981
0.834484 0.834484 0.834484
0.880426 0.880426 0.880426
0.926542 0.926542 0.926542
0.962787 0.962787 0.962787
0.977645 0.977645 0.977645
0.071432 0.071432 0.071432
0.078109 0.078109 0.078109
0.101242 0.101242 0.101242
0.138745 0.138745 0.138745
0.184687 0.184687 0.184687
0.230803 0.230803 0.230803
0.267048 0.267048 0.267048
0.281906 0.281906 0.281906
0.093892 0.093892 0.093892
0.100569 0.100569 0.100569
0.123702 0.123702 0.123702
0.161205 0.161205 0.161205
0.207148 0.207148 0.207148
0.253263 0.253263 0.253263
0.289508 0.289508 0.289508
0.304366 0.304366 0.304366
0.171713 0.171713 0.171713
0.178390 0.178390 0.178390
0.201523 0.201523 0.201523
0.239026 0.239026 0.239026
0.284969 0.284969 0.284969
0.331084 0.331084 0.331084
0.367329 0.367329 0.367329
0.382187 0.382187 0.382187
0.297877 0.297877 0.297877
0.304554 0.304554 0.304554
0.327687 0.327687 0.327687
0.365190 0.365190 0.365190
0.411132 0.411132 0.411132
0.457248 0.457248 0.457248
0.493493 0.493493 0.493493
0.508351 0.508351 0.508351
0.452430 0.452430 0.452430
0.459107 0.459107 0.459107
0.482240 0.482240 0.482240
0.519743 0.519743 0.519743
0.565686 0.565686 0.565686
0.611801 0.611801 0.611801
0.648046 0.648046 0.648046
0.662904 0.662904 0.662904
0.607565 0.607565 0.607565
0.614242 0.614242 0.614242
0.637375 0.637375 0.637375
0.674878 0.674878 0.674878
0.720821 0.720821 0.720821
0.766936 0.766936 0.766936
0.803181 0.803181 0.803181
0.818039 0.818039 0.818039
0.729495 0.729495 0.729495
0.736172 0.736172 0.736172
0.759305 0.759305 0.759305
0.796808 0.796808 0.796808
0.842751 0.842751 0.842751
0.888866 0.888866 0.888866
0.925111 0.925111 0.925111
0.939969 0.939969 0.939969
0.779480 0.779480 0.779480
0.786157 0.786157 0.786157
0.809290 0.809290 0.809290
0.846793 0.846793 0.846793
0.892735 0.892735 0.892735
0.938851 0.938851 0.938851
0.975096 0.975096 0.975096
0.989954 0.989954 0.989954
0.076478 0.076478 0.076478
0.083155 0.083155 0.083155
0.106288 0.106288 0.106288
0.143791 0.143791 0.143791
0.189733 0.189733 0.189733
0.235849 0.235849 0.235849
0.272094 0.272094 0.272094
0.286952 0.286952 0.286952
0.098938 0.098938 0.098938
0.105615 0.105615 0.105615
0.128748 0.128748 0.128748
0.166251 0.166251 0.166251
0.212194 0.212194 0.212194
0.258309 0.258309 0.258309
0.294554 0.294554 0.294554
0.309412 0.309412 0.309412
0.176759 0.176759 0.176759
0.183436 0.183436 0.183436
0.206569 0.206569 0.206569
0.244072 0.244072 0.244072
0.290015 0.290015 0.290015
0.336130 0.336130 0.336130
0.372375 0.372375 0.372375
0.387233 0.387233 0.387233
0.302923 0.302923 0.302923
0.309600 0.309600 0.309600
0.332733 0.332733 0.332733
0.370236 0.370236 0.370236
0.416178 0.416178 0.416178
0.462294 0.462294 0.462294
0.498539 0.498539 0.498539
0.513397 0.513397 0.513397
0.457476 0.457476 0.457476
0.464153 0.464153 0.464153
0.487286 0.487286 0.487286
0.524789 0.524789 0.524789
0.570732 0.570732 0.570732
0.616847 0.616847 0.616847
0.653092 0.653092 0.653092
0.667950 0.667950 0.667950
0.612611 0.612611 0.612611
0.619288 0.619288 0.619288
0.642421 0.642421 0.642421
0.679924 0.679924 0.679924
0.725867 0.725867 0.725867
0.771982 0.771982 0.771982
0.808227 0.808227 0.808227
0.823085 0.823085 0.823085
0.734541 0.734541 0.734541
0.741218 0.741218 0.741218
0.764351 0.764351 0.764351
0.801854 0.801854 0.801854
0.847797 0.847797 0.847797
0.893912 0.893912 0.893912
0.930157 0.930157 0.930157
0.945015 0.945015 0.945015
0.784526 0.784526 0.784526
0.791203 0.791203 0.791203
0.814336 0.814336 0.814336
0.851839 0.851839 0.851839
0.897781 0.897781 0.897781
0.943897 0.943897 0.943897
0.980142 0.980142 0.980142
0.995000 0.995000 0.995000
