Plugins/FilmEmulator/Content/LUTs/FE_Look_SvemaBW_64.cube
TITLE "FE_Look_SvemaBW"
LUT_3D_SIZE 4
0.005000 0.005000 0.005000
0.045950 0.045950 0.045950
0.149567 0.149567 0.149567
0.215474 0.215474 0.215474
0.142757 0.142757 0.142757
0.183707 0.183707 0.183707
0.287324 0.287324 0.287324
0.353231 0.353231 0.353231
0.491333 0.491333 0.491333
0.532283 0.532283 0.532283
0.635900 0.635900 0.635900
0.701807 0.701807 0.701807
0.713048 0.713048 0.713048
0.753998 0.753998 0.753998
0.857615 0.857615 0.857615
0.923522 0.923522 0.923522
0.018907 0.018907 0.018907
0.059856 0.059856 0.059856
0.163474 0.163474 0.163474
0.229381 0.229381 0.229381
0.156664 0.156664 0.156664
0.197614 0.197614 0.197614
0.301231 0.301231 0.301231
0.367138 0.367138 0.367138
0.505240 0.505240 0.505240
0.546189 0.546189 0.546189
0.649807 0.649807 0.649807
0.715714 0.715714 0.715714
0.726955 0.726955 0.726955
0.767904 0.767904 0.767904
0.871522 0.871522 0.871522
0.937429 0.937429 0.937429
0.054096 0.054096 0.054096
0.095045 0.095045 0.095045
0.198663 0.198663 0.198663
0.264570 0.264570 0.264570
0.191853 0.191853 0.191853
0.232803 0.232803 0.232803
0.336420 0.336420 0.336420
0.402327 0.402327 0.402327
0.540429 0.540429 0.540429
0.581378 0.581378 0.581378
0.684996 0.684996 0.684996
0.750902 0.750902 0.750902
0.762144 0.762144 0.762144
0.803093 0.803093 0.803093
0.906711 0.906711 0.906711
0.972618 0.972618 0.972618
0.076478 0.076478 0.076478
0.117428 0.117428 0.117428
0.221045 0.221045 0.221045
0.286952 0.286952 0.286952
0.214235 0.214235 0.214235
0.255185 0.255185 0.255185
0.358802 0.358802 0.358802
0.424709 0.424709 0.424709
0.562811 0.562811 0.562811
0.603761 0.603761 0.603761
0.707378 0.707378 0.707378
0.773285 0.773285 0.773285
0.784526 0.784526 0.784526
0.825476 0.825476 0.825476
0.929093 0.929093 0.929093
0.995000 0.995000 0.995000
