Plugins/FilmEmulator/Content/LUTs/FE_Look_Super8_64.cube
TITLE "FE_Look_Super8"
LUT_3D_SIZE 4
0.015156 0.013847 0.012962
0.247776 0.005679 0.004795
0.836388 0.000000 0.000000
1.000000 0.000000 0.000000
0.000000 0.211487 0.000000
0.222319 0.203320 0.000000
0.810931 0.182653 0.000000
1.000000 0.169508 0.000000
0.000000 0.711588 0.000000
0.157904 0.703420 0.000000
0.746515 0.682754 0.000000
1.000000 0.669609 0.000000
0.000000 1.000000 0.000000
0.116932 1.000000 0.000000
0.705543 1.000000 0.000000
1.000000 0.987704 0.000000
0.012724 0.011414 0.221679
0.245344 0.003247 0.213512
0.833956 0.000000 0.192846
1.000000 0.000000 0.179700
0.000000 0.209055 0.196222
0.219887 0.200887 0.188055
0.808499 0.180221 0.167389
1.000000 0.167076 0.154243
0.000000 0.709156 0.131807
0.155472 0.700988 0.123639
0.744083 0.680322 0.102973
1.000000 0.667177 0.089828
0.000000 1.000000 0.090835
0.114499 1.000000 0.082667
0.703111 0.998416 0.062001
1.000000 0.985271 0.048856
0.006569 0.005260 0.749808
0.239190 0.000000 0.741641
0.827801 0.000000 0.720974
1.000000 0.000000 0.707829
0.000000 0.202900 0.724351
0.213732 0.194733 0.716184
0.802344 0.174067 0.695517
1.000000 0.160921 0.682372
0.000000 0.703001 0.659936
0.149317 0.694834 0.651768
0.737929 0.674167 0.631102
1.000000 0.661022 0.617957
0.000000 1.000000 0.618964
0.108345 1.000000 0.610796
0.696957 0.992262 0.590130
1.000000 0.979117 0.576985
0.002655 0.001345 1.000000
0.235275 0.000000 1.000000
0.823887 0.000000 1.000000
1.000000 0.000000 1.000000
0.000000 0.198986 1.000000
0.209818 0.190818 1.000000
0.798429 0.170152 1.000000
1.000000 0.157007 1.000000
0.000000 0.699086 0.995858
0.145402 0.690919 0.987690
0.734014 0.670253 0.967024
1.000000 0.657108 0.953879
0.000000 1.000000 0.954886
0.104430 1.000000 0.946718
0.693042 0.988347 0.926052
1.000000 0.975202 0.912907
