Plugins/FilmEmulator/Content/LUTs/FE_Look_SvemaBW_64.cube
TITLE "FE_Look_SvemaBW"
LUT_3D_SIZE 64
0.005000 0.005000 0.005000
0.005046 0.005046 0.005046
0.005223 0.005223 0.005223
0.005563 0.005563 0.005563
0.006082 0.006082 0.006082
0.006793 0.006793 0.006793
0.007702 0.007702 0.007702
0.008818 0.008818 0.008818
0.010142 0.010142 0.010142
0.011677 0.011677 0.011677
0.013423 0.013423 0.013423
0.015382 0.015382 0.015382
0.017551 0.017551 0.017551
0.019928 0.019928 0.019928
0.022510 0.022510 0.022510
0.025294 0.025294 0.025294
0.028275 0.028275 0.028275
0.031449 0.031449 0.031449
0.034810 0.034810 0.034810
0.038351 0.038351 0.038351
0.042067 0.042067 0.042067
0.045950 0.045950 0.045950
0.049993 0.049993 0.049993
0.054187 0.054187 0.054187
0.058526 0.058526 0.058526
0.062999 0.062999 0.062999
0.067598 0.067598 0.067598
0.072313 0.072313 0.072313
0.077135 0.077135 0.077135
0.082053 0.082053 0.082053
0.087057 0.087057 0.087057
0.092135 0.092135 0.092135
0.097278 0.097278 0.097278
0.102473 0.102473 0.102473
0.107709 0.107709 0.107709
0.112974 0.112974 0.112974
0.118255 0.118255 0.118255
0.123540 0.123540 0.123540
0.128817 0.128817 0.128817
0.134071 0.134071 0.134071
0.139290 0.139290 0.139290
0.144460 0.144460 0.144460
0.149567 0.149567 0.149567
0.154598 0.154598 0.154598
0.159537 0.159537 0.159537
0.164371 0.164371 0.164371
0.169084 0.169084 0.169084
0.173662 0.173662 0.173662
0.178090 0.178090 0.178090
0.182351 0.182351 0.182351
0.186431 0.186431 0.186431
0.190314 0.190314 0.190314
0.193983 0.193983 0.193983
0.197422 0.197422 0.197422
0.200616 0.200616 0.200616
0.203546 0.203546 0.203546
0.206197 0.206197 0.206197
0.208552 0.208552 0.208552
0.210592 0.210592 0.210592
0.212302 0.212302 0.212302
0.213663 0.213663 0.213663
0.214657 0.214657 0.214657
0.215267 0.215267 0.215267
0.215474 0.215474 0.215474
0.005154 0.005154 0.005154
0.005199 0.005199 0.005199
0.005377 0.005377 0.005377
0.005716 0.005716 0.005716
0.006236 0.006236 0.006236
0.006946 0.006946 0.006946
0.007856 0.007856 0.007856
0.008971 0.008971 0.008971
0.010295 0.010295 0.010295
0.011830 0.011830 0.011830
0.013577 0.013577 0.013577
0.015535 0.015535 0.015535
0.017704 0.017704 0.017704
0.020081 0.020081 0.020081
0.022664 0.022664 0.022664
0.025448 0.025448 0.025448
0.028429 0.028429 0.028429
0.031603 0.031603 0.031603
0.034963 0.034963 0.034963
0.038504 0.038504 0.038504
0.042220 0.042220 0.042220
0.046103 0.046103 0.046103
0.050146 0.050146 0.050146
0.054341 0.054341 0.054341
0.058679 0.058679 0.058679
0.063152 0.063152 0.063152
0.067751 0.067751 0.067751
0.072466 0.072466 0.072466
0.077288 0.077288 0.077288
0.082206 0.082206 0.082206
0.087210 0.087210 0.087210
0.092289 0.092289 0.092289
0.097432 0.097432 0.097432
0.102627 0.102627 0.102627
0.107863 0.107863 0.107863
0.113128 0.113128 0.113128
0.118409 0.118409 0.118409
0.123694 0.123694 0.123694
0.128970 0.128970 0.128970
0.134224 0.134224 0.134224
0.139443 0.139443 0.139443
0.144613 0.144613 0.144613
0.149721 0.149721 0.149721
0.154751 0.154751 0.154751
0.159690 0.159690 0.159690
0.164524 0.164524 0.164524
0.169238 0.169238 0.169238
0.173816 0.173816 0.173816
0.178243 0.178243 0.178243
0.182505 0.182505 0.182505
0.186585 0.186585 0.186585
0.190467 0.190467 0.190467
0.194136 0.194136 0.194136
0.197576 0.197576 0.197576
0.200769 0.200769 0.200769
0.203700 0.203700 0.203700
0.206351 0.206351 0.206351
0.208705 0.208705 0.208705
0.210746 0.210746 0.210746
0.212455 0.212455 0.212455
0.213816 0.213816 0.213816
0.214810 0.214810 0.214810
0.215420 0.215420 0.215420
0.215628 0.215628 0.215628
0.005751 0.005751 0.005751
0.005796 0.005796 0.005796
0.005974 0.005974 0.005974
0.006314 0.006314 0.006314
0.006833 0.006833 0.006833
0.007543 0.007543 0.007543
0.008453 0.008453 0.008453
0.009568 0.009568 0.009568
0.010892 0.010892 0.010892
0.012427 0.012427 0.012427
0.014174 0.014174 0.014174
0.016133 0.016133 0.016133
0.018302 0.018302 0.018302
0.020679 0.020679 0.020679
0.023261 0.023261 0.023261
0.026045 0.026045 0.026045
0.029026 0.029026 0.029026
0.032200 0.032200 0.032200
0.035560 0.035560 0.035560
0.039102 0.039102 0.039102
0.042818 0.042818 0.042818
0.046701 0.046701 0.046701
0.050743 0.050743 0.050743
0.054938 0.054938 0.054938
0.059276 0.059276 0.059276
0.063750 0.063750 0.063750
0.068349 0.068349 0.068349
0.073064 0.073064 0.073064
0.077886 0.077886 0.077886
0.082804 0.082804 0.082804
0.087807 0.087807 0.087807
0.092886 0.092886 0.092886
0.098029 0.098029 0.098029
0.103224 0.103224 0.103224
0.108460 0.108460 0.108460
0.113725 0.113725 0.113725
0.119006 0.119006 0.119006
0.124291 0.124291 0.124291
0.129568 0.129568 0.129568
0.134822 0.134822 0.134822
0.140041 0.140041 0.140041
0.145211 0.145211 0.145211
0.150318 0.150318 0.150318
0.155348 0.155348 0.155348
0.160288 0.160288 0.160288
0.165122 0.165122 0.165122
0.169835 0.169835 0.169835
0.174413 0.174413 0.174413
0.178840 0.178840 0.178840
0.183102 0.183102 0.183102
0.187182 0.187182 0.187182
0.191065 0.191065 0.191065
0.194734 0.194734 0.194734
0.198173 0.198173 0.198173
0.201366 0.201366 0.201366
0.204297 0.204297 0.204297
0.206948 0.206948 0.206948
0.209302 0.209302 0.209302
0.211343 0.211343 0.211343
0.213053 0.213053 0.213053
0.214413 0.214413 0.214413
0.215408 0.215408 0.215408
0.216017 0.216017 0.216017
0.216225 0.216225 0.216225
0.006893 0.006893 0.006893
0.006939 0.006939 0.006939
0.007117 0.007117 0.007117
0.007456 0.007456 0.007456
0.007976 0.007976 0.007976
0.008686 0.008686 0.008686
0.009596 0.009596 0.009596
0.010711 0.010711 0.010711
0.012035 0.012035 0.012035
0.013570 0.013570 0.013570
0.015317 0.015317 0.015317
0.017275 0.017275 0.017275
0.019444 0.019444 0.019444
0.021821 0.021821 0.021821
0.024404 0.024404 0.024404
0.027188 0.027188 0.027188
0.030169 0.030169 0.030169
0.033342 0.033342 0.033342
0.036703 0.036703 0.036703
0.040244 0.040244 0.040244
0.043960 0.043960 0.043960
0.047843 0.047843 0.047843
0.051886 0.051886 0.051886
0.056081 0.056081 0.056081
0.060419 0.060419 0.060419
0.064892 0.064892 0.064892
0.069491 0.069491 0.069491
0.074206 0.074206 0.074206
0.079028 0.079028 0.079028
0.083946 0.083946 0.083946
0.088950 0.088950 0.088950
0.094029 0.094029 0.094029
0.099172 0.099172 0.099172
0.104367 0.104367 0.104367
0.109603 0.109603 0.109603
0.114868 0.114868 0.114868
0.120149 0.120149 0.120149
0.125434 0.125434 0.125434
0.130710 0.130710 0.130710
0.135964 0.135964 0.135964
0.141183 0.141183 0.141183
0.146353 0.146353 0.146353
0.151461 0.151461 0.151461
0.156491 0.156491 0.156491
0.161430 0.161430 0.161430
0.166264 0.166264 0.166264
0.170978 0.170978 0.170978
0.175556 0.175556 0.175556
0.179983 0.179983 0.179983
0.184245 0.184245 0.184245
0.188325 0.188325 0.188325
0.192207 0.192207 0.192207
0.195876 0.195876 0.195876
0.199316 0.199316 0.199316
0.202509 0.202509 0.202509
0.205440 0.205440 0.205440
0.208091 0.208091 0.208091
0.210445 0.210445 0.210445
0.212486 0.212486 0.212486
0.214195 0.214195 0.214195
0.215556 0.215556 0.215556
0.216550 0.216550 0.216550
0.217160 0.217160 0.217160
0.217367 0.217367 0.217367
0.008640 0.008640 0.008640
0.008686 0.008686 0.008686
0.008863 0.008863 0.008863
0.009203 0.009203 0.009203
0.009722 0.009722 0.009722
0.010433 0.010433 0.010433
0.011343 0.011343 0.011343
0.012458 0.012458 0.012458
0.013782 0.013782 0.013782
0.015317 0.015317 0.015317
0.017063 0.017063 0.017063
0.019022 0.019022 0.019022
0.021191 0.021191 0.021191
0.023568 0.023568 0.023568
0.026150 0.026150 0.026150
0.028934 0.028934 0.028934
0.031915 0.031915 0.031915
0.035089 0.035089 0.035089
0.038450 0.038450 0.038450
0.041991 0.041991 0.041991
0.045707 0.045707 0.045707
0.049590 0.049590 0.049590
0.053633 0.053633 0.053633
0.057827 0.057827 0.057827
0.062166 0.062166 0.062166
0.066639 0.066639 0.066639
0.071238 0.071238 0.071238
0.075953 0.075953 0.075953
0.080775 0.080775 0.080775
0.085693 0.085693 0.085693
0.090697 0.090697 0.090697
0.095775 0.095775 0.095775
0.100918 0.100918 0.100918
0.106113 0.106113 0.106113
0.111349 0.111349 0.111349
0.116614 0.116614 0.116614
0.121895 0.121895 0.121895
0.127181 0.127181 0.127181
0.132457 0.132457 0.132457
0.137711 0.137711 0.137711
0.142930 0.142930 0.142930
0.148100 0.148100 0.148100
0.153207 0.153207 0.153207
0.158238 0.158238 0.158238
0.163177 0.163177 0.163177
0.168011 0.168011 0.168011
0.172724 0.172724 0.172724
0.177302 0.177302 0.177302
0.181730 0.181730 0.181730
0.185991 0.185991 0.185991
0.190071 0.190071 0.190071
0.193954 0.193954 0.193954
0.197623 0.197623 0.197623
0.201062 0.201062 0.201062
0.204256 0.204256 0.204256
0.207186 0.207186 0.207186
0.209837 0.209837 0.209837
0.212192 0.212192 0.212192
0.214232 0.214232 0.214232
0.215942 0.215942 0.215942
0.217303 0.217303 0.217303
0.218297 0.218297 0.218297
0.218907 0.218907 0.218907
0.219114 0.219114 0.219114
0.011030 0.011030 0.011030
0.011076 0.011076 0.011076
0.011253 0.011253 0.011253
0.011593 0.011593 0.011593
0.012112 0.012112 0.012112
0.012823 0.012823 0.012823
0.013733 0.013733 0.013733
0.014848 0.014848 0.014848
0.016172 0.016172 0.016172
0.017707 0.017707 0.017707
0.019454 0.019454 0.019454
0.021412 0.021412 0.021412
0.023581 0.023581 0.023581
0.025958 0.025958 0.025958
0.028540 0.028540 0.028540
0.031324 0.031324 0.031324
0.034305 0.034305 0.034305
0.037479 0.037479 0.037479
0.040840 0.040840 0.040840
0.044381 0.044381 0.044381
0.048097 0.048097 0.048097
0.051980 0.051980 0.051980
0.056023 0.056023 0.056023
0.060217 0.060217 0.060217
0.064556 0.064556 0.064556
0.069029 0.069029 0.069029
0.073628 0.073628 0.073628
0.078343 0.078343 0.078343
0.083165 0.083165 0.083165
0.088083 0.088083 0.088083
0.093087 0.093087 0.093087
0.098166 0.098166 0.098166
0.103308 0.103308 0.103308
0.108504 0.108504 0.108504
0.113740 0.113740 0.113740
0.119004 0.119004 0.119004
0.124285 0.124285 0.124285
0.129571 0.129571 0.129571
0.134847 0.134847 0.134847
0.140101 0.140101 0.140101
0.145320 0.145320 0.145320
0.150490 0.150490 0.150490
0.155597 0.155597 0.155597
0.160628 0.160628 0.160628
0.165567 0.165567 0.165567
0.170401 0.170401 0.170401
0.175114 0.175114 0.175114
0.179692 0.179692 0.179692
0.184120 0.184120 0.184120
0.188381 0.188381 0.188381
0.192461 0.192461 0.192461
0.196344 0.196344 0.196344
0.200013 0.200013 0.200013
0.203452 0.203452 0.203452
0.206646 0.206646 0.206646
0.209576 0.209576 0.209576
0.212227 0.212227 0.212227
0.214582 0.214582 0.214582
0.216622 0.216622 0.216622
0.218332 0.218332 0.218332
0.219693 0.219693 0.219693
0.220687 0.220687 0.220687
0.221297 0.221297 0.221297
0.221504 0.221504 0.221504
0.014091 0.014091 0.014091
0.014137 0.014137 0.014137
0.014314 0.014314 0.014314
0.014654 0.014654 0.014654
0.015173 0.015173 0.015173
0.015884 0.015884 0.015884
0.016794 0.016794 0.016794
0.017909 0.017909 0.017909
0.019233 0.019233 0.019233
0.020768 0.020768 0.020768
0.022515 0.022515 0.022515
0.024473 0.024473 0.024473
0.026642 0.026642 0.026642
0.029019 0.029019 0.029019
0.031601 0.031601 0.031601
0.034385 0.034385 0.034385
0.037367 0.037367 0.037367
0.040540 0.040540 0.040540
0.043901 0.043901 0.043901
0.047442 0.047442 0.047442
0.051158 0.051158 0.051158
0.055041 0.055041 0.055041
0.059084 0.059084 0.059084
0.063279 0.063279 0.063279
0.067617 0.067617 0.067617
0.072090 0.072090 0.072090
0.076689 0.076689 0.076689
0.081404 0.081404 0.081404
0.086226 0.086226 0.086226
0.091144 0.091144 0.091144
0.096148 0.096148 0.096148
0.101227 0.101227 0.101227
0.106369 0.106369 0.106369
0.111565 0.111565 0.111565
0.116801 0.116801 0.116801
0.122065 0.122065 0.122065
0.127347 0.127347 0.127347
0.132632 0.132632 0.132632
0.137908 0.137908 0.137908
0.143162 0.143162 0.143162
0.148381 0.148381 0.148381
0.153551 0.153551 0.153551
0.158658 0.158658 0.158658
0.163689 0.163689 0.163689
0.168628 0.168628 0.168628
0.173462 0.173462 0.173462
0.178175 0.178175 0.178175
0.182753 0.182753 0.182753
0.187181 0.187181 0.187181
0.191442 0.191442 0.191442
0.195522 0.195522 0.195522
0.199405 0.199405 0.199405
0.203074 0.203074 0.203074
0.206513 0.206513 0.206513
0.209707 0.209707 0.209707
0.212637 0.212637 0.212637
0.215288 0.215288 0.215288
0.217643 0.217643 0.217643
0.219684 0.219684 0.219684
0.221393 0.221393 0.221393
0.222754 0.222754 0.222754
0.223748 0.223748 0.223748
0.224358 0.224358 0.224358
0.224565 0.224565 0.224565
0.017843 0.017843 0.017843
0.017888 0.017888 0.017888
0.018066 0.018066 0.018066
0.018405 0.018405 0.018405
0.018925 0.018925 0.018925
0.019635 0.019635 0.019635
0.020545 0.020545 0.020545
0.021660 0.021660 0.021660
0.022984 0.022984 0.022984
0.024519 0.024519 0.024519
0.026266 0.026266 0.026266
0.028224 0.028224 0.028224
0.030393 0.030393 0.030393
0.032770 0.032770 0.032770
0.035353 0.035353 0.035353
0.038137 0.038137 0.038137
0.041118 0.041118 0.041118
0.044291 0.044291 0.044291
0.047652 0.047652 0.047652
0.051193 0.051193 0.051193
0.054909 0.054909 0.054909
0.058792 0.058792 0.058792
0.062835 0.062835 0.062835
0.067030 0.067030 0.067030
0.071368 0.071368 0.071368
0.075841 0.075841 0.075841
0.080440 0.080440 0.080440
0.085155 0.085155 0.085155
0.089977 0.089977 0.089977
0.094895 0.094895 0.094895
0.099899 0.099899 0.099899
0.104978 0.104978 0.104978
0.110121 0.110121 0.110121
0.115316 0.115316 0.115316
0.120552 0.120552 0.120552
0.125817 0.125817 0.125817
0.131098 0.131098 0.131098
0.136383 0.136383 0.136383
0.141659 0.141659 0.141659
0.146913 0.146913 0.146913
0.152132 0.152132 0.152132
0.157302 0.157302 0.157302
0.162410 0.162410 0.162410
0.167440 0.167440 0.167440
0.172379 0.172379 0.172379
0.177213 0.177213 0.177213
0.181927 0.181927 0.181927
0.186505 0.186505 0.186505
0.190932 0.190932 0.190932
0.195194 0.195194 0.195194
0.199274 0.199274 0.199274
0.203156 0.203156 0.203156
0.206825 0.206825 0.206825
0.210265 0.210265 0.210265
0.213458 0.213458 0.213458
0.216389 0.216389 0.216389
0.219040 0.219040 0.219040
0.221394 0.221394 0.221394
0.223435 0.223435 0.223435
0.225144 0.225144 0.225144
0.226505 0.226505 0.226505
0.227499 0.227499 0.227499
0.228109 0.228109 0.228109
0.228316 0.228316 0.228316
0.022296 0.022296 0.022296
0.022342 0.022342 0.022342
0.022520 0.022520 0.022520
0.022859 0.022859 0.022859
0.023378 0.023378 0.023378
0.024089 0.024089 0.024089
0.024999 0.024999 0.024999
0.026114 0.026114 0.026114
0.027438 0.027438 0.027438
0.028973 0.028973 0.028973
0.030720 0.030720 0.030720
0.032678 0.032678 0.032678
0.034847 0.034847 0.034847
0.037224 0.037224 0.037224
0.039806 0.039806 0.039806
0.042590 0.042590 0.042590
0.045572 0.045572 0.045572
0.048745 0.048745 0.048745
0.052106 0.052106 0.052106
0.055647 0.055647 0.055647
0.059363 0.059363 0.059363
0.063246 0.063246 0.063246
0.067289 0.067289 0.067289
0.071484 0.071484 0.071484
0.075822 0.075822 0.075822
0.080295 0.080295 0.080295
0.084894 0.084894 0.084894
0.089609 0.089609 0.089609
0.094431 0.094431 0.094431
0.099349 0.099349 0.099349
0.104353 0.104353 0.104353
0.109432 0.109432 0.109432
0.114575 0.114575 0.114575
0.119770 0.119770 0.119770
0.125006 0.125006 0.125006
0.130271 0.130271 0.130271
0.135552 0.135552 0.135552
0.140837 0.140837 0.140837
0.146113 0.146113 0.146113
0.151367 0.151367 0.151367
0.156586 0.156586 0.156586
0.161756 0.161756 0.161756
0.166863 0.166863 0.166863
0.171894 0.171894 0.171894
0.176833 0.176833 0.176833
0.181667 0.181667 0.181667
0.186380 0.186380 0.186380
0.190959 0.190959 0.190959
0.195386 0.195386 0.195386
0.199648 0.199648 0.199648
0.203728 0.203728 0.203728
0.207610 0.207610 0.207610
0.211279 0.211279 0.211279
0.214719 0.214719 0.214719
0.217912 0.217912 0.217912
0.220843 0.220843 0.220843
0.223494 0.223494 0.223494
0.225848 0.225848 0.225848
0.227889 0.227889 0.227889
0.229598 0.229598 0.229598
0.230959 0.230959 0.230959
0.231953 0.231953 0.231953
0.232563 0.232563 0.232563
0.232770 0.232770 0.232770
0.027460 0.027460 0.027460
0.027506 0.027506 0.027506
0.027683 0.027683 0.027683
0.028023 0.028023 0.028023
0.028542 0.028542 0.028542
0.029253 0.029253 0.029253
0.030163 0.030163 0.030163
0.031278 0.031278 0.031278
0.032602 0.032602 0.032602
0.034137 0.034137 0.034137
0.035884 0.035884 0.035884
0.037842 0.037842 0.037842
0.040011 0.040011 0.040011
0.042388 0.042388 0.042388
0.044970 0.044970 0.044970
0.047754 0.047754 0.047754
0.050736 0.050736 0.050736
0.053909 0.053909 0.053909
0.057270 0.057270 0.057270
0.060811 0.060811 0.060811
0.064527 0.064527 0.064527
0.068410 0.068410 0.068410
0.072453 0.072453 0.072453
0.076647 0.076647 0.076647
0.080986 0.080986 0.080986
0.085459 0.085459 0.085459
0.090058 0.090058 0.090058
0.094773 0.094773 0.094773
0.099595 0.099595 0.099595
0.104513 0.104513 0.104513
0.109517 0.109517 0.109517
0.114596 0.114596 0.114596
0.119738 0.119738 0.119738
0.124934 0.124934 0.124934
0.130170 0.130170 0.130170
0.135434 0.135434 0.135434
0.140716 0.140716 0.140716
0.146001 0.146001 0.146001
0.151277 0.151277 0.151277
0.156531 0.156531 0.156531
0.161750 0.161750 0.161750
0.166920 0.166920 0.166920
0.172027 0.172027 0.172027
0.177058 0.177058 0.177058
0.181997 0.181997 0.181997
0.186831 0.186831 0.186831
0.191544 0.191544 0.191544
0.196122 0.196122 0.196122
0.200550 0.200550 0.200550
0.204811 0.204811 0.204811
0.208891 0.208891 0.208891
0.212774 0.212774 0.212774
0.216443 0.216443 0.216443
0.219882 0.219882 0.219882
0.223076 0.223076 0.223076
0.226006 0.226006 0.226006
0.228657 0.228657 0.228657
0.231012 0.231012 0.231012
0.233052 0.233052 0.233052
0.234762 0.234762 0.234762
0.236123 0.236123 0.236123
0.237117 0.237117 0.237117
0.237727 0.237727 0.237727
0.237934 0.237934 0.237934
0.033337 0.033337 0.033337
0.033382 0.033382 0.033382
0.033560 0.033560 0.033560
0.033900 0.033900 0.033900
0.034419 0.034419 0.034419
0.035129 0.035129 0.035129
0.036039 0.036039 0.036039
0.037154 0.037154 0.037154
0.038478 0.038478 0.038478
0.040013 0.040013 0.040013
0.041760 0.041760 0.041760
0.043719 0.043719 0.043719
0.045888 0.045888 0.045888
0.048265 0.048265 0.048265
0.050847 0.050847 0.050847
0.053631 0.053631 0.053631
0.056612 0.056612 0.056612
0.059786 0.059786 0.059786
0.063146 0.063146 0.063146
0.066688 0.066688 0.066688
0.070404 0.070404 0.070404
0.074287 0.074287 0.074287
0.078329 0.078329 0.078329
0.082524 0.082524 0.082524
0.086862 0.086862 0.086862
0.091336 0.091336 0.091336
0.095935 0.095935 0.095935
0.100650 0.100650 0.100650
0.105471 0.105471 0.105471
0.110390 0.110390 0.110390
0.115393 0.115393 0.115393
0.120472 0.120472 0.120472
0.125615 0.125615 0.125615
0.130810 0.130810 0.130810
0.136046 0.136046 0.136046
0.141311 0.141311 0.141311
0.146592 0.146592 0.146592
0.151877 0.151877 0.151877
0.157153 0.157153 0.157153
0.162408 0.162408 0.162408
0.167627 0.167627 0.167627
0.172797 0.172797 0.172797
0.177904 0.177904 0.177904
0.182934 0.182934 0.182934
0.187874 0.187874 0.187874
0.192708 0.192708 0.192708
0.197421 0.197421 0.197421
0.201999 0.201999 0.201999
0.206426 0.206426 0.206426
0.210688 0.210688 0.210688
0.214768 0.214768 0.214768
0.218651 0.218651 0.218651
0.222320 0.222320 0.222320
0.225759 0.225759 0.225759
0.228952 0.228952 0.228952
0.231883 0.231883 0.231883
0.234534 0.234534 0.234534
0.236888 0.236888 0.236888
0.238929 0.238929 0.238929
0.240639 0.240639 0.240639
0.241999 0.241999 0.241999
0.242994 0.242994 0.242994
0.243603 0.243603 0.243603
0.243811 0.243811 0.243811
0.039925 0.039925 0.039925
0.039971 0.039971 0.039971
0.040149 0.040149 0.040149
0.040488 0.040488 0.040488
0.041007 0.041007 0.041007
0.041718 0.041718 0.041718
0.042628 0.042628 0.042628
0.043743 0.043743 0.043743
0.045067 0.045067 0.045067
0.046602 0.046602 0.046602
0.048349 0.048349 0.048349
0.050307 0.050307 0.050307
0.052476 0.052476 0.052476
0.054853 0.054853 0.054853
0.057435 0.057435 0.057435
0.060219 0.060219 0.060219
0.063201 0.063201 0.063201
0.066374 0.066374 0.066374
0.069735 0.069735 0.069735
0.073276 0.073276 0.073276
0.076992 0.076992 0.076992
0.080875 0.080875 0.080875
0.084918 0.084918 0.084918
0.089113 0.089113 0.089113
0.093451 0.093451 0.093451
0.097924 0.097924 0.097924
0.102523 0.102523 0.102523
0.107238 0.107238 0.107238
0.112060 0.112060 0.112060
0.116978 0.116978 0.116978
0.121982 0.121982 0.121982
0.127061 0.127061 0.127061
0.132203 0.132203 0.132203
0.137399 0.137399 0.137399
0.142635 0.142635 0.142635
0.147899 0.147899 0.147899
0.153181 0.153181 0.153181
0.158466 0.158466 0.158466
0.163742 0.163742 0.163742
0.168996 0.168996 0.168996
0.174215 0.174215 0.174215
0.179385 0.179385 0.179385
0.184492 0.184492 0.184492
0.189523 0.189523 0.189523
0.194462 0.194462 0.194462
0.199296 0.199296 0.199296
0.204009 0.204009 0.204009
0.208587 0.208587 0.208587
0.213015 0.213015 0.213015
0.217276 0.217276 0.217276
0.221356 0.221356 0.221356
0.225239 0.225239 0.225239
0.228908 0.228908 0.228908
0.232348 0.232348 0.232348
0.235541 0.235541 0.235541
0.238471 0.238471 0.238471
0.241122 0.241122 0.241122
0.243477 0.243477 0.243477
0.245518 0.245518 0.245518
0.247227 0.247227 0.247227
0.248588 0.248588 0.248588
0.249582 0.249582 0.249582
0.250192 0.250192 0.250192
0.250399 0.250399 0.250399
0.047221 0.047221 0.047221
0.047267 0.047267 0.047267
0.047445 0.047445 0.047445
0.047784 0.047784 0.047784
0.048303 0.048303 0.048303
0.049014 0.049014 0.049014
0.049924 0.049924 0.049924
0.051039 0.051039 0.051039
0.052363 0.052363 0.052363
0.053898 0.053898 0.053898
0.055645 0.055645 0.055645
0.057603 0.057603 0.057603
0.059772 0.059772 0.059772
0.062149 0.062149 0.062149
0.064731 0.064731 0.064731
0.067515 0.067515 0.067515
0.070497 0.070497 0.070497
0.073670 0.073670 0.073670
0.077031 0.077031 0.077031
0.080572 0.080572 0.080572
0.084288 0.084288 0.084288
0.088171 0.088171 0.088171
0.092214 0.092214 0.092214
0.096409 0.096409 0.096409
0.100747 0.100747 0.100747
0.105220 0.105220 0.105220
0.109819 0.109819 0.109819
0.114534 0.114534 0.114534
0.119356 0.119356 0.119356
0.124274 0.124274 0.124274
0.129278 0.129278 0.129278
0.134357 0.134357 0.134357
0.139500 0.139500 0.139500
0.144695 0.144695 0.144695
0.149931 0.149931 0.149931
0.155196 0.155196 0.155196
0.160477 0.160477 0.160477
0.165762 0.165762 0.165762
0.171038 0.171038 0.171038
0.176292 0.176292 0.176292
0.181511 0.181511 0.181511
0.186681 0.186681 0.186681
0.191788 0.191788 0.191788
0.196819 0.196819 0.196819
0.201758 0.201758 0.201758
0.206592 0.206592 0.206592
0.211305 0.211305 0.211305
0.215883 0.215883 0.215883
0.220311 0.220311 0.220311
0.224573 0.224573 0.224573
0.228652 0.228652 0.228652
0.232535 0.232535 0.232535
0.236204 0.236204 0.236204
0.239644 0.239644 0.239644
0.242837 0.242837 0.242837
0.245767 0.245767 0.245767
0.248418 0.248418 0.248418
0.250773 0.250773 0.250773
0.252814 0.252814 0.252814
0.254523 0.254523 0.254523
0.255884 0.255884 0.255884
0.256878 0.256878 0.256878
0.257488 0.257488 0.257488
0.257695 0.257695 0.257695
0.055218 0.055218 0.055218
0.055264 0.055264 0.055264
0.055441 0.055441 0.055441
0.055781 0.055781 0.055781
0.056300 0.056300 0.056300
0.057010 0.057010 0.057010
0.057920 0.057920 0.057920
0.059035 0.059035 0.059035
0.060359 0.060359 0.060359
0.061894 0.061894 0.061894
0.063641 0.063641 0.063641
0.065600 0.065600 0.065600
0.067769 0.067769 0.067769
0.070146 0.070146 0.070146
0.072728 0.072728 0.072728
0.075512 0.075512 0.075512
0.078493 0.078493 0.078493
0.081667 0.081667 0.081667
0.085027 0.085027 0.085027
0.088569 0.088569 0.088569
0.092285 0.092285 0.092285
0.096168 0.096168 0.096168
0.100210 0.100210 0.100210
0.104405 0.104405 0.104405
0.108743 0.108743 0.108743
0.113217 0.113217 0.113217
0.117816 0.117816 0.117816
0.122531 0.122531 0.122531
0.127353 0.127353 0.127353
0.132271 0.132271 0.132271
0.137274 0.137274 0.137274
0.142353 0.142353 0.142353
0.147496 0.147496 0.147496
0.152691 0.152691 0.152691
0.157927 0.157927 0.157927
0.163192 0.163192 0.163192
0.168473 0.168473 0.168473
0.173758 0.173758 0.173758
0.179035 0.179035 0.179035
0.184289 0.184289 0.184289
0.189508 0.189508 0.189508
0.194678 0.194678 0.194678
0.199785 0.199785 0.199785
0.204815 0.204815 0.204815
0.209755 0.209755 0.209755
0.214589 0.214589 0.214589
0.219302 0.219302 0.219302
0.223880 0.223880 0.223880
0.228308 0.228308 0.228308
0.232569 0.232569 0.232569
0.236649 0.236649 0.236649
0.240532 0.240532 0.240532
0.244201 0.244201 0.244201
0.247640 0.247640 0.247640
0.250833 0.250833 0.250833
