Plugins/FilmEmulator/Content/LUTs/FE_Look_16mm_64.cube
TITLE "FE_Look_16mm"
LUT_3D_SIZE 4
0.000000 0.000000 0.000000
0.176747 0.000000 0.000000
0.635243 0.010210 0.010187
0.926874 0.016885 0.016862
0.009432 0.185628 0.009429
0.190630 0.189775 0.013576
0.649126 0.200270 0.024070
0.940757 0.206944 0.030745
0.044560 0.666546 0.044557
0.225759 0.670693 0.048704
0.684254 0.681187 0.059198
0.975885 0.687862 0.065873
0.066904 0.972439 0.066901
0.248102 0.976586 0.071048
0.706598 0.987080 0.081542
0.998229 0.993755 0.088217
0.000000 0.000000 0.174154
0.178157 0.001126 0.178302
0.636652 0.011620 0.188796
0.928284 0.018295 0.195471
0.010841 0.187038 0.188037
0.192040 0.191185 0.192185
0.650535 0.201679 0.202679
0.942167 0.208354 0.209354
0.045970 0.667955 0.223166
0.227168 0.672103 0.227313
0.685664 0.682597 0.237807
0.977295 0.689272 0.244482
0.068314 0.973849 0.245510
0.249512 0.977996 0.249657
0.708008 0.988490 0.260151
0.999639 0.995165 0.266826
0.000525 0.000545 0.626099
0.181724 0.004693 0.630246
0.640219 0.015187 0.640740
0.931850 0.021862 0.647415
0.014408 0.190605 0.639981
0.195606 0.194752 0.644129
0.654102 0.205246 0.654623
0.945733 0.211921 0.661298
0.049537 0.671522 0.675110
0.230735 0.675670 0.679257
0.689231 0.686164 0.689751
0.980862 0.692839 0.696426
0.071881 0.977415 0.697454
0.253079 0.981563 0.701601
0.711575 0.992057 0.712095
1.000000 0.998732 0.718770
0.002794 0.002814 0.913562
0.183992 0.006961 0.917710
0.642488 0.017455 0.928204
0.934119 0.024130 0.934879
0.016677 0.192873 0.927445
0.197875 0.197021 0.931593
0.656371 0.207515 0.942087
0.948002 0.214190 0.948762
0.051806 0.673791 0.962574
0.233004 0.677938 0.966721
0.691499 0.688432 0.977215
0.983131 0.695107 0.983890
0.074150 0.979684 0.984918
0.255348 0.983831 0.989065
0.713843 0.994326 0.999559
1.000000 1.000000 1.000000
