Plugins/FilmEmulator/Content/LUTs/FE_Look_16mm_64.cube
TITLE "FE_Look_16mm"
LUT_3D_SIZE 64
0.000000 0.000000 0.000000
0.000000 0.000000 0.000000
0.000000 0.000000 0.000000
0.000000 0.000000 0.000000
0.000337 0.000000 0.000000
0.003481 0.000000 0.000000
0.007507 0.000000 0.000000
0.012441 0.000000 0.000000
0.018300 0.000000 0.000000
0.025092 0.000000 0.000000
0.032822 0.000000 0.000000
0.041488 0.000000 0.000000
0.051085 0.000000 0.000000
0.061603 0.000000 0.000000
0.073029 0.000000 0.000000
0.085348 0.000000 0.000000
0.098540 0.000000 0.000000
0.112583 0.000000 0.000000
0.127453 0.000000 0.000000
0.143123 0.000000 0.000000
0.159565 0.000000 0.000000
0.176747 0.000000 0.000000
0.194636 0.000126 0.000102
0.213197 0.000550 0.000527
0.232394 0.000990 0.000967
0.252187 0.001443 0.001420
0.272537 0.001909 0.001885
0.293402 0.002386 0.002363
0.314737 0.002874 0.002851
0.336499 0.003373 0.003349
0.358640 0.003879 0.003856
0.381114 0.004394 0.004371
0.403870 0.004915 0.004891
0.426858 0.005441 0.005418
0.450027 0.005971 0.005948
0.473323 0.006504 0.006481
0.496692 0.007039 0.007016
0.520078 0.007574 0.007551
0.543424 0.008109 0.008086
0.566674 0.008641 0.008618
0.589767 0.009169 0.009146
0.612644 0.009693 0.009670
0.635243 0.010210 0.010187
0.657502 0.010720 0.010697
0.679358 0.011220 0.011197
0.700747 0.011710 0.011686
0.721604 0.012187 0.012164
0.741861 0.012651 0.012627
0.761452 0.013099 0.013076
0.780309 0.013531 0.013507
0.798362 0.013944 0.013921
0.815542 0.014337 0.014314
0.831778 0.014709 0.014685
0.846997 0.015057 0.015034
0.861127 0.015380 0.015357
0.874094 0.015677 0.015654
0.885825 0.015946 0.015922
0.896243 0.016184 0.016161
0.905273 0.016391 0.016368
0.912837 0.016564 0.016541
0.918858 0.016702 0.016679
0.923258 0.016802 0.016779
0.925956 0.016864 0.016841
0.926874 0.016885 0.016862
0.000000 0.000000 0.000000
0.000000 0.000000 0.000000
0.000000 0.000000 0.000000
0.000000 0.000000 0.000000
0.000352 0.000000 0.000000
0.003496 0.000000 0.000000
0.007523 0.000000 0.000000
0.012457 0.000000 0.000000
0.018315 0.000000 0.000000
0.025107 0.000000 0.000000
0.032837 0.000000 0.000000
0.041503 0.000000 0.000000
0.051100 0.000000 0.000000
0.061618 0.000000 0.000000
0.073045 0.000000 0.000000
0.085363 0.000000 0.000000
0.098555 0.000000 0.000000
0.112598 0.000000 0.000000
0.127469 0.000000 0.000000
0.143139 0.000000 0.000000
0.159581 0.000000 0.000000
0.176763 0.000000 0.000000
0.194652 0.000337 0.000118
0.213213 0.000762 0.000543
0.232409 0.001202 0.000982
0.252203 0.001655 0.001435
0.272553 0.002120 0.001901
0.293417 0.002598 0.002378
0.314753 0.003086 0.002867
0.336514 0.003584 0.003365
0.358656 0.004091 0.003872
0.381129 0.004605 0.004386
0.403886 0.005126 0.004907
0.426874 0.005653 0.005433
0.450043 0.006183 0.005963
0.473338 0.006716 0.006496
0.496707 0.007251 0.007031
0.520093 0.007786 0.007567
0.543440 0.008320 0.008101
0.566689 0.008853 0.008633
0.589782 0.009381 0.009162
0.612659 0.009905 0.009685
0.635258 0.010422 0.010203
0.657518 0.010932 0.010712
0.679374 0.011432 0.011212
0.700763 0.011921 0.011702
0.721619 0.012399 0.012179
0.741876 0.012862 0.012643
0.761468 0.013311 0.013091
0.780325 0.013742 0.013523
0.798378 0.014156 0.013936
0.815558 0.014549 0.014329
0.831793 0.014920 0.014701
0.847012 0.015269 0.015049
0.861142 0.015592 0.015373
0.874110 0.015889 0.015669
0.885840 0.016157 0.015938
0.896258 0.016396 0.016176
0.905288 0.016603 0.016383
0.912853 0.016776 0.016556
0.918874 0.016913 0.016694
0.923273 0.017014 0.016795
0.925972 0.017076 0.016856
0.926889 0.017097 0.016877
0.000000 0.000000 0.000000
0.000000 0.000000 0.000000
0.000000 0.000000 0.000000
0.000000 0.000000 0.000000
0.000413 0.000000 0.000000
0.003556 0.000000 0.000000
0.007583 0.000000 0.000000
0.012517 0.000000 0.000000
0.018375 0.000000 0.000000
0.025168 0.000000 0.000000
0.032897 0.000000 0.000000
0.041563 0.000000 0.000000
0.051160 0.000000 0.000000
0.061678 0.000000 0.000000
0.073105 0.000000 0.000000
0.085424 0.000000 0.000000
0.098615 0.000000 0.000000
0.112659 0.000000 0.000000
0.127529 0.000000 0.000000
0.143199 0.000000 0.000000
0.159641 0.000359 0.000000
0.176823 0.000752 0.000000
0.194712 0.001161 0.000178
0.213273 0.001586 0.000603
0.232470 0.002026 0.001042
0.252263 0.002479 0.001495
0.272613 0.002945 0.001961
0.293477 0.003422 0.002439
0.314813 0.003910 0.002927
0.336575 0.004408 0.003425
0.358716 0.004915 0.003932
0.381190 0.005430 0.004446
0.403946 0.005950 0.004967
0.426934 0.006477 0.005493
0.450103 0.007007 0.006023
0.473399 0.007540 0.006557
0.496767 0.008075 0.007092
0.520153 0.008610 0.007627
0.543500 0.009145 0.008161
0.566749 0.009677 0.008693
0.589843 0.010205 0.009222
0.612719 0.010729 0.009745
0.635318 0.011246 0.010263
0.657578 0.011756 0.010772
0.679434 0.012256 0.011272
0.700823 0.012745 0.011762
0.721679 0.013223 0.012239
0.741937 0.013686 0.012703
0.761528 0.014135 0.013151
0.780385 0.014566 0.013583
0.798438 0.014980 0.013996
0.815618 0.015373 0.014389
0.831853 0.015744 0.014761
0.847072 0.016093 0.015109
0.861203 0.016416 0.015433
0.874170 0.016713 0.015730
0.885900 0.016982 0.015998
0.896319 0.017220 0.016237
0.905348 0.017427 0.016443
0.912913 0.017600 0.016616
0.918934 0.017738 0.016754
0.923334 0.017838 0.016855
0.926032 0.017900 0.016917
0.926950 0.017921 0.016938
0.000000 0.000000 0.000000
0.000000 0.000000 0.000000
0.000000 0.000000 0.000000
0.000000 0.000000 0.000000
0.000528 0.000000 0.000000
0.003671 0.000000 0.000000
0.007698 0.000000 0.000000
0.012632 0.000000 0.000000
0.018490 0.000000 0.000000
0.025283 0.000000 0.000000
0.033012 0.000000 0.000000
0.041679 0.000000 0.000000
0.051275 0.000000 0.000000
0.061794 0.000000 0.000000
0.073220 0.000000 0.000000
0.085539 0.000237 0.000000
0.098731 0.000538 0.000000
0.112774 0.000860 0.000000
0.127644 0.001200 0.000000
0.143314 0.001559 0.000000
0.159756 0.001935 0.000000
0.176938 0.002328 0.000000
0.194827 0.002738 0.000293
0.213388 0.003163 0.000718
0.232585 0.003602 0.001157
0.252378 0.004055 0.001610
0.272728 0.004521 0.002076
0.293592 0.004998 0.002554
0.314928 0.005487 0.003042
0.336690 0.005985 0.003540
0.358831 0.006492 0.004047
0.381305 0.007006 0.004561
0.404061 0.007527 0.005082
0.427049 0.008053 0.005608
0.450218 0.008583 0.006139
0.473514 0.009117 0.006672
0.496882 0.009651 0.007207
0.520269 0.010187 0.007742
0.543615 0.010721 0.008276
0.566865 0.011253 0.008808
0.589958 0.011782 0.009337
0.612834 0.012305 0.009861
0.635434 0.012823 0.010378
0.657693 0.013332 0.010887
0.679549 0.013832 0.011388
0.700938 0.014322 0.011877
0.721794 0.014799 0.012355
0.742052 0.015263 0.012818
0.761643 0.015711 0.013267
0.780500 0.016143 0.013698
0.798553 0.016556 0.014111
0.815733 0.016949 0.014505
0.831968 0.017321 0.014876
0.847188 0.017669 0.015225
0.861318 0.017993 0.015548
0.874285 0.018289 0.015845
0.886016 0.018558 0.016113
0.896434 0.018796 0.016352
0.905464 0.019003 0.016558
0.913028 0.019176 0.016732
0.919049 0.019314 0.016869
0.923449 0.019415 0.016970
0.926147 0.019477 0.017032
0.927065 0.019498 0.017053
0.000000 0.000591 0.000000
0.000000 0.000596 0.000000
0.000000 0.000613 0.000000
0.000000 0.000648 0.000000
0.000704 0.000700 0.000000
0.003848 0.000772 0.000000
0.007874 0.000865 0.000000
0.012808 0.000978 0.000000
0.018666 0.001112 0.000000
0.025459 0.001267 0.000000
0.033188 0.001444 0.000000
0.041855 0.001642 0.000000
0.051451 0.001862 0.000000
0.061970 0.002103 0.000000
0.073396 0.002364 0.000000
0.085715 0.002646 0.000000
0.098907 0.002948 0.000000
0.112950 0.003270 0.000000
0.127820 0.003610 0.000000
0.143490 0.003969 0.000000
0.159932 0.004345 0.000000
0.177114 0.004738 0.000060
0.195003 0.005148 0.000469
0.213564 0.005572 0.000894
0.232761 0.006012 0.001333
0.252554 0.006465 0.001786
0.272904 0.006931 0.002252
0.293768 0.007408 0.002730
0.315104 0.007897 0.003218
0.336866 0.008395 0.003716
0.359007 0.008901 0.004223
0.381481 0.009416 0.004737
0.404237 0.009937 0.005258
0.427225 0.010463 0.005784
0.450394 0.010993 0.006315
0.473690 0.011526 0.006848
0.497059 0.012061 0.007383
0.520445 0.012596 0.007918
0.543791 0.013131 0.008452
0.567041 0.013663 0.008984
0.590134 0.014191 0.009513
0.613010 0.014715 0.010037
0.635610 0.015232 0.010554
0.657869 0.015742 0.011063
0.679725 0.016242 0.011564
0.701114 0.016732 0.012053
0.721970 0.017209 0.012531
0.742228 0.017673 0.012994
0.761819 0.018121 0.013443
0.780676 0.018553 0.013874
0.798729 0.018966 0.014287
0.815909 0.019359 0.014681
0.832144 0.019731 0.015052
0.847364 0.020079 0.015401
0.861494 0.020402 0.015724
0.874461 0.020699 0.016021
0.886192 0.020968 0.016289
0.896610 0.021206 0.016528
0.905640 0.021413 0.016734
0.913204 0.021586 0.016908
0.919225 0.021724 0.017045
0.923625 0.021824 0.017146
0.926323 0.021886 0.017208
0.927241 0.021907 0.017229
0.000000 0.003888 0.000000
0.000000 0.003893 0.000000
0.000000 0.003911 0.000000
0.000000 0.003945 0.000000
0.000945 0.003998 0.000000
0.004088 0.004070 0.000000
0.008115 0.004162 0.000000
0.013049 0.004275 0.000000
0.018907 0.004409 0.000000
0.025700 0.004565 0.000000
0.033429 0.004741 0.000000
0.042095 0.004940 0.000000
0.051692 0.005159 0.000000
0.062210 0.005400 0.000000
0.073637 0.005662 0.000000
0.085956 0.005944 0.000000
0.099147 0.006246 0.000000
0.113191 0.006567 0.000000
0.128061 0.006907 0.000000
0.143731 0.007266 0.000000
0.160173 0.007642 0.000000
0.177355 0.008036 0.000301
0.195244 0.008445 0.000710
0.213805 0.008870 0.001135
0.233002 0.009309 0.001574
0.252795 0.009762 0.002027
0.273145 0.010228 0.002493
0.294009 0.010706 0.002971
0.315345 0.011194 0.003459
0.337107 0.011692 0.003957
0.359248 0.012199 0.004464
0.381722 0.012713 0.004978
0.404478 0.013234 0.005499
0.427466 0.013760 0.006025
0.450635 0.014291 0.006556
0.473931 0.014824 0.007089
0.497299 0.015359 0.007624
0.520685 0.015894 0.008159
0.544032 0.016428 0.008693
0.567281 0.016960 0.009225
0.590375 0.017489 0.009754
0.613251 0.018013 0.010278
0.635851 0.018530 0.010795
0.658110 0.019039 0.011304
0.679966 0.019540 0.011804
0.701355 0.020029 0.012294
0.722211 0.020506 0.012771
0.742469 0.020970 0.013235
0.762060 0.021418 0.013683
0.780917 0.021850 0.014115
0.798970 0.022263 0.014528
0.816150 0.022657 0.014921
0.832385 0.023028 0.015293
0.847605 0.023376 0.015641
0.861735 0.023700 0.015965
0.874702 0.023997 0.016262
0.886433 0.024265 0.016530
0.896851 0.024504 0.016769
0.905881 0.024710 0.016975
0.913445 0.024883 0.017148
0.919466 0.025021 0.017286
0.923866 0.025122 0.017387
0.926564 0.025184 0.017449
0.927482 0.025205 0.017470
0.000000 0.008112 0.000000
0.000000 0.008116 0.000000
0.000000 0.008134 0.000000
0.000000 0.008169 0.000000
0.001253 0.008221 0.000000
0.004397 0.008293 0.000000
0.008423 0.008385 0.000000
0.013357 0.008498 0.000000
0.019216 0.008632 0.000000
0.026008 0.008788 0.000000
0.033738 0.008965 0.000000
0.042404 0.009163 0.000000
0.052001 0.009383 0.000000
0.062519 0.009624 0.000000
0.073945 0.009885 0.000000
0.086264 0.010167 0.000000
0.099456 0.010469 0.000000
0.113499 0.010790 0.000000
0.128369 0.011131 0.000000
0.144040 0.011489 0.000000
0.160481 0.011866 0.000216
0.177663 0.012259 0.000609
0.195552 0.012668 0.001019
0.214114 0.013093 0.001443
0.233310 0.013533 0.001883
0.253104 0.013986 0.002336
0.273453 0.014451 0.002802
0.294318 0.014929 0.003279
0.315653 0.015417 0.003767
0.337415 0.015915 0.004266
0.359557 0.016422 0.004772
0.382030 0.016937 0.005287
0.404786 0.017457 0.005808
0.427775 0.017984 0.006334
0.450943 0.018514 0.006864
0.474239 0.019047 0.007397
0.497608 0.019582 0.007932
0.520994 0.020117 0.008467
0.544341 0.020652 0.009002
0.567590 0.021184 0.009534
0.590683 0.021712 0.010062
0.613560 0.022236 0.010586
0.636159 0.022753 0.011103
0.658418 0.023263 0.011613
0.680275 0.023763 0.012113
0.701663 0.024252 0.012603
0.722520 0.024730 0.013080
0.742777 0.025193 0.013544
0.762368 0.025642 0.013992
0.781225 0.026073 0.014424
0.799279 0.026487 0.014837
0.816458 0.026880 0.015230
0.832694 0.027251 0.015602
0.847913 0.027600 0.015950
0.862043 0.027923 0.016273
0.875011 0.028220 0.016570
0.886741 0.028489 0.016839
0.897159 0.028727 0.017077
0.906189 0.028934 0.017284
0.913753 0.029107 0.017457
0.919775 0.029245 0.017595
0.924174 0.029345 0.017695
0.926873 0.029407 0.017757
0.927790 0.029428 0.017778
0.000000 0.013287 0.000000
0.000000 0.013292 0.000000
0.000000 0.013310 0.000000
0.000000 0.013344 0.000000
0.001631 0.013397 0.000000
0.004775 0.013469 0.000000
0.008801 0.013561 0.000000
0.013736 0.013674 0.000000
0.019594 0.013808 0.000000
0.026386 0.013963 0.000000
0.034116 0.014140 0.000000
0.042782 0.014339 0.000000
0.052379 0.014558 0.000000
0.062897 0.014799 0.000000
0.074323 0.015061 0.000000
0.086642 0.015343 0.000000
0.099834 0.015644 0.000000
0.113877 0.015966 0.000000
0.128747 0.016306 0.000000
0.144418 0.016665 0.000218
0.160859 0.017041 0.000594
0.178041 0.017434 0.000987
0.195930 0.017844 0.001397
0.214492 0.018269 0.001821
0.233688 0.018708 0.002261
0.253482 0.019161 0.002714
0.273831 0.019627 0.003180
0.294696 0.020104 0.003657
0.316031 0.020593 0.004146
0.337793 0.021091 0.004644
0.359935 0.021598 0.005150
0.382408 0.022112 0.005665
0.405164 0.022633 0.006186
0.428153 0.023159 0.006712
0.451321 0.023689 0.007242
0.474617 0.024223 0.007775
0.497986 0.024757 0.008310
0.521372 0.025293 0.008845
0.544719 0.025827 0.009380
0.567968 0.026359 0.009912
0.591061 0.026888 0.010440
0.613938 0.027411 0.010964
0.636537 0.027929 0.011481
0.658796 0.028438 0.011991
0.680653 0.028938 0.012491
0.702042 0.029428 0.012981
0.722898 0.029905 0.013458
0.743155 0.030369 0.013922
0.762746 0.030817 0.014370
0.781603 0.031249 0.014802
0.799657 0.031662 0.015215
0.816837 0.032055 0.015608
0.833072 0.032427 0.015980
0.848291 0.032775 0.016328
0.862421 0.033099 0.016651
0.875389 0.033395 0.016948
0.887119 0.033664 0.017217
0.897537 0.033902 0.017455
0.906567 0.034109 0.017662
0.914131 0.034282 0.017835
0.920153 0.034420 0.017973
0.924552 0.034521 0.018073
0.927251 0.034583 0.018135
0.928168 0.034604 0.018156
0.000000 0.019432 0.000000
0.000000 0.019437 0.000000
0.000000 0.019455 0.000000
0.000000 0.019489 0.000000
0.002080 0.019542 0.000000
0.005224 0.019614 0.000000
0.009250 0.019706 0.000000
0.014184 0.019819 0.000000
0.020043 0.019953 0.000000
0.026835 0.020108 0.000000
0.034565 0.020285 0.000000
0.043231 0.020484 0.000000
0.052828 0.020703 0.000000
0.063346 0.020944 0.000000
0.074772 0.021205 0.000000
0.087091 0.021487 0.000000
0.100283 0.021789 0.000000
0.114326 0.022111 0.000000
0.129196 0.022451 0.000308
0.144867 0.022810 0.000666
0.161308 0.023186 0.001043
0.178490 0.023579 0.001436
0.196379 0.023989 0.001845
0.214940 0.024414 0.002270
0.234137 0.024853 0.002710
0.253930 0.025306 0.003163
0.274280 0.025772 0.003628
0.295145 0.026249 0.004106
0.316480 0.026738 0.004594
0.338242 0.027236 0.005092
0.360383 0.027743 0.005599
0.382857 0.028257 0.006114
0.405613 0.028778 0.006634
0.428602 0.029304 0.007161
0.451770 0.029834 0.007691
0.475066 0.030367 0.008224
0.498435 0.030902 0.008759
0.521821 0.031438 0.009294
0.545168 0.031972 0.009829
0.568417 0.032504 0.010361
0.591510 0.033033 0.010889
0.614387 0.033556 0.011413
0.636986 0.034073 0.011930
0.659245 0.034583 0.012440
0.681102 0.035083 0.012940
0.702490 0.035573 0.013429
0.723347 0.036050 0.013907
0.743604 0.036514 0.014370
0.763195 0.036962 0.014819
0.782052 0.037394 0.015250
0.800105 0.037807 0.015664
0.817285 0.038200 0.016057
0.833521 0.038572 0.016428
0.848740 0.038920 0.016777
0.862870 0.039244 0.017100
0.875837 0.039540 0.017397
0.887568 0.039809 0.017666
0.897986 0.040047 0.017904
0.907016 0.040254 0.018111
0.914580 0.040427 0.018284
0.920601 0.040565 0.018422
0.925001 0.040666 0.018522
0.927700 0.040727 0.018584
0.928617 0.040748 0.018605
0.000000 0.026556 0.000000
0.000000 0.026561 0.000000
0.000000 0.026579 0.000000
0.000303 0.026613 0.000000
0.002600 0.026666 0.000000
0.005744 0.026738 0.000000
0.009771 0.026830 0.000000
0.014705 0.026943 0.000000
0.020563 0.027077 0.000000
0.027355 0.027233 0.000000
0.035085 0.027410 0.000000
0.043751 0.027608 0.000000
0.053348 0.027828 0.000000
0.063866 0.028068 0.000000
0.075293 0.028330 0.000000
0.087611 0.028612 0.000000
0.100803 0.028914 0.000166
0.114846 0.029235 0.000488
0.129717 0.029575 0.000828
0.145387 0.029934 0.001187
0.161829 0.030310 0.001563
0.179011 0.030704 0.001956
0.196900 0.031113 0.002366
0.215461 0.031538 0.002791
0.234657 0.031977 0.003230
0.254451 0.032430 0.003683
0.274801 0.032896 0.004149
0.295665 0.033374 0.004626
0.317001 0.033862 0.005115
0.338762 0.034360 0.005613
0.360904 0.034867 0.006120
0.383377 0.035381 0.006634
0.406134 0.035902 0.007155
0.429122 0.036428 0.007681
0.452291 0.036959 0.008211
0.475587 0.037492 0.008745
0.498955 0.038027 0.009279
0.522341 0.038562 0.009815
0.545688 0.039096 0.010349
0.568937 0.039628 0.010881
0.592030 0.040157 0.011410
0.614907 0.040681 0.011933
0.637506 0.041198 0.012451
0.659766 0.041707 0.012960
0.681622 0.042208 0.013460
0.703011 0.042697 0.013950
0.723867 0.043175 0.014427
0.744124 0.043638 0.014891
0.763716 0.044087 0.015339
0.782573 0.044518 0.015771
0.800626 0.044931 0.016184
0.817806 0.045325 0.016577
0.834041 0.045696 0.016949
0.849260 0.046045 0.017297
0.863390 0.046368 0.017621
0.876358 0.046665 0.017917
0.888088 0.046933 0.018186
0.898506 0.047172 0.018424
0.907536 0.047378 0.018631
0.915101 0.047551 0.018804
0.921122 0.047689 0.018942
0.925521 0.047790 0.019043
0.928220 0.047852 0.019104
0.929137 0.047873 0.019125
0.000000 0.034664 0.000000
0.000000 0.034669 0.000000
0.000000 0.034687 0.000000
0.000895 0.034721 0.000000
0.003193 0.034774 0.000000
0.006336 0.034846 0.000000
0.010363 0.034938 0.000000
0.015297 0.035051 0.000000
0.021155 0.035185 0.000000
0.027948 0.035340 0.000000
0.035677 0.035517 0.000000
0.044343 0.035716 0.000000
0.053940 0.035935 0.000000
0.064458 0.036176 0.000000
0.075885 0.036438 0.000175
0.088204 0.036720 0.000457
0.101395 0.037021 0.000759
0.115439 0.037343 0.001080
0.130309 0.037683 0.001420
0.145979 0.038042 0.001779
0.162421 0.038418 0.002155
0.179603 0.038811 0.002549
0.197492 0.039221 0.002958
0.216053 0.039646 0.003383
0.235250 0.040085 0.003822
0.255043 0.040538 0.004275
0.275393 0.041004 0.004741
0.296257 0.041481 0.005219
0.317593 0.041970 0.005707
0.339355 0.042468 0.006205
0.361496 0.042975 0.006712
0.383970 0.043489 0.007226
0.406726 0.044010 0.007747
0.429714 0.044536 0.008273
0.452883 0.045066 0.008804
0.476179 0.045600 0.009337
0.499547 0.046134 0.009872
0.522933 0.046670 0.010407
0.546280 0.047204 0.010941
0.569530 0.047736 0.011473
0.592623 0.048265 0.012002
0.615499 0.048788 0.012526
0.638098 0.049306 0.013043
0.660358 0.049815 0.013552
0.682214 0.050315 0.014053
0.703603 0.050805 0.014542
0.724459 0.051282 0.015019
0.744717 0.051746 0.015483
0.764308 0.052194 0.015931
0.783165 0.052626 0.016363
0.801218 0.053039 0.016776
0.818398 0.053432 0.017170
0.834633 0.053804 0.017541
0.849853 0.054152 0.017889
0.863983 0.054476 0.018213
0.876950 0.054772 0.018510
0.888681 0.055041 0.018778
0.899099 0.055279 0.019017
0.908129 0.055486 0.019223
0.915693 0.055659 0.019396
0.921714 0.055797 0.019534
0.926114 0.055898 0.019635
0.928812 0.055960 0.019697
0.929730 0.055981 0.019718
0.000000 0.043754 0.000000
0.000000 0.043759 0.000000
0.000056 0.043777 0.000000
0.001559 0.043811 0.000000
0.003857 0.043864 0.000000
0.007000 0.043936 0.000000
0.011027 0.044028 0.000000
0.015961 0.044141 0.000000
0.021819 0.044275 0.000000
0.028612 0.044430 0.000000
0.036341 0.044607 0.000000
0.045007 0.044806 0.000117
0.054604 0.045025 0.000336
0.065122 0.045266 0.000577
0.076549 0.045527 0.000839
0.088868 0.045809 0.001121
0.102059 0.046111 0.001423
0.116103 0.046433 0.001744
0.130973 0.046773 0.002084
0.146643 0.047132 0.002443
0.163085 0.047508 0.002819
0.180267 0.047901 0.003213
0.198156 0.048311 0.003622
0.216717 0.048736 0.004047
0.235914 0.049175 0.004486
0.255707 0.049628 0.004939
0.276057 0.050094 0.005405
0.296921 0.050571 0.005883
0.318257 0.051060 0.006371
0.340019 0.051558 0.006869
0.362160 0.052065 0.007376
0.384634 0.052579 0.007890
0.407390 0.053100 0.008411
0.430378 0.053626 0.008937
0.453547 0.054156 0.009467
0.476843 0.054689 0.010001
0.500211 0.055224 0.010536
0.523597 0.055760 0.011071
0.546944 0.056294 0.011605
0.570193 0.056826 0.012137
0.593287 0.057355 0.012666
0.616163 0.057878 0.013189
0.638762 0.058396 0.013707
0.661022 0.058905 0.014216
0.682878 0.059405 0.014716
0.704267 0.059895 0.015206
0.725123 0.060372 0.015683
0.745381 0.060836 0.016147
0.764972 0.061284 0.016595
0.783829 0.061716 0.017027
0.801882 0.062129 0.017440
0.819062 0.062522 0.017833
0.835297 0.062894 0.018205
0.850516 0.063242 0.018553
0.864647 0.063566 0.018877
0.877614 0.063862 0.019174
0.889345 0.064131 0.019442
0.899763 0.064369 0.019681
0.908792 0.064576 0.019887
0.916357 0.064749 0.020060
0.922378 0.064887 0.020198
0.926778 0.064988 0.020299
0.929476 0.065049 0.020361
0.930394 0.065070 0.020382
0.000000 0.053820 0.000000
0.000006 0.053825 0.000000
0.000792 0.053843 0.000000
0.002295 0.053877 0.000000
0.004592 0.053930 0.000000
0.007736 0.054002 0.000000
0.011762 0.054094 0.000074
0.016696 0.054207 0.000187
0.022555 0.054341 0.000321
0.029347 0.054496 0.000477
0.037077 0.054673 0.000654
0.045743 0.054872 0.000852
0.055340 0.055091 0.001072
0.065858 0.055332 0.001312
0.077284 0.055594 0.001574
0.089603 0.055876 0.001856
0.102795 0.056177 0.002158
0.116838 0.056499 0.002479
0.131708 0.056839 0.002820
0.147378 0.057198 0.003178
0.163820 0.057574 0.003555
0.181002 0.057968 0.003948
0.198891 0.058377 0.004357
0.217452 0.058802 0.004782
0.236649 0.059241 0.005222
0.256442 0.059694 0.005675
0.276792 0.060160 0.006140
0.297657 0.060638 0.006618
0.318992 0.061126 0.007106
0.340754 0.061624 0.007604
0.362895 0.062131 0.008111
0.385369 0.062645 0.008625
0.408125 0.063166 0.009146
0.431113 0.063692 0.009672
0.454282 0.064222 0.010203
0.477578 0.064756 0.010736
0.500947 0.065290 0.011271
0.524333 0.065826 0.011806
0.547679 0.066360 0.012340
0.570929 0.066892 0.012873
0.594022 0.067421 0.013401
0.616899 0.067944 0.013925
0.639498 0.068462 0.014442
0.661757 0.068971 0.014952
0.683613 0.069471 0.015452
0.705002 0.069961 0.015941
0.725859 0.070438 0.016419
0.746116 0.070902 0.016882
0.765707 0.071350 0.017331
0.784564 0.071782 0.017762
0.802617 0.072195 0.018176
0.819797 0.072588 0.018569
0.836033 0.072960 0.018940
0.851252 0.073308 0.019289
0.865382 0.073632 0.019612
0.878349 0.073929 0.019909
0.890080 0.074197 0.020177
0.900498 0.074435 0.020416
0.909528 0.074642 0.020623
0.917092 0.074815 0.020796
0.923113 0.074953 0.020933
0.927513 0.075054 0.021034
0.930211 0.075116 0.021096
0.931129 0.075137 0.021117
0.000610 0.064853 0.000606
0.000812 0.064857 0.000611
0.001597 0.064875 0.000629
0.003100 0.064910 0.000663
0.005398 0.064962 0.000716
0.008542 0.065034 0.000788
0.012568 0.065126 0.000880
0.017502 0.065239 0.000993
0.023360 0.065373 0.001127
0.030153 0.065529 0.001283
0.037882 0.065706 0.001460
0.046549 0.065904 0.001658
0.056145 0.066124 0.001878
0.066664 0.066365 0.002118
0.078090 0.066626 0.002380
0.090409 0.066908 0.002662
0.103601 0.067210 0.002964
0.117644 0.067531 0.003285
0.132514 0.067872 0.003626
0.148184 0.068230 0.003984
0.164626 0.068607 0.004361
0.181808 0.069000 0.004754
0.199697 0.069410 0.005163
0.218258 0.069834 0.005588
0.237455 0.070274 0.006027
0.257248 0.070727 0.006480
0.277598 0.071193 0.006946
0.298462 0.071670 0.007424
0.319798 0.072158 0.007912
0.341560 0.072656 0.008410
0.363701 0.073163 0.008917
0.386175 0.073678 0.009431
0.408931 0.074198 0.009952
0.431919 0.074725 0.010478
0.455088 0.075255 0.011009
0.478384 0.075788 0.011542
0.501752 0.076323 0.012077
0.525139 0.076858 0.012612
0.548485 0.077393 0.013146
0.571735 0.077925 0.013678
0.594828 0.078453 0.014207
0.617704 0.078977 0.014731
0.640304 0.079494 0.015248
0.662563 0.080004 0.015757
0.684419 0.080504 0.016258
0.705808 0.080993 0.016747
0.726664 0.081471 0.017225
0.746922 0.081934 0.017688
0.766513 0.082383 0.018137
0.785370 0.082815 0.018568
0.803423 0.083228 0.018981
0.820603 0.083621 0.019375
0.836838 0.083993 0.019746
0.852058 0.084341 0.020095
0.866188 0.084664 0.020418
