Plugins/FilmEmulator/Content/LUTs/FE_Look_Super8_64.cube
TITLE "FE_Look_Super8"
LUT_3D_SIZE 64
0.015156 0.013847 0.012962
0.015416 0.013838 0.012953
0.016424 0.013802 0.012918
0.018354 0.013734 0.012850
0.021303 0.013631 0.012746
0.025339 0.013489 0.012605
0.030508 0.013308 0.012423
0.036842 0.013085 0.012201
0.044363 0.012821 0.011937
0.053083 0.012515 0.011631
0.063006 0.012167 0.011282
0.074132 0.011776 0.010892
0.086452 0.011343 0.010459
0.099955 0.010869 0.009985
0.114625 0.010354 0.009470
0.130439 0.009799 0.008915
0.147375 0.009204 0.008320
0.165403 0.008571 0.007687
0.184493 0.007901 0.007017
0.204611 0.007195 0.006310
0.225718 0.006454 0.005569
0.247776 0.005679 0.004795
0.270742 0.004873 0.003988
0.294571 0.004036 0.003152
0.319215 0.003171 0.002287
0.344626 0.002279 0.001394
0.370751 0.001362 0.000477
0.397536 0.000421 0.000000
0.424926 0.000000 0.000000
0.452864 0.000000 0.000000
0.481289 0.000000 0.000000
0.510140 0.000000 0.000000
0.539354 0.000000 0.000000
0.568867 0.000000 0.000000
0.598610 0.000000 0.000000
0.628517 0.000000 0.000000
0.658518 0.000000 0.000000
0.688541 0.000000 0.000000
0.718513 0.000000 0.000000
0.748360 0.000000 0.000000
0.778007 0.000000 0.000000
0.807375 0.000000 0.000000
0.836388 0.000000 0.000000
0.864964 0.000000 0.000000
0.893023 0.000000 0.000000
0.920482 0.000000 0.000000
0.947257 0.000000 0.000000
0.973263 0.000000 0.000000
0.998414 0.000000 0.000000
1.000000 0.000000 0.000000
1.000000 0.000000 0.000000
1.000000 0.000000 0.000000
1.000000 0.000000 0.000000
1.000000 0.000000 0.000000
1.000000 0.000000 0.000000
1.000000 0.000000 0.000000
1.000000 0.000000 0.000000
1.000000 0.000000 0.000000
1.000000 0.000000 0.000000
1.000000 0.000000 0.000000
1.000000 0.000000 0.000000
1.000000 0.000000 0.000000
1.000000 0.000000 0.000000
1.000000 0.000000 0.000000
0.015128 0.014067 0.012934
0.015387 0.014058 0.012925
0.016396 0.014022 0.012889
0.018325 0.013955 0.012822
0.021275 0.013851 0.012718
0.025310 0.013709 0.012576
0.030480 0.013528 0.012395
0.036814 0.013306 0.012172
0.044335 0.013041 0.011908
0.053055 0.012735 0.011602
0.062978 0.012387 0.011254
0.074104 0.011996 0.010863
0.086424 0.011564 0.010431
0.099927 0.011090 0.009956
0.114596 0.010575 0.009441
0.130411 0.010019 0.008886
0.147346 0.009425 0.008292
0.165375 0.008792 0.007659
0.184465 0.008121 0.006988
0.204582 0.007415 0.006282
0.225690 0.006674 0.005541
0.247748 0.005900 0.004766
0.270714 0.005093 0.003960
0.294542 0.004257 0.003123
0.319187 0.003391 0.002258
0.344597 0.002499 0.001366
0.370722 0.001582 0.000449
0.397508 0.000641 0.000000
0.424898 0.000000 0.000000
0.452836 0.000000 0.000000
0.481261 0.000000 0.000000
0.510112 0.000000 0.000000
0.539326 0.000000 0.000000
0.568838 0.000000 0.000000
0.598582 0.000000 0.000000
0.628489 0.000000 0.000000
0.658489 0.000000 0.000000
0.688512 0.000000 0.000000
0.718484 0.000000 0.000000
0.748332 0.000000 0.000000
0.777978 0.000000 0.000000
0.807347 0.000000 0.000000
0.836360 0.000000 0.000000
0.864936 0.000000 0.000000
0.892995 0.000000 0.000000
0.920454 0.000000 0.000000
0.947229 0.000000 0.000000
0.973235 0.000000 0.000000
0.998386 0.000000 0.000000
1.000000 0.000000 0.000000
1.000000 0.000000 0.000000
1.000000 0.000000 0.000000
1.000000 0.000000 0.000000
1.000000 0.000000 0.000000
1.000000 0.000000 0.000000
1.000000 0.000000 0.000000
1.000000 0.000000 0.000000
1.000000 0.000000 0.000000
1.000000 0.000000 0.000000
1.000000 0.000000 0.000000
1.000000 0.000000 0.000000
1.000000 0.000000 0.000000
1.000000 0.000000 0.000000
1.000000 0.000000 0.000000
0.015018 0.014924 0.012823
0.015277 0.014915 0.012814
0.016285 0.014879 0.012779
0.018215 0.014812 0.012711
0.021164 0.014708 0.012608
0.025200 0.014566 0.012466
0.030369 0.014385 0.012284
0.036704 0.014163 0.012062
0.044225 0.013898 0.011798
0.052944 0.013592 0.011492
0.062868 0.013244 0.011143
0.073993 0.012853 0.010753
0.086313 0.012421 0.010320
0.099817 0.011947 0.009846
0.114486 0.011432 0.009331
0.130300 0.010876 0.008776
0.147236 0.010282 0.008181
0.165264 0.009649 0.007548
0.184354 0.008978 0.006878
0.204472 0.008272 0.006172
0.225580 0.007531 0.005430
0.247638 0.006757 0.004656
0.270603 0.005950 0.003850
0.294432 0.005114 0.003013
0.319076 0.004248 0.002148
0.344487 0.003356 0.001256
0.370612 0.002439 0.000338
0.397397 0.001498 0.000000
0.424788 0.000537 0.000000
0.452725 0.000000 0.000000
0.481150 0.000000 0.000000
0.510001 0.000000 0.000000
0.539216 0.000000 0.000000
0.568728 0.000000 0.000000
0.598471 0.000000 0.000000
0.628379 0.000000 0.000000
0.658379 0.000000 0.000000
0.688402 0.000000 0.000000
0.718374 0.000000 0.000000
0.748221 0.000000 0.000000
0.777868 0.000000 0.000000
0.807237 0.000000 0.000000
0.836249 0.000000 0.000000
0.864826 0.000000 0.000000
0.892884 0.000000 0.000000
0.920343 0.000000 0.000000
0.947118 0.000000 0.000000
0.973124 0.000000 0.000000
0.998275 0.000000 0.000000
1.000000 0.000000 0.000000
1.000000 0.000000 0.000000
1.000000 0.000000 0.000000
1.000000 0.000000 0.000000
1.000000 0.000000 0.000000
1.000000 0.000000 0.000000
1.000000 0.000000 0.000000
1.000000 0.000000 0.000000
1.000000 0.000000 0.000000
1.000000 0.000000 0.000000
1.000000 0.000000 0.000000
1.000000 0.000000 0.000000
1.000000 0.000000 0.000000
1.000000 0.000000 0.000000
1.000000 0.000000 0.000000
0.014806 0.016563 0.012612
0.015066 0.016554 0.012603
0.016074 0.016519 0.012568
0.018004 0.016451 0.012500
0.020953 0.016347 0.012396
0.024989 0.016206 0.012255
0.030158 0.016024 0.012073
0.036492 0.015802 0.011851
0.044013 0.015538 0.011587
0.052733 0.015232 0.011281
0.062657 0.014883 0.010932
0.073782 0.014493 0.010542
0.086102 0.014060 0.010109
0.099605 0.013586 0.009635
0.114275 0.013071 0.009120
0.130089 0.012516 0.008565
0.147025 0.011921 0.007970
0.165053 0.011288 0.007337
0.184143 0.010618 0.006667
0.204261 0.009911 0.005960
0.225368 0.009170 0.005219
0.247426 0.008396 0.004445
0.270392 0.007590 0.003639
0.294221 0.006753 0.002802
0.318865 0.005888 0.001937
0.344276 0.004995 0.001044
0.370401 0.004078 0.000127
0.397186 0.003138 0.000000
0.424577 0.002176 0.000000
0.452514 0.001195 0.000000
0.480939 0.000197 0.000000
0.509790 0.000000 0.000000
0.539004 0.000000 0.000000
0.568517 0.000000 0.000000
0.598260 0.000000 0.000000
0.628167 0.000000 0.000000
0.658168 0.000000 0.000000
0.688191 0.000000 0.000000
0.718163 0.000000 0.000000
0.748010 0.000000 0.000000
0.777657 0.000000 0.000000
0.807025 0.000000 0.000000
0.836038 0.000000 0.000000
0.864614 0.000000 0.000000
0.892673 0.000000 0.000000
0.920132 0.000000 0.000000
0.946907 0.000000 0.000000
0.972913 0.000000 0.000000
0.998064 0.000000 0.000000
1.000000 0.000000 0.000000
1.000000 0.000000 0.000000
1.000000 0.000000 0.000000
1.000000 0.000000 0.000000
1.000000 0.000000 0.000000
1.000000 0.000000 0.000000
1.000000 0.000000 0.000000
1.000000 0.000000 0.000000
1.000000 0.000000 0.000000
1.000000 0.000000 0.000000
1.000000 0.000000 0.000000
1.000000 0.000000 0.000000
1.000000 0.000000 0.000000
1.000000 0.000000 0.000000
1.000000 0.000000 0.000000
0.014484 0.019069 0.012289
0.014743 0.019060 0.012280
0.015752 0.019025 0.012245
0.017681 0.018957 0.012177
0.020630 0.018853 0.012074
0.024666 0.018712 0.011932
0.029835 0.018530 0.011750
0.036170 0.018308 0.011528
0.043691 0.018044 0.011264
0.052410 0.017737 0.010958
0.062334 0.017389 0.010609
0.073459 0.016998 0.010219
0.085780 0.016566 0.009786
0.099283 0.016092 0.009312
0.113952 0.015577 0.008797
0.129766 0.015021 0.008242
0.146702 0.014427 0.007647
0.164730 0.013794 0.007014
0.183821 0.013124 0.006344
0.203938 0.012417 0.005638
0.225046 0.011676 0.004897
0.247104 0.010902 0.004122
0.270069 0.010095 0.003316
0.293898 0.009259 0.002479
0.318543 0.008393 0.001614
0.343953 0.007501 0.000722
0.370078 0.006584 0.000000
0.396863 0.005644 0.000000
0.424254 0.004682 0.000000
0.452191 0.003701 0.000000
0.480616 0.002703 0.000000
0.509467 0.001690 0.000000
0.538682 0.000664 0.000000
0.568194 0.000000 0.000000
0.597938 0.000000 0.000000
0.627845 0.000000 0.000000
0.657845 0.000000 0.000000
0.687868 0.000000 0.000000
0.717840 0.000000 0.000000
0.747687 0.000000 0.000000
0.777334 0.000000 0.000000
0.806703 0.000000 0.000000
0.835715 0.000000 0.000000
0.864292 0.000000 0.000000
0.892350 0.000000 0.000000
0.919809 0.000000 0.000000
0.946584 0.000000 0.000000
0.972591 0.000000 0.000000
0.997741 0.000000 0.000000
1.000000 0.000000 0.000000
1.000000 0.000000 0.000000
1.000000 0.000000 0.000000
1.000000 0.000000 0.000000
1.000000 0.000000 0.000000
1.000000 0.000000 0.000000
1.000000 0.000000 0.000000
1.000000 0.000000 0.000000
1.000000 0.000000 0.000000
1.000000 0.000000 0.000000
1.000000 0.000000 0.000000
1.000000 0.000000 0.000000
1.000000 0.000000 0.000000
1.000000 0.000000 0.000000
1.000000 0.000000 0.000000
0.014042 0.022498 0.011848
0.014301 0.022489 0.011839
0.015310 0.022454 0.011803
0.017239 0.022386 0.011736
0.020189 0.022282 0.011632
0.024225 0.022141 0.011490
0.029394 0.021959 0.011309
0.035728 0.021737 0.011086
0.043249 0.021473 0.010822
0.051969 0.021166 0.010516
0.061892 0.020818 0.010168
0.073018 0.020427 0.009777
0.085338 0.019995 0.009345
0.098841 0.019521 0.008870
0.113510 0.019006 0.008355
0.129325 0.018450 0.007800
0.146260 0.017856 0.007206
0.164289 0.017223 0.006573
0.183379 0.016553 0.005902
0.203496 0.015846 0.005196
0.224604 0.015105 0.004455
0.246662 0.014331 0.003680
0.269628 0.013524 0.002874
0.293457 0.012688 0.002037
0.318101 0.011822 0.001172
0.343511 0.010930 0.000280
0.369636 0.010013 0.000000
0.396422 0.009073 0.000000
0.423812 0.008111 0.000000
0.451750 0.007130 0.000000
0.480175 0.006132 0.000000
0.509026 0.005119 0.000000
0.538240 0.004093 0.000000
0.567752 0.003057 0.000000
0.597496 0.002013 0.000000
0.627403 0.000963 0.000000
0.657403 0.000000 0.000000
0.687426 0.000000 0.000000
0.717398 0.000000 0.000000
0.747246 0.000000 0.000000
0.776892 0.000000 0.000000
0.806261 0.000000 0.000000
0.835274 0.000000 0.000000
0.863850 0.000000 0.000000
0.891909 0.000000 0.000000
0.919368 0.000000 0.000000
0.946143 0.000000 0.000000
0.972149 0.000000 0.000000
0.997300 0.000000 0.000000
1.000000 0.000000 0.000000
1.000000 0.000000 0.000000
1.000000 0.000000 0.000000
1.000000 0.000000 0.000000
1.000000 0.000000 0.000000
1.000000 0.000000 0.000000
1.000000 0.000000 0.000000
1.000000 0.000000 0.000000
1.000000 0.000000 0.000000
1.000000 0.000000 0.000000
1.000000 0.000000 0.000000
1.000000 0.000000 0.000000
1.000000 0.000000 0.000000
1.000000 0.000000 0.000000
1.000000 0.000000 0.000000
0.013476 0.026890 0.011282
0.013735 0.026881 0.011273
0.014744 0.026845 0.011238
0.016674 0.026778 0.011170
0.019623 0.026674 0.011066
0.023659 0.026532 0.010925
0.028828 0.026351 0.010743
0.035162 0.026129 0.010521
0.042683 0.025864 0.010257
0.051403 0.025558 0.009951
0.061326 0.025210 0.009602
0.072452 0.024819 0.009211
0.084772 0.024387 0.008779
0.098275 0.023913 0.008305
0.112944 0.023398 0.007790
0.128759 0.022842 0.007234
0.145695 0.022248 0.006640
0.163723 0.021615 0.006007
0.182813 0.020944 0.005337
0.202931 0.020238 0.004630
0.224038 0.019497 0.003889
0.246096 0.018723 0.003115
0.269062 0.017916 0.002308
0.292891 0.017080 0.001472
0.317535 0.016214 0.000606
0.342946 0.015322 0.000000
0.369071 0.014405 0.000000
0.395856 0.013464 0.000000
0.423246 0.012503 0.000000
0.451184 0.011522 0.000000
0.479609 0.010524 0.000000
0.508460 0.009511 0.000000
0.537674 0.008485 0.000000
0.567186 0.007449 0.000000
0.596930 0.006405 0.000000
0.626837 0.005355 0.000000
0.656838 0.004301 0.000000
0.686861 0.003247 0.000000
0.716833 0.002195 0.000000
0.746680 0.001147 0.000000
0.776327 0.000106 0.000000
0.805695 0.000000 0.000000
0.834708 0.000000 0.000000
0.863284 0.000000 0.000000
0.891343 0.000000 0.000000
0.918802 0.000000 0.000000
0.945577 0.000000 0.000000
0.971583 0.000000 0.000000
0.996734 0.000000 0.000000
1.000000 0.000000 0.000000
1.000000 0.000000 0.000000
1.000000 0.000000 0.000000
1.000000 0.000000 0.000000
1.000000 0.000000 0.000000
1.000000 0.000000 0.000000
1.000000 0.000000 0.000000
1.000000 0.000000 0.000000
1.000000 0.000000 0.000000
1.000000 0.000000 0.000000
1.000000 0.000000 0.000000
1.000000 0.000000 0.000000
1.000000 0.000000 0.000000
1.000000 0.000000 0.000000
1.000000 0.000000 0.000000
0.012783 0.032272 0.010589
0.013042 0.032263 0.010580
0.014051 0.032227 0.010544
0.015980 0.032160 0.010477
0.018930 0.032056 0.010373
0.022966 0.031914 0.010231
0.028135 0.031733 0.010050
0.034469 0.031510 0.009828
0.041990 0.031246 0.009563
0.050710 0.030940 0.009257
0.060633 0.030592 0.008909
0.071759 0.030201 0.008518
0.084079 0.029769 0.008086
0.097582 0.029294 0.007612
0.112251 0.028779 0.007097
0.128066 0.028224 0.006541
0.145001 0.027630 0.005947
0.163030 0.026997 0.005314
0.182120 0.026326 0.004643
0.202237 0.025620 0.003937
0.223345 0.024879 0.003196
0.245403 0.024104 0.002422
0.268369 0.023298 0.001615
0.292198 0.022461 0.000779
0.316842 0.021596 0.000000
0.342252 0.020704 0.000000
0.368377 0.019787 0.000000
0.395163 0.018846 0.000000
0.422553 0.017885 0.000000
0.450491 0.016904 0.000000
0.478916 0.015906 0.000000
0.507767 0.014893 0.000000
0.536981 0.013867 0.000000
0.566493 0.012831 0.000000
0.596237 0.011787 0.000000
0.626144 0.010736 0.000000
0.656144 0.009683 0.000000
0.686167 0.008629 0.000000
0.716139 0.007577 0.000000
0.745987 0.006529 0.000000
0.775633 0.005488 0.000000
0.805002 0.004457 0.000000
0.834015 0.003438 0.000000
0.862591 0.002435 0.000000
0.890650 0.001450 0.000000
0.918109 0.000485 0.000000
0.944884 0.000000 0.000000
0.970890 0.000000 0.000000
0.996041 0.000000 0.000000
1.000000 0.000000 0.000000
1.000000 0.000000 0.000000
1.000000 0.000000 0.000000
1.000000 0.000000 0.000000
1.000000 0.000000 0.000000
1.000000 0.000000 0.000000
1.000000 0.000000 0.000000
1.000000 0.000000 0.000000
1.000000 0.000000 0.000000
1.000000 0.000000 0.000000
1.000000 0.000000 0.000000
1.000000 0.000000 0.000000
1.000000 0.000000 0.000000
1.000000 0.000000 0.000000
1.000000 0.000000 0.000000
0.011960 0.038662 0.009766
0.012219 0.038653 0.009757
0.013228 0.038617 0.009721
0.015157 0.038550 0.009654
0.018107 0.038446 0.009550
0.022143 0.038304 0.009408
0.027312 0.038123 0.009227
0.033646 0.037900 0.009004
0.041167 0.037636 0.008740
0.049887 0.037330 0.008434
0.059810 0.036982 0.008086
0.070936 0.036591 0.007695
0.083256 0.036159 0.007263
0.096759 0.035684 0.006789
0.111428 0.035169 0.006273
0.127243 0.034614 0.005718
0.144178 0.034020 0.005124
0.162207 0.033387 0.004491
0.181297 0.032716 0.003820
0.201414 0.032010 0.003114
0.222522 0.031269 0.002373
0.244580 0.030494 0.001598
0.267546 0.029688 0.000792
0.291375 0.028851 0.000000
0.316019 0.027986 0.000000
0.341429 0.027094 0.000000
0.367554 0.026177 0.000000
0.394340 0.025236 0.000000
0.421730 0.024275 0.000000
0.449668 0.023294 0.000000
0.478093 0.022296 0.000000
0.506944 0.021283 0.000000
0.536158 0.020257 0.000000
0.565670 0.019221 0.000000
0.595414 0.018176 0.000000
0.625321 0.017126 0.000000
0.655321 0.016073 0.000000
0.685344 0.015019 0.000000
0.715316 0.013967 0.000000
0.745164 0.012919 0.000000
0.774810 0.011878 0.000000
0.804179 0.010847 0.000000
0.833192 0.009828 0.000000
0.861768 0.008825 0.000000
0.889827 0.007840 0.000000
0.917286 0.006875 0.000000
0.944061 0.005935 0.000000
0.970067 0.005022 0.000000
0.995218 0.004139 0.000000
1.000000 0.003289 0.000000
1.000000 0.002476 0.000000
1.000000 0.001701 0.000000
1.000000 0.000969 0.000000
1.000000 0.000283 0.000000
1.000000 0.000000 0.000000
1.000000 0.000000 0.000000
1.000000 0.000000 0.000000
1.000000 0.000000 0.000000
1.000000 0.000000 0.000000
1.000000 0.000000 0.000000
1.000000 0.000000 0.000000
1.000000 0.000000 0.000000
1.000000 0.000000 0.000000
1.000000 0.000000 0.000000
0.011006 0.046070 0.008812
0.011265 0.046061 0.008802
0.012274 0.046026 0.008767
0.014203 0.045958 0.008699
0.017152 0.045855 0.008596
0.021188 0.045713 0.008454
0.026357 0.045531 0.008273
0.032692 0.045309 0.008050
0.040213 0.045045 0.007786
0.048933 0.044739 0.007480
0.058856 0.044390 0.007132
0.069981 0.044000 0.006741
0.082302 0.043567 0.006308
0.095805 0.043093 0.005834
0.110474 0.042578 0.005319
0.126289 0.042023 0.004764
0.143224 0.041428 0.004169
0.161253 0.040795 0.003536
0.180343 0.040125 0.002866
0.200460 0.039419 0.002160
0.221568 0.038677 0.001419
0.243626 0.037903 0.000644
0.266592 0.037097 0.000000
0.290420 0.036260 0.000000
0.315065 0.035395 0.000000
0.340475 0.034503 0.000000
0.366600 0.033585 0.000000
0.393386 0.032645 0.000000
0.420776 0.031683 0.000000
0.448713 0.030702 0.000000
0.477138 0.029704 0.000000
0.505990 0.028691 0.000000
0.535204 0.027666 0.000000
0.564716 0.026629 0.000000
0.594460 0.025585 0.000000
0.624367 0.024535 0.000000
0.654367 0.023482 0.000000
0.684390 0.022428 0.000000
0.714362 0.021375 0.000000
0.744209 0.020327 0.000000
0.773856 0.019286 0.000000
0.803225 0.018255 0.000000
0.832237 0.017237 0.000000
0.860814 0.016233 0.000000
0.888873 0.015248 0.000000
0.916331 0.014284 0.000000
0.943107 0.013344 0.000000
0.969113 0.012431 0.000000
0.994264 0.011548 0.000000
1.000000 0.010698 0.000000
1.000000 0.009884 0.000000
1.000000 0.009110 0.000000
1.000000 0.008378 0.000000
1.000000 0.007692 0.000000
1.000000 0.007055 0.000000
1.000000 0.006470 0.000000
1.000000 0.005942 0.000000
1.000000 0.005472 0.000000
1.000000 0.005065 0.000000
1.000000 0.004724 0.000000
1.000000 0.004453 0.000000
1.000000 0.004254 0.000000
1.000000 0.004133 0.000000
1.000000 0.004091 0.000000
0.009920 0.054501 0.007726
0.010179 0.054492 0.007717
0.011188 0.054457 0.007681
0.013117 0.054389 0.007613
0.016066 0.054286 0.007510
0.020102 0.054144 0.007368
0.025271 0.053962 0.007187
0.031606 0.053740 0.006964
0.039127 0.053476 0.006700
0.047847 0.053170 0.006394
0.057770 0.052821 0.006046
0.068895 0.052431 0.005655
0.081216 0.051998 0.005222
0.094719 0.051524 0.004748
0.109388 0.051009 0.004233
0.125203 0.050454 0.003678
0.142138 0.049859 0.003083
0.160167 0.049226 0.002450
0.179257 0.048556 0.001780
0.199374 0.047850 0.001074
0.220482 0.047109 0.000333
0.242540 0.046334 0.000000
0.265506 0.045528 0.000000
0.289334 0.044691 0.000000
0.313979 0.043826 0.000000
0.339389 0.042934 0.000000
0.365514 0.042016 0.000000
0.392300 0.041076 0.000000
0.419690 0.040114 0.000000
0.447627 0.039133 0.000000
0.476052 0.038135 0.000000
0.504904 0.037122 0.000000
0.534118 0.036097 0.000000
0.563630 0.035061 0.000000
0.593374 0.034016 0.000000
0.623281 0.032966 0.000000
0.653281 0.031913 0.000000
0.683304 0.030859 0.000000
0.713276 0.029806 0.000000
0.743123 0.028758 0.000000
0.772770 0.027718 0.000000
0.802139 0.026686 0.000000
0.831151 0.025668 0.000000
0.859728 0.024664 0.000000
0.887787 0.023679 0.000000
0.915245 0.022715 0.000000
0.942021 0.021775 0.000000
0.968027 0.020862 0.000000
0.993178 0.019979 0.000000
1.000000 0.019129 0.000000
1.000000 0.018315 0.000000
1.000000 0.017541 0.000000
1.000000 0.016809 0.000000
1.000000 0.016123 0.000000
1.000000 0.015486 0.000000
1.000000 0.014902 0.000000
1.000000 0.014373 0.000000
1.000000 0.013903 0.000000
1.000000 0.013496 0.000000
1.000000 0.013155 0.000000
1.000000 0.012884 0.000000
1.000000 0.012686 0.000000
1.000000 0.012564 0.000000
1.000000 0.012523 0.000000
0.008702 0.063954 0.006508
0.008961 0.063945 0.006499
0.009970 0.063909 0.006464
0.011900 0.063842 0.006396
0.014849 0.063738 0.006292
0.018885 0.063596 0.006151
0.024054 0.063415 0.005969
0.030388 0.063193 0.005747
0.037909 0.062929 0.005483
0.046629 0.062622 0.005176
0.056552 0.062274 0.004828
0.067678 0.061883 0.004437
0.079998 0.061451 0.004005
0.093501 0.060977 0.003531
0.108170 0.060462 0.003016
0.123985 0.059906 0.002460
0.140921 0.059312 0.001866
0.158949 0.058679 0.001233
0.178039 0.058008 0.000563
0.198157 0.057302 0.000000
0.219264 0.056561 0.000000
0.241322 0.055787 0.000000
0.264288 0.054980 0.000000
0.288117 0.054144 0.000000
0.312761 0.053278 0.000000
0.338172 0.052386 0.000000
0.364297 0.051469 0.000000
0.391082 0.050528 0.000000
0.418472 0.049567 0.000000
0.446410 0.048586 0.000000
0.474835 0.047588 0.000000
0.503686 0.046575 0.000000
0.532900 0.045549 0.000000
0.562413 0.044513 0.000000
0.592156 0.043469 0.000000
0.622063 0.042419 0.000000
0.652064 0.041365 0.000000
0.682087 0.040311 0.000000
0.712059 0.039259 0.000000
0.741906 0.038211 0.000000
0.771553 0.037170 0.000000
0.800921 0.036139 0.000000
0.829934 0.035120 0.000000
0.858510 0.034117 0.000000
0.886569 0.033132 0.000000
0.914028 0.032168 0.000000
0.940803 0.031228 0.000000
0.966809 0.030314 0.000000
0.991960 0.029431 0.000000
1.000000 0.028581 0.000000
1.000000 0.027768 0.000000
1.000000 0.026993 0.000000
1.000000 0.026262 0.000000
1.000000 0.025576 0.000000
1.000000 0.024939 0.000000
1.000000 0.024354 0.000000
1.000000 0.023825 0.000000
1.000000 0.023356 0.000000
1.000000 0.022949 0.000000
1.000000 0.022608 0.000000
1.000000 0.022336 0.000000
1.000000 0.022138 0.000000
1.000000 0.022016 0.000000
1.000000 0.021975 0.000000
0.007354 0.074422 0.005160
0.007613 0.074413 0.005151
0.008622 0.074377 0.005115
0.010551 0.074309 0.005048
0.013501 0.074206 0.004944
0.017536 0.074064 0.004802
0.022706 0.073883 0.004621
0.029040 0.073660 0.004398
0.036561 0.073396 0.004134
0.045281 0.073090 0.003828
0.055204 0.072742 0.003480
0.066330 0.072351 0.003089
0.078650 0.071918 0.002657
0.092153 0.071444 0.002182
0.106822 0.070929 0.001667
0.122637 0.070374 0.001112
0.139572 0.069779 0.000518
0.157601 0.069146 0.000000
0.176691 0.068476 0.000000
0.196808 0.067770 0.000000
0.217916 0.067029 0.000000
0.239974 0.066254 0.000000
0.262940 0.065448 0.000000
0.286768 0.064611 0.000000
0.311413 0.063746 0.000000
0.336823 0.062854 0.000000
0.362948 0.061937 0.000000
0.389734 0.060996 0.000000
0.417124 0.060034 0.000000
0.445062 0.059054 0.000000
0.473487 0.058056 0.000000
0.502338 0.057043 0.000000
0.531552 0.056017 0.000000
0.561064 0.054981 0.000000
0.590808 0.053936 0.000000
0.620715 0.052886 0.000000
0.650715 0.051833 0.000000
0.680738 0.050779 0.000000
0.710710 0.049727 0.000000
0.740558 0.048679 0.000000
0.770204 0.047638 0.000000
0.799573 0.046607 0.000000
0.828586 0.045588 0.000000
0.857162 0.044585 0.000000
0.885221 0.043599 0.000000
0.912680 0.042635 0.000000
0.939455 0.041695 0.000000
0.965461 0.040782 0.000000
0.990612 0.039899 0.000000
1.000000 0.039049 0.000000
1.000000 0.038235 0.000000
1.000000 0.037461 0.000000
1.000000 0.036729 0.000000
1.000000 0.036043 0.000000
1.000000 0.035406 0.000000
1.000000 0.034822 0.000000
1.000000 0.034293 0.000000
1.000000 0.033823 0.000000
1.000000 0.033416 0.000000
1.000000 0.033075 0.000000
1.000000 0.032804 0.000000
1.000000 0.032606 0.000000
1.000000 0.032484 0.000000
1.000000 0.032443 0.000000
0.005876 0.085894 0.003682
0.006135 0.085885 0.003673
0.007144 0.085850 0.003638
0.009074 0.085782 0.003570
0.012023 0.085678 0.003466
0.016059 0.085537 0.003325
0.021228 0.085355 0.003143
0.027562 0.085133 0.002921
0.035083 0.084869 0.002657
0.043803 0.084563 0.002350
0.053726 0.084214 0.002002
0.064852 0.083824 0.001611
0.077172 0.083391 0.001179
0.090675 0.082917 0.000705
0.105344 0.082402 0.000190
0.121159 0.081847 0.000000
0.138095 0.081252 0.000000
0.156123 0.080619 0.000000
0.175213 0.079949 0.000000
0.195331 0.079242 0.000000
0.216438 0.078501 0.000000
0.238496 0.077727 0.000000
0.261462 0.076921 0.000000
0.285291 0.076084 0.000000
0.309935 0.075219 0.000000
0.335346 0.074326 0.000000
0.361471 0.073409 0.000000
0.388256 0.072469 0.000000
0.415646 0.071507 0.000000
0.443584 0.070526 0.000000
0.472009 0.069528 0.000000
0.500860 0.068515 0.000000
0.530074 0.067489 0.000000
0.559586 0.066453 0.000000
0.589330 0.065409 0.000000
0.619237 0.064359 0.000000
0.649238 0.063306 0.000000
0.679260 0.062251 0.000000
0.709233 0.061199 0.000000
0.739080 0.060151 0.000000
0.768727 0.059110 0.000000
0.798095 0.058079 0.000000
0.827108 0.057060 0.000000
0.855684 0.056057 0.000000
0.883743 0.055072 0.000000
0.911202 0.054108 0.000000
0.937977 0.053168 0.000000
0.963983 0.052255 0.000000
0.989134 0.051372 0.000000
1.000000 0.050522 0.000000
1.000000 0.049708 0.000000
1.000000 0.048934 0.000000
1.000000 0.048202 0.000000
1.000000 0.047516 0.000000
1.000000 0.046879 0.000000
