Plugins/FilmEmulator/Content/LUTs/FE_Ref_KinetoscopeBW_64.cube
TITLE "FE_Ref_KinetoscopeBW"
LUT_3D_SIZE 64
DOMAIN_MIN 0.0 0.0 0.0
DOMAIN_MAX 1.0 1.0 1.0
0.016899 0.016899 0.016899
0.019507 0.019507 0.019507
0.022273 0.022273 0.022273
0.025087 0.025087 0.025087
0.027921 0.027921 0.027921
0.030764 0.030764 0.030764
0.033609 0.033609 0.033609
0.036449 0.036449 0.036449
0.039283 0.039283 0.039283
0.042106 0.042106 0.042106
0.044918 0.044918 0.044918
0.047717 0.047717 0.047717
0.050501 0.050501 0.050501
0.053269 0.053269 0.053269
0.056022 0.056022 0.056022
0.058757 0.058757 0.058757
0.061475 0.061475 0.061475
0.064176 0.064176 0.064176
0.066858 0.066858 0.066858
0.069522 0.069522 0.069522
0.072167 0.072167 0.072167
0.074794 0.074794 0.074794
0.077402 0.077402 0.077402
0.079990 0.079990 0.079990
0.082560 0.082560 0.082560
0.085111 0.085111 0.085111
0.087643 0.087643 0.087643
0.090156 0.090156 0.090156
0.092649 0.092649 0.092649
0.095124 0.095124 0.095124
0.097580 0.097580 0.097580
0.100017 0.100017 0.100017
0.102436 0.102436 0.102436
0.104835 0.104835 0.104835
0.107217 0.107217 0.107217
0.109579 0.109579 0.109579
0.111924 0.111924 0.111924
0.114250 0.114250 0.114250
0.116558 0.116558 0.116558
0.118849 0.118849 0.118849
0.121121 0.121121 0.121121
0.123376 0.123376 0.123376
0.125613 0.125613 0.125613
0.127833 0.127833 0.127833
0.130036 0.130036 0.130036
0.132221 0.132221 0.132221
0.134390 0.134390 0.134390
0.136541 0.136541 0.136541
0.138676 0.138676 0.138676
0.140795 0.140795 0.140795
0.142897 0.142897 0.142897
0.144982 0.144982 0.144982
0.147052 0.147052 0.147052
0.149106 0.149106 0.149106
0.151144 0.151144 0.151144
0.153166 0.153166 0.153166
0.155172 0.155172 0.155172
0.157164 0.157164 0.157164
0.159140 0.159140 0.159140
0.161101 0.161101 0.161101
0.163047 0.163047 0.163047
0.164978 0.164978 0.164978
0.166894 0.166894 0.166894
0.168796 0.168796 0.168796
0.025671 0.025671 0.025671
0.028278 0.028278 0.028278
0.031045 0.031045 0.031045
0.033858 0.033858 0.033858
0.036692 0.036692 0.036692
0.039535 0.039535 0.039535
0.042380 0.042380 0.042380
0.045220 0.045220 0.045220
0.048054 0.048054 0.048054
0.050877 0.050877 0.050877
0.053689 0.053689 0.053689
0.056488 0.056488 0.056488
0.059272 0.059272 0.059272
0.062041 0.062041 0.062041
0.064793 0.064793 0.064793
0.067529 0.067529 0.067529
0.070247 0.070247 0.070247
0.072947 0.072947 0.072947
0.075629 0.075629 0.075629
0.078293 0.078293 0.078293
0.080939 0.080939 0.080939
0.083565 0.083565 0.083565
0.086173 0.086173 0.086173
0.088762 0.088762 0.088762
0.091332 0.091332 0.091332
0.093882 0.093882 0.093882
0.096414 0.096414 0.096414
0.098927 0.098927 0.098927
0.101421 0.101421 0.101421
0.103895 0.103895 0.103895
0.106351 0.106351 0.106351
0.108788 0.108788 0.108788
0.111207 0.111207 0.111207
0.113607 0.113607 0.113607
0.115988 0.115988 0.115988
0.118351 0.118351 0.118351
0.120695 0.120695 0.120695
0.123022 0.123022 0.123022
0.125330 0.125330 0.125330
0.127620 0.127620 0.127620
0.129893 0.129893 0.129893
0.132147 0.132147 0.132147
0.134385 0.134385 0.134385
0.136605 0.136605 0.136605
0.138807 0.138807 0.138807
0.140993 0.140993 0.140993
0.143161 0.143161 0.143161
0.145313 0.145313 0.145313
0.147448 0.147448 0.147448
0.149566 0.149566 0.149566
0.151668 0.151668 0.151668
0.153754 0.153754 0.153754
0.155823 0.155823 0.155823
0.157877 0.157877 0.157877
0.159915 0.159915 0.159915
0.161937 0.161937 0.161937
0.163944 0.163944 0.163944
0.165935 0.165935 0.165935
0.167911 0.167911 0.167911
0.169872 0.169872 0.169872
0.171818 0.171818 0.171818
0.173749 0.173749 0.173749
0.175666 0.175666 0.175666
0.177568 0.177568 0.177568
0.034977 0.034977 0.034977
0.037585 0.037585 0.037585
0.040351 0.040351 0.040351
0.043164 0.043164 0.043164
0.045999 0.045999 0.045999
0.048842 0.048842 0.048842
0.051686 0.051686 0.051686
0.054527 0.054527 0.054527
0.057360 0.057360 0.057360
0.060184 0.060184 0.060184
0.062996 0.062996 0.062996
0.065794 0.065794 0.065794
0.068578 0.068578 0.068578
0.071347 0.071347 0.071347
0.074099 0.074099 0.074099
0.076835 0.076835 0.076835
0.079553 0.079553 0.079553
0.082254 0.082254 0.082254
0.084936 0.084936 0.084936
0.087600 0.087600 0.087600
0.090245 0.090245 0.090245
0.092872 0.092872 0.092872
0.095479 0.095479 0.095479
0.098068 0.098068 0.098068
0.100638 0.100638 0.100638
0.103189 0.103189 0.103189
0.105721 0.105721 0.105721
0.108233 0.108233 0.108233
0.110727 0.110727 0.110727
0.113202 0.113202 0.113202
0.115658 0.115658 0.115658
0.118095 0.118095 0.118095
0.120513 0.120513 0.120513
0.122913 0.122913 0.122913
0.125294 0.125294 0.125294
0.127657 0.127657 0.127657
0.130002 0.130002 0.130002
0.132328 0.132328 0.132328
0.134636 0.134636 0.134636
0.136927 0.136927 0.136927
0.139199 0.139199 0.139199
0.141454 0.141454 0.141454
0.143691 0.143691 0.143691
0.145911 0.145911 0.145911
0.148113 0.148113 0.148113
0.150299 0.150299 0.150299
0.152467 0.152467 0.152467
0.154619 0.154619 0.154619
0.156754 0.156754 0.156754
0.158872 0.158872 0.158872
0.160974 0.160974 0.160974
0.163060 0.163060 0.163060
0.165130 0.165130 0.165130
0.167183 0.167183 0.167183
0.169221 0.169221 0.169221
0.171243 0.171243 0.171243
0.173250 0.173250 0.173250
0.175241 0.175241 0.175241
0.177217 0.177217 0.177217
0.179178 0.179178 0.179178
0.181124 0.181124 0.181124
0.183055 0.183055 0.183055
0.184972 0.184972 0.184972
0.186874 0.186874 0.186874
0.044441 0.044441 0.044441
0.047049 0.047049 0.047049
0.049815 0.049815 0.049815
0.052628 0.052628 0.052628
0.055463 0.055463 0.055463
0.058306 0.058306 0.058306
0.061150 0.061150 0.061150
0.063991 0.063991 0.063991
0.066824 0.066824 0.066824
0.069648 0.069648 0.069648
0.072460 0.072460 0.072460
0.075258 0.075258 0.075258
0.078043 0.078043 0.078043
0.080811 0.080811 0.080811
0.083564 0.083564 0.083564
0.086299 0.086299 0.086299
0.089017 0.089017 0.089017
0.091718 0.091718 0.091718
0.094400 0.094400 0.094400
0.097064 0.097064 0.097064
0.099709 0.099709 0.099709
0.102336 0.102336 0.102336
0.104944 0.104944 0.104944
0.107532 0.107532 0.107532
0.110102 0.110102 0.110102
0.112653 0.112653 0.112653
0.115185 0.115185 0.115185
0.117697 0.117697 0.117697
0.120191 0.120191 0.120191
0.122666 0.122666 0.122666
0.125122 0.125122 0.125122
0.127559 0.127559 0.127559
0.129977 0.129977 0.129977
0.132377 0.132377 0.132377
0.134758 0.134758 0.134758
0.137121 0.137121 0.137121
0.139466 0.139466 0.139466
0.141792 0.141792 0.141792
0.144100 0.144100 0.144100
0.146391 0.146391 0.146391
0.148663 0.148663 0.148663
0.150918 0.150918 0.150918
0.153155 0.153155 0.153155
0.155375 0.155375 0.155375
0.157578 0.157578 0.157578
0.159763 0.159763 0.159763
0.161932 0.161932 0.161932
0.164083 0.164083 0.164083
0.166218 0.166218 0.166218
0.168336 0.168336 0.168336
0.170438 0.170438 0.170438
0.172524 0.172524 0.172524
0.174594 0.174594 0.174594
0.176647 0.176647 0.176647
0.178685 0.178685 0.178685
0.180708 0.180708 0.180708
0.182714 0.182714 0.182714
0.184705 0.184705 0.184705
0.186681 0.186681 0.186681
0.188642 0.188642 0.188642
0.190588 0.190588 0.190588
0.192520 0.192520 0.192520
0.194436 0.194436 0.194436
0.196338 0.196338 0.196338
0.053977 0.053977 0.053977
0.056584 0.056584 0.056584
0.059350 0.059350 0.059350
0.062164 0.062164 0.062164
0.064998 0.064998 0.064998
0.067841 0.067841 0.067841
0.070686 0.070686 0.070686
0.073526 0.073526 0.073526
0.076360 0.076360 0.076360
0.079183 0.079183 0.079183
0.081995 0.081995 0.081995
0.084794 0.084794 0.084794
0.087578 0.087578 0.087578
0.090347 0.090347 0.090347
0.093099 0.093099 0.093099
0.095834 0.095834 0.095834
0.098553 0.098553 0.098553
0.101253 0.101253 0.101253
0.103935 0.103935 0.103935
0.106599 0.106599 0.106599
0.109245 0.109245 0.109245
0.111871 0.111871 0.111871
0.114479 0.114479 0.114479
0.117068 0.117068 0.117068
0.119637 0.119637 0.119637
0.122188 0.122188 0.122188
0.124720 0.124720 0.124720
0.127233 0.127233 0.127233
0.129726 0.129726 0.129726
0.132201 0.132201 0.132201
0.134657 0.134657 0.134657
0.137094 0.137094 0.137094
0.139513 0.139513 0.139513
0.141913 0.141913 0.141913
0.144294 0.144294 0.144294
0.146657 0.146657 0.146657
0.149001 0.149001 0.149001
0.151327 0.151327 0.151327
0.153636 0.153636 0.153636
0.155926 0.155926 0.155926
0.158198 0.158198 0.158198
0.160453 0.160453 0.160453
0.162691 0.162691 0.162691
0.164910 0.164910 0.164910
0.167113 0.167113 0.167113
0.169298 0.169298 0.169298
0.171467 0.171467 0.171467
0.173619 0.173619 0.173619
0.175753 0.175753 0.175753
0.177872 0.177872 0.177872
0.179974 0.179974 0.179974
0.182060 0.182060 0.182060
0.184129 0.184129 0.184129
0.186183 0.186183 0.186183
0.188221 0.188221 0.188221
0.190243 0.190243 0.190243
0.192250 0.192250 0.192250
0.194241 0.194241 0.194241
0.196217 0.196217 0.196217
0.198178 0.198178 0.198178
0.200124 0.200124 0.200124
0.202055 0.202055 0.202055
0.203971 0.203971 0.203971
0.205873 0.205873 0.205873
0.063541 0.063541 0.063541
0.066149 0.066149 0.066149
0.068915 0.068915 0.068915
0.071728 0.071728 0.071728
0.074563 0.074563 0.074563
0.077406 0.077406 0.077406
0.080250 0.080250 0.080250
0.083091 0.083091 0.083091
0.085924 0.085924 0.085924
0.088748 0.088748 0.088748
0.091560 0.091560 0.091560
0.094358 0.094358 0.094358
0.097142 0.097142 0.097142
0.099911 0.099911 0.099911
0.102663 0.102663 0.102663
0.105399 0.105399 0.105399
0.108117 0.108117 0.108117
0.110818 0.110818 0.110818
0.113500 0.113500 0.113500
0.116164 0.116164 0.116164
0.118809 0.118809 0.118809
0.121436 0.121436 0.121436
0.124043 0.124043 0.124043
0.126632 0.126632 0.126632
0.129202 0.129202 0.129202
0.131753 0.131753 0.131753
0.134285 0.134285 0.134285
0.136797 0.136797 0.136797
0.139291 0.139291 0.139291
0.141766 0.141766 0.141766
0.144222 0.144222 0.144222
0.146659 0.146659 0.146659
0.149077 0.149077 0.149077
0.151477 0.151477 0.151477
0.153858 0.153858 0.153858
0.156221 0.156221 0.156221
0.158566 0.158566 0.158566
0.160892 0.160892 0.160892
0.163200 0.163200 0.163200
0.165491 0.165491 0.165491
0.167763 0.167763 0.167763
0.170018 0.170018 0.170018
0.172255 0.172255 0.172255
0.174475 0.174475 0.174475
0.176678 0.176678 0.176678
0.178863 0.178863 0.178863
0.181031 0.181031 0.181031
0.183183 0.183183 0.183183
0.185318 0.185318 0.185318
0.187436 0.187436 0.187436
0.189538 0.189538 0.189538
0.191624 0.191624 0.191624
0.193694 0.193694 0.193694
0.195747 0.195747 0.195747
0.197785 0.197785 0.197785
0.199807 0.199807 0.199807
0.201814 0.201814 0.201814
0.203805 0.203805 0.203805
0.205781 0.205781 0.205781
0.207742 0.207742 0.207742
0.209688 0.209688 0.209688
0.211619 0.211619 0.211619
0.213536 0.213536 0.213536
0.215438 0.215438 0.215438
0.073110 0.073110 0.073110
0.075717 0.075717 0.075717
0.078484 0.078484 0.078484
0.081297 0.081297 0.081297
0.084131 0.084131 0.084131
0.086974 0.086974 0.086974
0.089819 0.089819 0.089819
0.092659 0.092659 0.092659
0.095493 0.095493 0.095493
0.098316 0.098316 0.098316
0.101128 0.101128 0.101128
0.103927 0.103927 0.103927
0.106711 0.106711 0.106711
0.109480 0.109480 0.109480
0.112232 0.112232 0.112232
0.114968 0.114968 0.114968
0.117686 0.117686 0.117686
0.120386 0.120386 0.120386
0.123068 0.123068 0.123068
0.125732 0.125732 0.125732
0.128378 0.128378 0.128378
0.131004 0.131004 0.131004
0.133612 0.133612 0.133612
0.136201 0.136201 0.136201
0.138771 0.138771 0.138771
0.141321 0.141321 0.141321
0.143853 0.143853 0.143853
0.146366 0.146366 0.146366
0.148860 0.148860 0.148860
0.151334 0.151334 0.151334
0.153790 0.153790 0.153790
0.156227 0.156227 0.156227
0.158646 0.158646 0.158646
0.161046 0.161046 0.161046
0.163427 0.163427 0.163427
0.165790 0.165790 0.165790
0.168134 0.168134 0.168134
0.170461 0.170461 0.170461
0.172769 0.172769 0.172769
0.175059 0.175059 0.175059
0.177332 0.177332 0.177332
0.179586 0.179586 0.179586
0.181824 0.181824 0.181824
0.184044 0.184044 0.184044
0.186246 0.186246 0.186246
0.188432 0.188432 0.188432
0.190600 0.190600 0.190600
0.192752 0.192752 0.192752
0.194887 0.194887 0.194887
0.197005 0.197005 0.197005
0.199107 0.199107 0.199107
0.201193 0.201193 0.201193
0.203262 0.203262 0.203262
0.205316 0.205316 0.205316
0.207354 0.207354 0.207354
0.209376 0.209376 0.209376
0.211383 0.211383 0.211383
0.213374 0.213374 0.213374
0.215350 0.215350 0.215350
0.217311 0.217311 0.217311
0.219257 0.219257 0.219257
0.221188 0.221188 0.221188
0.223105 0.223105 0.223105
0.225007 0.225007 0.225007
0.082666 0.082666 0.082666
0.085273 0.085273 0.085273
0.088040 0.088040 0.088040
0.090853 0.090853 0.090853
0.093687 0.093687 0.093687
0.096531 0.096531 0.096531
0.099375 0.099375 0.099375
0.102216 0.102216 0.102216
0.105049 0.105049 0.105049
0.107873 0.107873 0.107873
0.110684 0.110684 0.110684
0.113483 0.113483 0.113483
0.116267 0.116267 0.116267
0.119036 0.119036 0.119036
0.121788 0.121788 0.121788
0.124524 0.124524 0.124524
0.127242 0.127242 0.127242
0.129942 0.129942 0.129942
0.132624 0.132624 0.132624
0.135288 0.135288 0.135288
0.137934 0.137934 0.137934
0.140560 0.140560 0.140560
0.143168 0.143168 0.143168
0.145757 0.145757 0.145757
0.148327 0.148327 0.148327
0.150877 0.150877 0.150877
0.153409 0.153409 0.153409
0.155922 0.155922 0.155922
0.158416 0.158416 0.158416
0.160890 0.160890 0.160890
0.163346 0.163346 0.163346
0.165784 0.165784 0.165784
0.168202 0.168202 0.168202
0.170602 0.170602 0.170602
0.172983 0.172983 0.172983
0.175346 0.175346 0.175346
0.177690 0.177690 0.177690
0.180017 0.180017 0.180017
0.182325 0.182325 0.182325
0.184615 0.184615 0.184615
0.186888 0.186888 0.186888
0.189142 0.189142 0.189142
0.191380 0.191380 0.191380
0.193600 0.193600 0.193600
0.195802 0.195802 0.195802
0.197988 0.197988 0.197988
0.200156 0.200156 0.200156
0.202308 0.202308 0.202308
0.204443 0.204443 0.204443
0.206561 0.206561 0.206561
0.208663 0.208663 0.208663
0.210749 0.210749 0.210749
0.212818 0.212818 0.212818
0.214872 0.214872 0.214872
0.216910 0.216910 0.216910
0.218932 0.218932 0.218932
0.220939 0.220939 0.220939
0.222930 0.222930 0.222930
0.224906 0.224906 0.224906
0.226867 0.226867 0.226867
0.228813 0.228813 0.228813
0.230744 0.230744 0.230744
0.232661 0.232661 0.232661
0.234563 0.234563 0.234563
0.092198 0.092198 0.092198
0.094805 0.094805 0.094805
0.097571 0.097571 0.097571
0.100385 0.100385 0.100385
0.103219 0.103219 0.103219
0.106062 0.106062 0.106062
0.108907 0.108907 0.108907
0.111747 0.111747 0.111747
0.114581 0.114581 0.114581
0.117404 0.117404 0.117404
0.120216 0.120216 0.120216
0.123015 0.123015 0.123015
0.125799 0.125799 0.125799
0.128567 0.128567 0.128567
0.131320 0.131320 0.131320
0.134055 0.134055 0.134055
0.136774 0.136774 0.136774
0.139474 0.139474 0.139474
0.142156 0.142156 0.142156
0.144820 0.144820 0.144820
0.147466 0.147466 0.147466
0.150092 0.150092 0.150092
0.152700 0.152700 0.152700
0.155289 0.155289 0.155289
0.157858 0.157858 0.157858
0.160409 0.160409 0.160409
0.162941 0.162941 0.162941
0.165454 0.165454 0.165454
0.167947 0.167947 0.167947
0.170422 0.170422 0.170422
0.172878 0.172878 0.172878
0.175315 0.175315 0.175315
0.177734 0.177734 0.177734
0.180133 0.180133 0.180133
0.182515 0.182515 0.182515
0.184878 0.184878 0.184878
0.187222 0.187222 0.187222
0.189548 0.189548 0.189548
0.191857 0.191857 0.191857
0.194147 0.194147 0.194147
0.196419 0.196419 0.196419
0.198674 0.198674 0.198674
0.200911 0.200911 0.200911
0.203131 0.203131 0.203131
0.205334 0.205334 0.205334
0.207519 0.207519 0.207519
0.209688 0.209688 0.209688
0.211839 0.211839 0.211839
0.213974 0.213974 0.213974
0.216093 0.216093 0.216093
0.218195 0.218195 0.218195
0.220281 0.220281 0.220281
0.222350 0.222350 0.222350
0.224404 0.224404 0.224404
0.226442 0.226442 0.226442
0.228464 0.228464 0.228464
0.230470 0.230470 0.230470
0.232462 0.232462 0.232462
0.234438 0.234438 0.234438
0.236399 0.236399 0.236399
0.238345 0.238345 0.238345
0.240276 0.240276 0.240276
0.242192 0.242192 0.242192
0.244094 0.244094 0.244094
0.101696 0.101696 0.101696
0.104304 0.104304 0.104304
0.107070 0.107070 0.107070
0.109883 0.109883 0.109883
0.112718 0.112718 0.112718
0.115561 0.115561 0.115561
0.118405 0.118405 0.118405
0.121246 0.121246 0.121246
0.124080 0.124080 0.124080
0.126903 0.126903 0.126903
0.129715 0.129715 0.129715
0.132514 0.132514 0.132514
0.135298 0.135298 0.135298
0.138066 0.138066 0.138066
0.140819 0.140819 0.140819
0.143554 0.143554 0.143554
0.146272 0.146272 0.146272
0.148973 0.148973 0.148973
0.151655 0.151655 0.151655
0.154319 0.154319 0.154319
0.156964 0.156964 0.156964
0.159591 0.159591 0.159591
0.162199 0.162199 0.162199
0.164787 0.164787 0.164787
0.167357 0.167357 0.167357
0.169908 0.169908 0.169908
0.172440 0.172440 0.172440
0.174953 0.174953 0.174953
0.177446 0.177446 0.177446
0.179921 0.179921 0.179921
0.182377 0.182377 0.182377
0.184814 0.184814 0.184814
0.187233 0.187233 0.187233
0.189632 0.189632 0.189632
0.192014 0.192014 0.192014
0.194376 0.194376 0.194376
0.196721 0.196721 0.196721
0.199047 0.199047 0.199047
0.201355 0.201355 0.201355
0.203646 0.203646 0.203646
0.205918 0.205918 0.205918
0.208173 0.208173 0.208173
0.210410 0.210410 0.210410
0.212630 0.212630 0.212630
0.214833 0.214833 0.214833
0.217018 0.217018 0.217018
0.219187 0.219187 0.219187
0.221338 0.221338 0.221338
0.223473 0.223473 0.223473
0.225592 0.225592 0.225592
0.227694 0.227694 0.227694
0.229779 0.229779 0.229779
0.231849 0.231849 0.231849
0.233903 0.233903 0.233903
0.235940 0.235940 0.235940
0.237963 0.237963 0.237963
0.239969 0.239969 0.239969
0.241961 0.241961 0.241961
0.243937 0.243937 0.243937
0.245898 0.245898 0.245898
0.247844 0.247844 0.247844
0.249775 0.249775 0.249775
0.251691 0.251691 0.251691
0.253593 0.253593 0.253593
0.111156 0.111156 0.111156
0.113763 0.113763 0.113763
0.116529 0.116529 0.116529
0.119343 0.119343 0.119343
0.122177 0.122177 0.122177
0.125020 0.125020 0.125020
0.127865 0.127865 0.127865
0.130705 0.130705 0.130705
0.133539 0.133539 0.133539
0.136362 0.136362 0.136362
0.139174 0.139174 0.139174
0.141973 0.141973 0.141973
0.144757 0.144757 0.144757
0.147526 0.147526 0.147526
0.150278 0.150278 0.150278
0.153013 0.153013 0.153013
0.155732 0.155732 0.155732
0.158432 0.158432 0.158432
0.161114 0.161114 0.161114
0.163778 0.163778 0.163778
0.166424 0.166424 0.166424
0.169050 0.169050 0.169050
0.171658 0.171658 0.171658
0.174247 0.174247 0.174247
0.176817 0.176817 0.176817
0.179367 0.179367 0.179367
0.181899 0.181899 0.181899
0.184412 0.184412 0.184412
0.186906 0.186906 0.186906
0.189380 0.189380 0.189380
0.191836 0.191836 0.191836
0.194273 0.194273 0.194273
0.196692 0.196692 0.196692
0.199092 0.199092 0.199092
0.201473 0.201473 0.201473
0.203836 0.203836 0.203836
0.206180 0.206180 0.206180
0.208506 0.208506 0.208506
0.210815 0.210815 0.210815
0.213105 0.213105 0.213105
0.215378 0.215378 0.215378
0.217632 0.217632 0.217632
0.219870 0.219870 0.219870
0.222089 0.222089 0.222089
0.224292 0.224292 0.224292
0.226477 0.226477 0.226477
0.228646 0.228646 0.228646
0.230798 0.230798 0.230798
0.232932 0.232932 0.232932
0.235051 0.235051 0.235051
0.237153 0.237153 0.237153
0.239239 0.239239 0.239239
0.241308 0.241308 0.241308
0.243362 0.243362 0.243362
0.245400 0.245400 0.245400
0.247422 0.247422 0.247422
0.249429 0.249429 0.249429
0.251420 0.251420 0.251420
0.253396 0.253396 0.253396
0.255357 0.255357 0.255357
0.257303 0.257303 0.257303
0.259234 0.259234 0.259234
0.261150 0.261150 0.261150
0.263052 0.263052 0.263052
0.120570 0.120570 0.120570
0.123178 0.123178 0.123178
0.125944 0.125944 0.125944
0.128757 0.128757 0.128757
0.131592 0.131592 0.131592
0.134435 0.134435 0.134435
0.137279 0.137279 0.137279
0.140120 0.140120 0.140120
0.142953 0.142953 0.142953
0.145777 0.145777 0.145777
0.148589 0.148589 0.148589
0.151387 0.151387 0.151387
0.154171 0.154171 0.154171
0.156940 0.156940 0.156940
0.159693 0.159693 0.159693
0.162428 0.162428 0.162428
0.165146 0.165146 0.165146
0.167847 0.167847 0.167847
0.170529 0.170529 0.170529
0.173193 0.173193 0.173193
0.175838 0.175838 0.175838
0.178465 0.178465 0.178465
0.181073 0.181073 0.181073
0.183661 0.183661 0.183661
0.186231 0.186231 0.186231
0.188782 0.188782 0.188782
0.191314 0.191314 0.191314
0.193826 0.193826 0.193826
0.196320 0.196320 0.196320
0.198795 0.198795 0.198795
0.201251 0.201251 0.201251
0.203688 0.203688 0.203688
0.206106 0.206106 0.206106
0.208506 0.208506 0.208506
0.210887 0.210887 0.210887
0.213250 0.213250 0.213250
0.215595 0.215595 0.215595
0.217921 0.217921 0.217921
0.220229 0.220229 0.220229
0.222520 0.222520 0.222520
0.224792 0.224792 0.224792
0.227047 0.227047 0.227047
0.229284 0.229284 0.229284
0.231504 0.231504 0.231504
0.233707 0.233707 0.233707
0.235892 0.235892 0.235892
0.238061 0.238061 0.238061
0.240212 0.240212 0.240212
0.242347 0.242347 0.242347
0.244465 0.244465 0.244465
0.246567 0.246567 0.246567
0.248653 0.248653 0.248653
0.250723 0.250723 0.250723
0.252776 0.252776 0.252776
0.254814 0.254814 0.254814
0.256836 0.256836 0.256836
0.258843 0.258843 0.258843
0.260834 0.260834 0.260834
0.262810 0.262810 0.262810
0.264771 0.264771 0.264771
0.266717 0.266717 0.266717
0.268649 0.268649 0.268649
0.270565 0.270565 0.270565
0.272467 0.272467 0.272467
0.129936 0.129936 0.129936
0.132543 0.132543 0.132543
0.135310 0.135310 0.135310
0.138123 0.138123 0.138123
0.140958 0.140958 0.140958
0.143801 0.143801 0.143801
0.146645 0.146645 0.146645
0.149486 0.149486 0.149486
0.152319 0.152319 0.152319
0.155143 0.155143 0.155143
0.157955 0.157955 0.157955
0.160753 0.160753 0.160753
0.163537 0.163537 0.163537
0.166306 0.166306 0.166306
0.169058 0.169058 0.169058
0.171794 0.171794 0.171794
0.174512 0.174512 0.174512
0.177212 0.177212 0.177212
0.179895 0.179895 0.179895
0.182559 0.182559 0.182559
0.185204 0.185204 0.185204
0.187831 0.187831 0.187831
0.190438 0.190438 0.190438
0.193027 0.193027 0.193027
0.195597 0.195597 0.195597
0.198148 0.198148 0.198148
0.200679 0.200679 0.200679
0.203192 0.203192 0.203192
0.205686 0.205686 0.205686
0.208161 0.208161 0.208161
0.210617 0.210617 0.210617
0.213054 0.213054 0.213054
0.215472 0.215472 0.215472
0.217872 0.217872 0.217872
0.220253 0.220253 0.220253
0.222616 0.222616 0.222616
0.224961 0.224961 0.224961
0.227287 0.227287 0.227287
0.229595 0.229595 0.229595
0.231885 0.231885 0.231885
0.234158 0.234158 0.234158
0.236413 0.236413 0.236413
0.238650 0.238650 0.238650
0.240870 0.240870 0.240870
0.243072 0.243072 0.243072
0.245258 0.245258 0.245258
0.247426 0.247426 0.247426
0.249578 0.249578 0.249578
0.251713 0.251713 0.251713
0.253831 0.253831 0.253831
0.255933 0.255933 0.255933
0.258019 0.258019 0.258019
0.260089 0.260089 0.260089
0.262142 0.262142 0.262142
0.264180 0.264180 0.264180
0.266202 0.266202 0.266202
0.268209 0.268209 0.268209
0.270200 0.270200 0.270200
0.272176 0.272176 0.272176
0.274137 0.274137 0.274137
0.276083 0.276083 0.276083
0.278014 0.278014 0.278014
0.279931 0.279931 0.279931
0.281833 0.281833 0.281833
0.139250 0.139250 0.139250
0.141857 0.141857 0.141857
0.144624 0.144624 0.144624
0.147437 0.147437 0.147437
0.150271 0.150271 0.150271
0.153115 0.153115 0.153115
0.155959 0.155959 0.155959
0.158800 0.158800 0.158800
0.161633 0.161633 0.161633
0.164457 0.164457 0.164457
0.167269 0.167269 0.167269
0.170067 0.170067 0.170067
0.172851 0.172851 0.172851
0.175620 0.175620 0.175620
0.178372 0.178372 0.178372
0.181108 0.181108 0.181108
0.183826 0.183826 0.183826
0.186526 0.186526 0.186526
0.189209 0.189209 0.189209
0.191873 0.191873 0.191873
0.194518 0.194518 0.194518
0.197144 0.197144 0.197144
0.199752 0.199752 0.199752
0.202341 0.202341 0.202341
0.204911 0.204911 0.204911
0.207462 0.207462 0.207462
0.209993 0.209993 0.209993
0.212506 0.212506 0.212506
0.215000 0.215000 0.215000
0.217475 0.217475 0.217475
0.219931 0.219931 0.219931
0.222368 0.222368 0.222368
0.224786 0.224786 0.224786
0.227186 0.227186 0.227186
0.229567 0.229567 0.229567
0.231930 0.231930 0.231930
0.234274 0.234274 0.234274
0.236601 0.236601 0.236601
0.238909 0.238909 0.238909
0.241199 0.241199 0.241199
0.243472 0.243472 0.243472
0.245727 0.245727 0.245727
0.247964 0.247964 0.247964
0.250184 0.250184 0.250184
0.252386 0.252386 0.252386
0.254572 0.254572 0.254572
0.256740 0.256740 0.256740
0.258892 0.258892 0.258892
0.261027 0.261027 0.261027
0.263145 0.263145 0.263145
0.265247 0.265247 0.265247
0.267333 0.267333 0.267333
0.269402 0.269402 0.269402
