Plugins/FilmEmulator/Content/LUTs/FE_Ref_70mm_64.cube
TITLE "FE_Ref_70mm"
LUT_3D_SIZE 8
DOMAIN_MIN 0.0 0.0 0.0
DOMAIN_MAX 1.0 1.0 1.0
0.000000 0.000000 0.000000
0.113827 0.000000 0.000000
0.253310 0.000000 0.000000
0.383426 0.000000 0.000000
0.503990 0.000000 0.000000
0.615537 0.000000 0.000000
0.718778 0.000000 0.000000
0.814449 0.000000 0.000000
0.000000 0.108144 0.000000
0.105102 0.105560 0.000000
0.244585 0.103047 0.000000
0.374701 0.100703 0.000000
0.495266 0.098531 0.000000
0.606812 0.096522 0.000000
0.710053 0.094662 0.000000
0.805724 0.092938 0.000000
0.000000 0.242224 0.000000
0.096614 0.239641 0.000000
0.236097 0.237128 0.000000
0.366214 0.234784 0.000000
0.486778 0.232612 0.000000
0.598324 0.230602 0.000000
0.701566 0.228742 0.000000
0.797237 0.227018 0.000000
0.000000 0.367301 0.000000
0.088697 0.364717 0.000000
0.228180 0.362205 0.000000
0.358296 0.359860 0.000000
0.478860 0.357688 0.000000
0.590406 0.355679 0.000000
0.693648 0.353819 0.000000
0.789319 0.352095 0.000000
0.000000 0.483195 0.000000
0.081360 0.480612 0.000000
0.220843 0.478099 0.000000
0.350959 0.475755 0.000000
0.471524 0.473583 0.000000
0.583070 0.471573 0.000000
0.686311 0.469713 0.000000
0.781982 0.467990 0.000000
0.000000 0.590421 0.000000
0.074572 0.587838 0.000000
0.214055 0.585325 0.000000
0.344172 0.582981 0.000000
0.464736 0.580809 0.000000
0.576282 0.578799 0.000000
0.679524 0.576939 0.000000
0.775195 0.575215 0.000000
0.000000 0.689664 0.000000
0.068290 0.687081 0.000000
0.207773 0.684568 0.000000
0.337889 0.682224 0.000000
0.458454 0.680052 0.000000
0.570000 0.678042 0.000000
0.673241 0.676182 0.000000
0.768912 0.674458 0.000000
0.000000 0.781629 0.000000
0.062468 0.779046 0.000000
0.201951 0.776533 0.000000
0.332068 0.774189 0.000000
0.452632 0.772017 0.000000
0.564178 0.770007 0.000000
0.667420 0.768147 0.000000
0.762987 0.766315 0.000000
0.000000 0.000000 0.114636
0.112957 0.000000 0.112053
0.252440 0.000000 0.109540
0.382556 0.000000 0.107196
0.503120 0.000000 0.105024
0.614666 0.000000 0.103014
0.717908 0.000000 0.101154
0.813579 0.000000 0.099431
0.000000 0.107273 0.105911
0.104232 0.104690 0.103328
0.243715 0.102177 0.100815
0.373831 0.099833 0.098471
0.494395 0.097661 0.096299
0.605942 0.095651 0.094289
0.709183 0.093791 0.092429
0.804854 0.092068 0.090706
0.000000 0.241354 0.097424
0.095744 0.238771 0.094840
0.235227 0.236258 0.092327
0.365343 0.233913 0.089983
0.485908 0.231741 0.087811
0.597454 0.229732 0.085802
0.700695 0.227872 0.083942
0.796366 0.226148 0.082218
0.000000 0.366430 0.089506
0.087826 0.363847 0.086923
0.227309 0.361334 0.084410
0.357426 0.358990 0.082066
0.477990 0.356818 0.079893
0.589536 0.354808 0.077884
0.692778 0.352948 0.076024
0.788448 0.351225 0.074300
0.000000 0.482325 0.082169
0.080490 0.479742 0.079586
0.219973 0.477229 0.077073
0.350089 0.474885 0.074729
0.470653 0.472713 0.072557
0.582200 0.470703 0.070547
0.685441 0.468843 0.068687
0.781112 0.467119 0.066964
0.000000 0.589551 0.075382
0.073702 0.586968 0.072798
0.213185 0.584455 0.070286
0.343301 0.582110 0.067941
0.463866 0.579938 0.065769
0.575412 0.577929 0.063760
0.678653 0.576069 0.061900
0.774324 0.574345 0.060176
0.000000 0.688794 0.069099
0.067420 0.686210 0.066516
0.206903 0.683697 0.064003
0.337019 0.681353 0.061659
0.457583 0.679181 0.059487
0.569130 0.677172 0.057477
0.672371 0.675312 0.055617
0.768042 0.673588 0.053894
0.000000 0.780759 0.063278
0.061598 0.778176 0.060694
0.201081 0.775663 0.058181
0.331197 0.773319 0.055837
0.451762 0.771146 0.053665
0.563308 0.769137 0.051656
0.666549 0.767277 0.049796
0.761899 0.765211 0.052408
0.000000 0.000000 0.254657
0.112110 0.000000 0.252074
0.251593 0.000000 0.249561
0.381709 0.000000 0.247217
0.502274 0.000000 0.245045
0.613820 0.000000 0.243035
0.717061 0.000000 0.241175
0.812732 0.000000 0.239452
0.000000 0.106427 0.245932
0.103385 0.103843 0.243349
0.242868 0.101331 0.240836
0.372984 0.098986 0.238492
0.493549 0.096814 0.236320
0.605095 0.094805 0.234310
0.708337 0.092945 0.232450
0.804007 0.091221 0.230727
0.000000 0.240507 0.237445
0.094897 0.237924 0.234861
0.234380 0.235411 0.232348
0.364497 0.233067 0.230004
0.485061 0.230895 0.227832
0.596607 0.228885 0.225823
0.699849 0.227025 0.223963
0.795520 0.225302 0.222239
0.000000 0.365584 0.229527
0.086980 0.363001 0.226944
0.226463 0.360488 0.224431
0.356579 0.358143 0.222087
0.477143 0.355971 0.219914
0.588689 0.353962 0.217905
0.691931 0.352102 0.216045
0.787602 0.350378 0.214321
0.000000 0.481478 0.222190
0.079643 0.478895 0.219607
0.219126 0.476382 0.217094
0.349242 0.474038 0.214750
0.469807 0.471866 0.212578
0.581353 0.469856 0.210568
0.684595 0.467996 0.208708
0.780265 0.466273 0.206985
0.000000 0.588704 0.215403
0.072855 0.586121 0.212819
0.212338 0.583608 0.210306
0.342455 0.581264 0.207962
0.463019 0.579092 0.205790
0.574565 0.577082 0.203781
0.677807 0.575222 0.201921
0.773478 0.573499 0.200197
0.000000 0.687947 0.209120
0.066573 0.685364 0.206537
0.206056 0.682851 0.204024
0.336172 0.680507 0.201680
0.456737 0.678335 0.199508
0.568283 0.676325 0.197498
0.671524 0.674465 0.195638
0.767195 0.672741 0.193915
0.000000 0.779912 0.203298
0.060751 0.777329 0.200715
0.200234 0.774816 0.198202
0.330351 0.772472 0.195858
0.450915 0.770300 0.193686
0.562461 0.768290 0.191677
0.665767 0.766324 0.190685
0.760937 0.764233 0.194068
0.000000 0.000000 0.385275
0.111320 0.000000 0.382692
0.250803 0.000000 0.380179
0.380919 0.000000 0.377835
0.501484 0.000000 0.375663
0.613030 0.000000 0.373653
0.716272 0.000000 0.371793
0.811942 0.000000 0.370070
0.000000 0.105637 0.376550
0.102595 0.103054 0.373967
0.242078 0.100541 0.371454
0.372195 0.098197 0.369110
0.492759 0.096025 0.366938
0.604305 0.094015 0.364928
0.707547 0.092155 0.363068
0.803218 0.090431 0.361345
0.000000 0.239717 0.368063
0.094108 0.237134 0.365480
0.233591 0.234621 0.362967
0.363707 0.232277 0.360622
0.484271 0.230105 0.358450
0.595817 0.228095 0.356441
0.699059 0.226235 0.354581
0.794730 0.224512 0.352857
0.000000 0.364794 0.360145
0.086190 0.362211 0.357562
0.225673 0.359698 0.355049
0.355789 0.357354 0.352705
0.476353 0.355182 0.350533
0.587900 0.353172 0.348523
0.691141 0.351312 0.346663
0.786812 0.349588 0.344939
0.000000 0.480689 0.352808
0.078853 0.478105 0.350225
0.218336 0.475592 0.347712
0.348453 0.473248 0.345368
0.469017 0.471076 0.343196
0.580563 0.469067 0.341186
0.683805 0.467207 0.339326
0.779476 0.465483 0.337603
0.000000 0.587914 0.346021
0.072066 0.585331 0.343438
0.211549 0.582818 0.340925
0.341665 0.580474 0.338580
0.462229 0.578302 0.336408
0.573775 0.576292 0.334399
0.677017 0.574432 0.332539
0.772688 0.572709 0.330815
0.000000 0.687157 0.339738
0.065783 0.684574 0.337155
0.205266 0.682061 0.334642
0.335383 0.679717 0.332298
0.455947 0.677545 0.330126
0.567493 0.675535 0.328116
0.670735 0.673675 0.326256
0.766405 0.671952 0.324533
0.000000 0.779122 0.333917
0.059962 0.776539 0.331333
0.199445 0.774026 0.328821
0.329561 0.771682 0.326476
0.450125 0.769510 0.324304
0.561671 0.767500 0.322295
0.665198 0.765317 0.322801
0.760125 0.763407 0.325116
0.000000 0.000000 0.506305
0.110588 0.000000 0.503721
0.250071 0.000000 0.501209
0.380188 0.000000 0.498864
0.500752 0.000000 0.496692
0.612298 0.000000 0.494683
0.715540 0.000000 0.492823
0.811211 0.000000 0.491099
0.000000 0.104905 0.497580
0.101864 0.102322 0.494997
0.241347 0.099809 0.492484
0.371463 0.097465 0.490140
0.492027 0.095293 0.487967
0.603573 0.093283 0.485958
0.706815 0.091423 0.484098
0.802486 0.089700 0.482374
0.000000 0.238986 0.489092
0.093376 0.236402 0.486509
0.232859 0.233889 0.483996
0.362975 0.231545 0.481652
0.483539 0.229373 0.479480
0.595086 0.227364 0.477470
0.698327 0.225504 0.475610
0.793998 0.223780 0.473886
0.000000 0.364062 0.481174
0.085458 0.361479 0.478591
0.224941 0.358966 0.476078
0.355057 0.356622 0.473734
0.475622 0.354450 0.471562
0.587168 0.352440 0.469552
0.690410 0.350580 0.467692
0.786080 0.348857 0.465969
0.000000 0.479957 0.473838
0.078122 0.477374 0.471255
0.217605 0.474861 0.468742
0.347721 0.472517 0.466398
0.468285 0.470344 0.464225
0.579831 0.468335 0.462216
0.683073 0.466475 0.460356
0.778744 0.464751 0.458632
0.000000 0.587183 0.467050
0.071334 0.584599 0.464467
0.210817 0.582086 0.461954
0.340933 0.579742 0.459610
0.461497 0.577570 0.457438
0.573044 0.575561 0.455428
0.676285 0.573701 0.453568
0.771956 0.571977 0.451845
0.000000 0.686425 0.460768
0.065052 0.683842 0.458185
0.204534 0.681329 0.455672
0.334651 0.678985 0.453327
0.455215 0.676813 0.451155
0.566761 0.674803 0.449146
0.670003 0.672943 0.447286
0.765674 0.671220 0.445562
0.000000 0.778391 0.454946
0.059230 0.775807 0.452363
0.198713 0.773295 0.449850
0.328829 0.770950 0.447506
0.449393 0.768778 0.445334
0.560940 0.766769 0.443324
0.664745 0.764458 0.444271
0.759447 0.762714 0.445597
0.000000 0.000000 0.618281
0.109911 0.000000 0.615698
0.249394 0.000000 0.613185
0.379511 0.000000 0.610841
0.500075 0.000000 0.608669
0.611621 0.000000 0.606659
0.714863 0.000000 0.604799
0.810534 0.000000 0.603076
0.000000 0.104228 0.609556
0.101187 0.101645 0.606973
0.240669 0.099132 0.604460
0.370786 0.096788 0.602116
0.491350 0.094616 0.599944
0.602896 0.092606 0.597934
0.706138 0.090746 0.596074
0.801809 0.089022 0.594351
0.000000 0.238308 0.601069
0.092699 0.235725 0.598485
0.232182 0.233212 0.595972
0.362298 0.230868 0.593628
0.482862 0.228696 0.591456
0.594409 0.226687 0.589447
0.697650 0.224827 0.587587
0.793321 0.223103 0.585863
0.000000 0.363385 0.593151
0.084781 0.360802 0.590568
0.224264 0.358289 0.588055
0.354380 0.355945 0.585711
0.474945 0.353773 0.583538
0.586491 0.351763 0.581529
0.689732 0.349903 0.579669
0.785403 0.348180 0.577945
0.000000 0.479280 0.585814
0.077445 0.476697 0.583231
0.216928 0.474184 0.580718
0.347044 0.471839 0.578374
0.467608 0.469667 0.576202
0.579154 0.467658 0.574192
0.682396 0.465798 0.572332
0.778067 0.464074 0.570609
0.000000 0.586505 0.579027
0.070657 0.583922 0.576443
0.210140 0.581409 0.573930
0.340256 0.579065 0.571586
0.460820 0.576893 0.569414
0.572367 0.574884 0.567405
0.675608 0.573024 0.565545
0.771279 0.571300 0.563821
0.000000 0.685748 0.572744
0.064374 0.683165 0.570161
0.203857 0.680652 0.567648
0.333974 0.678308 0.565304
0.454538 0.676136 0.563132
0.566084 0.674126 0.561122
0.669326 0.672266 0.559262
0.764997 0.670543 0.557539
0.000000 0.777714 0.566922
0.058553 0.775130 0.564339
0.198036 0.772618 0.561826
0.328152 0.770273 0.559482
0.448716 0.768101 0.557310
0.560785 0.765882 0.555840
0.664389 0.763726 0.555844
0.758882 0.762137 0.556255
0.000000 0.000000 0.721921
0.109285 0.000000 0.719338
0.248768 0.000000 0.716825
0.378884 0.000000 0.714481
0.499448 0.000000 0.712309
0.610995 0.000000 0.710299
0.714236 0.000000 0.708439
0.809907 0.000000 0.706715
0.000000 0.103601 0.713196
0.100560 0.101018 0.710613
0.240043 0.098505 0.708100
0.370159 0.096161 0.705756
0.490723 0.093989 0.703584
0.602270 0.091979 0.701574
0.705511 0.090119 0.699714
0.801182 0.088396 0.697990
0.000000 0.237682 0.704708
0.092072 0.235099 0.702125
0.231555 0.232586 0.699612
0.361671 0.230242 0.697268
0.482236 0.228070 0.695096
0.593782 0.226060 0.693086
0.697024 0.224200 0.691226
0.792694 0.222476 0.689503
0.000000 0.362758 0.696791
0.084154 0.360175 0.694207
0.223637 0.357662 0.691695
0.353754 0.355318 0.689350
0.474318 0.353146 0.687178
0.585864 0.351136 0.685169
0.689106 0.349276 0.683309
0.784777 0.347553 0.681585
0.000000 0.478653 0.689454
0.076818 0.476070 0.686871
0.216301 0.473557 0.684358
0.346417 0.471213 0.682014
0.466982 0.469041 0.679842
0.578528 0.467031 0.677832
0.681769 0.465171 0.675972
0.777440 0.463448 0.674249
0.000000 0.585879 0.682666
0.070030 0.583296 0.680083
0.209513 0.580783 0.677570
0.339629 0.578439 0.675226
0.460194 0.576267 0.673054
0.571740 0.574257 0.671044
0.674982 0.572397 0.669184
0.770652 0.570673 0.667461
0.000000 0.685122 0.676384
0.063748 0.682539 0.673801
0.203231 0.680026 0.671288
0.333347 0.677681 0.668944
0.453911 0.675509 0.666772
0.565458 0.673500 0.664762
0.668699 0.671640 0.662902
0.764370 0.669916 0.661178
0.000000 0.777087 0.670562
0.057926 0.774504 0.667979
0.197409 0.771991 0.665466
0.327525 0.769647 0.663122
0.448090 0.767475 0.660950
0.560718 0.765104 0.659326
0.664113 0.763103 0.658416
0.758413 0.761657 0.657981
0.000000 0.000000 0.817961
0.108704 0.000000 0.815378
0.248187 0.000000 0.812865
0.378303 0.000000 0.810520
0.498868 0.000000 0.808348
0.610414 0.000000 0.806339
0.713655 0.000000 0.804479
0.809326 0.000000 0.802755
0.000000 0.103021 0.809236
0.099979 0.100438 0.806653
0.239462 0.097925 0.804140
0.369578 0.095580 0.801796
0.490143 0.093408 0.799624
0.601689 0.091399 0.797614
0.704931 0.089539 0.795754
0.800601 0.087815 0.794030
0.000000 0.237101 0.800748
0.091491 0.234518 0.798165
0.230974 0.232005 0.795652
0.361091 0.229661 0.793308
0.481655 0.227489 0.791136
0.593201 0.225479 0.789126
0.696443 0.223619 0.787266
0.792114 0.221896 0.785543
0.000000 0.362178 0.792830
0.083574 0.359595 0.790247
0.223057 0.357082 0.787734
0.353173 0.354737 0.785390
0.473737 0.352565 0.783218
0.585284 0.350556 0.781208
0.688525 0.348696 0.779348
0.784196 0.346972 0.777625
0.000000 0.478072 0.785494
0.076237 0.475489 0.782911
0.215720 0.472976 0.780398
0.345836 0.470632 0.778054
0.466401 0.468460 0.775882
0.577947 0.466450 0.773872
0.681189 0.464590 0.772012
0.776859 0.462867 0.770288
0.000000 0.585298 0.778706
0.069450 0.582715 0.776123
0.208932 0.580202 0.773610
0.339049 0.577858 0.771266
0.459613 0.575686 0.769094
0.571159 0.573676 0.767084
0.674401 0.571816 0.765224
0.770072 0.570093 0.763501
0.000000 0.684541 0.772424
0.063167 0.681958 0.769841
0.202650 0.679445 0.767328
0.332766 0.677101 0.764984
0.453331 0.674929 0.762811
0.564877 0.672919 0.760802
0.668119 0.671059 0.758942
0.763789 0.669335 0.757218
0.000000 0.776506 0.766602
0.057345 0.773923 0.764019
0.196828 0.771410 0.761506
0.326945 0.769066 0.759162
0.447509 0.766894 0.756990
0.560702 0.764430 0.754627
0.663904 0.762572 0.752870
0.758025 0.761258 0.751650
