Plugins/FilmEmulator/Content/LUTs/FE_Ref_16mm_64.cube
TITLE "FE_Ref_16mm"
LUT_3D_SIZE 4
DOMAIN_MIN 0.0 0.0 0.0
DOMAIN_MAX 1.0 1.0 1.0
0.000000 0.000000 0.000000
0.292565 0.000000 0.000000
0.581398 0.000000 0.000000
0.821156 0.000000 0.000000
0.000000 0.276575 0.000000
0.269811 0.269811 0.000000
0.558644 0.264035 0.000000
0.798402 0.259239 0.000000
0.000000 0.551752 0.000000
0.250378 0.544988 0.000000
0.539211 0.539211 0.000000
0.778969 0.534416 0.000000
0.000000 0.780173 0.000000
0.234247 0.773409 0.000000
0.523080 0.767633 0.000000
0.762838 0.762838 0.000000
0.000000 0.000000 0.303536
0.290217 0.000000 0.296772
0.579050 0.000000 0.290995
0.818808 0.000000 0.286200
0.000000 0.274227 0.280782
0.267463 0.267463 0.274018
0.556296 0.261686 0.268242
0.796054 0.256891 0.263446
0.000000 0.549404 0.261349
0.248030 0.542640 0.254585
0.536863 0.536863 0.248808
0.776621 0.532068 0.244013
0.000000 0.777825 0.245218
0.231899 0.771061 0.238454
0.520732 0.765285 0.232677
0.760066 0.760066 0.233326
0.000000 0.000000 0.602694
0.288211 0.000000 0.595930
0.577045 0.000000 0.590153
0.816802 0.000000 0.585358
0.000000 0.272221 0.579940
0.265458 0.265458 0.573176
0.554291 0.259681 0.567400
0.794049 0.254886 0.562604
0.000000 0.547398 0.560507
0.246024 0.540634 0.553743
0.534858 0.534858 0.547966
0.774615 0.530063 0.543171
0.000000 0.775820 0.544376
0.229893 0.769056 0.537612
0.518726 0.763279 0.531835
0.758135 0.758135 0.531525
0.000000 0.000000 0.851022
0.286547 0.000000 0.844258
0.575380 0.000000 0.838481
0.815137 0.000000 0.833686
0.000000 0.270557 0.828268
0.263793 0.263793 0.821504
0.552626 0.258016 0.815728
0.792384 0.253221 0.810933
0.000000 0.545733 0.808835
0.244360 0.538970 0.802071
0.533193 0.533193 0.796294
0.772951 0.528398 0.791499
0.000000 0.774155 0.792704
0.228228 0.767391 0.785940
0.518124 0.761337 0.779784
0.756858 0.756858 0.774868
