Plugins/FilmEmulator/Content/LUTs/FE_Ref_16mm_64.cube
TITLE "FE_Ref_16mm"
LUT_3D_SIZE 64
DOMAIN_MIN 0.0 0.0 0.0
DOMAIN_MAX 1.0 1.0 1.0
0.000000 0.000000 0.000000
0.000000 0.000000 0.000000
0.000000 0.000000 0.000000
0.002812 0.000000 0.000000
0.019531 0.000000 0.000000
0.036278 0.000000 0.000000
0.053008 0.000000 0.000000
0.069692 0.000000 0.000000
0.086309 0.000000 0.000000
0.102845 0.000000 0.000000
0.119289 0.000000 0.000000
0.135631 0.000000 0.000000
0.151867 0.000000 0.000000
0.167989 0.000000 0.000000
0.183994 0.000000 0.000000
0.199880 0.000000 0.000000
0.215642 0.000000 0.000000
0.231280 0.000000 0.000000
0.246793 0.000000 0.000000
0.262178 0.000000 0.000000
0.277435 0.000000 0.000000
0.292565 0.000000 0.000000
0.307566 0.000000 0.000000
0.322438 0.000000 0.000000
0.337182 0.000000 0.000000
0.351799 0.000000 0.000000
0.366287 0.000000 0.000000
0.380649 0.000000 0.000000
0.394884 0.000000 0.000000
0.408994 0.000000 0.000000
0.422979 0.000000 0.000000
0.436839 0.000000 0.000000
0.450577 0.000000 0.000000
0.464192 0.000000 0.000000
0.477686 0.000000 0.000000
0.491060 0.000000 0.000000
0.504314 0.000000 0.000000
0.517451 0.000000 0.000000
0.530470 0.000000 0.000000
0.543373 0.000000 0.000000
0.556162 0.000000 0.000000
0.568836 0.000000 0.000000
0.581398 0.000000 0.000000
0.593848 0.000000 0.000000
0.606188 0.000000 0.000000
0.618419 0.000000 0.000000
0.630541 0.000000 0.000000
0.642557 0.000000 0.000000
0.654466 0.000000 0.000000
0.666271 0.000000 0.000000
0.677972 0.000000 0.000000
0.689571 0.000000 0.000000
0.701068 0.000000 0.000000
0.712465 0.000000 0.000000
0.723763 0.000000 0.000000
0.734963 0.000000 0.000000
0.746065 0.000000 0.000000
0.757072 0.000000 0.000000
0.767984 0.000000 0.000000
0.778802 0.000000 0.000000
0.789527 0.000000 0.000000
0.800160 0.000000 0.000000
0.810703 0.000000 0.000000
0.821156 0.000000 0.000000
0.000000 0.000000 0.000000
0.000000 0.000000 0.000000
0.000000 0.000000 0.000000
0.001772 0.000000 0.000000
0.018492 0.000000 0.000000
0.035239 0.000000 0.000000
0.051969 0.000000 0.000000
0.068653 0.000000 0.000000
0.085270 0.000000 0.000000
0.101806 0.000000 0.000000
0.118249 0.000000 0.000000
0.134592 0.000000 0.000000
0.150827 0.000000 0.000000
0.166950 0.000000 0.000000
0.182955 0.000000 0.000000
0.198840 0.000000 0.000000
0.214603 0.000000 0.000000
0.230241 0.000000 0.000000
0.245754 0.000000 0.000000
0.261139 0.000000 0.000000
0.276396 0.000000 0.000000
0.291526 0.000000 0.000000
0.306526 0.000000 0.000000
0.321399 0.000000 0.000000
0.336143 0.000000 0.000000
0.350759 0.000000 0.000000
0.365248 0.000000 0.000000
0.379610 0.000000 0.000000
0.393845 0.000000 0.000000
0.407955 0.000000 0.000000
0.421939 0.000000 0.000000
0.435800 0.000000 0.000000
0.449538 0.000000 0.000000
0.463153 0.000000 0.000000
0.476647 0.000000 0.000000
0.490021 0.000000 0.000000
0.503275 0.000000 0.000000
0.516412 0.000000 0.000000
0.529431 0.000000 0.000000
0.542334 0.000000 0.000000
0.555122 0.000000 0.000000
0.567797 0.000000 0.000000
0.580359 0.000000 0.000000
0.592809 0.000000 0.000000
0.605149 0.000000 0.000000
0.617380 0.000000 0.000000
0.629502 0.000000 0.000000
0.641518 0.000000 0.000000
0.653427 0.000000 0.000000
0.665232 0.000000 0.000000
0.676933 0.000000 0.000000
0.688532 0.000000 0.000000
0.700029 0.000000 0.000000
0.711426 0.000000 0.000000
0.722724 0.000000 0.000000
0.733924 0.000000 0.000000
0.745026 0.000000 0.000000
0.756033 0.000000 0.000000
0.766945 0.000000 0.000000
0.777762 0.000000 0.000000
0.788488 0.000000 0.000000
0.799121 0.000000 0.000000
0.809664 0.000000 0.000000
0.820116 0.000000 0.000000
0.000000 0.000000 0.000000
0.000000 0.000000 0.000000
0.000000 0.000000 0.000000
0.000671 0.000000 0.000000
0.017391 0.000000 0.000000
0.034138 0.000000 0.000000
0.050868 0.000000 0.000000
0.067551 0.000000 0.000000
0.084169 0.000000 0.000000
0.100705 0.000000 0.000000
0.117148 0.000000 0.000000
0.133491 0.000000 0.000000
0.149726 0.000000 0.000000
0.165849 0.000000 0.000000
0.181854 0.000000 0.000000
0.197739 0.000000 0.000000
0.213502 0.000000 0.000000
0.229140 0.000000 0.000000
0.244652 0.000000 0.000000
0.260038 0.000000 0.000000
0.275295 0.000000 0.000000
0.290424 0.000000 0.000000
0.305425 0.000000 0.000000
0.320298 0.000000 0.000000
0.335042 0.000000 0.000000
0.349658 0.000000 0.000000
0.364147 0.000000 0.000000
0.378509 0.000000 0.000000
0.392744 0.000000 0.000000
0.406854 0.000000 0.000000
0.420838 0.000000 0.000000
0.434699 0.000000 0.000000
0.448437 0.000000 0.000000
0.462052 0.000000 0.000000
0.475546 0.000000 0.000000
0.488920 0.000000 0.000000
0.502174 0.000000 0.000000
0.515310 0.000000 0.000000
0.528330 0.000000 0.000000
0.541233 0.000000 0.000000
0.554021 0.000000 0.000000
0.566696 0.000000 0.000000
0.579258 0.000000 0.000000
0.591708 0.000000 0.000000
0.604048 0.000000 0.000000
0.616279 0.000000 0.000000
0.628401 0.000000 0.000000
0.640417 0.000000 0.000000
0.652326 0.000000 0.000000
0.664131 0.000000 0.000000
0.675832 0.000000 0.000000
0.687431 0.000000 0.000000
0.698928 0.000000 0.000000
0.710325 0.000000 0.000000
0.721623 0.000000 0.000000
0.732822 0.000000 0.000000
0.743925 0.000000 0.000000
0.754932 0.000000 0.000000
0.765843 0.000000 0.000000
0.776661 0.000000 0.000000
0.787386 0.000000 0.000000
0.798020 0.000000 0.000000
0.808562 0.000000 0.000000
0.819015 0.000000 0.000000
0.000000 0.000522 0.000000
0.000000 0.000213 0.000000
0.000000 0.000000 0.000000
0.000000 0.000000 0.000000
0.016273 0.000000 0.000000
0.033020 0.000000 0.000000
0.049750 0.000000 0.000000
0.066433 0.000000 0.000000
0.083051 0.000000 0.000000
0.099587 0.000000 0.000000
0.116030 0.000000 0.000000
0.132373 0.000000 0.000000
0.148608 0.000000 0.000000
0.164730 0.000000 0.000000
0.180736 0.000000 0.000000
0.196621 0.000000 0.000000
0.212384 0.000000 0.000000
0.228022 0.000000 0.000000
0.243534 0.000000 0.000000
0.258920 0.000000 0.000000
0.274177 0.000000 0.000000
0.289306 0.000000 0.000000
0.304307 0.000000 0.000000
0.319180 0.000000 0.000000
0.333924 0.000000 0.000000
0.348540 0.000000 0.000000
0.363029 0.000000 0.000000
0.377391 0.000000 0.000000
0.391626 0.000000 0.000000
0.405736 0.000000 0.000000
0.419720 0.000000 0.000000
0.433581 0.000000 0.000000
0.447318 0.000000 0.000000
0.460934 0.000000 0.000000
0.474428 0.000000 0.000000
0.487801 0.000000 0.000000
0.501056 0.000000 0.000000
0.514192 0.000000 0.000000
0.527212 0.000000 0.000000
0.540115 0.000000 0.000000
0.552903 0.000000 0.000000
0.565578 0.000000 0.000000
0.578140 0.000000 0.000000
0.590590 0.000000 0.000000
0.602930 0.000000 0.000000
0.615160 0.000000 0.000000
0.627283 0.000000 0.000000
0.639298 0.000000 0.000000
0.651208 0.000000 0.000000
0.663013 0.000000 0.000000
0.674714 0.000000 0.000000
0.686313 0.000000 0.000000
0.697810 0.000000 0.000000
0.709207 0.000000 0.000000
0.720505 0.000000 0.000000
0.731704 0.000000 0.000000
0.742807 0.000000 0.000000
0.753814 0.000000 0.000000
0.764725 0.000000 0.000000
0.775543 0.000000 0.000000
0.786268 0.000000 0.000000
0.796902 0.000000 0.000000
0.807444 0.000000 0.000000
0.817897 0.000000 0.000000
0.000000 0.016451 0.000000
0.000000 0.016142 0.000000
0.000000 0.015815 0.000000
0.000000 0.015483 0.000000
0.015148 0.015148 0.000000
0.031895 0.014813 0.000000
0.048625 0.014479 0.000000
0.065308 0.014145 0.000000
0.081926 0.013813 0.000000
0.098462 0.013482 0.000000
0.114905 0.013153 0.000000
0.131248 0.012826 0.000000
0.147483 0.012501 0.000000
0.163605 0.012179 0.000000
0.179611 0.011859 0.000000
0.195496 0.011541 0.000000
0.211259 0.011226 0.000000
0.226897 0.010913 0.000000
0.242409 0.010603 0.000000
0.257795 0.010295 0.000000
0.273052 0.009990 0.000000
0.288181 0.009687 0.000000
0.303182 0.009387 0.000000
0.318055 0.009090 0.000000
0.332799 0.008795 0.000000
0.347415 0.008503 0.000000
0.361904 0.008213 0.000000
0.376266 0.007926 0.000000
0.390501 0.007641 0.000000
0.404611 0.007359 0.000000
0.418595 0.007079 0.000000
0.432456 0.006802 0.000000
0.446194 0.006527 0.000000
0.459809 0.006255 0.000000
0.473303 0.005985 0.000000
0.486677 0.005717 0.000000
0.499931 0.005452 0.000000
0.513067 0.005190 0.000000
0.526087 0.004929 0.000000
0.538990 0.004671 0.000000
0.551778 0.004415 0.000000
0.564453 0.004162 0.000000
0.577015 0.003911 0.000000
0.589465 0.003662 0.000000
0.601805 0.003415 0.000000
0.614036 0.003170 0.000000
0.626158 0.002928 0.000000
0.638174 0.002688 0.000000
0.650083 0.002449 0.000000
0.661888 0.002213 0.000000
0.673589 0.001979 0.000000
0.685188 0.001747 0.000000
0.696685 0.001517 0.000000
0.708082 0.001289 0.000000
0.719380 0.001063 0.000000
0.730579 0.000839 0.000000
0.741682 0.000617 0.000000
0.752689 0.000397 0.000000
0.763600 0.000179 0.000000
0.774418 0.000000 0.000000
0.785143 0.000000 0.000000
0.795777 0.000000 0.000000
0.806319 0.000000 0.000000
0.816772 0.000000 0.000000
0.000000 0.032406 0.000000
0.000000 0.032097 0.000000
0.000000 0.031770 0.000000
0.000000 0.031438 0.000000
0.014021 0.031103 0.000000
0.030768 0.030768 0.000000
0.047498 0.030434 0.000000
0.064182 0.030100 0.000000
0.080799 0.029768 0.000000
0.097335 0.029437 0.000000
0.113779 0.029108 0.000000
0.130121 0.028781 0.000000
0.146356 0.028456 0.000000
0.162479 0.028134 0.000000
0.178484 0.027814 0.000000
0.194369 0.027496 0.000000
0.210132 0.027181 0.000000
0.225770 0.026868 0.000000
0.241283 0.026558 0.000000
0.256668 0.026250 0.000000
0.271925 0.025945 0.000000
0.287055 0.025642 0.000000
0.302056 0.025342 0.000000
0.316928 0.025045 0.000000
0.331672 0.024750 0.000000
0.346288 0.024458 0.000000
0.360777 0.024168 0.000000
0.375139 0.023881 0.000000
0.389374 0.023596 0.000000
0.403484 0.023314 0.000000
0.417469 0.023034 0.000000
0.431329 0.022757 0.000000
0.445067 0.022482 0.000000
0.458682 0.022210 0.000000
0.472176 0.021940 0.000000
0.485550 0.021672 0.000000
0.498804 0.021407 0.000000
0.511941 0.021145 0.000000
0.524960 0.020884 0.000000
0.537863 0.020626 0.000000
0.550651 0.020370 0.000000
0.563326 0.020117 0.000000
0.575888 0.019866 0.000000
0.588338 0.019617 0.000000
0.600678 0.019370 0.000000
0.612909 0.019125 0.000000
0.625031 0.018883 0.000000
0.637047 0.018643 0.000000
0.648956 0.018404 0.000000
0.660761 0.018168 0.000000
0.672462 0.017934 0.000000
0.684061 0.017702 0.000000
0.695558 0.017472 0.000000
0.706955 0.017244 0.000000
0.718253 0.017018 0.000000
0.729453 0.016794 0.000000
0.740555 0.016572 0.000000
0.751562 0.016352 0.000000
0.762474 0.016134 0.000000
0.773292 0.015918 0.000000
0.784017 0.015703 0.000000
0.794650 0.015490 0.000000
0.805193 0.015280 0.000000
0.815645 0.015071 0.000000
0.000000 0.048345 0.000000
0.000000 0.048036 0.000000
0.000000 0.047709 0.000000
0.000000 0.047376 0.000000
0.012896 0.047042 0.000000
0.029643 0.046707 0.000000
0.046372 0.046372 0.000000
0.063056 0.046039 0.000000
0.079673 0.045706 0.000000
0.096209 0.045376 0.000000
0.112653 0.045047 0.000000
0.128996 0.044720 0.000000
0.145231 0.044395 0.000000
0.161353 0.044073 0.000000
0.177358 0.043753 0.000000
0.193244 0.043435 0.000000
0.209007 0.043120 0.000000
0.224645 0.042807 0.000000
0.240157 0.042497 0.000000
0.255542 0.042189 0.000000
0.270800 0.041884 0.000000
0.285929 0.041581 0.000000
0.300930 0.041281 0.000000
0.315802 0.040984 0.000000
0.330547 0.040689 0.000000
0.345163 0.040396 0.000000
0.359652 0.040107 0.000000
0.374013 0.039819 0.000000
0.388249 0.039535 0.000000
0.402358 0.039253 0.000000
0.416343 0.038973 0.000000
0.430204 0.038696 0.000000
0.443941 0.038421 0.000000
0.457556 0.038149 0.000000
0.471050 0.037879 0.000000
0.484424 0.037611 0.000000
0.497679 0.037346 0.000000
0.510815 0.037083 0.000000
0.523834 0.036823 0.000000
0.536738 0.036565 0.000000
0.549526 0.036309 0.000000
0.562200 0.036056 0.000000
0.574762 0.035804 0.000000
0.587213 0.035555 0.000000
0.599553 0.035309 0.000000
0.611783 0.035064 0.000000
0.623906 0.034822 0.000000
0.635921 0.034581 0.000000
0.647831 0.034343 0.000000
0.659636 0.034107 0.000000
0.671337 0.033873 0.000000
0.682935 0.033641 0.000000
0.694433 0.033411 0.000000
0.705830 0.033183 0.000000
0.717127 0.032957 0.000000
0.728327 0.032733 0.000000
0.739430 0.032511 0.000000
0.750436 0.032291 0.000000
0.761348 0.032073 0.000000
0.772166 0.031856 0.000000
0.782891 0.031642 0.000000
0.793524 0.031429 0.000000
0.804067 0.031218 0.000000
0.814520 0.031009 0.000000
0.000000 0.064240 0.000000
0.000000 0.063931 0.000000
0.000000 0.063603 0.000000
0.000000 0.063271 0.000000
0.011773 0.062937 0.000000
0.028520 0.062602 0.000000
0.045250 0.062267 0.000000
0.061933 0.061933 0.000000
0.078551 0.061601 0.000000
0.095087 0.061270 0.000000
0.111530 0.060942 0.000000
0.127873 0.060615 0.000000
0.144108 0.060290 0.000000
0.160231 0.059967 0.000000
0.176236 0.059647 0.000000
0.192121 0.059330 0.000000
0.207884 0.059014 0.000000
0.223522 0.058702 0.000000
0.239034 0.058391 0.000000
0.254420 0.058084 0.000000
0.269677 0.057779 0.000000
0.284807 0.057476 0.000000
0.299807 0.057176 0.000000
0.314680 0.056878 0.000000
0.329424 0.056584 0.000000
0.344040 0.056291 0.000000
0.358529 0.056001 0.000000
0.372891 0.055714 0.000000
0.387126 0.055430 0.000000
0.401236 0.055147 0.000000
0.415220 0.054868 0.000000
0.429081 0.054590 0.000000
0.442819 0.054316 0.000000
0.456434 0.054043 0.000000
0.469928 0.053774 0.000000
0.483302 0.053506 0.000000
0.496556 0.053241 0.000000
0.509693 0.052978 0.000000
0.522712 0.052718 0.000000
0.535615 0.052460 0.000000
0.548403 0.052204 0.000000
0.561078 0.051950 0.000000
0.573640 0.051699 0.000000
0.586090 0.051450 0.000000
0.598430 0.051203 0.000000
0.610661 0.050959 0.000000
0.622783 0.050716 0.000000
0.634799 0.050476 0.000000
0.646708 0.050238 0.000000
0.658513 0.050002 0.000000
0.670214 0.049768 0.000000
0.681813 0.049536 0.000000
0.693310 0.049306 0.000000
0.704707 0.049078 0.000000
0.716005 0.048852 0.000000
0.727205 0.048628 0.000000
0.738307 0.048406 0.000000
0.749314 0.048186 0.000000
0.760225 0.047968 0.000000
0.771043 0.047751 0.000000
0.781768 0.047537 0.000000
0.792402 0.047324 0.000000
0.802944 0.047113 0.000000
0.813397 0.046904 0.000000
0.000000 0.080071 0.000000
0.000000 0.079762 0.000000
0.000000 0.079435 0.000000
0.000000 0.079103 0.000000
0.010655 0.078768 0.000000
0.027402 0.078433 0.000000
0.044132 0.078099 0.000000
0.060815 0.077765 0.000000
0.077433 0.077433 0.000000
0.093969 0.077102 0.000000
0.110412 0.076773 0.000000
0.126755 0.076446 0.000000
0.142990 0.076122 0.000000
0.159113 0.075799 0.000000
0.175118 0.075479 0.000000
0.191003 0.075161 0.000000
0.206766 0.074846 0.000000
0.222404 0.074533 0.000000
0.237916 0.074223 0.000000
0.253302 0.073915 0.000000
0.268559 0.073610 0.000000
0.283688 0.073308 0.000000
0.298689 0.073008 0.000000
0.313562 0.072710 0.000000
0.328306 0.072415 0.000000
0.342922 0.072123 0.000000
0.357411 0.071833 0.000000
0.371773 0.071546 0.000000
0.386008 0.071261 0.000000
0.400118 0.070979 0.000000
0.414102 0.070699 0.000000
0.427963 0.070422 0.000000
0.441701 0.070147 0.000000
0.455316 0.069875 0.000000
0.468810 0.069605 0.000000
0.482184 0.069338 0.000000
0.495438 0.069073 0.000000
0.508574 0.068810 0.000000
0.521594 0.068549 0.000000
0.534497 0.068291 0.000000
0.547285 0.068036 0.000000
0.559960 0.067782 0.000000
0.572522 0.067531 0.000000
0.584972 0.067282 0.000000
0.597312 0.067035 0.000000
0.609543 0.066790 0.000000
0.621665 0.066548 0.000000
0.633681 0.066308 0.000000
0.645590 0.066069 0.000000
0.657395 0.065833 0.000000
0.669096 0.065599 0.000000
0.680695 0.065367 0.000000
0.692192 0.065137 0.000000
0.703589 0.064909 0.000000
0.714887 0.064684 0.000000
0.726086 0.064460 0.000000
0.737189 0.064237 0.000000
0.748196 0.064017 0.000000
0.759107 0.063799 0.000000
0.769925 0.063583 0.000000
0.780650 0.063368 0.000000
0.791284 0.063156 0.000000
0.801826 0.062945 0.000000
0.812279 0.062736 0.000000
0.000000 0.095825 0.000000
0.000000 0.095517 0.000000
0.000000 0.095189 0.000000
0.000000 0.094857 0.000000
0.009543 0.094522 0.000000
0.026289 0.094188 0.000000
0.043019 0.093853 0.000000
0.059703 0.093519 0.000000
0.076320 0.093187 0.000000
0.092856 0.092856 0.000000
0.109300 0.092527 0.000000
0.125643 0.092200 0.000000
0.141878 0.091876 0.000000
0.158000 0.091553 0.000000
0.174005 0.091233 0.000000
0.189891 0.090915 0.000000
0.205653 0.090600 0.000000
0.221292 0.090287 0.000000
0.236804 0.089977 0.000000
0.252189 0.089669 0.000000
0.267447 0.089364 0.000000
0.282576 0.089062 0.000000
0.297577 0.088762 0.000000
0.312449 0.088464 0.000000
0.327194 0.088169 0.000000
0.341810 0.087877 0.000000
0.356298 0.087587 0.000000
0.370660 0.087300 0.000000
0.384895 0.087015 0.000000
0.399005 0.086733 0.000000
0.412990 0.086453 0.000000
0.426851 0.086176 0.000000
0.440588 0.085901 0.000000
0.454203 0.085629 0.000000
0.467697 0.085359 0.000000
0.481071 0.085092 0.000000
0.494326 0.084827 0.000000
0.507462 0.084564 0.000000
0.520481 0.084304 0.000000
0.533384 0.084046 0.000000
0.546173 0.083790 0.000000
0.558847 0.083536 0.000000
0.571409 0.083285 0.000000
0.583859 0.083036 0.000000
0.596199 0.082789 0.000000
0.608430 0.082545 0.000000
0.620553 0.082302 0.000000
0.632568 0.082062 0.000000
0.644478 0.081824 0.000000
0.656282 0.081588 0.000000
0.667984 0.081354 0.000000
0.679582 0.081122 0.000000
0.691080 0.080892 0.000000
0.702477 0.080664 0.000000
0.713774 0.080438 0.000000
0.724974 0.080214 0.000000
0.736076 0.079992 0.000000
0.747083 0.079772 0.000000
0.757995 0.079553 0.000000
0.768813 0.079337 0.000000
0.779538 0.079122 0.000000
0.790171 0.078910 0.000000
0.800714 0.078699 0.000000
0.811167 0.078490 0.000000
0.000000 0.111492 0.000000
0.000000 0.111183 0.000000
0.000000 0.110855 0.000000
0.000000 0.110523 0.000000
0.008436 0.110189 0.000000
0.025183 0.109854 0.000000
0.041913 0.109519 0.000000
0.058596 0.109185 0.000000
0.075214 0.108853 0.000000
0.091750 0.108522 0.000000
0.108193 0.108193 0.000000
0.124536 0.107867 0.000000
0.140771 0.107542 0.000000
0.156894 0.107219 0.000000
0.172899 0.106899 0.000000
0.188784 0.106582 0.000000
0.204547 0.106266 0.000000
0.220185 0.105954 0.000000
0.235697 0.105643 0.000000
0.251083 0.105336 0.000000
0.266340 0.105031 0.000000
0.281470 0.104728 0.000000
0.296470 0.104428 0.000000
0.311343 0.104130 0.000000
0.326087 0.103836 0.000000
0.340703 0.103543 0.000000
0.355192 0.103253 0.000000
0.369554 0.102966 0.000000
0.383789 0.102682 0.000000
0.397899 0.102399 0.000000
0.411883 0.102120 0.000000
0.425744 0.101842 0.000000
0.439482 0.101568 0.000000
0.453097 0.101295 0.000000
0.466591 0.101025 0.000000
0.479965 0.100758 0.000000
0.493219 0.100493 0.000000
0.506356 0.100230 0.000000
0.519375 0.099970 0.000000
0.532278 0.099712 0.000000
0.545066 0.099456 0.000000
0.557741 0.099202 0.000000
0.570303 0.098951 0.000000
0.582753 0.098702 0.000000
0.595093 0.098455 0.000000
0.607324 0.098211 0.000000
0.619446 0.097968 0.000000
0.631462 0.097728 0.000000
0.643371 0.097490 0.000000
0.655176 0.097254 0.000000
0.666877 0.097020 0.000000
0.678476 0.096788 0.000000
0.689973 0.096558 0.000000
0.701370 0.096330 0.000000
0.712668 0.096104 0.000000
0.723868 0.095880 0.000000
0.734970 0.095658 0.000000
0.745977 0.095438 0.000000
0.756889 0.095219 0.000000
0.767706 0.095003 0.000000
0.778432 0.094789 0.000000
0.789065 0.094576 0.000000
0.799607 0.094365 0.000000
0.810060 0.094156 0.000000
0.000000 0.127062 0.000000
0.000000 0.126753 0.000000
0.000000 0.126425 0.000000
0.000000 0.126093 0.000000
0.007337 0.125759 0.000000
0.024084 0.125424 0.000000
0.040813 0.125089 0.000000
0.057497 0.124755 0.000000
0.074114 0.124423 0.000000
0.090650 0.124092 0.000000
0.107094 0.123763 0.000000
0.123437 0.123437 0.000000
0.139672 0.123112 0.000000
0.155794 0.122789 0.000000
0.171799 0.122469 0.000000
0.187685 0.122152 0.000000
0.203447 0.121836 0.000000
0.219086 0.121524 0.000000
0.234598 0.121213 0.000000
0.249983 0.120906 0.000000
0.265241 0.120601 0.000000
0.280370 0.120298 0.000000
0.295371 0.119998 0.000000
0.310243 0.119700 0.000000
0.324988 0.119406 0.000000
0.339604 0.119113 0.000000
0.354093 0.118823 0.000000
0.368454 0.118536 0.000000
0.382690 0.118252 0.000000
0.396799 0.117969 0.000000
0.410784 0.117690 0.000000
0.424645 0.117412 0.000000
0.438382 0.117138 0.000000
0.451997 0.116865 0.000000
0.465491 0.116595 0.000000
0.478865 0.116328 0.000000
0.492120 0.116063 0.000000
0.505256 0.115800 0.000000
0.518275 0.115540 0.000000
0.531178 0.115282 0.000000
0.543967 0.115026 0.000000
0.556641 0.114772 0.000000
0.569203 0.114521 0.000000
0.581654 0.114272 0.000000
0.593993 0.114025 0.000000
0.606224 0.113781 0.000000
0.618347 0.113538 0.000000
0.630362 0.113298 0.000000
0.642272 0.113060 0.000000
0.654077 0.112824 0.000000
0.665778 0.112590 0.000000
0.677376 0.112358 0.000000
0.688874 0.112128 0.000000
0.700271 0.111900 0.000000
0.711568 0.111674 0.000000
0.722768 0.111450 0.000000
0.733871 0.111228 0.000000
0.744877 0.111008 0.000000
0.755789 0.110789 0.000000
0.766607 0.110573 0.000000
0.777332 0.110359 0.000000
0.787965 0.110146 0.000000
0.798508 0.109935 0.000000
0.808961 0.109726 0.000000
0.000000 0.142529 0.000000
0.000000 0.142220 0.000000
0.000000 0.141893 0.000000
0.000000 0.141561 0.000000
0.006244 0.141226 0.000000
0.022991 0.140891 0.000000
0.039721 0.140557 0.000000
0.056405 0.140223 0.000000
0.073022 0.139891 0.000000
0.089558 0.139560 0.000000
0.106002 0.139231 0.000000
0.122344 0.138904 0.000000
0.138579 0.138579 0.000000
0.154702 0.138257 0.000000
0.170707 0.137937 0.000000
0.186592 0.137619 0.000000
0.202355 0.137304 0.000000
0.217993 0.136991 0.000000
0.233506 0.136681 0.000000
0.248891 0.136373 0.000000
0.264148 0.136068 0.000000
0.279278 0.135765 0.000000
0.294279 0.135465 0.000000
0.309151 0.135168 0.000000
0.323895 0.134873 0.000000
0.338512 0.134581 0.000000
0.353000 0.134291 0.000000
0.367362 0.134004 0.000000
0.381597 0.133719 0.000000
0.395707 0.133437 0.000000
0.409692 0.133157 0.000000
0.423552 0.132880 0.000000
0.437290 0.132605 0.000000
0.450905 0.132333 0.000000
0.464399 0.132063 0.000000
0.477773 0.131795 0.000000
0.491027 0.131530 0.000000
0.504164 0.131268 0.000000
0.517183 0.131007 0.000000
0.530086 0.130749 0.000000
0.542874 0.130493 0.000000
0.555549 0.130240 0.000000
0.568111 0.129989 0.000000
0.580561 0.129740 0.000000
0.592901 0.129493 0.000000
0.605132 0.129248 0.000000
0.617254 0.129006 0.000000
0.629270 0.128766 0.000000
0.641179 0.128527 0.000000
0.652984 0.128291 0.000000
0.664685 0.128057 0.000000
0.676284 0.127825 0.000000
0.687781 0.127595 0.000000
0.699178 0.127367 0.000000
0.710476 0.127141 0.000000
0.721676 0.126917 0.000000
0.732778 0.126695 0.000000
0.743785 0.126475 0.000000
0.754697 0.126257 0.000000
0.765515 0.126041 0.000000
0.776240 0.125826 0.000000
0.786873 0.125613 0.000000
0.797416 0.125403 0.000000
0.807868 0.125194 0.000000
0.000000 0.157889 0.000000
0.000000 0.157580 0.000000
0.000000 0.157253 0.000000
0.000000 0.156921 0.000000
0.005160 0.156586 0.000000
0.021906 0.156251 0.000000
0.038636 0.155917 0.000000
0.055320 0.155583 0.000000
0.071937 0.155251 0.000000
0.088473 0.154920 0.000000
0.104917 0.154591 0.000000
0.121260 0.154264 0.000000
0.137495 0.153939 0.000000
0.153617 0.153617 0.000000
0.169622 0.153297 0.000000
0.185508 0.152979 0.000000
0.201270 0.152664 0.000000
0.216909 0.152351 0.000000
0.232421 0.152041 0.000000
0.247806 0.151733 0.000000
0.263064 0.151428 0.000000
0.278193 0.151125 0.000000
0.293194 0.150825 0.000000
0.308066 0.150528 0.000000
0.322811 0.150233 0.000000
0.337427 0.149941 0.000000
0.351915 0.149651 0.000000
0.366277 0.149364 0.000000
0.380512 0.149079 0.000000
0.394622 0.148797 0.000000
0.408607 0.148517 0.000000
0.422468 0.148240 0.000000
0.436205 0.147965 0.000000
0.449820 0.147693 0.000000
0.463314 0.147423 0.000000
0.476688 0.147155 0.000000
0.489943 0.146890 0.000000
0.503079 0.146628 0.000000
0.516098 0.146367 0.000000
0.529001 0.146109 0.000000
0.541790 0.145853 0.000000
0.554464 0.145600 0.000000
0.567026 0.145349 0.000000
0.579477 0.145100 0.000000
0.591816 0.144853 0.000000
0.604047 0.144608 0.000000
0.616170 0.144366 0.000000
0.628185 0.144126 0.000000
0.640095 0.143887 0.000000
0.651899 0.143651 0.000000
0.663601 0.143417 0.000000
0.675199 0.143185 0.000000
0.686697 0.142955 0.000000
