Plugins/FilmEmulator/Content/LUTs/FE_Ref_8mm_64.cube
TITLE "FE_Ref_8mm"
LUT_3D_SIZE 8
DOMAIN_MIN 0.0 0.0 0.0
DOMAIN_MAX 1.0 1.0 1.0
0.000000 0.000000 0.000000
0.097619 0.000000 0.000000
0.248466 0.000000 0.000000
0.388441 0.000000 0.000000
0.517506 0.000000 0.000000
0.636376 0.000000 0.000000
0.745937 0.000000 0.000000
0.847072 0.000000 0.000000
0.000000 0.088211 0.000000
0.087805 0.085213 0.000000
0.238653 0.082311 0.000000
0.378628 0.079619 0.000000
0.507692 0.077137 0.000000
0.626563 0.074851 0.000000
0.736124 0.072744 0.000000
0.837259 0.070798 0.000000
0.000000 0.228273 0.000000
0.078312 0.225274 0.000000
0.229159 0.222373 0.000000
0.369134 0.219681 0.000000
0.498199 0.217199 0.000000
0.617069 0.214913 0.000000
0.726630 0.212805 0.000000
0.827765 0.210860 0.000000
0.000000 0.358240 0.000000
0.069502 0.355241 0.000000
0.220350 0.352340 0.000000
0.360325 0.349648 0.000000
0.489389 0.347166 0.000000
0.608260 0.344879 0.000000
0.717821 0.342772 0.000000
0.818956 0.340827 0.000000
0.000000 0.478076 0.000000
0.061380 0.475078 0.000000
0.212227 0.472176 0.000000
0.352202 0.469484 0.000000
0.481266 0.467002 0.000000
0.600137 0.464716 0.000000
0.709698 0.462609 0.000000
0.810833 0.460664 0.000000
0.000000 0.588448 0.000000
0.053898 0.585449 0.000000
0.204746 0.582548 0.000000
0.344721 0.579856 0.000000
0.473785 0.577373 0.000000
0.592656 0.575087 0.000000
0.702217 0.572980 0.000000
0.803352 0.571035 0.000000
0.000000 0.690175 0.000000
0.047003 0.687176 0.000000
0.197850 0.684275 0.000000
0.337825 0.681583 0.000000
0.466890 0.679101 0.000000
0.585761 0.676815 0.000000
0.695322 0.674707 0.000000
0.796457 0.672762 0.000000
0.000000 0.784079 0.000000
0.040638 0.781080 0.000000
0.191485 0.778179 0.000000
0.331460 0.775487 0.000000
0.460525 0.773005 0.000000
0.579396 0.770718 0.000000
0.688957 0.768611 0.000000
0.789807 0.766462 0.000000
0.000000 0.000000 0.097148
0.096627 0.000000 0.094149
0.247474 0.000000 0.091248
0.387449 0.000000 0.088556
0.516514 0.000000 0.086074
0.635384 0.000000 0.083787
0.744946 0.000000 0.081680
0.846080 0.000000 0.079735
0.000000 0.087220 0.087335
0.086813 0.084221 0.084336
0.237661 0.081319 0.081435
0.377636 0.078627 0.078742
0.506700 0.076145 0.076260
0.625571 0.073859 0.073974
0.735132 0.071752 0.071867
0.836267 0.069807 0.069922
0.000000 0.227281 0.077841
0.077320 0.224282 0.074842
0.228167 0.221381 0.071941
0.368142 0.218689 0.069249
0.497207 0.216207 0.066767
0.616077 0.213921 0.064480
0.725638 0.211813 0.062373
0.826773 0.209868 0.060428
0.000000 0.357248 0.069032
0.068510 0.354249 0.066033
0.219358 0.351348 0.063131
0.359333 0.348656 0.060439
0.488397 0.346174 0.057957
0.607268 0.343887 0.055671
0.716829 0.341780 0.053564
0.817964 0.339835 0.051619
0.000000 0.477085 0.060909
0.060388 0.474086 0.057910
0.211235 0.471184 0.055009
0.351210 0.468492 0.052317
0.480275 0.466010 0.049834
0.599145 0.463724 0.047548
0.708706 0.461617 0.045441
0.809841 0.459672 0.043496
0.000000 0.587456 0.053428
0.052906 0.584457 0.050429
0.203754 0.581556 0.047528
0.343729 0.578864 0.044835
0.472793 0.576381 0.042353
0.591664 0.574095 0.040067
0.701225 0.571988 0.037960
0.802360 0.570043 0.036015
0.000000 0.689183 0.046532
0.046011 0.686184 0.043533
0.196859 0.683283 0.040632
0.336834 0.680591 0.037940
0.465898 0.678109 0.035458
0.584769 0.675823 0.033172
0.694330 0.673715 0.031064
0.795465 0.671770 0.029119
0.000000 0.783087 0.040167
0.039646 0.780088 0.037168
0.190494 0.777187 0.034267
0.330469 0.774495 0.031575
0.459533 0.772013 0.029093
0.578404 0.769726 0.026807
0.687965 0.767619 0.024699
0.788486 0.765260 0.028661
0.000000 0.000000 0.245930
0.095667 0.000000 0.242931
0.246515 0.000000 0.240030
0.386490 0.000000 0.237338
0.515554 0.000000 0.234856
0.634425 0.000000 0.232570
0.743986 0.000000 0.230462
0.845121 0.000000 0.228517
0.000000 0.086260 0.236117
0.085854 0.083261 0.233118
0.236701 0.080360 0.230217
0.376676 0.077668 0.227525
0.505741 0.075185 0.225042
0.624611 0.072899 0.222756
0.734173 0.070792 0.220649
0.835307 0.068847 0.218704
0.000000 0.226322 0.226623
0.076360 0.223323 0.223624
0.227208 0.220422 0.220723
0.367183 0.217730 0.218031
0.496247 0.215247 0.215549
0.615118 0.212961 0.213262
0.724679 0.210854 0.211155
0.825814 0.208909 0.209210
0.000000 0.356289 0.217814
0.067551 0.353290 0.214815
0.218398 0.350388 0.211914
0.358373 0.347696 0.209221
0.487438 0.345214 0.206739
0.606308 0.342928 0.204453
0.715869 0.340821 0.202346
0.817004 0.338876 0.200401
0.000000 0.476125 0.209691
0.059428 0.473126 0.206692
0.210275 0.470225 0.203791
0.350250 0.467533 0.201099
0.479315 0.465050 0.198616
0.598186 0.462764 0.196330
0.707747 0.460657 0.194223
0.808882 0.458712 0.192278
0.000000 0.586496 0.202210
0.051947 0.583497 0.199211
0.202794 0.580596 0.196310
0.342769 0.577904 0.193618
0.471834 0.575422 0.191135
0.590704 0.573136 0.188849
0.700265 0.571028 0.186742
0.801400 0.569083 0.184797
0.000000 0.688224 0.195314
0.045052 0.685225 0.192316
0.195899 0.682324 0.189414
0.335874 0.679632 0.186722
0.464938 0.677149 0.184240
0.583809 0.674863 0.181954
0.693370 0.672756 0.179847
0.794505 0.670811 0.177902
0.000000 0.782128 0.188949
0.038687 0.779129 0.185951
0.189534 0.776227 0.183049
0.329509 0.773535 0.180357
0.458573 0.771053 0.177875
0.577444 0.768767 0.175589
0.687074 0.766454 0.175321
0.787317 0.764206 0.178997
0.000000 0.000000 0.383989
0.094777 0.000000 0.380990
0.245624 0.000000 0.378089
0.385599 0.000000 0.375397
0.514664 0.000000 0.372914
0.633534 0.000000 0.370628
0.743095 0.000000 0.368521
0.844230 0.000000 0.366576
0.000000 0.085370 0.374175
0.084963 0.082371 0.371177
0.235811 0.079469 0.368275
0.375786 0.076777 0.365583
0.504850 0.074295 0.363101
0.623721 0.072009 0.360815
0.733282 0.069902 0.358708
0.834417 0.067957 0.356762
0.000000 0.225431 0.364682
0.075470 0.222432 0.361683
0.226317 0.219531 0.358782
0.366292 0.216839 0.356090
0.495357 0.214357 0.353607
0.614227 0.212071 0.351321
0.723788 0.209963 0.349214
0.824923 0.208018 0.347269
0.000000 0.355398 0.355872
0.066660 0.352399 0.352873
0.217508 0.349498 0.349972
0.357483 0.346806 0.347280
0.486547 0.344324 0.344798
0.605418 0.342037 0.342512
0.714979 0.339930 0.340404
0.816114 0.337985 0.338459
0.000000 0.475235 0.347750
0.058538 0.472236 0.344751
0.209385 0.469334 0.341849
0.349360 0.466642 0.339157
0.478425 0.464160 0.336675
0.597295 0.461874 0.334389
0.706856 0.459767 0.332282
0.807991 0.457822 0.330337
0.000000 0.585606 0.340268
0.051056 0.582607 0.337269
0.201904 0.579706 0.334368
0.341879 0.577014 0.331676
0.470943 0.574531 0.329194
0.589814 0.572245 0.326908
0.699375 0.570138 0.324801
0.800510 0.568193 0.322855
0.000000 0.687333 0.333373
0.044161 0.684334 0.330374
0.195009 0.681433 0.327473
0.334984 0.678741 0.324781
0.464048 0.676259 0.322299
0.582919 0.673973 0.320012
0.692480 0.671865 0.317905
0.793615 0.669920 0.315960
0.000000 0.781237 0.327008
0.037796 0.778238 0.324009
0.188644 0.775337 0.321108
0.328619 0.772645 0.318416
0.457683 0.770163 0.315934
0.576554 0.767876 0.313647
0.686355 0.765370 0.314784
0.786327 0.763323 0.317273
0.000000 0.000000 0.511286
0.093956 0.000000 0.508287
0.244803 0.000000 0.505386
0.384778 0.000000 0.502694
0.513843 0.000000 0.500212
0.632713 0.000000 0.497926
0.742274 0.000000 0.495818
0.843409 0.000000 0.493873
0.000000 0.084549 0.501473
0.084142 0.081550 0.498474
0.234990 0.078648 0.495573
0.374965 0.075956 0.492881
0.504029 0.073474 0.490398
0.622900 0.071188 0.488112
0.732461 0.069081 0.486005
0.833596 0.067136 0.484060
0.000000 0.224610 0.491979
0.074649 0.221611 0.488980
0.225496 0.218710 0.486079
0.365471 0.216018 0.483387
0.494536 0.213536 0.480905
0.613406 0.211250 0.478619
0.722967 0.209142 0.476511
0.824102 0.207197 0.474566
0.000000 0.354577 0.483170
0.065839 0.351578 0.480171
0.216687 0.348677 0.477270
0.356662 0.345985 0.474578
0.485726 0.343503 0.472095
0.604597 0.341216 0.469809
0.714158 0.339109 0.467702
0.815293 0.337164 0.465757
0.000000 0.474414 0.475047
0.057717 0.471415 0.472048
0.208564 0.468513 0.469147
0.348539 0.465821 0.466455
0.477604 0.463339 0.463973
0.596474 0.461053 0.461686
0.706035 0.458946 0.459579
0.807170 0.457001 0.457634
0.000000 0.584785 0.467566
0.050235 0.581786 0.464567
0.201083 0.578885 0.461666
0.341058 0.576193 0.458974
0.470122 0.573710 0.456491
0.588993 0.571424 0.454205
0.698554 0.569317 0.452098
0.799689 0.567372 0.450153
0.000000 0.686512 0.460671
0.043340 0.683513 0.457672
0.194187 0.680612 0.454770
0.334163 0.677920 0.452078
0.463227 0.675438 0.449596
0.582098 0.673152 0.447310
0.691659 0.671044 0.445203
0.792794 0.669099 0.443258
0.000000 0.780416 0.454306
0.036975 0.777417 0.451307
0.187822 0.774516 0.448405
0.327798 0.771824 0.445713
0.456862 0.769342 0.443231
0.575913 0.766964 0.441316
0.685773 0.764453 0.442332
0.785496 0.762591 0.443726
0.000000 0.000000 0.628529
0.093200 0.000000 0.625530
0.244047 0.000000 0.622629
0.384022 0.000000 0.619937
0.513087 0.000000 0.617455
0.631957 0.000000 0.615169
0.741518 0.000000 0.613062
0.842653 0.000000 0.611116
0.000000 0.083792 0.618716
0.083386 0.080793 0.615717
0.234234 0.077892 0.612816
0.374209 0.075200 0.610124
0.503273 0.072718 0.607642
0.622144 0.070432 0.605355
0.731705 0.068324 0.603248
0.832840 0.066379 0.601303
0.000000 0.223854 0.609222
0.073893 0.220855 0.606223
0.224740 0.217954 0.603322
0.364715 0.215262 0.600630
0.493780 0.212780 0.598148
0.612650 0.210493 0.595862
0.722211 0.208386 0.593754
0.823346 0.206441 0.591809
0.000000 0.353821 0.600413
0.065083 0.350822 0.597414
0.215931 0.347921 0.594513
0.355906 0.345229 0.591821
0.484970 0.342746 0.589338
0.603841 0.340460 0.587052
0.713402 0.338353 0.584945
0.814537 0.336408 0.583000
0.000000 0.473657 0.592290
0.056960 0.470658 0.589291
0.207808 0.467757 0.586390
0.347783 0.465065 0.583698
0.476847 0.462583 0.581216
0.595718 0.460297 0.578929
0.705279 0.458189 0.576822
0.806414 0.456244 0.574877
0.000000 0.584029 0.584809
0.049479 0.581030 0.581810
0.200327 0.578129 0.578909
0.340302 0.575436 0.576217
0.469366 0.572954 0.573734
0.588237 0.570668 0.571448
0.697798 0.568561 0.569341
0.798933 0.566616 0.567396
0.000000 0.685756 0.577914
0.042584 0.682757 0.574915
0.193431 0.679856 0.572014
0.333406 0.677164 0.569321
0.462471 0.674682 0.566839
0.581341 0.672395 0.564553
0.690903 0.670288 0.562446
0.792037 0.668343 0.560501
0.000000 0.779660 0.571549
0.036219 0.776661 0.568550
0.187066 0.773760 0.565649
0.327041 0.771068 0.562956
0.456106 0.768585 0.560474
0.575695 0.766004 0.558996
0.685306 0.763677 0.558920
0.784799 0.761985 0.559305
0.000000 0.000000 0.736591
0.092503 0.000000 0.733592
0.243350 0.000000 0.730690
0.383325 0.000000 0.727998
0.512390 0.000000 0.725516
0.631260 0.000000 0.723230
0.740821 0.000000 0.721123
0.841956 0.000000 0.719178
0.000000 0.083095 0.726777
0.082689 0.080096 0.723778
0.233537 0.077195 0.720877
0.373512 0.074503 0.718185
0.502576 0.072021 0.715703
0.621447 0.069735 0.713416
0.731008 0.067628 0.711309
0.832143 0.065682 0.709364
0.000000 0.223157 0.717283
0.073196 0.220158 0.714285
0.224043 0.217257 0.711383
0.364018 0.214565 0.708691
0.493083 0.212083 0.706209
0.611953 0.209796 0.703923
0.721514 0.207689 0.701816
0.822649 0.205744 0.699870
0.000000 0.353124 0.708474
0.064386 0.350125 0.705475
0.215234 0.347224 0.702574
0.355209 0.344532 0.699882
0.484273 0.342050 0.697400
0.603144 0.339763 0.695113
0.712705 0.337656 0.693006
0.813840 0.335711 0.691061
0.000000 0.472960 0.700351
0.056263 0.469961 0.697352
0.207111 0.467060 0.694451
0.347086 0.464368 0.691759
0.476150 0.461886 0.689277
0.595021 0.459600 0.686991
0.704582 0.457493 0.684883
0.805717 0.455547 0.682938
0.000000 0.583332 0.692870
0.048782 0.580333 0.689871
0.199630 0.577432 0.686970
0.339605 0.574739 0.684278
0.468669 0.572257 0.681796
0.587540 0.569971 0.679509
0.697101 0.567864 0.677402
0.798236 0.565919 0.675457
0.000000 0.685059 0.685975
0.041887 0.682060 0.682976
0.192734 0.679159 0.680075
0.332709 0.676467 0.677383
0.461774 0.673985 0.674900
0.580644 0.671698 0.672614
0.690206 0.669591 0.670507
0.791341 0.667646 0.668562
0.000000 0.778963 0.679610
0.035522 0.775964 0.676611
0.186369 0.773063 0.673710
0.326344 0.770371 0.671018
0.455409 0.767888 0.668535
0.575553 0.765178 0.666706
0.684935 0.763020 0.665624
0.784215 0.761485 0.665080
0.000000 0.000000 0.836341
0.091859 0.000000 0.833342
0.242707 0.000000 0.830441
0.382682 0.000000 0.827749
0.511746 0.000000 0.825266
0.630617 0.000000 0.822980
0.740178 0.000000 0.820873
0.841313 0.000000 0.818928
0.000000 0.082452 0.826527
0.082046 0.079453 0.823528
0.232893 0.076552 0.820627
0.372868 0.073860 0.817935
0.501933 0.071378 0.815453
0.620803 0.069091 0.813167
0.730365 0.066984 0.811060
0.831500 0.065039 0.809114
0.000000 0.222514 0.817034
0.072552 0.219515 0.814035
0.223400 0.216614 0.811134
0.363375 0.213922 0.808441
0.492439 0.211439 0.805959
0.611310 0.209153 0.803673
0.720871 0.207046 0.801566
0.822006 0.205101 0.799621
0.000000 0.352481 0.808224
0.063743 0.349482 0.805225
0.214590 0.346581 0.802324
0.354565 0.343888 0.799632
0.483630 0.341406 0.797150
0.602500 0.339120 0.794864
0.712061 0.337013 0.792756
0.813196 0.335068 0.790811
0.000000 0.472317 0.800102
0.055620 0.469318 0.797103
0.206468 0.466417 0.794201
0.346443 0.463725 0.791509
0.475507 0.461243 0.789027
0.594378 0.458956 0.786741
0.703939 0.456849 0.784634
0.805074 0.454904 0.782689
0.000000 0.582688 0.792620
0.048139 0.579689 0.789621
0.198986 0.576788 0.786720
0.338961 0.574096 0.784028
0.468026 0.571614 0.781546
0.586896 0.569328 0.779260
0.696458 0.567220 0.777152
0.797592 0.565275 0.775207
0.000000 0.684416 0.785725
0.041244 0.681417 0.782726
0.192091 0.678516 0.779825
0.332066 0.675824 0.777133
0.461131 0.673341 0.774651
0.580001 0.671055 0.772364
0.689562 0.668948 0.770257
0.790669 0.667013 0.768291
0.000000 0.778320 0.779360
0.034879 0.775321 0.776361
0.185726 0.772419 0.773460
0.325701 0.769727 0.770768
0.454875 0.767216 0.768256
0.575472 0.764464 0.765492
0.684641 0.762464 0.763481
0.783726 0.761073 0.762079
