Plugins/FilmEmulator/Content/LUTs/FE_Ref_KinetoscopeBW_64.cube
TITLE "FE_Ref_KinetoscopeBW"
LUT_3D_SIZE 8
DOMAIN_MIN 0.0 0.0 0.0
DOMAIN_MAX 1.0 1.0 1.0
0.016899 0.016899 0.016899
0.042106 0.042106 0.042106
0.066858 0.066858 0.066858
0.090156 0.090156 0.090156
0.111924 0.111924 0.111924
0.132221 0.132221 0.132221
0.151144 0.151144 0.151144
0.168796 0.168796 0.168796
0.101696 0.101696 0.101696
0.126903 0.126903 0.126903
0.151655 0.151655 0.151655
0.174953 0.174953 0.174953
0.196721 0.196721 0.196721
0.217018 0.217018 0.217018
0.235940 0.235940 0.235940
0.253593 0.253593 0.253593
0.184964 0.184964 0.184964
0.210170 0.210170 0.210170
0.234922 0.234922 0.234922
0.258220 0.258220 0.258220
0.279988 0.279988 0.279988
0.300285 0.300285 0.300285
0.319208 0.319208 0.319208
0.336860 0.336860 0.336860
0.263338 0.263338 0.263338
0.288544 0.288544 0.288544
0.313296 0.313296 0.313296
0.336594 0.336594 0.336594
0.358362 0.358362 0.358362
0.378659 0.378659 0.378659
0.397582 0.397582 0.397582
0.415234 0.415234 0.415234
0.336568 0.336568 0.336568
0.361775 0.361775 0.361775
0.386527 0.386527 0.386527
0.409824 0.409824 0.409824
0.431592 0.431592 0.431592
0.451890 0.451890 0.451890
0.470812 0.470812 0.470812
0.488465 0.488465 0.488465
0.404849 0.404849 0.404849
0.430056 0.430056 0.430056
0.454808 0.454808 0.454808
0.478105 0.478105 0.478105
0.499874 0.499874 0.499874
0.520171 0.520171 0.520171
0.539093 0.539093 0.539093
0.556746 0.556746 0.556746
0.468505 0.468505 0.468505
0.493712 0.493712 0.493712
0.518464 0.518464 0.518464
0.541761 0.541761 0.541761
0.563530 0.563530 0.563530
0.583827 0.583827 0.583827
0.602749 0.602749 0.602749
0.620402 0.620402 0.620402
0.527890 0.527890 0.527890
0.553097 0.553097 0.553097
0.577849 0.577849 0.577849
0.601146 0.601146 0.601146
0.622914 0.622914 0.622914
0.643212 0.643212 0.643212
0.662134 0.662134 0.662134
0.679787 0.679787 0.679787
0.025460 0.025460 0.025460
0.050666 0.050666 0.050666
0.075418 0.075418 0.075418
0.098716 0.098716 0.098716
0.120484 0.120484 0.120484
0.140782 0.140782 0.140782
0.159704 0.159704 0.159704
0.177357 0.177357 0.177357
0.110257 0.110257 0.110257
0.135463 0.135463 0.135463
0.160215 0.160215 0.160215
0.183513 0.183513 0.183513
0.205281 0.205281 0.205281
0.225579 0.225579 0.225579
0.244501 0.244501 0.244501
0.262154 0.262154 0.262154
0.193524 0.193524 0.193524
0.218731 0.218731 0.218731
0.243483 0.243483 0.243483
0.266780 0.266780 0.266780
0.288548 0.288548 0.288548
0.308846 0.308846 0.308846
0.327768 0.327768 0.327768
0.345421 0.345421 0.345421
0.271898 0.271898 0.271898
0.297105 0.297105 0.297105
0.321857 0.321857 0.321857
0.345154 0.345154 0.345154
0.366922 0.366922 0.366922
0.387220 0.387220 0.387220
0.406142 0.406142 0.406142
0.423795 0.423795 0.423795
0.345128 0.345128 0.345128
0.370335 0.370335 0.370335
0.395087 0.395087 0.395087
0.418384 0.418384 0.418384
0.440153 0.440153 0.440153
0.460450 0.460450 0.460450
0.479372 0.479372 0.479372
0.497025 0.497025 0.497025
0.413410 0.413410 0.413410
0.438616 0.438616 0.438616
0.463368 0.463368 0.463368
0.486666 0.486666 0.486666
0.508434 0.508434 0.508434
0.528731 0.528731 0.528731
0.547654 0.547654 0.547654
0.565306 0.565306 0.565306
0.477065 0.477065 0.477065
0.502272 0.502272 0.502272
0.527024 0.527024 0.527024
0.550321 0.550321 0.550321
0.572090 0.572090 0.572090
0.592387 0.592387 0.592387
0.611309 0.611309 0.611309
0.628962 0.628962 0.628962
0.536450 0.536450 0.536450
0.561657 0.561657 0.561657
0.586409 0.586409 0.586409
0.609706 0.609706 0.609706
0.631475 0.631475 0.631475
0.651772 0.651772 0.651772
0.670694 0.670694 0.670694
0.688347 0.688347 0.688347
0.033866 0.033866 0.033866
0.059072 0.059072 0.059072
0.083824 0.083824 0.083824
0.107122 0.107122 0.107122
0.128890 0.128890 0.128890
0.149187 0.149187 0.149187
0.168110 0.168110 0.168110
0.185762 0.185762 0.185762
0.118663 0.118663 0.118663
0.143869 0.143869 0.143869
0.168621 0.168621 0.168621
0.191919 0.191919 0.191919
0.213687 0.213687 0.213687
0.233984 0.233984 0.233984
0.252907 0.252907 0.252907
0.270559 0.270559 0.270559
0.201930 0.201930 0.201930
0.227136 0.227136 0.227136
0.251888 0.251888 0.251888
0.275186 0.275186 0.275186
0.296954 0.296954 0.296954
0.317252 0.317252 0.317252
0.336174 0.336174 0.336174
0.353827 0.353827 0.353827
0.280304 0.280304 0.280304
0.305511 0.305511 0.305511
0.330262 0.330262 0.330262
0.353560 0.353560 0.353560
0.375328 0.375328 0.375328
0.395626 0.395626 0.395626
0.414548 0.414548 0.414548
0.432201 0.432201 0.432201
0.353534 0.353534 0.353534
0.378741 0.378741 0.378741
0.403493 0.403493 0.403493
0.426790 0.426790 0.426790
0.448559 0.448559 0.448559
0.468856 0.468856 0.468856
0.487778 0.487778 0.487778
0.505431 0.505431 0.505431
0.421815 0.421815 0.421815
0.447022 0.447022 0.447022
0.471774 0.471774 0.471774
0.495072 0.495072 0.495072
0.516840 0.516840 0.516840
0.537137 0.537137 0.537137
0.556060 0.556060 0.556060
0.573712 0.573712 0.573712
0.485471 0.485471 0.485471
0.510678 0.510678 0.510678
0.535430 0.535430 0.535430
0.558727 0.558727 0.558727
0.580496 0.580496 0.580496
0.600793 0.600793 0.600793
0.619715 0.619715 0.619715
0.637368 0.637368 0.637368
0.544856 0.544856 0.544856
0.570063 0.570063 0.570063
0.594815 0.594815 0.594815
0.618112 0.618112 0.618112
0.639881 0.639881 0.639881
0.660178 0.660178 0.660178
0.679100 0.679100 0.679100
0.696753 0.696753 0.696753
0.041778 0.041778 0.041778
0.066984 0.066984 0.066984
0.091736 0.091736 0.091736
0.115034 0.115034 0.115034
0.136802 0.136802 0.136802
0.157099 0.157099 0.157099
0.176022 0.176022 0.176022
0.193674 0.193674 0.193674
0.126575 0.126575 0.126575
0.151781 0.151781 0.151781
0.176533 0.176533 0.176533
0.199831 0.199831 0.199831
0.221599 0.221599 0.221599
0.241896 0.241896 0.241896
0.260819 0.260819 0.260819
0.278471 0.278471 0.278471
0.209842 0.209842 0.209842
0.235048 0.235048 0.235048
0.259800 0.259800 0.259800
0.283098 0.283098 0.283098
0.304866 0.304866 0.304866
0.325163 0.325163 0.325163
0.344086 0.344086 0.344086
0.361738 0.361738 0.361738
0.288216 0.288216 0.288216
0.313422 0.313422 0.313422
0.338174 0.338174 0.338174
0.361472 0.361472 0.361472
0.383240 0.383240 0.383240
0.403538 0.403538 0.403538
0.422460 0.422460 0.422460
0.440113 0.440113 0.440113
0.361446 0.361446 0.361446
0.386653 0.386653 0.386653
0.411405 0.411405 0.411405
0.434702 0.434702 0.434702
0.456471 0.456471 0.456471
0.476768 0.476768 0.476768
0.495690 0.495690 0.495690
0.513343 0.513343 0.513343
0.429727 0.429727 0.429727
0.454934 0.454934 0.454934
0.479686 0.479686 0.479686
0.502984 0.502984 0.502984
0.524752 0.524752 0.524752
0.545049 0.545049 0.545049
0.563971 0.563971 0.563971
0.581624 0.581624 0.581624
0.493383 0.493383 0.493383
0.518590 0.518590 0.518590
0.543342 0.543342 0.543342
0.566639 0.566639 0.566639
0.588408 0.588408 0.588408
0.608705 0.608705 0.608705
0.627627 0.627627 0.627627
0.645280 0.645280 0.645280
0.552768 0.552768 0.552768
0.577975 0.577975 0.577975
0.602727 0.602727 0.602727
0.626024 0.626024 0.626024
0.647793 0.647793 0.647793
0.668090 0.668090 0.668090
0.687012 0.687012 0.687012
0.704665 0.704665 0.704665
0.049170 0.049170 0.049170
0.074377 0.074377 0.074377
0.099129 0.099129 0.099129
0.122426 0.122426 0.122426
0.144195 0.144195 0.144195
0.164492 0.164492 0.164492
0.183414 0.183414 0.183414
0.201067 0.201067 0.201067
0.133967 0.133967 0.133967
0.159174 0.159174 0.159174
0.183926 0.183926 0.183926
0.207223 0.207223 0.207223
0.228992 0.228992 0.228992
0.249289 0.249289 0.249289
0.268211 0.268211 0.268211
0.285864 0.285864 0.285864
0.217234 0.217234 0.217234
0.242441 0.242441 0.242441
0.267193 0.267193 0.267193
0.290490 0.290490 0.290490
0.312259 0.312259 0.312259
0.332556 0.332556 0.332556
0.351478 0.351478 0.351478
0.369131 0.369131 0.369131
0.295608 0.295608 0.295608
0.320815 0.320815 0.320815
0.345567 0.345567 0.345567
0.368865 0.368865 0.368865
0.390633 0.390633 0.390633
0.410930 0.410930 0.410930
0.429852 0.429852 0.429852
0.447505 0.447505 0.447505
0.368839 0.368839 0.368839
0.394045 0.394045 0.394045
0.418797 0.418797 0.418797
0.442095 0.442095 0.442095
0.463863 0.463863 0.463863
0.484160 0.484160 0.484160
0.503083 0.503083 0.503083
0.520735 0.520735 0.520735
0.437120 0.437120 0.437120
0.462327 0.462327 0.462327
0.487079 0.487079 0.487079
0.510376 0.510376 0.510376
0.532145 0.532145 0.532145
0.552442 0.552442 0.552442
0.571364 0.571364 0.571364
0.589017 0.589017 0.589017
0.500776 0.500776 0.500776
0.525983 0.525983 0.525983
0.550734 0.550734 0.550734
0.574032 0.574032 0.574032
0.595800 0.595800 0.595800
0.616098 0.616098 0.616098
0.635020 0.635020 0.635020
0.652673 0.652673 0.652673
0.560161 0.560161 0.560161
0.585367 0.585367 0.585367
0.610119 0.610119 0.610119
0.633417 0.633417 0.633417
0.655185 0.655185 0.655185
0.675482 0.675482 0.675482
0.694405 0.694405 0.694405
0.712057 0.712057 0.712057
0.056063 0.056063 0.056063
0.081270 0.081270 0.081270
0.106022 0.106022 0.106022
0.129319 0.129319 0.129319
0.151088 0.151088 0.151088
0.171385 0.171385 0.171385
0.190307 0.190307 0.190307
0.207960 0.207960 0.207960
0.140860 0.140860 0.140860
0.166067 0.166067 0.166067
0.190819 0.190819 0.190819
0.214116 0.214116 0.214116
0.235885 0.235885 0.235885
0.256182 0.256182 0.256182
0.275104 0.275104 0.275104
0.292757 0.292757 0.292757
0.224127 0.224127 0.224127
0.249334 0.249334 0.249334
0.274086 0.274086 0.274086
0.297383 0.297383 0.297383
0.319152 0.319152 0.319152
0.339449 0.339449 0.339449
0.358371 0.358371 0.358371
0.376024 0.376024 0.376024
0.302501 0.302501 0.302501
0.327708 0.327708 0.327708
0.352460 0.352460 0.352460
0.375758 0.375758 0.375758
0.397526 0.397526 0.397526
0.417823 0.417823 0.417823
0.436746 0.436746 0.436746
0.454398 0.454398 0.454398
0.375732 0.375732 0.375732
0.400938 0.400938 0.400938
0.425690 0.425690 0.425690
0.448988 0.448988 0.448988
0.470756 0.470756 0.470756
0.491054 0.491054 0.491054
0.509976 0.509976 0.509976
0.527629 0.527629 0.527629
0.444013 0.444013 0.444013
0.469220 0.469220 0.469220
0.493972 0.493972 0.493972
0.517269 0.517269 0.517269
0.539038 0.539038 0.539038
0.559335 0.559335 0.559335
0.578257 0.578257 0.578257
0.595910 0.595910 0.595910
0.507669 0.507669 0.507669
0.532876 0.532876 0.532876
0.557628 0.557628 0.557628
0.580925 0.580925 0.580925
0.602693 0.602693 0.602693
0.622991 0.622991 0.622991
0.641913 0.641913 0.641913
0.659566 0.659566 0.659566
0.567054 0.567054 0.567054
0.592260 0.592260 0.592260
0.617012 0.617012 0.617012
0.640310 0.640310 0.640310
0.662078 0.662078 0.662078
0.682376 0.682376 0.682376
0.701298 0.701298 0.701298
0.718951 0.718951 0.718951
0.062489 0.062489 0.062489
0.087696 0.087696 0.087696
0.112448 0.112448 0.112448
0.135745 0.135745 0.135745
0.157514 0.157514 0.157514
0.177811 0.177811 0.177811
0.196733 0.196733 0.196733
0.214386 0.214386 0.214386
0.147286 0.147286 0.147286
0.172493 0.172493 0.172493
0.197245 0.197245 0.197245
0.220542 0.220542 0.220542
0.242311 0.242311 0.242311
0.262608 0.262608 0.262608
0.281530 0.281530 0.281530
0.299183 0.299183 0.299183
0.230553 0.230553 0.230553
0.255760 0.255760 0.255760
0.280512 0.280512 0.280512
0.303810 0.303810 0.303810
0.325578 0.325578 0.325578
0.345875 0.345875 0.345875
0.364798 0.364798 0.364798
0.382450 0.382450 0.382450
0.308928 0.308928 0.308928
0.334134 0.334134 0.334134
0.358886 0.358886 0.358886
0.382184 0.382184 0.382184
0.403952 0.403952 0.403952
0.424249 0.424249 0.424249
0.443172 0.443172 0.443172
0.460824 0.460824 0.460824
0.382158 0.382158 0.382158
0.407365 0.407365 0.407365
0.432116 0.432116 0.432116
0.455414 0.455414 0.455414
0.477182 0.477182 0.477182
0.497480 0.497480 0.497480
0.516402 0.516402 0.516402
0.534055 0.534055 0.534055
0.450439 0.450439 0.450439
0.475646 0.475646 0.475646
0.500398 0.500398 0.500398
0.523695 0.523695 0.523695
0.545464 0.545464 0.545464
0.565761 0.565761 0.565761
0.584683 0.584683 0.584683
0.602336 0.602336 0.602336
0.514095 0.514095 0.514095
0.539302 0.539302 0.539302
0.564054 0.564054 0.564054
0.587351 0.587351 0.587351
0.609119 0.609119 0.609119
0.629417 0.629417 0.629417
0.648339 0.648339 0.648339
0.665992 0.665992 0.665992
0.573480 0.573480 0.573480
0.598687 0.598687 0.598687
0.623439 0.623439 0.623439
0.646736 0.646736 0.646736
0.668504 0.668504 0.668504
0.688802 0.688802 0.688802
0.707724 0.707724 0.707724
0.725377 0.725377 0.725377
0.068484 0.068484 0.068484
0.093691 0.093691 0.093691
0.118443 0.118443 0.118443
0.141740 0.141740 0.141740
0.163509 0.163509 0.163509
0.183806 0.183806 0.183806
0.202728 0.202728 0.202728
0.220381 0.220381 0.220381
0.153281 0.153281 0.153281
0.178488 0.178488 0.178488
0.203240 0.203240 0.203240
0.226537 0.226537 0.226537
0.248306 0.248306 0.248306
0.268603 0.268603 0.268603
0.287525 0.287525 0.287525
0.305178 0.305178 0.305178
0.236548 0.236548 0.236548
0.261755 0.261755 0.261755
0.286507 0.286507 0.286507
0.309805 0.309805 0.309805
0.331573 0.331573 0.331573
0.351870 0.351870 0.351870
0.370793 0.370793 0.370793
0.388445 0.388445 0.388445
0.314923 0.314923 0.314923
0.340129 0.340129 0.340129
0.364881 0.364881 0.364881
0.388179 0.388179 0.388179
0.409947 0.409947 0.409947
0.430244 0.430244 0.430244
0.449167 0.449167 0.449167
0.466819 0.466819 0.466819
0.388153 0.388153 0.388153
0.413359 0.413359 0.413359
0.438111 0.438111 0.438111
0.461409 0.461409 0.461409
0.483177 0.483177 0.483177
0.503475 0.503475 0.503475
0.522397 0.522397 0.522397
0.540050 0.540050 0.540050
0.456434 0.456434 0.456434
0.481641 0.481641 0.481641
0.506393 0.506393 0.506393
0.529690 0.529690 0.529690
0.551459 0.551459 0.551459
0.571756 0.571756 0.571756
0.590678 0.590678 0.590678
0.608331 0.608331 0.608331
0.520090 0.520090 0.520090
0.545297 0.545297 0.545297
0.570049 0.570049 0.570049
0.593346 0.593346 0.593346
0.615114 0.615114 0.615114
0.635412 0.635412 0.635412
0.654334 0.654334 0.654334
0.671987 0.671987 0.671987
0.579475 0.579475 0.579475
0.604682 0.604682 0.604682
0.629433 0.629433 0.629433
0.652731 0.652731 0.652731
0.674499 0.674499 0.674499
0.694797 0.694797 0.694797
0.713719 0.713719 0.713719
0.731372 0.731372 0.731372
