Plugins/FilmEmulator/Content/LUTs/FE_Ref_Super8_64.cube
TITLE "FE_Ref_Super8"
LUT_3D_SIZE 4
DOMAIN_MIN 0.0 0.0 0.0
DOMAIN_MAX 1.0 1.0 1.0
0.000000 0.000000 0.000000
0.308181 0.000000 0.000000
0.601175 0.000000 0.000000
0.845608 0.000000 0.000000
0.000000 0.281618 0.000000
0.281492 0.273475 0.000000
0.574486 0.266480 0.000000
0.818919 0.260643 0.000000
0.000000 0.550978 0.000000
0.258563 0.542836 0.000000
0.551557 0.535840 0.000000
0.795990 0.530004 0.000000
0.000000 0.775694 0.000000
0.239434 0.767552 0.000000
0.532428 0.760556 0.000000
0.776861 0.754720 0.000000
0.000000 0.000000 0.310672
0.305441 0.000000 0.302530
0.598436 0.000000 0.295534
0.842869 0.000000 0.289698
0.000000 0.278878 0.283984
0.278753 0.270736 0.275841
0.571747 0.263740 0.268846
0.816180 0.257904 0.263009
0.000000 0.548239 0.261054
0.255823 0.540096 0.252912
0.548817 0.533101 0.245916
0.793250 0.527264 0.240080
0.000000 0.772955 0.241925
0.236694 0.764813 0.233782
0.529688 0.757817 0.226787
0.773610 0.751672 0.225514
0.000000 0.000000 0.605512
0.303088 0.000000 0.597370
0.596082 0.000000 0.590374
0.840515 0.000000 0.584538
0.000000 0.276524 0.578823
0.276399 0.268382 0.570681
0.569393 0.261386 0.563685
0.813826 0.255550 0.557849
0.000000 0.545885 0.555894
0.253470 0.537743 0.547751
0.546464 0.530747 0.540756
0.790897 0.524911 0.534920
0.000000 0.770601 0.536765
0.234341 0.762459 0.528622
0.527335 0.755463 0.521627
0.771125 0.749399 0.519941
0.000000 0.000000 0.851485
0.301124 0.000000 0.843342
0.594119 0.000000 0.836347
0.838551 0.000000 0.830511
0.000000 0.274561 0.824796
0.274436 0.266419 0.816654
0.567430 0.259423 0.809658
0.811863 0.253587 0.803822
0.000000 0.543922 0.801866
0.251506 0.535779 0.793724
0.544500 0.528784 0.786728
0.788933 0.522947 0.780892
0.000000 0.768638 0.782737
0.232377 0.760495 0.774595
0.525915 0.753357 0.767414
0.769366 0.747817 0.761540
