Plugins/FilmEmulator/Content/LUTs/FE_Ref_8mm_64.cube
TITLE "FE_Ref_8mm"
LUT_3D_SIZE 4
DOMAIN_MIN 0.0 0.0 0.0
DOMAIN_MAX 1.0 1.0 1.0
0.000000 0.000000 0.000000
0.296363 0.000000 0.000000
0.597832 0.000000 0.000000
0.847072 0.000000 0.000000
0.000000 0.272745 0.000000
0.274041 0.265924 0.000000
0.575510 0.260126 0.000000
0.824751 0.255332 0.000000
0.000000 0.552659 0.000000
0.255068 0.545838 0.000000
0.556537 0.540040 0.000000
0.805778 0.535246 0.000000
0.000000 0.784079 0.000000
0.239382 0.777258 0.000000
0.540851 0.771460 0.000000
0.789807 0.766462 0.000000
0.000000 0.000000 0.293171
0.294107 0.000000 0.286350
0.595576 0.000000 0.280552
0.844816 0.000000 0.275758
0.000000 0.270489 0.270850
0.271785 0.263668 0.264028
0.573254 0.257870 0.258230
0.822495 0.253076 0.253437
0.000000 0.550403 0.251876
0.252812 0.543582 0.245055
0.554281 0.537784 0.239257
0.803522 0.532990 0.234463
0.000000 0.781823 0.236190
0.237126 0.775002 0.229369
0.538595 0.769203 0.223571
0.786968 0.763894 0.226444
0.000000 0.000000 0.590513
0.292189 0.000000 0.583691
0.593658 0.000000 0.577893
0.842898 0.000000 0.573100
0.000000 0.268571 0.568191
0.269867 0.261750 0.561370
0.571336 0.255952 0.555572
0.820577 0.251158 0.550778
0.000000 0.548485 0.549218
0.250894 0.541664 0.542397
0.552363 0.535866 0.536599
0.801604 0.531072 0.531805
0.000000 0.779905 0.533532
0.235208 0.773084 0.526710
0.536716 0.767270 0.520955
0.785018 0.762174 0.521921
0.000000 0.000000 0.836341
0.290603 0.000000 0.829519
0.592072 0.000000 0.823721
0.841313 0.000000 0.818928
0.000000 0.266986 0.814019
0.268282 0.260164 0.807198
0.569751 0.254366 0.801400
0.818991 0.249573 0.796606
0.000000 0.546900 0.795046
0.249309 0.540078 0.788225
0.550778 0.534280 0.782427
0.800018 0.529487 0.777633
0.000000 0.778320 0.779360
0.233623 0.771498 0.772539
0.536613 0.765290 0.766322
0.783726 0.761073 0.762079
