Plugins/FilmEmulator/Content/LUTs/FE_Ref_35mm_64.cube
TITLE "FE_Ref_35mm"
LUT_3D_SIZE 4
DOMAIN_MIN 0.0 0.0 0.0
DOMAIN_MAX 1.0 1.0 1.0
0.000000 0.000000 0.000000
0.252418 0.000000 0.000000
0.503247 0.000000 0.000000
0.711879 0.000000 0.000000
0.000000 0.264990 0.000000
0.270308 0.270308 0.000000
0.521138 0.274861 0.000000
0.729769 0.278648 0.000000
0.000000 0.526583 0.000000
0.285624 0.531901 0.000000
0.536454 0.536454 0.002510
0.745085 0.540241 0.006297
0.005378 0.744167 0.005378
0.298364 0.749485 0.010696
0.549194 0.754038 0.015249
0.757705 0.757705 0.020573
0.000000 0.000000 0.248906
0.254224 0.000000 0.254224
0.505053 0.000000 0.258777
0.713685 0.000000 0.262564
0.000000 0.266796 0.266796
0.272114 0.272114 0.272114
0.522944 0.276667 0.276667
0.731575 0.280454 0.280454
0.000000 0.528389 0.282112
0.287430 0.533707 0.287430
0.538260 0.538260 0.291983
0.746892 0.542047 0.295770
0.007184 0.745973 0.294852
0.300170 0.751291 0.300170
0.551000 0.755844 0.304723
0.759190 0.759190 0.314173
0.000000 0.000000 0.496729
0.255770 0.000000 0.502047
0.506600 0.000000 0.506600
0.715231 0.000000 0.510387
0.000000 0.268342 0.514619
0.273660 0.273660 0.519937
0.524490 0.278213 0.524490
0.733121 0.282000 0.528277
0.000000 0.529935 0.529935
0.288977 0.535253 0.535253
0.539806 0.539806 0.539806
0.748438 0.543593 0.543593
0.008731 0.747519 0.542675
0.301716 0.752837 0.547993
0.552546 0.757390 0.552546
0.760834 0.760834 0.560741
0.000000 0.000000 0.702859
0.257056 0.000000 0.708177
0.507886 0.000000 0.712730
0.716517 0.000000 0.716517
0.000000 0.269628 0.720750
0.274946 0.274946 0.726068
0.525776 0.279499 0.730621
0.734408 0.283286 0.734408
0.000000 0.531221 0.736066
0.290263 0.536539 0.741384
0.541092 0.541092 0.745937
0.749724 0.544879 0.749724
0.010017 0.748805 0.748805
0.303002 0.754123 0.754123
0.555052 0.758347 0.758347
0.762463 0.762463 0.762463
