Plugins/FilmEmulator/Content/LUTs/FE_Ref_Super8_64.cube
TITLE "FE_Ref_Super8"
LUT_3D_SIZE 64
DOMAIN_MIN 0.0 0.0 0.0
DOMAIN_MAX 1.0 1.0 1.0
0.000000 0.000000 0.000000
0.000000 0.000000 0.000000
0.000000 0.000000 0.000000
0.015857 0.000000 0.000000
0.032682 0.000000 0.000000
0.049539 0.000000 0.000000
0.066384 0.000000 0.000000
0.083189 0.000000 0.000000
0.099931 0.000000 0.000000
0.116597 0.000000 0.000000
0.133175 0.000000 0.000000
0.149657 0.000000 0.000000
0.166035 0.000000 0.000000
0.182304 0.000000 0.000000
0.198460 0.000000 0.000000
0.214499 0.000000 0.000000
0.230420 0.000000 0.000000
0.246219 0.000000 0.000000
0.261896 0.000000 0.000000
0.277449 0.000000 0.000000
0.292878 0.000000 0.000000
0.308181 0.000000 0.000000
0.323358 0.000000 0.000000
0.338410 0.000000 0.000000
0.353337 0.000000 0.000000
0.368138 0.000000 0.000000
0.382813 0.000000 0.000000
0.397364 0.000000 0.000000
0.411791 0.000000 0.000000
0.426095 0.000000 0.000000
0.440275 0.000000 0.000000
0.454334 0.000000 0.000000
0.468271 0.000000 0.000000
0.482087 0.000000 0.000000
0.495785 0.000000 0.000000
0.509363 0.000000 0.000000
0.522824 0.000000 0.000000
0.536168 0.000000 0.000000
0.549397 0.000000 0.000000
0.562511 0.000000 0.000000
0.575511 0.000000 0.000000
0.588399 0.000000 0.000000
0.601175 0.000000 0.000000
0.613841 0.000000 0.000000
0.626397 0.000000 0.000000
0.638845 0.000000 0.000000
0.651186 0.000000 0.000000
0.663421 0.000000 0.000000
0.675551 0.000000 0.000000
0.687576 0.000000 0.000000
0.699499 0.000000 0.000000
0.711320 0.000000 0.000000
0.723040 0.000000 0.000000
0.734660 0.000000 0.000000
0.746182 0.000000 0.000000
0.757606 0.000000 0.000000
0.768934 0.000000 0.000000
0.780166 0.000000 0.000000
0.791303 0.000000 0.000000
0.802347 0.000000 0.000000
0.813299 0.000000 0.000000
0.824159 0.000000 0.000000
0.834928 0.000000 0.000000
0.845608 0.000000 0.000000
0.000000 0.000000 0.000000
0.000000 0.000000 0.000000
0.000000 0.000000 0.000000
0.014642 0.000000 0.000000
0.031467 0.000000 0.000000
0.048324 0.000000 0.000000
0.065169 0.000000 0.000000
0.081973 0.000000 0.000000
0.098716 0.000000 0.000000
0.115382 0.000000 0.000000
0.131960 0.000000 0.000000
0.148441 0.000000 0.000000
0.164819 0.000000 0.000000
0.181088 0.000000 0.000000
0.197244 0.000000 0.000000
0.213284 0.000000 0.000000
0.229205 0.000000 0.000000
0.245004 0.000000 0.000000
0.260681 0.000000 0.000000
0.276234 0.000000 0.000000
0.291663 0.000000 0.000000
0.306966 0.000000 0.000000
0.322143 0.000000 0.000000
0.337195 0.000000 0.000000
0.352121 0.000000 0.000000
0.366922 0.000000 0.000000
0.381598 0.000000 0.000000
0.396149 0.000000 0.000000
0.410576 0.000000 0.000000
0.424879 0.000000 0.000000
0.439060 0.000000 0.000000
0.453118 0.000000 0.000000
0.467056 0.000000 0.000000
0.480872 0.000000 0.000000
0.494569 0.000000 0.000000
0.508148 0.000000 0.000000
0.521609 0.000000 0.000000
0.534953 0.000000 0.000000
0.548182 0.000000 0.000000
0.561296 0.000000 0.000000
0.574296 0.000000 0.000000
0.587184 0.000000 0.000000
0.599960 0.000000 0.000000
0.612626 0.000000 0.000000
0.625182 0.000000 0.000000
0.637630 0.000000 0.000000
0.649971 0.000000 0.000000
0.662206 0.000000 0.000000
0.674335 0.000000 0.000000
0.686361 0.000000 0.000000
0.698284 0.000000 0.000000
0.710105 0.000000 0.000000
0.721825 0.000000 0.000000
0.733445 0.000000 0.000000
0.744967 0.000000 0.000000
0.756391 0.000000 0.000000
0.767719 0.000000 0.000000
0.778951 0.000000 0.000000
0.790088 0.000000 0.000000
0.801132 0.000000 0.000000
0.812083 0.000000 0.000000
0.822943 0.000000 0.000000
0.833713 0.000000 0.000000
0.844393 0.000000 0.000000
0.000000 0.000000 0.000000
0.000000 0.000000 0.000000
0.000000 0.000000 0.000000
0.013354 0.000000 0.000000
0.030179 0.000000 0.000000
0.047036 0.000000 0.000000
0.063881 0.000000 0.000000
0.080685 0.000000 0.000000
0.097428 0.000000 0.000000
0.114094 0.000000 0.000000
0.130672 0.000000 0.000000
0.147153 0.000000 0.000000
0.163531 0.000000 0.000000
0.179800 0.000000 0.000000
0.195956 0.000000 0.000000
0.211996 0.000000 0.000000
0.227917 0.000000 0.000000
0.243716 0.000000 0.000000
0.259393 0.000000 0.000000
0.274946 0.000000 0.000000
0.290375 0.000000 0.000000
0.305678 0.000000 0.000000
0.320855 0.000000 0.000000
0.335907 0.000000 0.000000
0.350834 0.000000 0.000000
0.365634 0.000000 0.000000
0.380310 0.000000 0.000000
0.394861 0.000000 0.000000
0.409288 0.000000 0.000000
0.423591 0.000000 0.000000
0.437772 0.000000 0.000000
0.451830 0.000000 0.000000
0.465768 0.000000 0.000000
0.479584 0.000000 0.000000
0.493281 0.000000 0.000000
0.506860 0.000000 0.000000
0.520321 0.000000 0.000000
0.533665 0.000000 0.000000
0.546894 0.000000 0.000000
0.560008 0.000000 0.000000
0.573008 0.000000 0.000000
0.585896 0.000000 0.000000
0.598672 0.000000 0.000000
0.611338 0.000000 0.000000
0.623894 0.000000 0.000000
0.636342 0.000000 0.000000
0.648683 0.000000 0.000000
0.660918 0.000000 0.000000
0.673047 0.000000 0.000000
0.685073 0.000000 0.000000
0.696996 0.000000 0.000000
0.708817 0.000000 0.000000
0.720537 0.000000 0.000000
0.732157 0.000000 0.000000
0.743679 0.000000 0.000000
0.755103 0.000000 0.000000
0.766431 0.000000 0.000000
0.777663 0.000000 0.000000
0.788800 0.000000 0.000000
0.799844 0.000000 0.000000
0.810795 0.000000 0.000000
0.821655 0.000000 0.000000
0.832425 0.000000 0.000000
0.843105 0.000000 0.000000
0.000000 0.012873 0.000000
0.000000 0.012502 0.000000
0.000000 0.012109 0.000000
0.012045 0.011710 0.000000
0.028870 0.011308 0.000000
0.045727 0.010906 0.000000
0.062573 0.010504 0.000000
0.079377 0.010103 0.000000
0.096120 0.009703 0.000000
0.112786 0.009305 0.000000
0.129364 0.008909 0.000000
0.145845 0.008516 0.000000
0.162223 0.008125 0.000000
0.178492 0.007736 0.000000
0.194648 0.007350 0.000000
0.210688 0.006967 0.000000
0.226608 0.006587 0.000000
0.242408 0.006210 0.000000
0.258085 0.005836 0.000000
0.273638 0.005464 0.000000
0.289066 0.005096 0.000000
0.304369 0.004731 0.000000
0.319547 0.004368 0.000000
0.334599 0.004009 0.000000
0.349525 0.003652 0.000000
0.364326 0.003299 0.000000
0.379002 0.002949 0.000000
0.393553 0.002601 0.000000
0.407980 0.002257 0.000000
0.422283 0.001915 0.000000
0.436464 0.001577 0.000000
0.450522 0.001241 0.000000
0.464459 0.000908 0.000000
0.478276 0.000578 0.000000
0.491973 0.000251 0.000000
0.505552 0.000000 0.000000
0.519013 0.000000 0.000000
0.532357 0.000000 0.000000
0.545585 0.000000 0.000000
0.558699 0.000000 0.000000
0.571700 0.000000 0.000000
0.584587 0.000000 0.000000
0.597364 0.000000 0.000000
0.610029 0.000000 0.000000
0.622586 0.000000 0.000000
0.635034 0.000000 0.000000
0.647375 0.000000 0.000000
0.659609 0.000000 0.000000
0.671739 0.000000 0.000000
0.683765 0.000000 0.000000
0.695687 0.000000 0.000000
0.707508 0.000000 0.000000
0.719228 0.000000 0.000000
0.730849 0.000000 0.000000
0.742371 0.000000 0.000000
0.753795 0.000000 0.000000
0.765122 0.000000 0.000000
0.776354 0.000000 0.000000
0.787492 0.000000 0.000000
0.798536 0.000000 0.000000
0.809487 0.000000 0.000000
0.820347 0.000000 0.000000
0.831117 0.000000 0.000000
0.841796 0.000000 0.000000
0.000000 0.028341 0.000000
0.000000 0.027970 0.000000
0.000000 0.027577 0.000000
0.010729 0.027178 0.000000
0.027554 0.026776 0.000000
0.044411 0.026374 0.000000
0.061256 0.025972 0.000000
0.078060 0.025570 0.000000
0.094803 0.025171 0.000000
0.111469 0.024773 0.000000
0.128047 0.024377 0.000000
0.144528 0.023983 0.000000
0.160906 0.023592 0.000000
0.177175 0.023204 0.000000
0.193331 0.022818 0.000000
0.209371 0.022435 0.000000
0.225292 0.022055 0.000000
0.241091 0.021678 0.000000
0.256768 0.021303 0.000000
0.272321 0.020932 0.000000
0.287750 0.020564 0.000000
0.303053 0.020198 0.000000
0.318230 0.019836 0.000000
0.333282 0.019477 0.000000
0.348208 0.019120 0.000000
0.363009 0.018767 0.000000
0.377685 0.018416 0.000000
0.392236 0.018069 0.000000
0.406663 0.017725 0.000000
0.420966 0.017383 0.000000
0.435147 0.017044 0.000000
0.449205 0.016709 0.000000
0.463143 0.016376 0.000000
0.476959 0.016046 0.000000
0.490656 0.015719 0.000000
0.504235 0.015395 0.000000
0.517696 0.015073 0.000000
0.531040 0.014755 0.000000
0.544269 0.014439 0.000000
0.557383 0.014126 0.000000
0.570383 0.013816 0.000000
0.583271 0.013508 0.000000
0.596047 0.013203 0.000000
0.608713 0.012900 0.000000
0.621269 0.012601 0.000000
0.633717 0.012303 0.000000
0.646058 0.012009 0.000000
0.658293 0.011717 0.000000
0.670422 0.011427 0.000000
0.682448 0.011140 0.000000
0.694371 0.010855 0.000000
0.706192 0.010573 0.000000
0.717912 0.010293 0.000000
0.729532 0.010016 0.000000
0.741054 0.009741 0.000000
0.752478 0.009468 0.000000
0.763806 0.009197 0.000000
0.775038 0.008929 0.000000
0.786175 0.008663 0.000000
0.797219 0.008400 0.000000
0.808170 0.008138 0.000000
0.819030 0.007879 0.000000
0.829800 0.007622 0.000000
0.840480 0.007367 0.000000
0.000000 0.043838 0.000000
0.000000 0.043468 0.000000
0.000000 0.043075 0.000000
0.009409 0.042675 0.000000
0.026234 0.042274 0.000000
0.043092 0.041871 0.000000
0.059937 0.041469 0.000000
0.076741 0.041068 0.000000
0.093484 0.040668 0.000000
0.110150 0.040270 0.000000
0.126728 0.039874 0.000000
0.143209 0.039481 0.000000
0.159587 0.039090 0.000000
0.175856 0.038701 0.000000
0.192012 0.038316 0.000000
0.208052 0.037933 0.000000
0.223972 0.037552 0.000000
0.239772 0.037175 0.000000
0.255449 0.036801 0.000000
0.271002 0.036430 0.000000
0.286430 0.036061 0.000000
0.301733 0.035696 0.000000
0.316911 0.035333 0.000000
0.331963 0.034974 0.000000
0.346889 0.034618 0.000000
0.361690 0.034264 0.000000
0.376366 0.033914 0.000000
0.390917 0.033566 0.000000
0.405344 0.033222 0.000000
0.419647 0.032881 0.000000
0.433828 0.032542 0.000000
0.447886 0.032206 0.000000
0.461823 0.031873 0.000000
0.475640 0.031544 0.000000
0.489337 0.031217 0.000000
0.502916 0.030892 0.000000
0.516377 0.030571 0.000000
0.529721 0.030252 0.000000
0.542949 0.029937 0.000000
0.556063 0.029623 0.000000
0.569064 0.029313 0.000000
0.581951 0.029005 0.000000
0.594728 0.028700 0.000000
0.607393 0.028398 0.000000
0.619950 0.028098 0.000000
0.632398 0.027801 0.000000
0.644739 0.027506 0.000000
0.656973 0.027214 0.000000
0.669103 0.026924 0.000000
0.681129 0.026637 0.000000
0.693052 0.026353 0.000000
0.704872 0.026070 0.000000
0.716593 0.025791 0.000000
0.728213 0.025513 0.000000
0.739735 0.025238 0.000000
0.751159 0.024965 0.000000
0.762486 0.024695 0.000000
0.773718 0.024427 0.000000
0.784856 0.024161 0.000000
0.795900 0.023897 0.000000
0.806851 0.023636 0.000000
0.817711 0.023376 0.000000
0.828481 0.023119 0.000000
0.839161 0.022864 0.000000
0.000000 0.059325 0.000000
0.000000 0.058954 0.000000
0.000000 0.058561 0.000000
0.008091 0.058162 0.000000
0.024916 0.057760 0.000000
0.041773 0.057358 0.000000
0.058619 0.056956 0.000000
0.075423 0.056554 0.000000
0.092165 0.056155 0.000000
0.108831 0.055757 0.000000
0.125410 0.055361 0.000000
0.141891 0.054967 0.000000
0.158269 0.054576 0.000000
0.174538 0.054188 0.000000
0.190694 0.053802 0.000000
0.206733 0.053419 0.000000
0.222654 0.053039 0.000000
0.238454 0.052662 0.000000
0.254130 0.052287 0.000000
0.269684 0.051916 0.000000
0.285112 0.051548 0.000000
0.300415 0.051182 0.000000
0.315593 0.050820 0.000000
0.330645 0.050461 0.000000
0.345571 0.050104 0.000000
0.360372 0.049751 0.000000
0.375048 0.049400 0.000000
0.389599 0.049053 0.000000
0.404025 0.048709 0.000000
0.418329 0.048367 0.000000
0.432509 0.048028 0.000000
0.446568 0.047693 0.000000
0.460505 0.047360 0.000000
0.474322 0.047030 0.000000
0.488019 0.046703 0.000000
0.501597 0.046379 0.000000
0.515058 0.046058 0.000000
0.528403 0.045739 0.000000
0.541631 0.045423 0.000000
0.554745 0.045110 0.000000
0.567745 0.044800 0.000000
0.580633 0.044492 0.000000
0.593409 0.044187 0.000000
0.606075 0.043884 0.000000
0.618631 0.043585 0.000000
0.631080 0.043287 0.000000
0.643420 0.042993 0.000000
0.655655 0.042701 0.000000
0.667785 0.042411 0.000000
0.679810 0.042124 0.000000
0.691733 0.041839 0.000000
0.703554 0.041557 0.000000
0.715274 0.041277 0.000000
0.726895 0.041000 0.000000
0.738416 0.040725 0.000000
0.749840 0.040452 0.000000
0.761168 0.040181 0.000000
0.772400 0.039913 0.000000
0.783537 0.039647 0.000000
0.794581 0.039384 0.000000
0.805533 0.039122 0.000000
0.816393 0.038863 0.000000
0.827162 0.038606 0.000000
0.837842 0.038351 0.000000
0.000000 0.074774 0.000000
0.000000 0.074403 0.000000
0.000000 0.074010 0.000000
0.006776 0.073611 0.000000
0.023601 0.073209 0.000000
0.040458 0.072807 0.000000
0.057303 0.072404 0.000000
0.074108 0.072003 0.000000
0.090850 0.071603 0.000000
0.107516 0.071205 0.000000
0.124094 0.070810 0.000000
0.140576 0.070416 0.000000
0.156954 0.070025 0.000000
0.173223 0.069637 0.000000
0.189379 0.069251 0.000000
0.205418 0.068868 0.000000
0.221339 0.068488 0.000000
0.237139 0.068111 0.000000
0.252815 0.067736 0.000000
0.268368 0.067365 0.000000
0.283797 0.066997 0.000000
0.299100 0.066631 0.000000
0.314278 0.066269 0.000000
0.329330 0.065909 0.000000
0.344256 0.065553 0.000000
0.359057 0.065200 0.000000
0.373732 0.064849 0.000000
0.388283 0.064502 0.000000
0.402710 0.064157 0.000000
0.417014 0.063816 0.000000
0.431194 0.063477 0.000000
0.445253 0.063142 0.000000
0.459190 0.062809 0.000000
0.473007 0.062479 0.000000
0.486704 0.062152 0.000000
0.500282 0.061828 0.000000
0.513743 0.061506 0.000000
0.527088 0.061188 0.000000
0.540316 0.060872 0.000000
0.553430 0.060559 0.000000
0.566430 0.060248 0.000000
0.579318 0.059941 0.000000
0.592094 0.059636 0.000000
0.604760 0.059333 0.000000
0.617316 0.059033 0.000000
0.629764 0.058736 0.000000
0.642105 0.058442 0.000000
0.654340 0.058149 0.000000
0.666470 0.057860 0.000000
0.678495 0.057573 0.000000
0.690418 0.057288 0.000000
0.702239 0.057006 0.000000
0.713959 0.056726 0.000000
0.725580 0.056448 0.000000
0.737101 0.056173 0.000000
0.748525 0.055901 0.000000
0.759853 0.055630 0.000000
0.771085 0.055362 0.000000
0.782222 0.055096 0.000000
0.793266 0.054832 0.000000
0.804218 0.054571 0.000000
0.815078 0.054312 0.000000
0.825847 0.054054 0.000000
0.836527 0.053799 0.000000
0.000000 0.090166 0.000000
0.000000 0.089795 0.000000
0.000000 0.089402 0.000000
0.005466 0.089003 0.000000
0.022291 0.088601 0.000000
0.039148 0.088199 0.000000
0.055993 0.087796 0.000000
0.072797 0.087395 0.000000
0.089540 0.086995 0.000000
0.106206 0.086598 0.000000
0.122784 0.086202 0.000000
0.139266 0.085808 0.000000
0.155643 0.085417 0.000000
0.171913 0.085029 0.000000
0.188069 0.084643 0.000000
0.204108 0.084260 0.000000
0.220029 0.083880 0.000000
0.235828 0.083503 0.000000
0.251505 0.083128 0.000000
0.267058 0.082757 0.000000
0.282487 0.082389 0.000000
0.297790 0.082023 0.000000
0.312967 0.081661 0.000000
0.328019 0.081302 0.000000
0.342946 0.080945 0.000000
0.357746 0.080592 0.000000
0.372422 0.080241 0.000000
0.386973 0.079894 0.000000
0.401400 0.079549 0.000000
0.415704 0.079208 0.000000
0.429884 0.078869 0.000000
0.443942 0.078534 0.000000
0.457880 0.078201 0.000000
0.471696 0.077871 0.000000
0.485394 0.077544 0.000000
0.498972 0.077220 0.000000
0.512433 0.076898 0.000000
0.525777 0.076580 0.000000
0.539006 0.076264 0.000000
0.552120 0.075951 0.000000
0.565120 0.075640 0.000000
0.578008 0.075333 0.000000
0.590784 0.075028 0.000000
0.603450 0.074725 0.000000
0.616006 0.074426 0.000000
0.628454 0.074128 0.000000
0.640795 0.073834 0.000000
0.653030 0.073542 0.000000
0.665159 0.073252 0.000000
0.677185 0.072965 0.000000
0.689108 0.072680 0.000000
0.700929 0.072398 0.000000
0.712649 0.072118 0.000000
0.724269 0.071841 0.000000
0.735791 0.071566 0.000000
0.747215 0.071293 0.000000
0.758543 0.071022 0.000000
0.769775 0.070754 0.000000
0.780912 0.070488 0.000000
0.791956 0.070225 0.000000
0.802907 0.069963 0.000000
0.813767 0.069704 0.000000
0.824537 0.069447 0.000000
0.835217 0.069192 0.000000
0.000000 0.105487 0.000000
0.000000 0.105117 0.000000
0.000000 0.104724 0.000000
0.004161 0.104325 0.000000
0.020986 0.103923 0.000000
0.037844 0.103520 0.000000
0.054689 0.103118 0.000000
0.071493 0.102717 0.000000
0.088236 0.102317 0.000000
0.104902 0.101919 0.000000
0.121480 0.101523 0.000000
0.137961 0.101130 0.000000
0.154339 0.100739 0.000000
0.170608 0.100350 0.000000
0.186764 0.099965 0.000000
0.202804 0.099582 0.000000
0.218724 0.099202 0.000000
0.234524 0.098824 0.000000
0.250201 0.098450 0.000000
0.265754 0.098079 0.000000
0.281182 0.097710 0.000000
0.296485 0.097345 0.000000
0.311663 0.096983 0.000000
0.326715 0.096623 0.000000
0.341641 0.096267 0.000000
0.356442 0.095913 0.000000
0.371118 0.095563 0.000000
0.385669 0.095216 0.000000
0.400096 0.094871 0.000000
0.414399 0.094530 0.000000
0.428580 0.094191 0.000000
0.442638 0.093855 0.000000
0.456575 0.093523 0.000000
0.470392 0.093193 0.000000
0.484089 0.092866 0.000000
0.497668 0.092542 0.000000
0.511129 0.092220 0.000000
0.524473 0.091902 0.000000
0.537702 0.091586 0.000000
0.550815 0.091273 0.000000
0.563816 0.090962 0.000000
0.576703 0.090654 0.000000
0.589480 0.090349 0.000000
0.602145 0.090047 0.000000
0.614702 0.089747 0.000000
0.627150 0.089450 0.000000
0.639491 0.089155 0.000000
0.651725 0.088863 0.000000
0.663855 0.088574 0.000000
0.675881 0.088286 0.000000
0.687804 0.088002 0.000000
0.699624 0.087720 0.000000
0.711345 0.087440 0.000000
0.722965 0.087162 0.000000
0.734487 0.086887 0.000000
0.745911 0.086614 0.000000
0.757238 0.086344 0.000000
0.768470 0.086076 0.000000
0.779608 0.085810 0.000000
0.790652 0.085546 0.000000
0.801603 0.085285 0.000000
0.812463 0.085025 0.000000
0.823233 0.084768 0.000000
0.833913 0.084513 0.000000
0.000000 0.120728 0.000000
0.000000 0.120357 0.000000
0.000000 0.119965 0.000000
0.002864 0.119565 0.000000
0.019689 0.119164 0.000000
0.036546 0.118761 0.000000
0.053392 0.118359 0.000000
0.070196 0.117958 0.000000
0.086938 0.117558 0.000000
0.103604 0.117160 0.000000
0.120182 0.116764 0.000000
0.136664 0.116371 0.000000
0.153042 0.115980 0.000000
0.169311 0.115591 0.000000
0.185467 0.115206 0.000000
0.201506 0.114823 0.000000
0.217427 0.114442 0.000000
0.233227 0.114065 0.000000
0.248903 0.113691 0.000000
0.264457 0.113320 0.000000
0.279885 0.112951 0.000000
0.295188 0.112586 0.000000
0.310366 0.112223 0.000000
0.325418 0.111864 0.000000
0.340344 0.111508 0.000000
0.355145 0.111154 0.000000
0.369821 0.110804 0.000000
0.384372 0.110456 0.000000
0.398798 0.110112 0.000000
0.413102 0.109770 0.000000
0.427282 0.109432 0.000000
0.441341 0.109096 0.000000
0.455278 0.108763 0.000000
0.469095 0.108434 0.000000
0.482792 0.108107 0.000000
0.496370 0.107782 0.000000
0.509831 0.107461 0.000000
0.523176 0.107142 0.000000
0.536404 0.106827 0.000000
0.549518 0.106513 0.000000
0.562518 0.106203 0.000000
0.575406 0.105895 0.000000
0.588182 0.105590 0.000000
0.600848 0.105288 0.000000
0.613404 0.104988 0.000000
0.625852 0.104691 0.000000
0.638193 0.104396 0.000000
0.650428 0.104104 0.000000
0.662558 0.103814 0.000000
0.674583 0.103527 0.000000
0.686506 0.103243 0.000000
0.698327 0.102960 0.000000
0.710047 0.102681 0.000000
0.721668 0.102403 0.000000
0.733189 0.102128 0.000000
0.744613 0.101855 0.000000
0.755941 0.101585 0.000000
0.767173 0.101317 0.000000
0.778310 0.101051 0.000000
0.789354 0.100787 0.000000
0.800306 0.100526 0.000000
0.811166 0.100266 0.000000
0.821935 0.100009 0.000000
0.832615 0.099754 0.000000
0.000000 0.135880 0.000000
0.000000 0.135509 0.000000
0.000000 0.135117 0.000000
0.001574 0.134717 0.000000
0.018399 0.134316 0.000000
0.035256 0.133913 0.000000
0.052102 0.133511 0.000000
0.068906 0.133110 0.000000
0.085649 0.132710 0.000000
0.102315 0.132312 0.000000
0.118893 0.131916 0.000000
0.135374 0.131523 0.000000
0.151752 0.131132 0.000000
0.168021 0.130743 0.000000
0.184177 0.130357 0.000000
0.200217 0.129975 0.000000
0.216137 0.129594 0.000000
0.231937 0.129217 0.000000
0.247614 0.128843 0.000000
0.263167 0.128472 0.000000
0.278595 0.128103 0.000000
0.293898 0.127738 0.000000
0.309076 0.127375 0.000000
0.324128 0.127016 0.000000
0.339054 0.126660 0.000000
0.353855 0.126306 0.000000
0.368531 0.125956 0.000000
0.383082 0.125608 0.000000
0.397509 0.125264 0.000000
0.411812 0.124922 0.000000
0.425993 0.124584 0.000000
0.440051 0.124248 0.000000
0.453988 0.123915 0.000000
0.467805 0.123586 0.000000
0.481502 0.123259 0.000000
0.495081 0.122934 0.000000
0.508542 0.122613 0.000000
0.521886 0.122294 0.000000
0.535114 0.121978 0.000000
0.548228 0.121665 0.000000
0.561228 0.121355 0.000000
0.574116 0.121047 0.000000
0.586892 0.120742 0.000000
0.599558 0.120440 0.000000
0.612115 0.120140 0.000000
0.624563 0.119843 0.000000
0.636904 0.119548 0.000000
0.649138 0.119256 0.000000
0.661268 0.118966 0.000000
0.673294 0.118679 0.000000
0.685216 0.118395 0.000000
0.697037 0.118112 0.000000
0.708757 0.117833 0.000000
0.720378 0.117555 0.000000
0.731900 0.117280 0.000000
0.743324 0.117007 0.000000
0.754651 0.116737 0.000000
0.765883 0.116469 0.000000
0.777021 0.116203 0.000000
0.788065 0.115939 0.000000
0.799016 0.115678 0.000000
0.809876 0.115418 0.000000
0.820645 0.115161 0.000000
0.831325 0.114906 0.000000
0.000000 0.150937 0.000000
0.000000 0.150566 0.000000
0.000000 0.150173 0.000000
0.000293 0.149774 0.000000
0.017117 0.149372 0.000000
0.033975 0.148970 0.000000
0.050820 0.148568 0.000000
0.067624 0.148167 0.000000
0.084367 0.147767 0.000000
0.101033 0.147369 0.000000
0.117611 0.146973 0.000000
0.134092 0.146580 0.000000
0.150470 0.146188 0.000000
0.166739 0.145800 0.000000
0.182895 0.145414 0.000000
0.198935 0.145031 0.000000
0.214856 0.144651 0.000000
0.230655 0.144274 0.000000
0.246332 0.143900 0.000000
0.261885 0.143528 0.000000
0.277313 0.143160 0.000000
0.292617 0.142795 0.000000
0.307794 0.142432 0.000000
0.322846 0.142073 0.000000
0.337772 0.141716 0.000000
0.352573 0.141363 0.000000
0.367249 0.141013 0.000000
0.381800 0.140665 0.000000
0.396227 0.140321 0.000000
0.410530 0.139979 0.000000
0.424711 0.139641 0.000000
0.438769 0.139305 0.000000
0.452706 0.138972 0.000000
0.466523 0.138642 0.000000
0.480220 0.138315 0.000000
0.493799 0.137991 0.000000
0.507260 0.137670 0.000000
0.520604 0.137351 0.000000
0.533833 0.137035 0.000000
0.546946 0.136722 0.000000
0.559947 0.136412 0.000000
0.572834 0.136104 0.000000
0.585611 0.135799 0.000000
0.598276 0.135497 0.000000
0.610833 0.135197 0.000000
0.623281 0.134900 0.000000
0.635622 0.134605 0.000000
0.647857 0.134313 0.000000
0.659986 0.134023 0.000000
0.672012 0.133736 0.000000
0.683935 0.133451 0.000000
0.695756 0.133169 0.000000
0.707476 0.132889 0.000000
0.719096 0.132612 0.000000
0.730618 0.132337 0.000000
0.742042 0.132064 0.000000
0.753369 0.131794 0.000000
0.764601 0.131525 0.000000
0.775739 0.131259 0.000000
0.786783 0.130996 0.000000
0.797734 0.130734 0.000000
0.808594 0.130475 0.000000
0.819364 0.130218 0.000000
0.830044 0.129963 0.000000
0.000000 0.165894 0.000000
0.000000 0.165523 0.000000
0.000000 0.165130 0.000000
0.000000 0.164731 0.000000
0.015844 0.164329 0.000000
0.032701 0.163927 0.000000
0.049547 0.163525 0.000000
0.066351 0.163123 0.000000
0.083094 0.162724 0.000000
0.099760 0.162326 0.000000
0.116338 0.161930 0.000000
0.132819 0.161536 0.000000
0.149197 0.161145 0.000000
0.165466 0.160757 0.000000
0.181622 0.160371 0.000000
0.197662 0.159988 0.000000
0.213582 0.159608 0.000000
0.229382 0.159231 0.000000
0.245059 0.158856 0.000000
0.260612 0.158485 0.000000
0.276040 0.158117 0.000000
0.291343 0.157751 0.000000
0.306521 0.157389 0.000000
0.321573 0.157030 0.000000
0.336499 0.156673 0.000000
0.351300 0.156320 0.000000
0.365976 0.155969 0.000000
0.380527 0.155622 0.000000
0.394954 0.155278 0.000000
0.409257 0.154936 0.000000
0.423438 0.154597 0.000000
0.437496 0.154262 0.000000
0.451433 0.153929 0.000000
0.465250 0.153599 0.000000
0.478947 0.153272 0.000000
0.492526 0.152948 0.000000
0.505987 0.152627 0.000000
0.519331 0.152308 0.000000
0.532559 0.151992 0.000000
0.545673 0.151679 0.000000
0.558674 0.151369 0.000000
0.571561 0.151061 0.000000
0.584337 0.150756 0.000000
0.597003 0.150453 0.000000
0.609560 0.150154 0.000000
0.622008 0.149856 0.000000
0.634349 0.149562 0.000000
0.646583 0.149270 0.000000
0.658713 0.148980 0.000000
0.670739 0.148693 0.000000
0.682661 0.148408 0.000000
0.694482 0.148126 0.000000
0.706202 0.147846 0.000000
