Plugins/FilmEmulator/Content/LUTs/FE_Ref_16mm_64.cube
TITLE "FE_Ref_16mm"
LUT_3D_SIZE 8
DOMAIN_MIN 0.0 0.0 0.0
DOMAIN_MAX 1.0 1.0 1.0
0.000000 0.000000 0.000000
0.102845 0.000000 0.000000
0.246793 0.000000 0.000000
0.380649 0.000000 0.000000
0.504314 0.000000 0.000000
0.618419 0.000000 0.000000
0.723763 0.000000 0.000000
0.821156 0.000000 0.000000
0.000000 0.095825 0.000000
0.092856 0.092856 0.000000
0.236804 0.089977 0.000000
0.370660 0.087300 0.000000
0.494326 0.084827 0.000000
0.608430 0.082545 0.000000
0.713774 0.080438 0.000000
0.811167 0.078490 0.000000
0.000000 0.232967 0.000000
0.083171 0.229998 0.000000
0.227119 0.227119 0.000000
0.360975 0.224442 0.000000
0.484641 0.221968 0.000000
0.598745 0.219686 0.000000
0.704089 0.217579 0.000000
0.801482 0.215631 0.000000
0.000000 0.360494 0.000000
0.074165 0.357525 0.000000
0.218113 0.354646 0.000000
0.351969 0.351969 0.000000
0.475634 0.349496 0.000000
0.589739 0.347214 0.000000
0.695083 0.345107 0.000000
0.792476 0.343159 0.000000
0.000000 0.478313 0.000000
0.065845 0.475343 0.000000
0.209792 0.472464 0.000000
0.343649 0.469787 0.000000
0.467314 0.467314 0.000000
0.581418 0.465032 0.000000
0.686763 0.462925 0.000000
0.784155 0.460977 0.000000
0.000000 0.587022 0.000000
0.058167 0.584053 0.000000
0.202115 0.581174 0.000000
0.335971 0.578497 0.000000
0.459637 0.576023 0.000000
0.573741 0.573741 0.000000
0.679086 0.571634 0.000000
0.776478 0.569687 0.000000
0.000000 0.687386 0.000000
0.051080 0.684416 0.000000
0.195027 0.681537 0.000000
0.328884 0.678860 0.000000
0.452549 0.676387 0.000000
0.566654 0.674105 0.000000
0.671998 0.671998 0.000000
0.769390 0.670050 0.000000
0.000000 0.780173 0.000000
0.044527 0.777204 0.000000
0.188475 0.774325 0.000000
0.322331 0.771648 0.000000
0.445996 0.769174 0.000000
0.560101 0.766892 0.000000
0.665445 0.764785 0.000000
0.762838 0.762838 0.000000
0.000000 0.000000 0.107034
0.101814 0.000000 0.104065
0.245762 0.000000 0.101186
0.379618 0.000000 0.098509
0.503284 0.000000 0.096035
0.617388 0.000000 0.093753
0.722732 0.000000 0.091646
0.820125 0.000000 0.089698
0.000000 0.094795 0.097045
0.091825 0.091825 0.094076
0.235773 0.088946 0.091197
0.369629 0.086269 0.088520
0.493295 0.083796 0.086046
0.607399 0.081514 0.083764
0.712743 0.079407 0.081657
0.810136 0.077459 0.079710
0.000000 0.231936 0.087360
0.082140 0.228967 0.084391
0.226088 0.226088 0.081512
0.359944 0.223411 0.078835
0.483610 0.220938 0.076361
0.597714 0.218655 0.074079
0.703058 0.216548 0.071972
0.800451 0.214601 0.070025
0.000000 0.359464 0.078354
0.073134 0.356494 0.075385
0.217082 0.353615 0.072506
0.350938 0.350938 0.069829
0.474604 0.348465 0.067355
0.588708 0.346183 0.065073
0.694052 0.344076 0.062966
0.791445 0.342128 0.061018
0.000000 0.477282 0.070034
0.064814 0.474313 0.067064
0.208761 0.471434 0.064185
0.342618 0.468756 0.061508
0.466283 0.466283 0.059035
0.580388 0.464001 0.056753
0.685732 0.461894 0.054646
0.783124 0.459946 0.052698
0.000000 0.585991 0.062356
0.057137 0.583022 0.059387
0.201084 0.580143 0.056508
0.334941 0.577466 0.053831
0.458606 0.574993 0.051358
0.572711 0.572711 0.049076
0.678055 0.570604 0.046969
0.775447 0.568656 0.045021
0.000000 0.686355 0.055269
0.050049 0.683385 0.052299
0.193997 0.680506 0.049420
0.327853 0.677829 0.046743
0.451518 0.675356 0.044270
0.565623 0.673074 0.041988
0.670967 0.670967 0.039881
0.768359 0.669019 0.037933
0.000000 0.779142 0.048716
0.043496 0.776173 0.045747
0.187444 0.773294 0.042868
0.321300 0.770617 0.040191
0.444966 0.768144 0.037717
0.559070 0.765861 0.035435
0.664414 0.763755 0.033328
0.761568 0.761568 0.034454
0.000000 0.000000 0.256127
0.100815 0.000000 0.253158
0.244762 0.000000 0.250279
0.378619 0.000000 0.247602
0.502284 0.000000 0.245129
0.616389 0.000000 0.242846
0.721733 0.000000 0.240740
0.819125 0.000000 0.238792
0.000000 0.093795 0.246138
0.090826 0.090826 0.243169
0.234774 0.087947 0.240290
0.368630 0.085270 0.237613
0.492295 0.082796 0.235140
0.606400 0.080514 0.232858
0.711744 0.078407 0.230751
0.809136 0.076460 0.228803
0.000000 0.230937 0.236453
0.081141 0.227967 0.233484
0.225089 0.225089 0.230605
0.358945 0.222411 0.227928
0.482610 0.219938 0.225455
0.596715 0.217656 0.223173
0.702059 0.215549 0.221066
0.799451 0.213601 0.219118
0.000000 0.358464 0.227447
0.072135 0.355495 0.224478
0.216082 0.352616 0.221599
0.349939 0.349939 0.218922
0.473604 0.347465 0.216449
0.587709 0.345183 0.214166
0.693053 0.343076 0.212060
0.790445 0.341129 0.210112
0.000000 0.476282 0.219127
0.063814 0.473313 0.216158
0.207762 0.470434 0.213279
0.341618 0.467757 0.210601
0.465284 0.465284 0.208128
0.579388 0.463002 0.205846
0.684732 0.460895 0.203739
0.782125 0.458947 0.201791
0.000000 0.584992 0.211450
0.056137 0.582023 0.208480
0.200085 0.579144 0.205601
0.333941 0.576466 0.202924
0.457607 0.573993 0.200451
0.571711 0.571711 0.198169
0.677055 0.569604 0.196062
0.774448 0.567656 0.194114
0.000000 0.685355 0.204362
0.049049 0.682386 0.201393
0.192997 0.679507 0.198514
0.326853 0.676830 0.195837
0.450519 0.674357 0.193363
0.564623 0.672074 0.191081
0.669968 0.669968 0.188974
0.767360 0.668020 0.187026
0.000000 0.778143 0.197809
0.042497 0.775174 0.194840
0.186444 0.772295 0.191961
0.320301 0.769617 0.189284
0.443966 0.767144 0.186811
0.558071 0.764862 0.184528
0.663415 0.762755 0.182422
0.760411 0.760411 0.185564
0.000000 0.000000 0.394769
0.099885 0.000000 0.391799
0.243833 0.000000 0.388920
0.377689 0.000000 0.386243
0.501355 0.000000 0.383770
0.615459 0.000000 0.381488
0.720803 0.000000 0.379381
0.818196 0.000000 0.377433
0.000000 0.092866 0.384780
0.089896 0.089896 0.381810
0.233844 0.087018 0.378931
0.367700 0.084340 0.376254
0.491366 0.081867 0.373781
0.605470 0.079585 0.371499
0.710815 0.077478 0.369392
0.808207 0.075530 0.367444
0.000000 0.230007 0.375095
0.080211 0.227038 0.372125
0.224159 0.224159 0.369246
0.358015 0.221482 0.366569
0.481681 0.219009 0.364096
0.595785 0.216727 0.361814
0.701130 0.214620 0.359707
0.798522 0.212672 0.357759
0.000000 0.357535 0.366089
0.071205 0.354565 0.363119
0.215153 0.351686 0.360240
0.349009 0.349009 0.357563
0.472675 0.346536 0.355090
0.586779 0.344254 0.352808
0.692123 0.342147 0.350701
0.789516 0.340199 0.348753
0.000000 0.475353 0.357768
0.062885 0.472384 0.354799
0.206833 0.469505 0.351920
0.340689 0.466828 0.349243
0.464354 0.464354 0.346769
0.578459 0.462072 0.344487
0.683803 0.459965 0.342380
0.781195 0.458017 0.340432
0.000000 0.584062 0.350091
0.055208 0.581093 0.347122
0.199155 0.578214 0.344243
0.333012 0.575537 0.341566
0.456677 0.573064 0.339092
0.570782 0.570782 0.336810
0.676126 0.568675 0.334703
0.773518 0.566727 0.332755
0.000000 0.684426 0.343003
0.048120 0.681457 0.340034
0.192068 0.678578 0.337155
0.325924 0.675900 0.334478
0.449589 0.673427 0.332004
0.563694 0.671145 0.329722
0.669038 0.669038 0.327615
0.766431 0.667090 0.325668
0.000000 0.777213 0.336450
0.041567 0.774244 0.333481
0.185515 0.771365 0.330602
0.319371 0.768688 0.327925
0.443037 0.766215 0.325452
0.557141 0.763933 0.323170
0.662691 0.761591 0.322785
0.759431 0.759431 0.324851
0.000000 0.000000 0.522855
0.099027 0.000000 0.519885
0.242974 0.000000 0.517006
0.376831 0.000000 0.514329
0.500496 0.000000 0.511856
0.614601 0.000000 0.509574
0.719945 0.000000 0.507467
0.817337 0.000000 0.505519
0.000000 0.092007 0.512866
0.089038 0.089038 0.509896
0.232986 0.086159 0.507017
0.366842 0.083482 0.504340
0.490507 0.081008 0.501867
0.604612 0.078726 0.499585
0.709956 0.076619 0.497478
0.807348 0.074672 0.495530
0.000000 0.229149 0.503181
0.079353 0.226179 0.500211
0.223300 0.223300 0.497332
0.357157 0.220623 0.494655
0.480822 0.218150 0.492182
0.594927 0.215868 0.489900
0.700271 0.213761 0.487793
0.797663 0.211813 0.485845
0.000000 0.356676 0.494175
0.070347 0.353707 0.491205
0.214294 0.350828 0.488326
0.348151 0.348151 0.485649
0.471816 0.345677 0.483176
0.585921 0.343395 0.480894
0.691265 0.341288 0.478787
0.788657 0.339340 0.476839
0.000000 0.474494 0.485854
0.062026 0.471525 0.482885
0.205974 0.468646 0.480006
0.339830 0.465969 0.477329
0.463496 0.463496 0.474855
0.577600 0.461214 0.472573
0.682944 0.459107 0.470466
0.780337 0.457159 0.468519
0.000000 0.583204 0.478177
0.054349 0.580235 0.475208
0.198297 0.577356 0.472329
0.332153 0.574678 0.469652
0.455819 0.572205 0.467178
0.569923 0.569923 0.464896
0.675267 0.567816 0.462789
0.772660 0.565868 0.460841
0.000000 0.683567 0.471089
0.047261 0.680598 0.468120
0.191209 0.677719 0.465241
0.325065 0.675042 0.462564
0.448731 0.672568 0.460090
0.562835 0.670286 0.457808
0.668179 0.668179 0.455701
0.765572 0.666232 0.453754
0.000000 0.776355 0.464536
0.040709 0.773386 0.461567
0.184656 0.770507 0.458688
0.318513 0.767829 0.456011
0.442178 0.765356 0.453538
0.556283 0.763074 0.451256
0.662110 0.760589 0.451473
0.758608 0.758608 0.452482
0.000000 0.000000 0.641038
0.098234 0.000000 0.638069
0.242182 0.000000 0.635190
0.376038 0.000000 0.632512
0.499704 0.000000 0.630039
0.613808 0.000000 0.627757
0.719153 0.000000 0.625650
0.816545 0.000000 0.623702
0.000000 0.091215 0.631049
0.088246 0.088246 0.628080
0.232193 0.085367 0.625201
0.366050 0.082689 0.622524
0.489715 0.080216 0.620050
0.603819 0.077934 0.617768
0.709164 0.075827 0.615661
0.806556 0.073879 0.613713
0.000000 0.228356 0.621364
0.078561 0.225387 0.618395
0.222508 0.222508 0.615516
0.356365 0.219831 0.612839
0.480030 0.217358 0.610365
0.594134 0.215076 0.608083
0.699479 0.212969 0.605976
0.796871 0.211021 0.604028
0.000000 0.355884 0.612358
0.069554 0.352915 0.609389
0.213502 0.350036 0.606510
0.347358 0.347358 0.603832
0.471024 0.344885 0.601359
0.585128 0.342603 0.599077
0.690473 0.340496 0.596970
0.787865 0.338548 0.595022
0.000000 0.473702 0.604037
0.061234 0.470733 0.601068
0.205182 0.467854 0.598189
0.339038 0.465177 0.595512
0.462703 0.462703 0.593039
0.576808 0.460421 0.590757
0.682152 0.458314 0.588650
0.779545 0.456367 0.586702
0.000000 0.582412 0.596360
0.053557 0.579442 0.593391
0.197505 0.576563 0.590512
0.331361 0.573886 0.587835
0.455026 0.571413 0.585362
0.569131 0.569131 0.583079
0.674475 0.567024 0.580973
0.771867 0.565076 0.579025
0.000000 0.682775 0.589273
0.046469 0.679806 0.586303
0.190417 0.676927 0.583424
0.324273 0.674250 0.580747
0.447939 0.671776 0.578274
0.562043 0.669494 0.575992
0.667387 0.667387 0.573885
0.764780 0.665439 0.571937
0.000000 0.775563 0.582720
0.039916 0.772593 0.579751
0.183864 0.769714 0.576872
0.317720 0.767037 0.574194
0.441386 0.764564 0.571721
0.555817 0.762155 0.569735
0.661642 0.759734 0.569315
0.757919 0.757919 0.569348
0.000000 0.000000 0.750148
0.097503 0.000000 0.747178
0.241451 0.000000 0.744300
0.375307 0.000000 0.741622
0.498972 0.000000 0.739149
0.613077 0.000000 0.736867
0.718421 0.000000 0.734760
0.815814 0.000000 0.732812
0.000000 0.090483 0.740159
0.087514 0.087514 0.737190
0.231462 0.084635 0.734311
0.365318 0.081958 0.731634
0.488984 0.079485 0.729160
0.603088 0.077203 0.726878
0.708432 0.075096 0.724771
0.805825 0.073148 0.722823
0.000000 0.227625 0.730474
0.077829 0.224656 0.727505
0.221777 0.221777 0.724626
0.355633 0.219100 0.721948
0.479299 0.216626 0.719475
0.593403 0.214344 0.717193
0.698747 0.212237 0.715086
0.796140 0.210289 0.713138
0.000000 0.355152 0.721468
0.068823 0.352183 0.718498
0.212771 0.349304 0.715619
0.346627 0.346627 0.712942
0.470292 0.344154 0.710469
0.584397 0.341872 0.708187
0.689741 0.339765 0.706080
0.787134 0.337817 0.704132
0.000000 0.472971 0.713147
0.060503 0.470001 0.710178
0.204450 0.467122 0.707299
0.338307 0.464445 0.704622
0.461972 0.461972 0.702149
0.576076 0.459690 0.699866
0.681421 0.457583 0.697760
0.778813 0.455635 0.695812
0.000000 0.581680 0.705470
0.052825 0.578711 0.702501
0.196773 0.575832 0.699622
0.330629 0.573155 0.696945
0.454295 0.570681 0.694471
0.568399 0.568399 0.692189
0.673744 0.566292 0.690082
0.771136 0.564345 0.688135
0.000000 0.682044 0.698382
0.045738 0.679074 0.695413
0.189685 0.676195 0.692534
0.323542 0.673518 0.689857
0.447207 0.671045 0.687384
0.561312 0.668763 0.685102
0.666656 0.666656 0.682995
0.764048 0.664708 0.681047
0.000000 0.774831 0.691830
0.039185 0.771862 0.688860
0.183133 0.768983 0.685981
0.316989 0.766306 0.683304
0.440654 0.763832 0.680831
0.555668 0.761261 0.678740
0.661271 0.759005 0.677345
0.757341 0.757341 0.676477
0.000000 0.000000 0.851022
0.096827 0.000000 0.848052
0.240774 0.000000 0.845173
0.374631 0.000000 0.842496
0.498296 0.000000 0.840023
0.612401 0.000000 0.837741
0.717745 0.000000 0.835634
0.815137 0.000000 0.833686
0.000000 0.089807 0.841033
0.086838 0.086838 0.838064
0.230786 0.083959 0.835185
0.364642 0.081282 0.832507
0.488307 0.078809 0.830034
0.602412 0.076526 0.827752
0.707756 0.074419 0.825645
0.805149 0.072472 0.823697
0.000000 0.226949 0.831348
0.077153 0.223980 0.828378
0.221101 0.221101 0.825499
0.354957 0.218423 0.822822
0.478622 0.215950 0.820349
0.592727 0.213668 0.818067
0.698071 0.211561 0.815960
0.795463 0.209613 0.814012
0.000000 0.354476 0.822342
0.068147 0.351507 0.819372
0.212094 0.348628 0.816493
0.345951 0.345951 0.813816
0.469616 0.343477 0.811343
0.583721 0.341195 0.809061
0.689065 0.339088 0.806954
0.786457 0.337141 0.805006
0.000000 0.472295 0.814021
0.059826 0.469325 0.811052
0.203774 0.466446 0.808173
0.337630 0.463769 0.805496
0.461296 0.461296 0.803022
0.575400 0.459014 0.800740
0.680744 0.456907 0.798633
0.778137 0.454959 0.796686
0.000000 0.581004 0.806344
0.052149 0.578035 0.803375
0.196097 0.575156 0.800496
0.329953 0.572479 0.797819
0.453619 0.570005 0.795345
0.567723 0.567723 0.793063
0.673067 0.565616 0.790956
0.770460 0.563668 0.789008
0.000000 0.681367 0.799256
0.045061 0.678398 0.796287
0.189009 0.675519 0.793408
0.322865 0.672842 0.790731
0.446531 0.670369 0.788258
0.560635 0.668086 0.785975
0.665980 0.665980 0.783869
0.763372 0.664032 0.781921
0.000000 0.774155 0.792704
0.038509 0.771186 0.789734
0.182456 0.768307 0.786855
0.316313 0.765629 0.784178
0.439978 0.763156 0.781705
0.555581 0.760485 0.778865
0.660978 0.758382 0.776569
0.756858 0.756858 0.774868
