Plugins/FilmEmulator/Content/LUTs/FE_Ref_70mm_64.cube
TITLE "FE_Ref_70mm"
LUT_3D_SIZE 4
DOMAIN_MIN 0.0 0.0 0.0
DOMAIN_MAX 1.0 1.0 1.0
0.000000 0.000000 0.000000
0.297758 0.000000 0.000000
0.579314 0.000000 0.000000
0.814449 0.000000 0.000000
0.000000 0.284951 0.000000
0.277841 0.279054 0.000000
0.559397 0.273981 0.000000
0.794532 0.269745 0.000000
0.000000 0.555601 0.000000
0.260708 0.549704 0.000000
0.542264 0.544632 0.000000
0.777399 0.540396 0.000000
0.000000 0.781629 0.000000
0.246400 0.775732 0.000000
0.527955 0.770660 0.000000
0.762987 0.766315 0.000000
0.000000 0.000000 0.299277
0.295772 0.000000 0.293380
0.577327 0.000000 0.288308
0.812462 0.000000 0.284071
0.000000 0.282964 0.279360
0.275854 0.277067 0.273463
0.557410 0.271995 0.268390
0.792545 0.267759 0.264154
0.000000 0.553614 0.262227
0.258721 0.547718 0.256330
0.540277 0.542645 0.251257
0.775412 0.538409 0.247021
0.000000 0.779642 0.247918
0.244413 0.773746 0.242021
0.525969 0.768673 0.236949
0.760651 0.763941 0.238954
0.000000 0.000000 0.581919
0.294063 0.000000 0.576022
0.575618 0.000000 0.570949
0.810753 0.000000 0.566713
0.000000 0.281255 0.562001
0.274145 0.275358 0.556104
0.555701 0.270286 0.551032
0.790836 0.266050 0.546796
0.000000 0.551906 0.544868
0.257012 0.546009 0.538971
0.538568 0.540936 0.533899
0.773703 0.536700 0.529663
0.000000 0.777933 0.530560
0.242704 0.772037 0.524663
0.524260 0.766964 0.519591
0.759058 0.762318 0.520406
0.000000 0.000000 0.817961
0.292635 0.000000 0.812064
0.574191 0.000000 0.806991
0.809326 0.000000 0.802755
0.000000 0.279828 0.798043
0.272718 0.273931 0.792147
0.554274 0.268859 0.787074
0.789409 0.264622 0.782838
0.000000 0.550478 0.780910
0.255585 0.544581 0.775014
0.537141 0.539509 0.769941
0.772276 0.535273 0.765705
0.000000 0.776506 0.766602
0.241277 0.770609 0.760705
0.524091 0.765191 0.755352
0.758025 0.761258 0.751650
