Plugins/FilmEmulator/Content/LUTs/FE_Ref_8mm_64.cube
TITLE "FE_Ref_8mm"
LUT_3D_SIZE 64
DOMAIN_MIN 0.0 0.0 0.0
DOMAIN_MAX 1.0 1.0 1.0
0.000000 0.000000 0.000000
0.000000 0.000000 0.000000
0.000000 0.000000 0.000000
0.000000 0.000000 0.000000
0.010160 0.000000 0.000000
0.027749 0.000000 0.000000
0.045316 0.000000 0.000000
0.062829 0.000000 0.000000
0.080269 0.000000 0.000000
0.097619 0.000000 0.000000
0.114867 0.000000 0.000000
0.132006 0.000000 0.000000
0.149027 0.000000 0.000000
0.165926 0.000000 0.000000
0.182698 0.000000 0.000000
0.199341 0.000000 0.000000
0.215851 0.000000 0.000000
0.232226 0.000000 0.000000
0.248466 0.000000 0.000000
0.264569 0.000000 0.000000
0.280535 0.000000 0.000000
0.296363 0.000000 0.000000
0.312053 0.000000 0.000000
0.327605 0.000000 0.000000
0.343019 0.000000 0.000000
0.358296 0.000000 0.000000
0.373437 0.000000 0.000000
0.388441 0.000000 0.000000
0.403310 0.000000 0.000000
0.418045 0.000000 0.000000
0.432646 0.000000 0.000000
0.447115 0.000000 0.000000
0.461452 0.000000 0.000000
0.475658 0.000000 0.000000
0.489735 0.000000 0.000000
0.503684 0.000000 0.000000
0.517506 0.000000 0.000000
0.531201 0.000000 0.000000
0.544772 0.000000 0.000000
0.558219 0.000000 0.000000
0.571544 0.000000 0.000000
0.584748 0.000000 0.000000
0.597832 0.000000 0.000000
0.610797 0.000000 0.000000
0.623645 0.000000 0.000000
0.636376 0.000000 0.000000
0.648993 0.000000 0.000000
0.661496 0.000000 0.000000
0.673887 0.000000 0.000000
0.686166 0.000000 0.000000
0.698335 0.000000 0.000000
0.710396 0.000000 0.000000
0.722349 0.000000 0.000000
0.734196 0.000000 0.000000
0.745937 0.000000 0.000000
0.757575 0.000000 0.000000
0.769110 0.000000 0.000000
0.780543 0.000000 0.000000
0.791876 0.000000 0.000000
0.803109 0.000000 0.000000
0.814245 0.000000 0.000000
0.825283 0.000000 0.000000
0.836225 0.000000 0.000000
0.847072 0.000000 0.000000
0.000000 0.000000 0.000000
0.000000 0.000000 0.000000
0.000000 0.000000 0.000000
0.000000 0.000000 0.000000
0.009138 0.000000 0.000000
0.026727 0.000000 0.000000
0.044294 0.000000 0.000000
0.061807 0.000000 0.000000
0.079247 0.000000 0.000000
0.096597 0.000000 0.000000
0.113845 0.000000 0.000000
0.130984 0.000000 0.000000
0.148005 0.000000 0.000000
0.164904 0.000000 0.000000
0.181676 0.000000 0.000000
0.198319 0.000000 0.000000
0.214829 0.000000 0.000000
0.231204 0.000000 0.000000
0.247444 0.000000 0.000000
0.263547 0.000000 0.000000
0.279513 0.000000 0.000000
0.295341 0.000000 0.000000
0.311031 0.000000 0.000000
0.326583 0.000000 0.000000
0.341997 0.000000 0.000000
0.357274 0.000000 0.000000
0.372415 0.000000 0.000000
0.387419 0.000000 0.000000
0.402288 0.000000 0.000000
0.417023 0.000000 0.000000
0.431624 0.000000 0.000000
0.446093 0.000000 0.000000
0.460430 0.000000 0.000000
0.474636 0.000000 0.000000
0.488713 0.000000 0.000000
0.502662 0.000000 0.000000
0.516484 0.000000 0.000000
0.530179 0.000000 0.000000
0.543750 0.000000 0.000000
0.557197 0.000000 0.000000
0.570522 0.000000 0.000000
0.583726 0.000000 0.000000
0.596810 0.000000 0.000000
0.609775 0.000000 0.000000
0.622623 0.000000 0.000000
0.635354 0.000000 0.000000
0.647971 0.000000 0.000000
0.660474 0.000000 0.000000
0.672865 0.000000 0.000000
0.685144 0.000000 0.000000
0.697313 0.000000 0.000000
0.709374 0.000000 0.000000
0.721327 0.000000 0.000000
0.733174 0.000000 0.000000
0.744915 0.000000 0.000000
0.756553 0.000000 0.000000
0.768088 0.000000 0.000000
0.779521 0.000000 0.000000
0.790854 0.000000 0.000000
0.802087 0.000000 0.000000
0.813223 0.000000 0.000000
0.824261 0.000000 0.000000
0.835203 0.000000 0.000000
0.846050 0.000000 0.000000
0.000000 0.000000 0.000000
0.000000 0.000000 0.000000
0.000000 0.000000 0.000000
0.000000 0.000000 0.000000
0.008055 0.000000 0.000000
0.025644 0.000000 0.000000
0.043211 0.000000 0.000000
0.060725 0.000000 0.000000
0.078164 0.000000 0.000000
0.095514 0.000000 0.000000
0.112763 0.000000 0.000000
0.129901 0.000000 0.000000
0.146923 0.000000 0.000000
0.163822 0.000000 0.000000
0.180594 0.000000 0.000000
0.197236 0.000000 0.000000
0.213746 0.000000 0.000000
0.230122 0.000000 0.000000
0.246362 0.000000 0.000000
0.262465 0.000000 0.000000
0.278430 0.000000 0.000000
0.294258 0.000000 0.000000
0.309948 0.000000 0.000000
0.325500 0.000000 0.000000
0.340914 0.000000 0.000000
0.356192 0.000000 0.000000
0.371332 0.000000 0.000000
0.386337 0.000000 0.000000
0.401206 0.000000 0.000000
0.415941 0.000000 0.000000
0.430542 0.000000 0.000000
0.445010 0.000000 0.000000
0.459347 0.000000 0.000000
0.473554 0.000000 0.000000
0.487631 0.000000 0.000000
0.501580 0.000000 0.000000
0.515401 0.000000 0.000000
0.529097 0.000000 0.000000
0.542668 0.000000 0.000000
0.556115 0.000000 0.000000
0.569440 0.000000 0.000000
0.582643 0.000000 0.000000
0.595727 0.000000 0.000000
0.608692 0.000000 0.000000
0.621540 0.000000 0.000000
0.634272 0.000000 0.000000
0.646888 0.000000 0.000000
0.659391 0.000000 0.000000
0.671782 0.000000 0.000000
0.684061 0.000000 0.000000
0.696231 0.000000 0.000000
0.708291 0.000000 0.000000
0.720245 0.000000 0.000000
0.732091 0.000000 0.000000
0.743833 0.000000 0.000000
0.755470 0.000000 0.000000
0.767005 0.000000 0.000000
0.778439 0.000000 0.000000
0.789771 0.000000 0.000000
0.801005 0.000000 0.000000
0.812140 0.000000 0.000000
0.823178 0.000000 0.000000
0.834120 0.000000 0.000000
0.844968 0.000000 0.000000
0.000000 0.000000 0.000000
0.000000 0.000000 0.000000
0.000000 0.000000 0.000000
0.000000 0.000000 0.000000
0.006956 0.000000 0.000000
0.024545 0.000000 0.000000
0.042112 0.000000 0.000000
0.059626 0.000000 0.000000
0.077065 0.000000 0.000000
0.094415 0.000000 0.000000
0.111664 0.000000 0.000000
0.128802 0.000000 0.000000
0.145824 0.000000 0.000000
0.162722 0.000000 0.000000
0.179495 0.000000 0.000000
0.196137 0.000000 0.000000
0.212647 0.000000 0.000000
0.229023 0.000000 0.000000
0.245263 0.000000 0.000000
0.261366 0.000000 0.000000
0.277331 0.000000 0.000000
0.293159 0.000000 0.000000
0.308849 0.000000 0.000000
0.324401 0.000000 0.000000
0.339815 0.000000 0.000000
0.355093 0.000000 0.000000
0.370233 0.000000 0.000000
0.385238 0.000000 0.000000
0.400107 0.000000 0.000000
0.414842 0.000000 0.000000
0.429443 0.000000 0.000000
0.443911 0.000000 0.000000
0.458248 0.000000 0.000000
0.472455 0.000000 0.000000
0.486532 0.000000 0.000000
0.500481 0.000000 0.000000
0.514302 0.000000 0.000000
0.527998 0.000000 0.000000
0.541568 0.000000 0.000000
0.555016 0.000000 0.000000
0.568341 0.000000 0.000000
0.581544 0.000000 0.000000
0.594628 0.000000 0.000000
0.607593 0.000000 0.000000
0.620441 0.000000 0.000000
0.633173 0.000000 0.000000
0.645789 0.000000 0.000000
0.658292 0.000000 0.000000
0.670683 0.000000 0.000000
0.682962 0.000000 0.000000
0.695132 0.000000 0.000000
0.707192 0.000000 0.000000
0.719145 0.000000 0.000000
0.730992 0.000000 0.000000
0.742734 0.000000 0.000000
0.754371 0.000000 0.000000
0.765906 0.000000 0.000000
0.777339 0.000000 0.000000
0.788672 0.000000 0.000000
0.799906 0.000000 0.000000
0.811041 0.000000 0.000000
0.822079 0.000000 0.000000
0.833021 0.000000 0.000000
0.843869 0.000000 0.000000
0.000000 0.007006 0.000000
0.000000 0.006694 0.000000
0.000000 0.006363 0.000000
0.000000 0.006027 0.000000
0.005851 0.005689 0.000000
0.023440 0.005351 0.000000
0.041006 0.005013 0.000000
0.058520 0.004676 0.000000
0.075960 0.004341 0.000000
0.093310 0.004007 0.000000
0.110558 0.003675 0.000000
0.127697 0.003346 0.000000
0.144718 0.003018 0.000000
0.161617 0.002693 0.000000
0.178389 0.002371 0.000000
0.195032 0.002051 0.000000
0.211542 0.001733 0.000000
0.227917 0.001418 0.000000
0.244157 0.001106 0.000000
0.260260 0.000796 0.000000
0.276226 0.000489 0.000000
0.292054 0.000185 0.000000
0.307743 0.000000 0.000000
0.323295 0.000000 0.000000
0.338710 0.000000 0.000000
0.353987 0.000000 0.000000
0.369128 0.000000 0.000000
0.384132 0.000000 0.000000
0.399001 0.000000 0.000000
0.413736 0.000000 0.000000
0.428337 0.000000 0.000000
0.442806 0.000000 0.000000
0.457143 0.000000 0.000000
0.471349 0.000000 0.000000
0.485426 0.000000 0.000000
0.499375 0.000000 0.000000
0.513197 0.000000 0.000000
0.526892 0.000000 0.000000
0.540463 0.000000 0.000000
0.553910 0.000000 0.000000
0.567235 0.000000 0.000000
0.580439 0.000000 0.000000
0.593523 0.000000 0.000000
0.606488 0.000000 0.000000
0.619336 0.000000 0.000000
0.632067 0.000000 0.000000
0.644684 0.000000 0.000000
0.657187 0.000000 0.000000
0.669577 0.000000 0.000000
0.681857 0.000000 0.000000
0.694026 0.000000 0.000000
0.706087 0.000000 0.000000
0.718040 0.000000 0.000000
0.729887 0.000000 0.000000
0.741628 0.000000 0.000000
0.753266 0.000000 0.000000
0.764801 0.000000 0.000000
0.776234 0.000000 0.000000
0.787567 0.000000 0.000000
0.798800 0.000000 0.000000
0.809935 0.000000 0.000000
0.820974 0.000000 0.000000
0.831916 0.000000 0.000000
0.842763 0.000000 0.000000
0.000000 0.023337 0.000000
0.000000 0.023025 0.000000
0.000000 0.022694 0.000000
0.000000 0.022358 0.000000
0.004744 0.022021 0.000000
0.022333 0.021682 0.000000
0.039899 0.021344 0.000000
0.057413 0.021008 0.000000
0.074853 0.020672 0.000000
0.092203 0.020338 0.000000
0.109451 0.020007 0.000000
0.126590 0.019677 0.000000
0.143611 0.019350 0.000000
0.160510 0.019025 0.000000
0.177282 0.018702 0.000000
0.193925 0.018382 0.000000
0.210435 0.018065 0.000000
0.226810 0.017750 0.000000
0.243050 0.017437 0.000000
0.259153 0.017128 0.000000
0.275119 0.016821 0.000000
0.290947 0.016516 0.000000
0.306637 0.016214 0.000000
0.322189 0.015915 0.000000
0.337603 0.015619 0.000000
0.352880 0.015325 0.000000
0.368021 0.015034 0.000000
0.383025 0.014745 0.000000
0.397894 0.014459 0.000000
0.412629 0.014176 0.000000
0.427230 0.013895 0.000000
0.441699 0.013617 0.000000
0.456036 0.013341 0.000000
0.470242 0.013068 0.000000
0.484319 0.012797 0.000000
0.498268 0.012529 0.000000
0.512090 0.012263 0.000000
0.525785 0.012000 0.000000
0.539356 0.011739 0.000000
0.552803 0.011480 0.000000
0.566128 0.011224 0.000000
0.579332 0.010970 0.000000
0.592416 0.010718 0.000000
0.605381 0.010469 0.000000
0.618229 0.010222 0.000000
0.630960 0.009977 0.000000
0.643577 0.009734 0.000000
0.656080 0.009494 0.000000
0.668470 0.009255 0.000000
0.680750 0.009019 0.000000
0.692919 0.008785 0.000000
0.704980 0.008553 0.000000
0.716933 0.008323 0.000000
0.728780 0.008095 0.000000
0.740521 0.007870 0.000000
0.752159 0.007646 0.000000
0.763694 0.007424 0.000000
0.775127 0.007204 0.000000
0.786460 0.006986 0.000000
0.797693 0.006770 0.000000
0.808828 0.006556 0.000000
0.819867 0.006344 0.000000
0.830809 0.006133 0.000000
0.841656 0.005924 0.000000
0.000000 0.039648 0.000000
0.000000 0.039336 0.000000
0.000000 0.039005 0.000000
0.000000 0.038669 0.000000
0.003638 0.038331 0.000000
0.021227 0.037993 0.000000
0.038794 0.037655 0.000000
0.056308 0.037318 0.000000
0.073747 0.036983 0.000000
0.091097 0.036649 0.000000
0.108346 0.036317 0.000000
0.125484 0.035988 0.000000
0.142506 0.035660 0.000000
0.159404 0.035335 0.000000
0.176177 0.035013 0.000000
0.192819 0.034693 0.000000
0.209329 0.034375 0.000000
0.225705 0.034060 0.000000
0.241945 0.033748 0.000000
0.258048 0.033438 0.000000
0.274013 0.033131 0.000000
0.289841 0.032827 0.000000
0.305531 0.032525 0.000000
0.321083 0.032226 0.000000
0.336497 0.031929 0.000000
0.351775 0.031635 0.000000
0.366915 0.031344 0.000000
0.381920 0.031056 0.000000
0.396789 0.030770 0.000000
0.411524 0.030486 0.000000
0.426125 0.030206 0.000000
0.440593 0.029927 0.000000
0.454930 0.029652 0.000000
0.469137 0.029378 0.000000
0.483214 0.029108 0.000000
0.497163 0.028839 0.000000
0.510984 0.028573 0.000000
0.524680 0.028310 0.000000
0.538250 0.028049 0.000000
0.551698 0.027790 0.000000
0.565022 0.027534 0.000000
0.578226 0.027280 0.000000
0.591310 0.027029 0.000000
0.604275 0.026779 0.000000
0.617123 0.026532 0.000000
0.629855 0.026287 0.000000
0.642471 0.026045 0.000000
0.654974 0.025804 0.000000
0.667365 0.025566 0.000000
0.679644 0.025330 0.000000
0.691814 0.025096 0.000000
0.703874 0.024864 0.000000
0.715827 0.024634 0.000000
0.727674 0.024406 0.000000
0.739416 0.024180 0.000000
0.751053 0.023956 0.000000
0.762588 0.023734 0.000000
0.774021 0.023515 0.000000
0.785354 0.023297 0.000000
0.796588 0.023080 0.000000
0.807723 0.022866 0.000000
0.818761 0.022654 0.000000
0.829703 0.022444 0.000000
0.840551 0.022235 0.000000
0.000000 0.055909 0.000000
0.000000 0.055597 0.000000
0.000000 0.055266 0.000000
0.000000 0.054930 0.000000
0.002536 0.054593 0.000000
0.020125 0.054254 0.000000
0.037692 0.053916 0.000000
0.055205 0.053580 0.000000
0.072645 0.053244 0.000000
0.089995 0.052910 0.000000
0.107244 0.052579 0.000000
0.124382 0.052249 0.000000
0.141403 0.051922 0.000000
0.158302 0.051597 0.000000
0.175075 0.051274 0.000000
0.191717 0.050954 0.000000
0.208227 0.050637 0.000000
0.224602 0.050322 0.000000
0.240842 0.050009 0.000000
0.256945 0.049700 0.000000
0.272911 0.049393 0.000000
0.288739 0.049088 0.000000
0.304429 0.048786 0.000000
0.319981 0.048487 0.000000
0.335395 0.048191 0.000000
0.350672 0.047897 0.000000
0.365813 0.047606 0.000000
0.380817 0.047317 0.000000
0.395687 0.047031 0.000000
0.410421 0.046748 0.000000
0.425022 0.046467 0.000000
0.439491 0.046189 0.000000
0.453828 0.045913 0.000000
0.468035 0.045640 0.000000
0.482112 0.045369 0.000000
0.496060 0.045101 0.000000
0.509882 0.044835 0.000000
0.523577 0.044571 0.000000
0.537148 0.044310 0.000000
0.550595 0.044052 0.000000
0.563920 0.043796 0.000000
0.577124 0.043542 0.000000
0.590208 0.043290 0.000000
0.603173 0.043041 0.000000
0.616021 0.042794 0.000000
0.628752 0.042549 0.000000
0.641369 0.042306 0.000000
0.653872 0.042066 0.000000
0.666263 0.041827 0.000000
0.678542 0.041591 0.000000
0.690711 0.041357 0.000000
0.702772 0.041125 0.000000
0.714725 0.040895 0.000000
0.726572 0.040667 0.000000
0.738314 0.040442 0.000000
0.749951 0.040218 0.000000
0.761486 0.039996 0.000000
0.772919 0.039776 0.000000
0.784252 0.039558 0.000000
0.795485 0.039342 0.000000
0.806621 0.039128 0.000000
0.817659 0.038916 0.000000
0.828601 0.038705 0.000000
0.839448 0.038496 0.000000
0.000000 0.072102 0.000000
0.000000 0.071790 0.000000
0.000000 0.071459 0.000000
0.000000 0.071123 0.000000
0.001439 0.070785 0.000000
0.019028 0.070447 0.000000
0.036594 0.070109 0.000000
0.054108 0.069772 0.000000
0.071547 0.069437 0.000000
0.088897 0.069103 0.000000
0.106146 0.068771 0.000000
0.123284 0.068442 0.000000
0.140306 0.068114 0.000000
0.157205 0.067789 0.000000
0.173977 0.067467 0.000000
0.190619 0.067147 0.000000
0.207129 0.066829 0.000000
0.223505 0.066514 0.000000
0.239745 0.066202 0.000000
0.255848 0.065892 0.000000
0.271813 0.065585 0.000000
0.287641 0.065281 0.000000
0.303331 0.064979 0.000000
0.318883 0.064680 0.000000
0.334298 0.064383 0.000000
0.349575 0.064090 0.000000
0.364715 0.063798 0.000000
0.379720 0.063510 0.000000
0.394589 0.063224 0.000000
0.409324 0.062940 0.000000
0.423925 0.062660 0.000000
0.438394 0.062381 0.000000
0.452731 0.062106 0.000000
0.466937 0.061832 0.000000
0.481014 0.061562 0.000000
0.494963 0.061293 0.000000
0.508784 0.061028 0.000000
0.522480 0.060764 0.000000
0.536051 0.060503 0.000000
0.549498 0.060245 0.000000
0.562823 0.059988 0.000000
0.576026 0.059734 0.000000
0.589110 0.059483 0.000000
0.602075 0.059233 0.000000
0.614923 0.058986 0.000000
0.627655 0.058741 0.000000
0.640272 0.058499 0.000000
0.652775 0.058258 0.000000
0.665165 0.058020 0.000000
0.677444 0.057784 0.000000
0.689614 0.057550 0.000000
0.701675 0.057318 0.000000
0.713628 0.057088 0.000000
0.725474 0.056860 0.000000
0.737216 0.056634 0.000000
0.748854 0.056410 0.000000
0.760388 0.056189 0.000000
0.771822 0.055969 0.000000
0.783154 0.055751 0.000000
0.794388 0.055535 0.000000
0.805523 0.055320 0.000000
0.816561 0.055108 0.000000
0.827503 0.054898 0.000000
0.838351 0.054689 0.000000
0.000000 0.088211 0.000000
0.000000 0.087899 0.000000
0.000000 0.087568 0.000000
0.000000 0.087232 0.000000
0.000347 0.086895 0.000000
0.017936 0.086556 0.000000
0.035502 0.086218 0.000000
0.053016 0.085882 0.000000
0.070455 0.085546 0.000000
0.087805 0.085213 0.000000
0.105054 0.084881 0.000000
0.122192 0.084551 0.000000
0.139214 0.084224 0.000000
0.156113 0.083899 0.000000
0.172885 0.083576 0.000000
0.189527 0.083256 0.000000
0.206037 0.082939 0.000000
0.222413 0.082624 0.000000
0.238653 0.082311 0.000000
0.254756 0.082002 0.000000
0.270721 0.081695 0.000000
0.286549 0.081390 0.000000
0.302239 0.081088 0.000000
0.317791 0.080789 0.000000
0.333206 0.080493 0.000000
0.348483 0.080199 0.000000
0.363623 0.079908 0.000000
0.378628 0.079619 0.000000
0.393497 0.079333 0.000000
0.408232 0.079050 0.000000
0.422833 0.078769 0.000000
0.437302 0.078491 0.000000
0.451639 0.078215 0.000000
0.465845 0.077942 0.000000
0.479922 0.077671 0.000000
0.493871 0.077403 0.000000
0.507692 0.077137 0.000000
0.521388 0.076874 0.000000
0.534959 0.076613 0.000000
0.548406 0.076354 0.000000
0.561731 0.076098 0.000000
0.574934 0.075844 0.000000
0.588018 0.075592 0.000000
0.600983 0.075343 0.000000
0.613831 0.075096 0.000000
0.626563 0.074851 0.000000
0.639180 0.074608 0.000000
0.651683 0.074368 0.000000
0.664073 0.074129 0.000000
0.676353 0.073893 0.000000
0.688522 0.073659 0.000000
0.700583 0.073427 0.000000
0.712536 0.073197 0.000000
0.724382 0.072969 0.000000
0.736124 0.072744 0.000000
0.747762 0.072520 0.000000
0.759296 0.072298 0.000000
0.770730 0.072078 0.000000
0.782062 0.071860 0.000000
0.793296 0.071644 0.000000
0.804431 0.071430 0.000000
0.815469 0.071218 0.000000
0.826412 0.071007 0.000000
0.837259 0.070798 0.000000
0.000000 0.104227 0.000000
0.000000 0.103914 0.000000
0.000000 0.103584 0.000000
0.000000 0.103248 0.000000
0.000000 0.102910 0.000000
0.016850 0.102572 0.000000
0.034417 0.102234 0.000000
0.051930 0.101897 0.000000
0.069370 0.101562 0.000000
0.086720 0.101228 0.000000
0.103968 0.100896 0.000000
0.121107 0.100567 0.000000
0.138128 0.100239 0.000000
0.155027 0.099914 0.000000
0.171799 0.099592 0.000000
0.188442 0.099271 0.000000
0.204952 0.098954 0.000000
0.221327 0.098639 0.000000
0.237567 0.098327 0.000000
0.253670 0.098017 0.000000
0.269636 0.097710 0.000000
0.285464 0.097405 0.000000
0.301154 0.097104 0.000000
0.316706 0.096805 0.000000
0.332120 0.096508 0.000000
0.347397 0.096214 0.000000
0.362538 0.095923 0.000000
0.377542 0.095635 0.000000
0.392411 0.095349 0.000000
0.407146 0.095065 0.000000
0.421747 0.094784 0.000000
0.436216 0.094506 0.000000
0.450553 0.094230 0.000000
0.464759 0.093957 0.000000
0.478837 0.093686 0.000000
0.492785 0.093418 0.000000
0.506607 0.093152 0.000000
0.520302 0.092889 0.000000
0.533873 0.092628 0.000000
0.547320 0.092369 0.000000
0.560645 0.092113 0.000000
0.573849 0.091859 0.000000
0.586933 0.091607 0.000000
0.599898 0.091358 0.000000
0.612746 0.091111 0.000000
0.625477 0.090866 0.000000
0.638094 0.090623 0.000000
0.650597 0.090383 0.000000
0.662988 0.090145 0.000000
0.675267 0.089909 0.000000
0.687436 0.089674 0.000000
0.699497 0.089442 0.000000
0.711450 0.089213 0.000000
0.723297 0.088985 0.000000
0.735038 0.088759 0.000000
0.746676 0.088535 0.000000
0.758211 0.088313 0.000000
0.769644 0.088093 0.000000
0.780977 0.087875 0.000000
0.792210 0.087659 0.000000
0.803346 0.087445 0.000000
0.814384 0.087233 0.000000
0.825326 0.087022 0.000000
0.836173 0.086814 0.000000
0.000000 0.120140 0.000000
0.000000 0.119828 0.000000
0.000000 0.119497 0.000000
0.000000 0.119161 0.000000
0.000000 0.118823 0.000000
0.015771 0.118485 0.000000
0.033338 0.118147 0.000000
0.050852 0.117810 0.000000
0.068291 0.117475 0.000000
0.085641 0.117141 0.000000
0.102890 0.116809 0.000000
0.120028 0.116480 0.000000
0.137050 0.116152 0.000000
0.153949 0.115827 0.000000
0.170721 0.115505 0.000000
0.187363 0.115185 0.000000
0.203873 0.114867 0.000000
0.220249 0.114552 0.000000
0.236489 0.114240 0.000000
0.252592 0.113930 0.000000
0.268557 0.113623 0.000000
0.284385 0.113319 0.000000
0.300075 0.113017 0.000000
0.315627 0.112718 0.000000
0.331041 0.112421 0.000000
0.346319 0.112127 0.000000
0.361459 0.111836 0.000000
0.376464 0.111548 0.000000
0.391333 0.111262 0.000000
0.406068 0.110978 0.000000
0.420669 0.110697 0.000000
0.435137 0.110419 0.000000
0.449474 0.110143 0.000000
0.463681 0.109870 0.000000
0.477758 0.109599 0.000000
0.491707 0.109331 0.000000
0.505528 0.109065 0.000000
0.519224 0.108802 0.000000
0.532795 0.108541 0.000000
0.546242 0.108282 0.000000
0.559567 0.108026 0.000000
0.572770 0.107772 0.000000
0.585854 0.107520 0.000000
0.598819 0.107271 0.000000
0.611667 0.107024 0.000000
0.624399 0.106779 0.000000
0.637015 0.106536 0.000000
0.649518 0.106296 0.000000
0.661909 0.106058 0.000000
0.674188 0.105822 0.000000
0.686358 0.105587 0.000000
0.698418 0.105356 0.000000
0.710372 0.105126 0.000000
0.722218 0.104898 0.000000
0.733960 0.104672 0.000000
0.745597 0.104448 0.000000
0.757132 0.104226 0.000000
0.768566 0.104006 0.000000
0.779898 0.103788 0.000000
0.791132 0.103572 0.000000
0.802267 0.103358 0.000000
0.813305 0.103146 0.000000
0.824247 0.102936 0.000000
0.835095 0.102727 0.000000
0.000000 0.135944 0.000000
0.000000 0.135632 0.000000
0.000000 0.135301 0.000000
0.000000 0.134965 0.000000
0.000000 0.134627 0.000000
0.014700 0.134289 0.000000
0.032267 0.133951 0.000000
0.049780 0.133614 0.000000
0.067220 0.133279 0.000000
0.084570 0.132945 0.000000
0.101819 0.132614 0.000000
0.118957 0.132284 0.000000
0.135978 0.131957 0.000000
0.152877 0.131632 0.000000
0.169650 0.131309 0.000000
0.186292 0.130989 0.000000
0.202802 0.130671 0.000000
0.219178 0.130356 0.000000
0.235417 0.130044 0.000000
0.251520 0.129734 0.000000
0.267486 0.129427 0.000000
0.283314 0.129123 0.000000
0.299004 0.128821 0.000000
0.314556 0.128522 0.000000
0.329970 0.128226 0.000000
0.345247 0.127932 0.000000
0.360388 0.127641 0.000000
0.375392 0.127352 0.000000
0.390262 0.127066 0.000000
0.404996 0.126783 0.000000
0.419598 0.126502 0.000000
0.434066 0.126223 0.000000
0.448403 0.125948 0.000000
0.462610 0.125675 0.000000
0.476687 0.125404 0.000000
0.490635 0.125136 0.000000
0.504457 0.124870 0.000000
0.518152 0.124606 0.000000
0.531723 0.124345 0.000000
0.545170 0.124087 0.000000
0.558495 0.123830 0.000000
0.571699 0.123576 0.000000
0.584783 0.123325 0.000000
0.597748 0.123075 0.000000
0.610596 0.122828 0.000000
0.623327 0.122583 0.000000
0.635944 0.122341 0.000000
0.648447 0.122100 0.000000
0.660838 0.121862 0.000000
0.673117 0.121626 0.000000
0.685287 0.121392 0.000000
0.697347 0.121160 0.000000
0.709300 0.120930 0.000000
0.721147 0.120702 0.000000
0.732889 0.120476 0.000000
0.744526 0.120252 0.000000
0.756061 0.120031 0.000000
0.767494 0.119811 0.000000
0.778827 0.119593 0.000000
0.790060 0.119377 0.000000
0.801196 0.119163 0.000000
0.812234 0.118950 0.000000
0.823176 0.118740 0.000000
0.834023 0.118531 0.000000
0.000000 0.151635 0.000000
0.000000 0.151323 0.000000
0.000000 0.150992 0.000000
0.000000 0.150656 0.000000
0.000000 0.150318 0.000000
0.013637 0.149980 0.000000
0.031203 0.149642 0.000000
0.048717 0.149305 0.000000
0.066156 0.148970 0.000000
0.083506 0.148636 0.000000
0.100755 0.148304 0.000000
0.117893 0.147975 0.000000
0.134915 0.147647 0.000000
0.151814 0.147322 0.000000
0.168586 0.147000 0.000000
0.185228 0.146680 0.000000
0.201738 0.146362 0.000000
0.218114 0.146047 0.000000
0.234354 0.145735 0.000000
0.250457 0.145425 0.000000
0.266423 0.145118 0.000000
0.282250 0.144814 0.000000
0.297940 0.144512 0.000000
0.313492 0.144213 0.000000
0.328907 0.143916 0.000000
0.344184 0.143622 0.000000
0.359324 0.143331 0.000000
0.374329 0.143043 0.000000
0.389198 0.142757 0.000000
0.403933 0.142473 0.000000
0.418534 0.142192 0.000000
0.433003 0.141914 0.000000
0.447340 0.141638 0.000000
0.461546 0.141365 0.000000
0.475623 0.141094 0.000000
0.489572 0.140826 0.000000
0.503393 0.140560 0.000000
0.517089 0.140297 0.000000
0.530660 0.140036 0.000000
0.544107 0.139777 0.000000
0.557432 0.139521 0.000000
0.570636 0.139267 0.000000
0.583719 0.139015 0.000000
0.596685 0.138766 0.000000
0.609532 0.138519 0.000000
0.622264 0.138274 0.000000
0.634881 0.138031 0.000000
0.647384 0.137791 0.000000
0.659774 0.137553 0.000000
0.672054 0.137317 0.000000
0.684223 0.137082 0.000000
0.696284 0.136851 0.000000
0.708237 0.136621 0.000000
