Plugins/FilmEmulator/Content/LUTs/FE_Ref_KinetoscopeBW_64.cube
TITLE "FE_Ref_KinetoscopeBW"
LUT_3D_SIZE 4
DOMAIN_MIN 0.0 0.0 0.0
DOMAIN_MAX 1.0 1.0 1.0
0.016899 0.016899 0.016899
0.074794 0.074794 0.074794
0.125613 0.125613 0.125613
0.168796 0.168796 0.168796
0.211660 0.211660 0.211660
0.269555 0.269555 0.269555
0.320374 0.320374 0.320374
0.363557 0.363557 0.363557
0.382620 0.382620 0.382620
0.440514 0.440514 0.440514
0.491334 0.491334 0.491334
0.534517 0.534517 0.534517
0.527890 0.527890 0.527890
0.585784 0.585784 0.585784
0.636604 0.636604 0.636604
0.679787 0.679787 0.679787
0.036561 0.036561 0.036561
0.094455 0.094455 0.094455
0.145275 0.145275 0.145275
0.188457 0.188457 0.188457
0.231322 0.231322 0.231322
0.289216 0.289216 0.289216
0.340035 0.340035 0.340035
0.383218 0.383218 0.383218
0.402281 0.402281 0.402281
0.460176 0.460176 0.460176
0.510995 0.510995 0.510995
0.554178 0.554178 0.554178
0.547551 0.547551 0.547551
0.605446 0.605446 0.605446
0.656265 0.656265 0.656265
0.699448 0.699448 0.699448
0.053819 0.053819 0.053819
0.111714 0.111714 0.111714
0.162533 0.162533 0.162533
0.205716 0.205716 0.205716
0.248580 0.248580 0.248580
0.306475 0.306475 0.306475
0.357294 0.357294 0.357294
0.400477 0.400477 0.400477
0.419540 0.419540 0.419540
0.477434 0.477434 0.477434
0.528254 0.528254 0.528254
0.571436 0.571436 0.571436
0.564810 0.564810 0.564810
0.622704 0.622704 0.622704
0.673524 0.673524 0.673524
0.716706 0.716706 0.716706
0.068484 0.068484 0.068484
0.126379 0.126379 0.126379
0.177198 0.177198 0.177198
0.220381 0.220381 0.220381
0.263245 0.263245 0.263245
0.321140 0.321140 0.321140
0.371959 0.371959 0.371959
0.415142 0.415142 0.415142
0.434205 0.434205 0.434205
0.492099 0.492099 0.492099
0.542919 0.542919 0.542919
0.586102 0.586102 0.586102
0.579475 0.579475 0.579475
0.637369 0.637369 0.637369
0.688189 0.688189 0.688189
0.731372 0.731372 0.731372
