Plugins/FilmEmulator/Content/LUTs/FE_Ref_Super8_64.cube
TITLE "FE_Ref_Super8"
LUT_3D_SIZE 8
DOMAIN_MIN 0.0 0.0 0.0
DOMAIN_MAX 1.0 1.0 1.0
0.000000 0.000000 0.000000
0.116597 0.000000 0.000000
0.261896 0.000000 0.000000
0.397364 0.000000 0.000000
0.522824 0.000000 0.000000
0.638845 0.000000 0.000000
0.746182 0.000000 0.000000
0.845608 0.000000 0.000000
0.000000 0.105487 0.000000
0.104902 0.101919 0.000000
0.250201 0.098450 0.000000
0.385669 0.095216 0.000000
0.511129 0.092220 0.000000
0.627150 0.089450 0.000000
0.734487 0.086887 0.000000
0.833913 0.084513 0.000000
0.000000 0.239066 0.000000
0.093531 0.235498 0.000000
0.238830 0.232029 0.000000
0.374298 0.228795 0.000000
0.499758 0.225799 0.000000
0.615779 0.223029 0.000000
0.723116 0.220466 0.000000
0.822542 0.218092 0.000000
0.000000 0.363607 0.000000
0.082929 0.360039 0.000000
0.228228 0.356570 0.000000
0.363696 0.353335 0.000000
0.489156 0.350340 0.000000
0.605177 0.347570 0.000000
0.712514 0.345007 0.000000
0.811940 0.342633 0.000000
0.000000 0.478947 0.000000
0.073111 0.475379 0.000000
0.218410 0.471910 0.000000
0.353878 0.468675 0.000000
0.479338 0.465680 0.000000
0.595359 0.462910 0.000000
0.702696 0.460347 0.000000
0.802122 0.457973 0.000000
0.000000 0.585610 0.000000
0.064031 0.582042 0.000000
0.209330 0.578572 0.000000
0.344798 0.575338 0.000000
0.470258 0.572342 0.000000
0.586279 0.569572 0.000000
0.693616 0.567010 0.000000
0.793042 0.564636 0.000000
0.000000 0.684289 0.000000
0.055631 0.680720 0.000000
0.200930 0.677251 0.000000
0.336398 0.674017 0.000000
0.461858 0.671021 0.000000
0.577879 0.668251 0.000000
0.685216 0.665688 0.000000
0.784642 0.663314 0.000000
0.000000 0.775694 0.000000
0.047850 0.772126 0.000000
0.193149 0.768657 0.000000
0.328617 0.765423 0.000000
0.454077 0.762427 0.000000
0.570098 0.759657 0.000000
0.677435 0.757094 0.000000
0.776861 0.754720 0.000000
0.000000 0.000000 0.117882
0.115397 0.000000 0.114314
0.260696 0.000000 0.110844
0.396164 0.000000 0.107610
0.521624 0.000000 0.104614
0.637645 0.000000 0.101844
0.744982 0.000000 0.099281
0.844407 0.000000 0.096908
0.000000 0.104287 0.106186
0.103701 0.100719 0.102618
0.249000 0.097250 0.099149
0.384468 0.094015 0.095915
0.509928 0.091020 0.092919
0.625949 0.088250 0.090149
0.733286 0.085687 0.087586
0.832712 0.083313 0.085212
0.000000 0.237866 0.094815
0.092330 0.234298 0.091247
0.237629 0.230829 0.087778
0.373097 0.227594 0.084544
0.498557 0.224599 0.081548
0.614578 0.221828 0.078778
0.721915 0.219266 0.076215
0.821341 0.216892 0.073841
0.000000 0.362407 0.084214
0.081729 0.358839 0.080645
0.227028 0.355369 0.077176
0.362496 0.352135 0.073942
0.487956 0.349139 0.070946
0.603977 0.346369 0.068176
0.711314 0.343807 0.065613
0.810739 0.341433 0.063240
0.000000 0.477747 0.074395
0.071910 0.474178 0.070827
0.217209 0.470709 0.067358
0.352677 0.467475 0.064123
0.478137 0.464479 0.061128
0.594158 0.461709 0.058358
0.701495 0.459146 0.055795
0.800921 0.456773 0.053421
0.000000 0.584409 0.065316
0.062831 0.580841 0.061747
0.208130 0.577372 0.058278
0.343598 0.574137 0.055044
0.469057 0.571142 0.052048
0.585079 0.568372 0.049278
0.692415 0.565809 0.046715
0.791841 0.563435 0.044341
0.000000 0.683088 0.056915
0.054430 0.679520 0.053347
0.199729 0.676051 0.049878
0.335198 0.672816 0.046644
0.460657 0.669821 0.043648
0.576679 0.667051 0.040878
0.684015 0.664488 0.038315
0.783441 0.662114 0.035941
0.000000 0.774494 0.049134
0.046649 0.770926 0.045566
0.191948 0.767457 0.042097
0.327417 0.764222 0.038863
0.452876 0.761227 0.035867
0.568898 0.758457 0.033097
0.676234 0.755894 0.030534
0.775456 0.753380 0.030145
0.000000 0.000000 0.264096
0.114230 0.000000 0.260528
0.259529 0.000000 0.257059
0.394997 0.000000 0.253824
0.520456 0.000000 0.250829
0.636478 0.000000 0.248059
0.743814 0.000000 0.245496
0.843240 0.000000 0.243122
0.000000 0.103120 0.252401
0.102534 0.099552 0.248832
0.247833 0.096082 0.245363
0.383301 0.092848 0.242129
0.508761 0.089853 0.239133
0.624782 0.087082 0.236363
0.732119 0.084520 0.233800
0.831545 0.082146 0.231426
0.000000 0.236699 0.241030
0.091163 0.233131 0.237461
0.236462 0.229661 0.233992
0.371930 0.226427 0.230758
0.497390 0.223431 0.227762
0.613411 0.220661 0.224992
0.720748 0.218098 0.222429
0.820174 0.215725 0.220055
0.000000 0.361240 0.230428
0.080562 0.357671 0.226860
0.225861 0.354202 0.223391
0.361329 0.350968 0.220156
0.486788 0.347972 0.217161
0.602810 0.345202 0.214391
0.710146 0.342639 0.211828
0.809572 0.340265 0.209454
0.000000 0.476579 0.220610
0.070743 0.473011 0.217041
0.216042 0.469542 0.213572
0.351510 0.466308 0.210338
0.476970 0.463312 0.207342
0.592991 0.460542 0.204572
0.700328 0.457979 0.202009
0.799754 0.455605 0.199635
0.000000 0.583242 0.211530
0.061663 0.579674 0.207962
0.206962 0.576205 0.204492
0.342431 0.572970 0.201258
0.467890 0.569975 0.198263
0.583911 0.567205 0.195492
0.691248 0.564642 0.192930
0.790674 0.562268 0.190556
0.000000 0.681921 0.203130
0.053263 0.678353 0.199562
0.198562 0.674884 0.196092
0.334030 0.671649 0.192858
0.459490 0.668654 0.189862
0.575511 0.665883 0.187092
0.682848 0.663321 0.184529
0.782274 0.660947 0.182156
0.000000 0.773327 0.195349
0.045482 0.769759 0.191781
0.190781 0.766289 0.188311
0.326249 0.763055 0.185077
0.451709 0.760060 0.182081
0.567730 0.757289 0.179311
0.675067 0.754727 0.176748
0.774040 0.752069 0.178521
0.000000 0.000000 0.400417
0.113141 0.000000 0.396849
0.258440 0.000000 0.393380
0.393909 0.000000 0.390146
0.519368 0.000000 0.387150
0.635389 0.000000 0.384380
0.742726 0.000000 0.381817
0.842152 0.000000 0.379443
0.000000 0.102032 0.388722
0.101446 0.098463 0.385154
0.246745 0.094994 0.381685
0.382213 0.091760 0.378450
0.507673 0.088764 0.375455
0.623694 0.085994 0.372685
0.731031 0.083431 0.370122
0.830457 0.081057 0.367748
0.000000 0.235610 0.377351
0.090075 0.232042 0.373783
0.235374 0.228573 0.370314
0.370842 0.225339 0.367079
0.496302 0.222343 0.364084
0.612323 0.219573 0.361314
0.719660 0.217010 0.358751
0.819086 0.214636 0.356377
0.000000 0.360151 0.366749
0.079473 0.356583 0.363181
0.224772 0.353114 0.359712
0.360240 0.349880 0.356478
0.485700 0.346884 0.353482
0.601721 0.344114 0.350712
0.709058 0.341551 0.348149
0.808484 0.339177 0.345775
0.000000 0.475491 0.356931
0.069655 0.471923 0.353363
0.214954 0.468454 0.349894
0.350422 0.465219 0.346659
0.475882 0.462224 0.343664
0.591903 0.459454 0.340894
0.699240 0.456891 0.338331
0.798666 0.454517 0.335957
0.000000 0.582154 0.347851
0.060575 0.578586 0.344283
0.205874 0.575117 0.340814
0.341342 0.571882 0.337579
0.466802 0.568887 0.334584
0.582823 0.566116 0.331814
0.690160 0.563554 0.329251
0.789586 0.561180 0.326877
0.000000 0.680833 0.339451
0.052175 0.677265 0.335883
0.197474 0.673795 0.332414
0.332942 0.670561 0.329179
0.458402 0.667565 0.326184
0.574423 0.664795 0.323414
0.681760 0.662232 0.320851
0.781186 0.659859 0.318477
0.000000 0.772239 0.331670
0.044394 0.768670 0.328102
0.189693 0.765201 0.324633
0.325161 0.761967 0.321398
0.450621 0.758971 0.318403
0.566642 0.756201 0.315633
0.674055 0.753519 0.314029
0.772810 0.750937 0.315691
0.000000 0.000000 0.526668
0.112134 0.000000 0.523099
0.257433 0.000000 0.519630
0.392901 0.000000 0.516396
0.518360 0.000000 0.513400
0.634382 0.000000 0.510630
0.741718 0.000000 0.508067
0.841144 0.000000 0.505693
0.000000 0.101024 0.514972
0.100438 0.097456 0.511404
0.245737 0.093986 0.507935
0.381205 0.090752 0.504700
0.506665 0.087756 0.501705
0.622686 0.084986 0.498935
0.730023 0.082424 0.496372
0.829449 0.080050 0.493998
0.000000 0.234603 0.503601
0.089067 0.231035 0.500033
0.234366 0.227565 0.496564
0.369834 0.224331 0.493329
0.495294 0.221335 0.490334
0.611315 0.218565 0.487564
0.718652 0.216002 0.485001
0.818078 0.213629 0.482627
0.000000 0.359144 0.492999
0.078466 0.355575 0.489431
0.223765 0.352106 0.485962
0.359233 0.348872 0.482728
0.484692 0.345876 0.479732
0.600714 0.343106 0.476962
0.708050 0.340543 0.474399
0.807476 0.338169 0.472025
0.000000 0.474483 0.483181
0.068647 0.470915 0.479613
0.213946 0.467446 0.476144
0.349414 0.464212 0.472909
0.474874 0.461216 0.469914
0.590895 0.458446 0.467144
0.698232 0.455883 0.464581
0.797658 0.453509 0.462207
0.000000 0.581146 0.474101
0.059567 0.577578 0.470533
0.204866 0.574109 0.467064
0.340335 0.570874 0.463830
0.465794 0.567879 0.460834
0.581815 0.565109 0.458064
0.689152 0.562546 0.455501
0.788578 0.560172 0.453127
0.000000 0.679825 0.465701
0.051167 0.676257 0.462133
0.196466 0.672788 0.458664
0.331934 0.669553 0.455429
0.457394 0.666558 0.452434
0.573415 0.663787 0.449664
0.680752 0.661225 0.447101
0.780178 0.658851 0.444727
0.000000 0.771231 0.457920
0.043386 0.767663 0.454352
0.188685 0.764193 0.450883
0.324153 0.760959 0.447648
0.449613 0.757964 0.444653
0.565634 0.755193 0.441883
0.673233 0.752372 0.441110
0.771749 0.749967 0.441723
0.000000 0.000000 0.643419
0.111202 0.000000 0.639851
0.256501 0.000000 0.636382
0.391969 0.000000 0.633148
0.517429 0.000000 0.630152
0.633450 0.000000 0.627382
0.740787 0.000000 0.624819
0.840212 0.000000 0.622445
0.000000 0.100092 0.631724
0.099506 0.096524 0.628156
0.244805 0.093054 0.624687
0.380273 0.089820 0.621452
0.505733 0.086825 0.618457
0.621754 0.084054 0.615687
0.729091 0.081492 0.613124
0.828517 0.079118 0.610750
0.000000 0.233671 0.620353
0.088135 0.230103 0.616785
0.233434 0.226633 0.613316
0.368902 0.223399 0.610081
0.494362 0.220403 0.607086
0.610383 0.217633 0.604316
0.717720 0.215070 0.601753
0.817146 0.212697 0.599379
0.000000 0.358212 0.609751
0.077534 0.354643 0.606183
0.222833 0.351174 0.602714
0.358301 0.347940 0.599480
0.483760 0.344944 0.596484
0.599782 0.342174 0.593714
0.707118 0.339611 0.591151
0.806544 0.337237 0.588777
0.000000 0.473551 0.599933
0.067715 0.469983 0.596365
0.213014 0.466514 0.592896
0.348482 0.463280 0.589661
0.473942 0.460284 0.586666
0.589963 0.457514 0.583896
0.697300 0.454951 0.581333
0.796726 0.452577 0.578959
0.000000 0.580214 0.590853
0.058635 0.576646 0.587285
0.203934 0.573177 0.583816
0.339403 0.569942 0.580582
0.464862 0.566947 0.577586
0.580883 0.564177 0.574816
0.688220 0.561614 0.572253
0.787646 0.559240 0.569879
0.000000 0.678893 0.582453
0.050235 0.675325 0.578885
0.195534 0.671856 0.575416
0.331002 0.668621 0.572181
0.456462 0.665626 0.569186
0.572483 0.662855 0.566416
0.679820 0.660293 0.563853
0.779246 0.657919 0.561479
0.000000 0.770299 0.574672
0.042454 0.766731 0.571104
0.187753 0.763261 0.567635
0.323221 0.760027 0.564400
0.448681 0.757032 0.561405
0.564702 0.754261 0.558635
0.672541 0.751378 0.557770
0.770835 0.749137 0.557414
0.000000 0.000000 0.751432
0.110339 0.000000 0.747864
0.255638 0.000000 0.744395
0.391106 0.000000 0.741161
0.516566 0.000000 0.738165
0.632587 0.000000 0.735395
0.739924 0.000000 0.732832
0.839350 0.000000 0.730458
0.000000 0.099230 0.739737
0.098644 0.095661 0.736169
0.243943 0.092192 0.732700
0.379411 0.088958 0.729465
0.504871 0.085962 0.726470
0.620892 0.083192 0.723700
0.728229 0.080629 0.721137
0.827655 0.078255 0.718763
0.000000 0.232808 0.728366
0.087273 0.229240 0.724798
0.232572 0.225771 0.721329
0.368040 0.222537 0.718094
0.493500 0.219541 0.715099
0.609521 0.216771 0.712329
0.716858 0.214208 0.709766
0.816284 0.211834 0.707392
0.000000 0.357349 0.717764
0.076671 0.353781 0.714196
0.221970 0.350312 0.710727
0.357438 0.347078 0.707493
0.482898 0.344082 0.704497
0.598919 0.341312 0.701727
0.706256 0.338749 0.699164
0.805682 0.336375 0.696790
0.000000 0.472689 0.707946
0.066853 0.469121 0.704378
0.212152 0.465652 0.700909
0.347620 0.462417 0.697674
0.473080 0.459422 0.694679
0.589101 0.456652 0.691909
0.696438 0.454089 0.689346
0.795864 0.451715 0.686972
0.000000 0.579352 0.698866
0.057773 0.575784 0.695298
0.203072 0.572315 0.691829
0.338540 0.569080 0.688595
0.464000 0.566085 0.685599
0.580021 0.563314 0.682829
0.687358 0.560752 0.680266
0.786784 0.558378 0.677892
0.000000 0.678031 0.690466
0.049373 0.674463 0.686898
0.194672 0.670993 0.683429
0.330140 0.667759 0.680194
0.455600 0.664763 0.677199
0.571621 0.661993 0.674429
0.678958 0.659430 0.671866
0.778384 0.657057 0.669492
0.000000 0.769437 0.682685
0.041592 0.765868 0.679117
0.186891 0.762399 0.675648
0.322359 0.759165 0.672413
0.447819 0.756169 0.669418
0.564329 0.753240 0.666785
0.671957 0.750516 0.664963
0.770047 0.748426 0.663709
0.000000 0.000000 0.851485
0.109541 0.000000 0.847916
0.254840 0.000000 0.844447
0.390308 0.000000 0.841213
0.515768 0.000000 0.838217
0.631789 0.000000 0.835447
0.739126 0.000000 0.832884
0.838551 0.000000 0.830511
0.000000 0.098431 0.839789
0.097845 0.094863 0.836221
0.243144 0.091394 0.832752
0.378612 0.088159 0.829517
0.504072 0.085164 0.826522
0.620093 0.082393 0.823752
0.727430 0.079831 0.821189
0.826856 0.077457 0.818815
0.000000 0.232010 0.828418
0.086474 0.228442 0.824850
0.231773 0.224972 0.821381
0.367241 0.221738 0.818146
0.492701 0.218743 0.815151
0.608722 0.215972 0.812381
0.716059 0.213410 0.809818
0.815485 0.211036 0.807444
0.000000 0.356551 0.817817
0.075873 0.352983 0.814248
0.221172 0.349513 0.810779
0.356640 0.346279 0.807545
0.482100 0.343283 0.804549
0.598121 0.340513 0.801779
0.705458 0.337950 0.799216
0.804883 0.335577 0.796842
0.000000 0.471891 0.807998
0.066054 0.468322 0.804430
0.211353 0.464853 0.800961
0.346821 0.461619 0.797726
0.472281 0.458623 0.794731
0.588302 0.455853 0.791961
0.695639 0.453290 0.789398
0.795065 0.450916 0.787024
0.000000 0.578553 0.798918
0.056975 0.574985 0.795350
0.202274 0.571516 0.791881
0.337742 0.568281 0.788647
0.463201 0.565286 0.785651
0.579223 0.562516 0.782881
0.686559 0.559953 0.780318
0.785985 0.557579 0.777944
0.000000 0.677232 0.790518
0.048574 0.673664 0.786950
0.193873 0.670195 0.783481
0.329342 0.666960 0.780247
0.454801 0.663965 0.777251
0.570822 0.661195 0.774481
0.678159 0.658632 0.771918
0.777585 0.656258 0.769544
0.000000 0.768638 0.782737
0.040793 0.765070 0.779169
0.186092 0.761601 0.775700
0.321561 0.758366 0.772466
0.447020 0.755371 0.769470
0.564042 0.752339 0.766344
0.671466 0.749766 0.763625
0.769366 0.747817 0.761540
