Plugins/FilmEmulator/Content/LUTs/FE_Ref_35mm_64.cube
TITLE "FE_Ref_35mm"
LUT_3D_SIZE 8
DOMAIN_MIN 0.0 0.0 0.0
DOMAIN_MAX 1.0 1.0 1.0
0.000000 0.000000 0.000000
0.087961 0.000000 0.000000
0.212719 0.000000 0.000000
0.328854 0.000000 0.000000
0.436252 0.000000 0.000000
0.535437 0.000000 0.000000
0.627084 0.000000 0.000000
0.711879 0.000000 0.000000
0.000000 0.093476 0.000000
0.095809 0.095809 0.000000
0.220567 0.098073 0.000000
0.336702 0.100181 0.000000
0.444100 0.102131 0.000000
0.543285 0.103931 0.000000
0.634932 0.105595 0.000000
0.719727 0.107134 0.000000
0.000000 0.223588 0.000000
0.103427 0.225920 0.000000
0.228185 0.228185 0.000000
0.344320 0.230293 0.000000
0.451718 0.232242 0.000000
0.550904 0.234043 0.000000
0.642550 0.235706 0.000000
0.727345 0.237245 0.000000
0.000000 0.344706 0.000000
0.110518 0.347039 0.000000
0.235277 0.349303 0.000000
0.351411 0.351411 0.000000
0.458810 0.353361 0.000000
0.557995 0.355161 0.000000
0.649642 0.356825 0.000000
0.734437 0.358364 0.000000
0.000000 0.456713 0.000000
0.117076 0.459046 0.000000
0.241835 0.461310 0.000000
0.357969 0.463418 0.000000
0.465368 0.465368 0.000000
0.564553 0.467168 0.000000
0.656200 0.468832 0.000667
0.740995 0.470371 0.002206
0.000000 0.560154 0.000000
0.123133 0.562487 0.000000
0.247891 0.564752 0.000000
0.364026 0.566860 0.001310
0.471424 0.568809 0.003259
0.570609 0.570609 0.005060
0.662256 0.572273 0.006723
0.747051 0.573812 0.008262
0.000201 0.655734 0.000201
0.128729 0.658067 0.002533
0.253487 0.660331 0.004798
0.369622 0.662439 0.006906
0.477021 0.664389 0.008855
0.576206 0.666189 0.010656
0.667853 0.667853 0.012319
0.752647 0.669392 0.013858
0.005378 0.744167 0.005378
0.133907 0.746500 0.007711
0.258665 0.748765 0.009976
0.374800 0.750873 0.012084
0.482198 0.752822 0.014033
0.581383 0.754622 0.015834
0.673030 0.756286 0.017497
0.757705 0.757705 0.020573
0.000000 0.000000 0.086420
0.088753 0.000000 0.088753
0.213511 0.000000 0.091017
0.329646 0.000000 0.093125
0.437044 0.000000 0.095075
0.536229 0.000000 0.096875
0.627876 0.000000 0.098539
0.712671 0.000000 0.100078
0.000000 0.094268 0.094268
0.096601 0.096601 0.096601
0.221359 0.098866 0.098866
0.337494 0.100974 0.100974
0.444893 0.102923 0.102923
0.544078 0.104723 0.104723
0.635725 0.106387 0.106387
0.720519 0.107926 0.107926
0.000000 0.224380 0.101886
0.104219 0.226713 0.104219
0.228977 0.228977 0.106484
0.345112 0.231085 0.108592
0.452511 0.233035 0.110541
0.551696 0.234835 0.112341
0.643343 0.236499 0.114005
0.728137 0.238038 0.115544
0.000000 0.345498 0.108978
0.111311 0.347831 0.111311
0.236069 0.350096 0.113575
0.352204 0.352204 0.115683
0.459602 0.354153 0.117633
0.558787 0.355953 0.119433
0.650434 0.357617 0.121096
0.735229 0.359156 0.122636
0.000000 0.457505 0.115536
0.117869 0.459838 0.117869
0.242627 0.462103 0.120133
0.358762 0.464211 0.122241
0.466160 0.466160 0.124191
0.565345 0.467961 0.125991
0.656992 0.469624 0.127655
0.741787 0.471163 0.129194
0.000000 0.560946 0.121592
0.123925 0.563279 0.123925
0.248683 0.565544 0.126190
0.364818 0.567652 0.128298
0.472217 0.569601 0.130247
0.571402 0.571402 0.132047
0.663049 0.573065 0.133711
0.747843 0.574604 0.135250
0.000993 0.656526 0.127188
0.129521 0.658859 0.129521
0.254279 0.661124 0.131786
0.370414 0.663232 0.133894
0.477813 0.665181 0.135843
0.576998 0.666981 0.137644
0.668645 0.668645 0.139307
0.753440 0.670184 0.140846
0.006171 0.744959 0.132366
0.134699 0.747292 0.134699
0.259457 0.749557 0.136964
0.375592 0.751665 0.139072
0.482991 0.753614 0.141021
0.582176 0.755415 0.142821
0.673823 0.757078 0.144485
0.758299 0.758299 0.150113
0.000000 0.000000 0.209683
0.089522 0.000000 0.212016
0.214280 0.000000 0.214280
0.330415 0.000000 0.216388
0.437813 0.000000 0.218338
0.536999 0.000000 0.220138
0.628645 0.000000 0.221801
0.713440 0.000000 0.223341
0.000000 0.095037 0.217531
0.097370 0.097370 0.219864
0.222128 0.099635 0.222128
0.338263 0.101743 0.224236
0.445662 0.103692 0.226186
0.544847 0.105493 0.227986
0.636494 0.107156 0.229650
0.721288 0.108695 0.231189
0.000000 0.225149 0.225149
0.104988 0.227482 0.227482
0.229746 0.229746 0.229746
0.345881 0.231854 0.231854
0.453280 0.233804 0.233804
0.552465 0.235604 0.235604
0.644112 0.237268 0.237268
0.728906 0.238807 0.238807
0.000000 0.346267 0.232240
0.112080 0.348600 0.234573
0.236838 0.350865 0.236838
0.352973 0.352973 0.238946
0.460371 0.354922 0.240895
0.559556 0.356722 0.242696
0.651203 0.358386 0.244359
0.735998 0.359925 0.245898
0.000000 0.458274 0.238798
0.118638 0.460607 0.241131
0.243396 0.462872 0.243396
0.359531 0.464980 0.245504
0.466929 0.466929 0.247453
0.566114 0.468730 0.249254
0.657761 0.470393 0.250917
0.742556 0.471932 0.252456
0.000000 0.561716 0.244855
0.124694 0.564048 0.247188
0.249452 0.566313 0.249452
0.365587 0.568421 0.251560
0.472986 0.570370 0.253510
0.572171 0.572171 0.255310
0.663818 0.573834 0.256974
0.748612 0.575373 0.258513
0.001762 0.657295 0.250451
0.130290 0.659628 0.252784
0.255049 0.661893 0.255049
0.371183 0.664001 0.257157
0.478582 0.665950 0.259106
0.577767 0.667750 0.260906
0.669414 0.669414 0.262570
0.754209 0.670953 0.264109
0.006940 0.745728 0.255629
0.135468 0.748061 0.257962
0.260226 0.750326 0.260226
0.376361 0.752434 0.262334
0.483760 0.754383 0.264284
0.582945 0.756184 0.266084
0.674664 0.757721 0.268788
0.758962 0.758962 0.274744
0.000000 0.000000 0.324425
0.090238 0.000000 0.326758
0.214996 0.000000 0.329023
0.331131 0.000000 0.331131
0.438529 0.000000 0.333080
0.537714 0.000000 0.334881
0.629361 0.000000 0.336544
0.714156 0.000000 0.338083
0.000000 0.095753 0.332274
0.098086 0.098086 0.334607
0.222844 0.100351 0.336871
0.338979 0.102459 0.338979
0.446378 0.104408 0.340929
0.545563 0.106208 0.342729
0.637210 0.107872 0.344392
0.722004 0.109411 0.345932
0.000000 0.225865 0.339892
0.105704 0.228198 0.342225
0.230462 0.230462 0.344489
0.346597 0.232570 0.346597
0.453996 0.234520 0.348547
0.553181 0.236320 0.350347
0.644828 0.237984 0.352010
0.729622 0.239523 0.353550
0.000000 0.346983 0.346983
0.112796 0.349316 0.349316
0.237554 0.351581 0.351581
0.353689 0.353689 0.353689
0.461087 0.355638 0.355638
0.560272 0.357438 0.357438
0.651919 0.359102 0.359102
0.736714 0.360641 0.360641
0.000000 0.458990 0.353541
0.119354 0.461323 0.355874
0.244112 0.463588 0.358139
0.360247 0.465696 0.360247
0.467645 0.467645 0.362196
0.566830 0.469445 0.363996
0.658477 0.471109 0.365660
0.743272 0.472648 0.367199
0.000000 0.562431 0.359598
0.125410 0.564764 0.361931
0.250168 0.567029 0.364195
0.366303 0.569137 0.366303
0.473702 0.571086 0.368253
0.572887 0.572887 0.370053
0.664534 0.574550 0.371716
0.749328 0.576089 0.373256
0.002478 0.658011 0.365194
0.131006 0.660344 0.367527
0.255764 0.662609 0.369791
0.371899 0.664717 0.371899
0.479298 0.666666 0.373849
0.578483 0.668466 0.375649
0.670130 0.670130 0.377313
0.754924 0.671669 0.378852
0.007656 0.746444 0.370372
0.136184 0.748777 0.372705
0.260942 0.751042 0.374969
0.377077 0.753150 0.377077
0.484476 0.755099 0.379026
0.583661 0.756900 0.380827
0.675571 0.758256 0.384761
0.759655 0.759655 0.389778
0.000000 0.000000 0.430536
0.090900 0.000000 0.432869
0.215658 0.000000 0.435134
0.331793 0.000000 0.437242
0.439191 0.000000 0.439191
0.538376 0.000000 0.440992
0.630023 0.000000 0.442655
0.714818 0.000000 0.444194
0.000000 0.096415 0.438385
0.098748 0.098748 0.440718
0.223506 0.101013 0.442982
0.339641 0.103121 0.445090
0.447040 0.105070 0.447040
0.546225 0.106870 0.448840
0.637872 0.108534 0.450503
0.722666 0.110073 0.452043
0.000000 0.226527 0.446003
0.106366 0.228860 0.448336
0.231124 0.231124 0.450600
0.347259 0.233232 0.452708
0.454658 0.235182 0.454658
0.553843 0.236982 0.456458
0.645490 0.238646 0.458122
0.730284 0.240185 0.459661
0.000000 0.347645 0.453094
0.113458 0.349978 0.455427
0.238216 0.352243 0.457692
0.354351 0.354351 0.459800
0.461749 0.356300 0.461749
0.560934 0.358100 0.463549
0.652581 0.359764 0.465213
0.737376 0.361303 0.466752
0.000000 0.459652 0.459652
0.120016 0.461985 0.461985
0.244774 0.464250 0.464250
0.360909 0.466358 0.466358
0.468307 0.468307 0.468307
0.567492 0.470108 0.470108
0.659139 0.471771 0.471771
0.743934 0.473310 0.473310
0.000000 0.563093 0.465709
0.126072 0.565426 0.468042
0.250830 0.567691 0.470306
0.366965 0.569799 0.472414
0.474364 0.571748 0.474364
0.573549 0.573549 0.476164
0.665196 0.575212 0.477828
0.749990 0.576751 0.479367
0.003140 0.658673 0.471305
0.131668 0.661006 0.473638
0.256426 0.663271 0.475902
0.372561 0.665379 0.478010
0.479960 0.667328 0.479960
0.579145 0.669128 0.481760
0.670792 0.670792 0.483424
0.755587 0.672331 0.484963
0.008318 0.747106 0.476483
0.136846 0.749439 0.478816
0.261604 0.751704 0.481080
0.377739 0.753812 0.483188
0.485138 0.755761 0.485138
0.584392 0.757528 0.487066
0.676475 0.758816 0.491167
0.760362 0.760362 0.495316
0.000000 0.000000 0.528533
0.091511 0.000000 0.530866
0.216269 0.000000 0.533130
0.332404 0.000000 0.535238
0.439803 0.000000 0.537188
0.538988 0.000000 0.538988
0.630635 0.000000 0.540651
0.715429 0.000000 0.542191
0.000000 0.097027 0.536381
0.099360 0.099360 0.538714
0.224118 0.101624 0.540978
0.340253 0.103732 0.543086
0.447651 0.105681 0.545036
0.546836 0.107482 0.546836
0.638483 0.109145 0.548500
0.723278 0.110685 0.550039
0.000000 0.227138 0.543999
0.106978 0.229471 0.546332
0.231736 0.231736 0.548596
0.347871 0.233844 0.550704
0.455269 0.235793 0.552654
0.554454 0.237593 0.554454
0.646101 0.239257 0.556118
0.730896 0.240796 0.557657
0.000000 0.348257 0.551090
0.114069 0.350590 0.553423
0.238827 0.352854 0.555688
0.354962 0.354962 0.557796
0.462361 0.356911 0.559745
0.561546 0.358712 0.561546
0.653193 0.360375 0.563209
0.737987 0.361914 0.564748
0.000000 0.460264 0.557648
0.120627 0.462597 0.559981
0.245385 0.464861 0.562246
0.361520 0.466969 0.564354
0.468919 0.468919 0.566303
0.568104 0.470719 0.568104
0.659751 0.472382 0.569767
0.744545 0.473922 0.571306
0.000000 0.563705 0.563705
0.126684 0.566038 0.566038
0.251442 0.568302 0.568302
0.367577 0.570410 0.570410
0.474975 0.572360 0.572360
0.574160 0.574160 0.574160
0.665807 0.575824 0.575824
0.750602 0.577363 0.577363
0.003751 0.659284 0.569301
0.132280 0.661617 0.571634
0.257038 0.663882 0.573899
0.373173 0.665990 0.576007
0.480571 0.667939 0.577956
0.579756 0.669740 0.579756
0.671403 0.671403 0.581420
0.756198 0.672942 0.582959
0.008929 0.747718 0.574479
0.137457 0.750051 0.576812
0.262216 0.752315 0.579076
0.378351 0.754423 0.581184
0.485749 0.756373 0.583134
0.585481 0.757955 0.585481
0.677367 0.759389 0.588717
0.761070 0.761070 0.592064
0.000000 0.000000 0.619081
0.092076 0.000000 0.621414
0.216834 0.000000 0.623678
0.332969 0.000000 0.625786
0.440368 0.000000 0.627736
0.539553 0.000000 0.629536
0.631200 0.000000 0.631200
0.715994 0.000000 0.632739
0.000000 0.097591 0.626929
0.099924 0.099924 0.629262
0.224683 0.102189 0.631527
0.340817 0.104297 0.633635
0.448216 0.106246 0.635584
0.547401 0.108047 0.637384
0.639048 0.109710 0.639048
0.723843 0.111249 0.640587
0.000000 0.227703 0.634547
0.107542 0.230036 0.636880
0.232301 0.232301 0.639145
0.348436 0.234409 0.641253
0.455834 0.236358 0.643202
0.555019 0.238158 0.645003
0.646666 0.239822 0.646666
0.731461 0.241361 0.648205
0.000000 0.348821 0.641639
0.114634 0.351154 0.643972
0.239392 0.353419 0.646236
0.355527 0.355527 0.648344
0.462925 0.357476 0.650294
0.562111 0.359277 0.652094
0.653758 0.360940 0.653758
0.738552 0.362479 0.655297
0.000000 0.460829 0.648197
0.121192 0.463162 0.650530
0.245950 0.465426 0.652794
0.362085 0.467534 0.654902
0.469484 0.469484 0.656852
0.568669 0.471284 0.658652
0.660316 0.472947 0.660316
0.745110 0.474487 0.661855
0.000000 0.564270 0.654253
0.127248 0.566603 0.656586
0.252007 0.568867 0.658851
0.368141 0.570975 0.660959
0.475540 0.572925 0.662908
0.574725 0.574725 0.664709
0.666372 0.576389 0.666372
0.751167 0.577928 0.667911
0.004316 0.659849 0.659849
0.132845 0.662182 0.662182
0.257603 0.664447 0.664447
0.373738 0.666555 0.666555
0.481136 0.668504 0.668504
0.580321 0.670305 0.670305
0.671968 0.671968 0.671968
0.756763 0.673507 0.673507
0.009494 0.748283 0.665027
0.138022 0.750616 0.667360
0.262781 0.752880 0.669625
0.378915 0.754988 0.671733
0.486314 0.756938 0.673682
0.586535 0.758397 0.675804
0.678238 0.759967 0.678238
0.761773 0.761773 0.680845
0.000000 0.000000 0.702859
0.092599 0.000000 0.705192
0.217357 0.000000 0.707457
0.333492 0.000000 0.709565
0.440890 0.000000 0.711514
0.540076 0.000000 0.713314
0.631722 0.000000 0.714978
0.716517 0.000000 0.716517
0.000000 0.098114 0.710707
0.100447 0.100447 0.713040
0.225205 0.102712 0.715305
0.341340 0.104820 0.717413
0.448739 0.106769 0.719362
0.547924 0.108569 0.721163
0.639571 0.110233 0.722826
0.724365 0.111772 0.724365
0.000000 0.228226 0.718325
0.108065 0.230559 0.720658
0.232823 0.232823 0.722923
0.348958 0.234931 0.725031
0.456357 0.236881 0.726980
0.555542 0.238681 0.728781
0.647189 0.240345 0.730444
0.731983 0.241884 0.731983
0.000000 0.349344 0.725417
0.115157 0.351677 0.727750
0.239915 0.353942 0.730014
0.356050 0.356050 0.732122
0.463448 0.357999 0.734072
0.562633 0.359799 0.735872
0.654280 0.361463 0.737536
0.739075 0.363002 0.739075
0.000000 0.461351 0.731975
0.121715 0.463684 0.734308
0.246473 0.465949 0.736572
0.362608 0.468057 0.738680
0.470006 0.470006 0.740630
0.569191 0.471807 0.742430
0.660838 0.473470 0.744094
0.745633 0.475009 0.745633
0.000000 0.564792 0.738031
0.127771 0.567125 0.740364
0.252529 0.569390 0.742629
0.368664 0.571498 0.744737
0.476063 0.573447 0.746686
0.575248 0.575248 0.748487
0.666895 0.576911 0.750150
0.751689 0.578450 0.751689
0.004839 0.660372 0.743628
0.133367 0.662705 0.745961
0.258126 0.664970 0.748225
0.374260 0.667078 0.750333
0.481659 0.669027 0.752283
0.580844 0.670827 0.754083
0.672491 0.672491 0.755746
0.757286 0.674030 0.757286
0.010017 0.748805 0.748805
0.138545 0.751138 0.751138
0.263303 0.753403 0.753403
0.379438 0.755511 0.755511
0.486837 0.757460 0.757460
0.587552 0.758848 0.758848
0.679085 0.760542 0.760542
0.762463 0.762463 0.762463
