Plugins/FilmEmulator/Content/LUTs/FE_Ref_70mm_64.cube
TITLE "FE_Ref_70mm"
LUT_3D_SIZE 64
DOMAIN_MIN 0.0 0.0 0.0
DOMAIN_MAX 1.0 1.0 1.0
0.000000 0.000000 0.000000
0.000000 0.000000 0.000000
0.001128 0.000000 0.000000
0.017165 0.000000 0.000000
0.033306 0.000000 0.000000
0.049479 0.000000 0.000000
0.065642 0.000000 0.000000
0.081767 0.000000 0.000000
0.097833 0.000000 0.000000
0.113827 0.000000 0.000000
0.129737 0.000000 0.000000
0.145556 0.000000 0.000000
0.161277 0.000000 0.000000
0.176893 0.000000 0.000000
0.192403 0.000000 0.000000
0.207801 0.000000 0.000000
0.223087 0.000000 0.000000
0.238257 0.000000 0.000000
0.253310 0.000000 0.000000
0.268245 0.000000 0.000000
0.283061 0.000000 0.000000
0.297758 0.000000 0.000000
0.312335 0.000000 0.000000
0.326793 0.000000 0.000000
0.341130 0.000000 0.000000
0.355348 0.000000 0.000000
0.369447 0.000000 0.000000
0.383426 0.000000 0.000000
0.397287 0.000000 0.000000
0.411030 0.000000 0.000000
0.424656 0.000000 0.000000
0.438165 0.000000 0.000000
0.451559 0.000000 0.000000
0.464837 0.000000 0.000000
0.478001 0.000000 0.000000
0.491052 0.000000 0.000000
0.503990 0.000000 0.000000
0.516817 0.000000 0.000000
0.529534 0.000000 0.000000
0.542141 0.000000 0.000000
0.554639 0.000000 0.000000
0.567030 0.000000 0.000000
0.579314 0.000000 0.000000
0.591492 0.000000 0.000000
0.603566 0.000000 0.000000
0.615537 0.000000 0.000000
0.627405 0.000000 0.000000
0.639171 0.000000 0.000000
0.650837 0.000000 0.000000
0.662403 0.000000 0.000000
0.673871 0.000000 0.000000
0.685241 0.000000 0.000000
0.696515 0.000000 0.000000
0.707694 0.000000 0.000000
0.718778 0.000000 0.000000
0.729769 0.000000 0.000000
0.740667 0.000000 0.000000
0.751474 0.000000 0.000000
0.762191 0.000000 0.000000
0.772818 0.000000 0.000000
0.783356 0.000000 0.000000
0.793807 0.000000 0.000000
0.804171 0.000000 0.000000
0.814449 0.000000 0.000000
0.000000 0.000000 0.000000
0.000000 0.000000 0.000000
0.000221 0.000000 0.000000
0.016259 0.000000 0.000000
0.032400 0.000000 0.000000
0.048573 0.000000 0.000000
0.064736 0.000000 0.000000
0.080860 0.000000 0.000000
0.096927 0.000000 0.000000
0.112921 0.000000 0.000000
0.128831 0.000000 0.000000
0.144650 0.000000 0.000000
0.160370 0.000000 0.000000
0.175987 0.000000 0.000000
0.191497 0.000000 0.000000
0.206895 0.000000 0.000000
0.222180 0.000000 0.000000
0.237350 0.000000 0.000000
0.252404 0.000000 0.000000
0.267339 0.000000 0.000000
0.282155 0.000000 0.000000
0.296852 0.000000 0.000000
0.311429 0.000000 0.000000
0.325887 0.000000 0.000000
0.340224 0.000000 0.000000
0.354442 0.000000 0.000000
0.368540 0.000000 0.000000
0.382520 0.000000 0.000000
0.396381 0.000000 0.000000
0.410124 0.000000 0.000000
0.423750 0.000000 0.000000
0.437259 0.000000 0.000000
0.450652 0.000000 0.000000
0.463931 0.000000 0.000000
0.477095 0.000000 0.000000
0.490146 0.000000 0.000000
0.503084 0.000000 0.000000
0.515911 0.000000 0.000000
0.528628 0.000000 0.000000
0.541234 0.000000 0.000000
0.553733 0.000000 0.000000
0.566123 0.000000 0.000000
0.578408 0.000000 0.000000
0.590586 0.000000 0.000000
0.602660 0.000000 0.000000
0.614630 0.000000 0.000000
0.626498 0.000000 0.000000
0.638265 0.000000 0.000000
0.649930 0.000000 0.000000
0.661497 0.000000 0.000000
0.672965 0.000000 0.000000
0.684335 0.000000 0.000000
0.695609 0.000000 0.000000
0.706788 0.000000 0.000000
0.717872 0.000000 0.000000
0.728863 0.000000 0.000000
0.739761 0.000000 0.000000
0.750568 0.000000 0.000000
0.761284 0.000000 0.000000
0.771911 0.000000 0.000000
0.782450 0.000000 0.000000
0.792900 0.000000 0.000000
0.803264 0.000000 0.000000
0.813543 0.000000 0.000000
0.000000 0.000000 0.000000
0.000000 0.000000 0.000000
0.000000 0.000000 0.000000
0.015298 0.000000 0.000000
0.031439 0.000000 0.000000
0.047612 0.000000 0.000000
0.063775 0.000000 0.000000
0.079900 0.000000 0.000000
0.095966 0.000000 0.000000
0.111960 0.000000 0.000000
0.127870 0.000000 0.000000
0.143689 0.000000 0.000000
0.159410 0.000000 0.000000
0.175026 0.000000 0.000000
0.190536 0.000000 0.000000
0.205934 0.000000 0.000000
0.221220 0.000000 0.000000
0.236390 0.000000 0.000000
0.251443 0.000000 0.000000
0.266378 0.000000 0.000000
0.281194 0.000000 0.000000
0.295891 0.000000 0.000000
0.310469 0.000000 0.000000
0.324926 0.000000 0.000000
0.339263 0.000000 0.000000
0.353481 0.000000 0.000000
0.367580 0.000000 0.000000
0.381559 0.000000 0.000000
0.395420 0.000000 0.000000
0.409163 0.000000 0.000000
0.422789 0.000000 0.000000
0.436298 0.000000 0.000000
0.449692 0.000000 0.000000
0.462970 0.000000 0.000000
0.476134 0.000000 0.000000
0.489185 0.000000 0.000000
0.502124 0.000000 0.000000
0.514951 0.000000 0.000000
0.527667 0.000000 0.000000
0.540274 0.000000 0.000000
0.552772 0.000000 0.000000
0.565163 0.000000 0.000000
0.577447 0.000000 0.000000
0.589625 0.000000 0.000000
0.601699 0.000000 0.000000
0.613670 0.000000 0.000000
0.625538 0.000000 0.000000
0.637304 0.000000 0.000000
0.648970 0.000000 0.000000
0.660536 0.000000 0.000000
0.672004 0.000000 0.000000
0.683374 0.000000 0.000000
0.694649 0.000000 0.000000
0.705827 0.000000 0.000000
0.716911 0.000000 0.000000
0.727902 0.000000 0.000000
0.738800 0.000000 0.000000
0.749607 0.000000 0.000000
0.760324 0.000000 0.000000
0.770951 0.000000 0.000000
0.781489 0.000000 0.000000
0.791940 0.000000 0.000000
0.802304 0.000000 0.000000
0.812582 0.000000 0.000000
0.000000 0.015226 0.000000
0.000000 0.014957 0.000000
0.000000 0.014673 0.000000
0.014322 0.014384 0.000000
0.030463 0.014093 0.000000
0.046637 0.013802 0.000000
0.062799 0.013511 0.000000
0.078924 0.013220 0.000000
0.094990 0.012931 0.000000
0.110984 0.012643 0.000000
0.126895 0.012356 0.000000
0.142713 0.012071 0.000000
0.158434 0.011788 0.000000
0.174051 0.011506 0.000000
0.189560 0.011227 0.000000
0.204959 0.010949 0.000000
0.220244 0.010674 0.000000
0.235414 0.010401 0.000000
0.250467 0.010130 0.000000
0.265402 0.009861 0.000000
0.280218 0.009594 0.000000
0.294915 0.009329 0.000000
0.309493 0.009066 0.000000
0.323950 0.008806 0.000000
0.338287 0.008547 0.000000
0.352505 0.008291 0.000000
0.366604 0.008037 0.000000
0.380583 0.007785 0.000000
0.394444 0.007536 0.000000
0.408187 0.007288 0.000000
0.421813 0.007043 0.000000
0.435322 0.006799 0.000000
0.448716 0.006558 0.000000
0.461994 0.006319 0.000000
0.475158 0.006082 0.000000
0.488209 0.005846 0.000000
0.501148 0.005613 0.000000
0.513975 0.005382 0.000000
0.526691 0.005153 0.000000
0.539298 0.004926 0.000000
0.551796 0.004701 0.000000
0.564187 0.004478 0.000000
0.576471 0.004256 0.000000
0.588650 0.004037 0.000000
0.600723 0.003819 0.000000
0.612694 0.003604 0.000000
0.624562 0.003390 0.000000
0.636328 0.003178 0.000000
0.647994 0.002968 0.000000
0.659560 0.002759 0.000000
0.671028 0.002553 0.000000
0.682399 0.002348 0.000000
0.693673 0.002145 0.000000
0.704851 0.001943 0.000000
0.715935 0.001744 0.000000
0.726926 0.001546 0.000000
0.737825 0.001349 0.000000
0.748631 0.001155 0.000000
0.759348 0.000962 0.000000
0.769975 0.000770 0.000000
0.780513 0.000580 0.000000
0.790964 0.000392 0.000000
0.801328 0.000205 0.000000
0.811606 0.000020 0.000000
0.000000 0.030742 0.000000
0.000000 0.030473 0.000000
0.000000 0.030189 0.000000
0.013340 0.029900 0.000000
0.029481 0.029609 0.000000
0.045654 0.029318 0.000000
0.061817 0.029027 0.000000
0.077942 0.028736 0.000000
0.094008 0.028447 0.000000
0.110002 0.028158 0.000000
0.125912 0.027872 0.000000
0.141731 0.027587 0.000000
0.157451 0.027304 0.000000
0.173068 0.027022 0.000000
0.188578 0.026743 0.000000
0.203976 0.026465 0.000000
0.219262 0.026190 0.000000
0.234432 0.025917 0.000000
0.249485 0.025646 0.000000
0.264420 0.025376 0.000000
0.279236 0.025109 0.000000
0.293933 0.024845 0.000000
0.308510 0.024582 0.000000
0.322968 0.024322 0.000000
0.337305 0.024063 0.000000
0.351523 0.023807 0.000000
0.365622 0.023553 0.000000
0.379601 0.023301 0.000000
0.393462 0.023052 0.000000
0.407205 0.022804 0.000000
0.420831 0.022559 0.000000
0.434340 0.022315 0.000000
0.447734 0.022074 0.000000
0.461012 0.021835 0.000000
0.474176 0.021597 0.000000
0.487227 0.021362 0.000000
0.500165 0.021129 0.000000
0.512992 0.020898 0.000000
0.525709 0.020669 0.000000
0.538316 0.020442 0.000000
0.550814 0.020217 0.000000
0.563205 0.019994 0.000000
0.575489 0.019772 0.000000
0.587667 0.019553 0.000000
0.599741 0.019335 0.000000
0.611712 0.019120 0.000000
0.623579 0.018906 0.000000
0.635346 0.018694 0.000000
0.647012 0.018484 0.000000
0.658578 0.018275 0.000000
0.670046 0.018069 0.000000
0.681416 0.017864 0.000000
0.692690 0.017661 0.000000
0.703869 0.017459 0.000000
0.714953 0.017260 0.000000
0.725944 0.017062 0.000000
0.736842 0.016865 0.000000
0.747649 0.016671 0.000000
0.758366 0.016477 0.000000
0.768993 0.016286 0.000000
0.779531 0.016096 0.000000
0.789982 0.015908 0.000000
0.800346 0.015721 0.000000
0.810624 0.015536 0.000000
0.000000 0.046288 0.000000
0.000000 0.046020 0.000000
0.000000 0.045736 0.000000
0.012356 0.045447 0.000000
0.028497 0.045156 0.000000
0.044670 0.044864 0.000000
0.060833 0.044573 0.000000
0.076957 0.044283 0.000000
0.093024 0.043993 0.000000
0.109018 0.043705 0.000000
0.124928 0.043419 0.000000
0.140747 0.043134 0.000000
0.156467 0.042850 0.000000
0.172084 0.042569 0.000000
0.187594 0.042290 0.000000
0.202992 0.042012 0.000000
0.218277 0.041737 0.000000
0.233447 0.041463 0.000000
0.248501 0.041192 0.000000
0.263436 0.040923 0.000000
0.278252 0.040656 0.000000
0.292949 0.040391 0.000000
0.307526 0.040129 0.000000
0.321984 0.039868 0.000000
0.336321 0.039610 0.000000
0.350539 0.039354 0.000000
0.364637 0.039100 0.000000
0.378617 0.038848 0.000000
0.392478 0.038598 0.000000
0.406221 0.038351 0.000000
0.419847 0.038105 0.000000
0.433356 0.037862 0.000000
0.446749 0.037621 0.000000
0.460028 0.037381 0.000000
0.473192 0.037144 0.000000
0.486243 0.036909 0.000000
0.499181 0.036676 0.000000
0.512008 0.036445 0.000000
0.524725 0.036216 0.000000
0.537332 0.035989 0.000000
0.549830 0.035764 0.000000
0.562221 0.035540 0.000000
0.574505 0.035319 0.000000
0.586683 0.035100 0.000000
0.598757 0.034882 0.000000
0.610727 0.034666 0.000000
0.622595 0.034453 0.000000
0.634362 0.034241 0.000000
0.646027 0.034030 0.000000
0.657594 0.033822 0.000000
0.669062 0.033615 0.000000
0.680432 0.033411 0.000000
0.691706 0.033207 0.000000
0.702885 0.033006 0.000000
0.713969 0.032806 0.000000
0.724960 0.032608 0.000000
0.735858 0.032412 0.000000
0.746665 0.032217 0.000000
0.757381 0.032024 0.000000
0.768008 0.031833 0.000000
0.778547 0.031643 0.000000
0.788997 0.031455 0.000000
0.799361 0.031268 0.000000
0.809640 0.031083 0.000000
0.000000 0.061825 0.000000
0.000000 0.061557 0.000000
0.000000 0.061272 0.000000
0.011372 0.060983 0.000000
0.027513 0.060693 0.000000
0.043687 0.060401 0.000000
0.059849 0.060110 0.000000
0.075974 0.059820 0.000000
0.092040 0.059530 0.000000
0.108034 0.059242 0.000000
0.123945 0.058955 0.000000
0.139763 0.058670 0.000000
0.155484 0.058387 0.000000
0.171101 0.058106 0.000000
0.186610 0.057826 0.000000
0.202009 0.057549 0.000000
0.217294 0.057274 0.000000
0.232464 0.057000 0.000000
0.247517 0.056729 0.000000
0.262452 0.056460 0.000000
0.277269 0.056193 0.000000
0.291966 0.055928 0.000000
0.306543 0.055666 0.000000
0.321000 0.055405 0.000000
0.335338 0.055147 0.000000
0.349555 0.054891 0.000000
0.363654 0.054637 0.000000
0.377633 0.054385 0.000000
0.391494 0.054135 0.000000
0.405237 0.053888 0.000000
0.418863 0.053642 0.000000
0.432372 0.053399 0.000000
0.445766 0.053157 0.000000
0.459044 0.052918 0.000000
0.472208 0.052681 0.000000
0.485259 0.052446 0.000000
0.498198 0.052213 0.000000
0.511025 0.051982 0.000000
0.523741 0.051753 0.000000
0.536348 0.051525 0.000000
0.548846 0.051300 0.000000
0.561237 0.051077 0.000000
0.573521 0.050856 0.000000
0.585700 0.050636 0.000000
0.597774 0.050419 0.000000
0.609744 0.050203 0.000000
0.621612 0.049989 0.000000
0.633378 0.049777 0.000000
0.645044 0.049567 0.000000
0.656610 0.049359 0.000000
0.668078 0.049152 0.000000
0.679449 0.048947 0.000000
0.690723 0.048744 0.000000
0.701901 0.048543 0.000000
0.712986 0.048343 0.000000
0.723976 0.048145 0.000000
0.734875 0.047949 0.000000
0.745682 0.047754 0.000000
0.756398 0.047561 0.000000
0.767025 0.047370 0.000000
0.777563 0.047180 0.000000
0.788014 0.046991 0.000000
0.798378 0.046805 0.000000
0.808656 0.046620 0.000000
0.000000 0.077325 0.000000
0.000000 0.077057 0.000000
0.000000 0.076772 0.000000
0.010391 0.076483 0.000000
0.026532 0.076193 0.000000
0.042705 0.075901 0.000000
0.058868 0.075610 0.000000
0.074993 0.075319 0.000000
0.091059 0.075030 0.000000
0.107053 0.074742 0.000000
0.122963 0.074455 0.000000
0.138782 0.074170 0.000000
0.154503 0.073887 0.000000
0.170119 0.073606 0.000000
0.185629 0.073326 0.000000
0.201027 0.073049 0.000000
0.216313 0.072773 0.000000
0.231483 0.072500 0.000000
0.246536 0.072229 0.000000
0.261471 0.071960 0.000000
0.276287 0.071693 0.000000
0.290984 0.071428 0.000000
0.305562 0.071166 0.000000
0.320019 0.070905 0.000000
0.334356 0.070647 0.000000
0.348574 0.070391 0.000000
0.362673 0.070137 0.000000
0.376652 0.069885 0.000000
0.390513 0.069635 0.000000
0.404256 0.069387 0.000000
0.417882 0.069142 0.000000
0.431391 0.068899 0.000000
0.444785 0.068657 0.000000
0.458063 0.068418 0.000000
0.471227 0.068181 0.000000
0.484278 0.067946 0.000000
0.497217 0.067713 0.000000
0.510044 0.067482 0.000000
0.522760 0.067253 0.000000
0.535367 0.067025 0.000000
0.547865 0.066800 0.000000
0.560256 0.066577 0.000000
0.572540 0.066356 0.000000
0.584718 0.066136 0.000000
0.596792 0.065919 0.000000
0.608763 0.065703 0.000000
0.620631 0.065489 0.000000
0.632397 0.065277 0.000000
0.644063 0.065067 0.000000
0.655629 0.064859 0.000000
0.667097 0.064652 0.000000
0.678467 0.064447 0.000000
0.689742 0.064244 0.000000
0.700920 0.064043 0.000000
0.712004 0.063843 0.000000
0.722995 0.063645 0.000000
0.733893 0.063449 0.000000
0.744700 0.063254 0.000000
0.755417 0.063061 0.000000
0.766044 0.062870 0.000000
0.776582 0.062680 0.000000
0.787033 0.062491 0.000000
0.797397 0.062305 0.000000
0.807675 0.062119 0.000000
0.000000 0.092769 0.000000
0.000000 0.092501 0.000000
0.000000 0.092216 0.000000
0.009414 0.091927 0.000000
0.025555 0.091637 0.000000
0.041728 0.091345 0.000000
0.057891 0.091054 0.000000
0.074015 0.090764 0.000000
0.090081 0.090474 0.000000
0.106075 0.090186 0.000000
0.121986 0.089899 0.000000
0.137804 0.089614 0.000000
0.153525 0.089331 0.000000
0.169142 0.089050 0.000000
0.184651 0.088770 0.000000
0.200050 0.088493 0.000000
0.215335 0.088218 0.000000
0.230505 0.087944 0.000000
0.245558 0.087673 0.000000
0.260493 0.087404 0.000000
0.275310 0.087137 0.000000
0.290007 0.086872 0.000000
0.304584 0.086610 0.000000
0.319041 0.086349 0.000000
0.333379 0.086091 0.000000
0.347597 0.085835 0.000000
0.361695 0.085581 0.000000
0.375675 0.085329 0.000000
0.389536 0.085079 0.000000
0.403279 0.084832 0.000000
0.416904 0.084586 0.000000
0.430414 0.084343 0.000000
0.443807 0.084101 0.000000
0.457085 0.083862 0.000000
0.470250 0.083625 0.000000
0.483300 0.083390 0.000000
0.496239 0.083157 0.000000
0.509066 0.082926 0.000000
0.521782 0.082697 0.000000
0.534389 0.082469 0.000000
0.546887 0.082244 0.000000
0.559278 0.082021 0.000000
0.571562 0.081800 0.000000
0.583741 0.081580 0.000000
0.595815 0.081363 0.000000
0.607785 0.081147 0.000000
0.619653 0.080933 0.000000
0.631419 0.080721 0.000000
0.643085 0.080511 0.000000
0.654651 0.080303 0.000000
0.666119 0.080096 0.000000
0.677490 0.079891 0.000000
0.688764 0.079688 0.000000
0.699942 0.079487 0.000000
0.711027 0.079287 0.000000
0.722017 0.079089 0.000000
0.732916 0.078893 0.000000
0.743723 0.078698 0.000000
0.754439 0.078505 0.000000
0.765066 0.078314 0.000000
0.775604 0.078124 0.000000
0.786055 0.077935 0.000000
0.796419 0.077749 0.000000
0.806697 0.077564 0.000000
0.000000 0.108144 0.000000
0.000000 0.107875 0.000000
0.000000 0.107591 0.000000
0.008440 0.107302 0.000000
0.024581 0.107011 0.000000
0.040755 0.106720 0.000000
0.056917 0.106428 0.000000
0.073042 0.106138 0.000000
0.089108 0.105849 0.000000
0.105102 0.105560 0.000000
0.121013 0.105274 0.000000
0.136831 0.104989 0.000000
0.152552 0.104706 0.000000
0.168169 0.104424 0.000000
0.183678 0.104145 0.000000
0.199077 0.103867 0.000000
0.214362 0.103592 0.000000
0.229532 0.103319 0.000000
0.244585 0.103047 0.000000
0.259520 0.102778 0.000000
0.274336 0.102511 0.000000
0.289033 0.102247 0.000000
0.303611 0.101984 0.000000
0.318068 0.101724 0.000000
0.332405 0.101465 0.000000
0.346623 0.101209 0.000000
0.360722 0.100955 0.000000
0.374701 0.100703 0.000000
0.388562 0.100454 0.000000
0.402305 0.100206 0.000000
0.415931 0.099960 0.000000
0.429440 0.099717 0.000000
0.442834 0.099476 0.000000
0.456112 0.099237 0.000000
0.469276 0.098999 0.000000
0.482327 0.098764 0.000000
0.495266 0.098531 0.000000
0.508093 0.098300 0.000000
0.520809 0.098071 0.000000
0.533416 0.097844 0.000000
0.545914 0.097619 0.000000
0.558305 0.097395 0.000000
0.570589 0.097174 0.000000
0.582768 0.096955 0.000000
0.594841 0.096737 0.000000
0.606812 0.096522 0.000000
0.618680 0.096308 0.000000
0.630446 0.096096 0.000000
0.642112 0.095886 0.000000
0.653678 0.095677 0.000000
0.665146 0.095471 0.000000
0.676517 0.095266 0.000000
0.687791 0.095063 0.000000
0.698969 0.094861 0.000000
0.710053 0.094662 0.000000
0.721044 0.094464 0.000000
0.731943 0.094267 0.000000
0.742749 0.094073 0.000000
0.753466 0.093879 0.000000
0.764093 0.093688 0.000000
0.774631 0.093498 0.000000
0.785082 0.093310 0.000000
0.795446 0.093123 0.000000
0.805724 0.092938 0.000000
0.000000 0.123438 0.000000
0.000000 0.123169 0.000000
0.000000 0.122885 0.000000
0.007472 0.122596 0.000000
0.023613 0.122305 0.000000
0.039786 0.122014 0.000000
0.055949 0.121723 0.000000
0.072074 0.121432 0.000000
0.088140 0.121143 0.000000
0.104134 0.120855 0.000000
0.120044 0.120568 0.000000
0.135863 0.120283 0.000000
0.151583 0.120000 0.000000
0.167200 0.119718 0.000000
0.182710 0.119439 0.000000
0.198108 0.119162 0.000000
0.213394 0.118886 0.000000
0.228564 0.118613 0.000000
0.243617 0.118342 0.000000
0.258552 0.118073 0.000000
0.273368 0.117806 0.000000
0.288065 0.117541 0.000000
0.302642 0.117278 0.000000
0.317100 0.117018 0.000000
0.331437 0.116760 0.000000
0.345655 0.116503 0.000000
0.359754 0.116249 0.000000
0.373733 0.115998 0.000000
0.387594 0.115748 0.000000
0.401337 0.115500 0.000000
0.414963 0.115255 0.000000
0.428472 0.115011 0.000000
0.441866 0.114770 0.000000
0.455144 0.114531 0.000000
0.468308 0.114294 0.000000
0.481359 0.114059 0.000000
0.494297 0.113825 0.000000
0.507124 0.113594 0.000000
0.519841 0.113365 0.000000
0.532448 0.113138 0.000000
0.544946 0.112913 0.000000
0.557337 0.112690 0.000000
0.569621 0.112468 0.000000
0.581799 0.112249 0.000000
0.593873 0.112031 0.000000
0.605844 0.111816 0.000000
0.617712 0.111602 0.000000
0.629478 0.111390 0.000000
0.641144 0.111180 0.000000
0.652710 0.110971 0.000000
0.664178 0.110765 0.000000
0.675548 0.110560 0.000000
0.686822 0.110357 0.000000
0.698001 0.110156 0.000000
0.709085 0.109956 0.000000
0.720076 0.109758 0.000000
0.730974 0.109561 0.000000
0.741781 0.109367 0.000000
0.752498 0.109174 0.000000
0.763125 0.108982 0.000000
0.773663 0.108792 0.000000
0.784114 0.108604 0.000000
0.794478 0.108417 0.000000
0.804756 0.108232 0.000000
0.000000 0.138644 0.000000
0.000000 0.138375 0.000000
0.000000 0.138091 0.000000
0.006510 0.137802 0.000000
0.022651 0.137511 0.000000
0.038824 0.137220 0.000000
0.054987 0.136929 0.000000
0.071111 0.136638 0.000000
0.087177 0.136349 0.000000
0.103171 0.136061 0.000000
0.119082 0.135774 0.000000
0.134900 0.135489 0.000000
0.150621 0.135206 0.000000
0.166238 0.134924 0.000000
0.181747 0.134645 0.000000
0.197146 0.134368 0.000000
0.212431 0.134092 0.000000
0.227601 0.133819 0.000000
0.242654 0.133548 0.000000
0.257589 0.133279 0.000000
0.272406 0.133012 0.000000
0.287103 0.132747 0.000000
0.301680 0.132484 0.000000
0.316137 0.132224 0.000000
0.330475 0.131966 0.000000
0.344693 0.131709 0.000000
0.358791 0.131455 0.000000
0.372771 0.131204 0.000000
0.386631 0.130954 0.000000
0.400375 0.130706 0.000000
0.414000 0.130461 0.000000
0.427510 0.130217 0.000000
0.440903 0.129976 0.000000
0.454181 0.129737 0.000000
0.467346 0.129500 0.000000
0.480396 0.129265 0.000000
0.493335 0.129031 0.000000
0.506162 0.128800 0.000000
0.518878 0.128571 0.000000
0.531485 0.128344 0.000000
0.543983 0.128119 0.000000
0.556374 0.127896 0.000000
0.568658 0.127674 0.000000
0.580837 0.127455 0.000000
0.592911 0.127238 0.000000
0.604881 0.127022 0.000000
0.616749 0.126808 0.000000
0.628515 0.126596 0.000000
0.640181 0.126386 0.000000
0.651747 0.126178 0.000000
0.663215 0.125971 0.000000
0.674586 0.125766 0.000000
0.685860 0.125563 0.000000
0.697038 0.125362 0.000000
0.708123 0.125162 0.000000
0.719113 0.124964 0.000000
0.730012 0.124767 0.000000
0.740819 0.124573 0.000000
0.751535 0.124380 0.000000
0.762162 0.124188 0.000000
0.772700 0.123998 0.000000
0.783151 0.123810 0.000000
0.793515 0.123623 0.000000
0.803793 0.123438 0.000000
0.000000 0.153755 0.000000
0.000000 0.153487 0.000000
0.000000 0.153203 0.000000
0.005553 0.152914 0.000000
0.021694 0.152623 0.000000
0.037867 0.152331 0.000000
0.054030 0.152040 0.000000
0.070154 0.151750 0.000000
0.086221 0.151460 0.000000
0.102215 0.151172 0.000000
0.118125 0.150886 0.000000
0.133944 0.150601 0.000000
0.149664 0.150317 0.000000
0.165281 0.150036 0.000000
0.180791 0.149757 0.000000
0.196189 0.149479 0.000000
0.211474 0.149204 0.000000
0.226644 0.148930 0.000000
0.241698 0.148659 0.000000
0.256633 0.148390 0.000000
0.271449 0.148123 0.000000
0.286146 0.147858 0.000000
0.300723 0.147596 0.000000
0.315181 0.147335 0.000000
0.329518 0.147077 0.000000
0.343736 0.146821 0.000000
0.357834 0.146567 0.000000
0.371814 0.146315 0.000000
0.385675 0.146065 0.000000
0.399418 0.145818 0.000000
0.413044 0.145572 0.000000
0.426553 0.145329 0.000000
0.439946 0.145088 0.000000
0.453225 0.144848 0.000000
0.466389 0.144611 0.000000
0.479440 0.144376 0.000000
0.492378 0.144143 0.000000
0.505205 0.143912 0.000000
0.517922 0.143683 0.000000
0.530529 0.143456 0.000000
0.543027 0.143230 0.000000
0.555418 0.143007 0.000000
0.567702 0.142786 0.000000
0.579880 0.142567 0.000000
0.591954 0.142349 0.000000
0.603924 0.142133 0.000000
0.615792 0.141920 0.000000
0.627559 0.141708 0.000000
0.639224 0.141497 0.000000
0.650791 0.141289 0.000000
0.662259 0.141082 0.000000
0.673629 0.140878 0.000000
0.684903 0.140674 0.000000
0.696082 0.140473 0.000000
0.707166 0.140273 0.000000
0.718157 0.140075 0.000000
0.729055 0.139879 0.000000
0.739862 0.139684 0.000000
0.750578 0.139491 0.000000
0.761205 0.139300 0.000000
0.771744 0.139110 0.000000
0.782194 0.138922 0.000000
0.792558 0.138735 0.000000
0.802837 0.138550 0.000000
0.000000 0.168767 0.000000
0.000000 0.168499 0.000000
0.000000 0.168215 0.000000
0.004603 0.167926 0.000000
0.020744 0.167635 0.000000
0.036917 0.167344 0.000000
0.053080 0.167052 0.000000
0.069204 0.166762 0.000000
0.085270 0.166472 0.000000
0.101264 0.166184 0.000000
0.117175 0.165898 0.000000
0.132994 0.165613 0.000000
0.148714 0.165329 0.000000
0.164331 0.165048 0.000000
0.179840 0.164769 0.000000
0.195239 0.164491 0.000000
0.210524 0.164216 0.000000
0.225694 0.163942 0.000000
0.240747 0.163671 0.000000
0.255682 0.163402 0.000000
0.270499 0.163135 0.000000
0.285196 0.162871 0.000000
0.299773 0.162608 0.000000
0.314230 0.162347 0.000000
0.328568 0.162089 0.000000
0.342786 0.161833 0.000000
0.356884 0.161579 0.000000
0.370864 0.161327 0.000000
0.384725 0.161077 0.000000
0.398468 0.160830 0.000000
0.412093 0.160584 0.000000
0.425603 0.160341 0.000000
0.438996 0.160100 0.000000
0.452274 0.159860 0.000000
0.465439 0.159623 0.000000
0.478489 0.159388 0.000000
0.491428 0.159155 0.000000
0.504255 0.158924 0.000000
0.516971 0.158695 0.000000
0.529578 0.158468 0.000000
0.542077 0.158243 0.000000
0.554467 0.158019 0.000000
0.566751 0.157798 0.000000
0.578930 0.157579 0.000000
0.591004 0.157361 0.000000
0.602974 0.157145 0.000000
0.614842 0.156932 0.000000
0.626608 0.156720 0.000000
0.638274 0.156509 0.000000
0.649841 0.156301 0.000000
0.661308 0.156094 0.000000
0.672679 0.155890 0.000000
0.683953 0.155687 0.000000
