Plugins/FilmEmulator/Content/LUTs/FE_Ref_35mm_64.cube
TITLE "FE_Ref_35mm"
LUT_3D_SIZE 64
DOMAIN_MIN 0.0 0.0 0.0
DOMAIN_MAX 1.0 1.0 1.0
0.000000 0.000000 0.000000
0.000000 0.000000 0.000000
0.000000 0.000000 0.000000
0.001343 0.000000 0.000000
0.015816 0.000000 0.000000
0.030314 0.000000 0.000000
0.044799 0.000000 0.000000
0.059246 0.000000 0.000000
0.073638 0.000000 0.000000
0.087961 0.000000 0.000000
0.102205 0.000000 0.000000
0.116364 0.000000 0.000000
0.130432 0.000000 0.000000
0.144403 0.000000 0.000000
0.158275 0.000000 0.000000
0.172044 0.000000 0.000000
0.185709 0.000000 0.000000
0.199268 0.000000 0.000000
0.212719 0.000000 0.000000
0.226061 0.000000 0.000000
0.239294 0.000000 0.000000
0.252418 0.000000 0.000000
0.265431 0.000000 0.000000
0.278335 0.000000 0.000000
0.291129 0.000000 0.000000
0.303813 0.000000 0.000000
0.316388 0.000000 0.000000
0.328854 0.000000 0.000000
0.341211 0.000000 0.000000
0.353461 0.000000 0.000000
0.365604 0.000000 0.000000
0.377640 0.000000 0.000000
0.389571 0.000000 0.000000
0.401396 0.000000 0.000000
0.413118 0.000000 0.000000
0.424736 0.000000 0.000000
0.436252 0.000000 0.000000
0.447666 0.000000 0.000000
0.458980 0.000000 0.000000
0.470194 0.000000 0.000000
0.481309 0.000000 0.000000
0.492327 0.000000 0.000000
0.503247 0.000000 0.000000
0.514072 0.000000 0.000000
0.524802 0.000000 0.000000
0.535437 0.000000 0.000000
0.545980 0.000000 0.000000
0.556430 0.000000 0.000000
0.566789 0.000000 0.000000
0.577058 0.000000 0.000000
0.587238 0.000000 0.000000
0.597330 0.000000 0.000000
0.607334 0.000000 0.000000
0.617252 0.000000 0.000000
0.627084 0.000000 0.000000
0.636832 0.000000 0.000000
0.646496 0.000000 0.000000
0.656077 0.000000 0.000000
0.665577 0.000000 0.000000
0.674996 0.000000 0.000000
0.684334 0.000000 0.000000
0.693594 0.000000 0.000000
0.702775 0.000000 0.000000
0.711879 0.000000 0.000000
0.000000 0.000000 0.000000
0.000000 0.000000 0.000000
0.000000 0.000000 0.000000
0.002159 0.000000 0.000000
0.016632 0.000000 0.000000
0.031130 0.000000 0.000000
0.045615 0.000000 0.000000
0.060062 0.000000 0.000000
0.074454 0.000000 0.000000
0.088777 0.000000 0.000000
0.103021 0.000000 0.000000
0.117180 0.000000 0.000000
0.131248 0.000000 0.000000
0.145219 0.000000 0.000000
0.159091 0.000000 0.000000
0.172861 0.000000 0.000000
0.186525 0.000000 0.000000
0.200084 0.000000 0.000000
0.213535 0.000000 0.000000
0.226877 0.000000 0.000000
0.240110 0.000000 0.000000
0.253234 0.000000 0.000000
0.266247 0.000000 0.000000
0.279151 0.000000 0.000000
0.291945 0.000000 0.000000
0.304629 0.000000 0.000000
0.317204 0.000000 0.000000
0.329670 0.000000 0.000000
0.342027 0.000000 0.000000
0.354277 0.000000 0.000000
0.366420 0.000000 0.000000
0.378456 0.000000 0.000000
0.390387 0.000000 0.000000
0.402212 0.000000 0.000000
0.413934 0.000000 0.000000
0.425552 0.000000 0.000000
0.437068 0.000000 0.000000
0.448483 0.000000 0.000000
0.459796 0.000000 0.000000
0.471010 0.000000 0.000000
0.482126 0.000000 0.000000
0.493143 0.000000 0.000000
0.504063 0.000000 0.000000
0.514888 0.000000 0.000000
0.525618 0.000000 0.000000
0.536253 0.000000 0.000000
0.546796 0.000000 0.000000
0.557246 0.000000 0.000000
0.567606 0.000000 0.000000
0.577875 0.000000 0.000000
0.588054 0.000000 0.000000
0.598146 0.000000 0.000000
0.608150 0.000000 0.000000
0.618068 0.000000 0.000000
0.627900 0.000000 0.000000
0.637648 0.000000 0.000000
0.647312 0.000000 0.000000
0.656893 0.000000 0.000000
0.666393 0.000000 0.000000
0.675812 0.000000 0.000000
0.685150 0.000000 0.000000
0.694410 0.000000 0.000000
0.703591 0.000000 0.000000
0.712695 0.000000 0.000000
0.000000 0.000000 0.000000
0.000000 0.000000 0.000000
0.000000 0.000000 0.000000
0.003024 0.000000 0.000000
0.017497 0.000000 0.000000
0.031995 0.000000 0.000000
0.046480 0.000000 0.000000
0.060927 0.000000 0.000000
0.075319 0.000000 0.000000
0.089641 0.000000 0.000000
0.103886 0.000000 0.000000
0.118045 0.000000 0.000000
0.132113 0.000000 0.000000
0.146084 0.000000 0.000000
0.159956 0.000000 0.000000
0.173725 0.000000 0.000000
0.187390 0.000000 0.000000
0.200949 0.000000 0.000000
0.214400 0.000000 0.000000
0.227742 0.000000 0.000000
0.240975 0.000000 0.000000
0.254099 0.000000 0.000000
0.267112 0.000000 0.000000
0.280016 0.000000 0.000000
0.292809 0.000000 0.000000
0.305494 0.000000 0.000000
0.318068 0.000000 0.000000
0.330534 0.000000 0.000000
0.342892 0.000000 0.000000
0.355142 0.000000 0.000000
0.367285 0.000000 0.000000
0.379321 0.000000 0.000000
0.391252 0.000000 0.000000
0.403077 0.000000 0.000000
0.414799 0.000000 0.000000
0.426417 0.000000 0.000000
0.437933 0.000000 0.000000
0.449347 0.000000 0.000000
0.460661 0.000000 0.000000
0.471875 0.000000 0.000000
0.482990 0.000000 0.000000
0.494008 0.000000 0.000000
0.504928 0.000000 0.000000
0.515753 0.000000 0.000000
0.526482 0.000000 0.000000
0.537118 0.000000 0.000000
0.547661 0.000000 0.000000
0.558111 0.000000 0.000000
0.568470 0.000000 0.000000
0.578739 0.000000 0.000000
0.588919 0.000000 0.000000
0.599011 0.000000 0.000000
0.609015 0.000000 0.000000
0.618933 0.000081 0.000000
0.628765 0.000259 0.000000
0.638513 0.000436 0.000000
0.648177 0.000612 0.000000
0.657758 0.000786 0.000000
0.667258 0.000958 0.000000
0.676677 0.001129 0.000000
0.686015 0.001298 0.000000
0.695275 0.001467 0.000000
0.704456 0.001633 0.000000
0.713560 0.001798 0.000000
0.000000 0.003141 0.000000
0.000000 0.003384 0.000000
0.000000 0.003641 0.000000
0.003902 0.003902 0.000000
0.018375 0.004165 0.000000
0.032873 0.004428 0.000000
0.047358 0.004691 0.000000
0.061805 0.004953 0.000000
0.076197 0.005214 0.000000
0.090520 0.005474 0.000000
0.104764 0.005733 0.000000
0.118923 0.005990 0.000000
0.132991 0.006245 0.000000
0.146962 0.006499 0.000000
0.160834 0.006751 0.000000
0.174604 0.007001 0.000000
0.188268 0.007249 0.000000
0.201827 0.007495 0.000000
0.215278 0.007739 0.000000
0.228620 0.007981 0.000000
0.241853 0.008221 0.000000
0.254977 0.008459 0.000000
0.267990 0.008696 0.000000
0.280894 0.008930 0.000000
0.293688 0.009162 0.000000
0.306372 0.009392 0.000000
0.318947 0.009621 0.000000
0.331413 0.009847 0.000000
0.343770 0.010071 0.000000
0.356020 0.010294 0.000000
0.368163 0.010514 0.000000
0.380199 0.010732 0.000000
0.392130 0.010949 0.000000
0.403956 0.011164 0.000000
0.415677 0.011376 0.000000
0.427295 0.011587 0.000000
0.438811 0.011796 0.000000
0.450226 0.012004 0.000000
0.461539 0.012209 0.000000
0.472753 0.012412 0.000000
0.483869 0.012614 0.000000
0.494886 0.012814 0.000000
0.505807 0.013012 0.000000
0.516631 0.013209 0.000000
0.527361 0.013404 0.000000
0.537996 0.013597 0.000000
0.548539 0.013788 0.000000
0.558989 0.013978 0.000000
0.569349 0.014166 0.000000
0.579618 0.014352 0.000000
0.589798 0.014537 0.000000
0.599889 0.014720 0.000000
0.609893 0.014902 0.000000
0.619811 0.015082 0.000000
0.629643 0.015260 0.000000
0.639391 0.015437 0.000000
0.649055 0.015613 0.000000
0.658637 0.015786 0.000000
0.668136 0.015959 0.000000
0.677555 0.016130 0.000000
0.686893 0.016299 0.000000
0.696153 0.016467 0.000000
0.705334 0.016634 0.000000
0.714438 0.016799 0.000000
0.000000 0.018235 0.000000
0.000000 0.018478 0.000000
0.000000 0.018735 0.000000
0.004786 0.018996 0.000000
0.019259 0.019259 0.000000
0.033757 0.019522 0.000000
0.048242 0.019785 0.000000
0.062689 0.020047 0.000000
0.077081 0.020308 0.000000
0.091404 0.020568 0.000000
0.105648 0.020827 0.000000
0.119807 0.021084 0.000000
0.133875 0.021339 0.000000
0.147846 0.021593 0.000000
0.161718 0.021845 0.000000
0.175487 0.022095 0.000000
0.189152 0.022343 0.000000
0.202711 0.022589 0.000000
0.216162 0.022833 0.000000
0.229504 0.023075 0.000000
0.242737 0.023315 0.000000
0.255861 0.023554 0.000000
0.268874 0.023790 0.000000
0.281778 0.024024 0.000000
0.294572 0.024256 0.000000
0.307256 0.024486 0.000000
0.319831 0.024715 0.000000
0.332297 0.024941 0.000000
0.344654 0.025165 0.000000
0.356904 0.025388 0.000000
0.369047 0.025608 0.000000
0.381083 0.025826 0.000000
0.393014 0.026043 0.000000
0.404839 0.026258 0.000000
0.416561 0.026470 0.000000
0.428179 0.026681 0.000000
0.439695 0.026890 0.000000
0.451109 0.027098 0.000000
0.462423 0.027303 0.000000
0.473637 0.027506 0.000000
0.484752 0.027708 0.000000
0.495770 0.027908 0.000000
0.506690 0.028106 0.000000
0.517515 0.028303 0.000000
0.528245 0.028498 0.000000
0.538880 0.028691 0.000000
0.549423 0.028882 0.000000
0.559873 0.029072 0.000000
0.570232 0.029260 0.000000
0.580501 0.029446 0.000000
0.590681 0.029631 0.000000
0.600773 0.029814 0.000000
0.610777 0.029996 0.000000
0.620695 0.030176 0.000000
0.630527 0.030354 0.000000
0.640275 0.030531 0.000000
0.649939 0.030707 0.000000
0.659520 0.030881 0.000000
0.669020 0.031053 0.000000
0.678439 0.031224 0.000000
0.687777 0.031393 0.000000
0.697037 0.031561 0.000000
0.706218 0.031728 0.000000
0.715322 0.031893 0.000000
0.000000 0.033356 0.000000
0.000000 0.033598 0.000000
0.000000 0.033855 0.000000
0.005671 0.034116 0.000000
0.020144 0.034379 0.000000
0.034642 0.034642 0.000000
0.049127 0.034905 0.000000
0.063574 0.035167 0.000000
0.077966 0.035429 0.000000
0.092289 0.035689 0.000000
0.106533 0.035947 0.000000
0.120692 0.036204 0.000000
0.134760 0.036460 0.000000
0.148731 0.036713 0.000000
0.162603 0.036965 0.000000
0.176373 0.037215 0.000000
0.190038 0.037463 0.000000
0.203596 0.037709 0.000000
0.217047 0.037953 0.000000
0.230389 0.038195 0.000000
0.243622 0.038436 0.000000
0.256746 0.038674 0.000000
0.269759 0.038910 0.000000
0.282663 0.039144 0.000000
0.295457 0.039376 0.000000
0.308141 0.039607 0.000000
0.320716 0.039835 0.000000
0.333182 0.040061 0.000000
0.345539 0.040285 0.000000
0.357789 0.040508 0.000000
0.369932 0.040728 0.000000
0.381968 0.040947 0.000000
0.393899 0.041163 0.000000
0.405725 0.041378 0.000000
0.417446 0.041591 0.000000
0.429064 0.041802 0.000000
0.440580 0.042011 0.000000
0.451995 0.042218 0.000000
0.463308 0.042423 0.000000
0.474522 0.042627 0.000000
0.485638 0.042828 0.000000
0.496655 0.043028 0.000000
0.507576 0.043227 0.000000
0.518400 0.043423 0.000000
0.529130 0.043618 0.000000
0.539765 0.043811 0.000000
0.550308 0.044002 0.000000
0.560758 0.044192 0.000000
0.571118 0.044380 0.000000
0.581387 0.044566 0.000000
0.591567 0.044751 0.000000
0.601658 0.044934 0.000000
0.611662 0.045116 0.000000
0.621580 0.045296 0.000000
0.631412 0.045474 0.000000
0.641160 0.045651 0.000000
0.650824 0.045827 0.000000
0.660406 0.046001 0.000000
0.669905 0.046173 0.000000
0.679324 0.046344 0.000000
0.688662 0.046514 0.000000
0.697922 0.046682 0.000000
0.707103 0.046848 0.000000
0.716207 0.047014 0.000000
0.000000 0.048462 0.000000
0.000000 0.048705 0.000000
0.000000 0.048962 0.000000
0.006556 0.049223 0.000000
0.021029 0.049486 0.000000
0.035527 0.049749 0.000000
0.050012 0.050012 0.000000
0.064459 0.050274 0.000000
0.078850 0.050535 0.000000
0.093173 0.050795 0.000000
0.107418 0.051054 0.000000
0.121577 0.051311 0.000000
0.135644 0.051566 0.000000
0.149616 0.051820 0.000000
0.163488 0.052072 0.000000
0.177257 0.052322 0.000000
0.190922 0.052570 0.000000
0.204481 0.052816 0.000000
0.217931 0.053060 0.000000
0.231274 0.053302 0.000000
0.244507 0.053542 0.000000
0.257630 0.053780 0.000000
0.270644 0.054017 0.000000
0.283548 0.054251 0.000000
0.296341 0.054483 0.000000
0.309025 0.054713 0.000000
0.321600 0.054942 0.000000
0.334066 0.055168 0.000000
0.346424 0.055392 0.000000
0.358674 0.055615 0.000000
0.370817 0.055835 0.000000
0.382853 0.056053 0.000000
0.394783 0.056270 0.000000
0.406609 0.056485 0.000000
0.418331 0.056697 0.000000
0.429949 0.056908 0.000000
0.441465 0.057117 0.000000
0.452879 0.057325 0.000000
0.464193 0.057530 0.000000
0.475407 0.057733 0.000000
0.486522 0.057935 0.000000
0.497540 0.058135 0.000000
0.508460 0.058333 0.000000
0.519285 0.058530 0.000000
0.530014 0.058725 0.000000
0.540650 0.058918 0.000000
0.551192 0.059109 0.000000
0.561643 0.059299 0.000000
0.572002 0.059487 0.000000
0.582271 0.059673 0.000000
0.592451 0.059858 0.000000
0.602543 0.060041 0.000000
0.612547 0.060223 0.000000
0.622465 0.060403 0.000000
0.632297 0.060581 0.000000
0.642045 0.060758 0.000000
0.651709 0.060934 0.000000
0.661290 0.061107 0.000000
0.670790 0.061280 0.000000
0.680208 0.061451 0.000000
0.689547 0.061620 0.000000
0.698806 0.061788 0.000000
0.707988 0.061955 0.000000
0.717092 0.062120 0.000000
0.000000 0.063529 0.000000
0.000000 0.063772 0.000000
0.000000 0.064029 0.000000
0.007438 0.064290 0.000000
0.021911 0.064553 0.000000
0.036409 0.064816 0.000000
0.050894 0.065079 0.000000
0.065341 0.065341 0.000000
0.079733 0.065602 0.000000
0.094055 0.065862 0.000000
0.108300 0.066121 0.000000
0.122459 0.066378 0.000000
0.136527 0.066633 0.000000
0.150498 0.066887 0.000000
0.164370 0.067139 0.000000
0.178139 0.067389 0.000000
0.191804 0.067637 0.000000
0.205363 0.067883 0.000000
0.218814 0.068127 0.000000
0.232156 0.068369 0.000000
0.245389 0.068609 0.000000
0.258513 0.068847 0.000000
0.271526 0.069084 0.000000
0.284430 0.069318 0.000000
0.297223 0.069550 0.000000
0.309908 0.069780 0.000000
0.322482 0.070009 0.000000
0.334948 0.070235 0.000000
0.347306 0.070459 0.000000
0.359556 0.070682 0.000000
0.371699 0.070902 0.000000
0.383735 0.071120 0.000000
0.395666 0.071337 0.000000
0.407491 0.071552 0.000000
0.419213 0.071764 0.000000
0.430831 0.071975 0.000000
0.442347 0.072184 0.000000
0.453761 0.072392 0.000000
0.465075 0.072597 0.000000
0.476289 0.072800 0.000000
0.487404 0.073002 0.000000
0.498422 0.073202 0.000000
0.509342 0.073400 0.000000
0.520167 0.073597 0.000000
0.530897 0.073792 0.000000
0.541532 0.073985 0.000000
0.552075 0.074176 0.000000
0.562525 0.074366 0.000000
0.572884 0.074554 0.000000
0.583153 0.074740 0.000000
0.593333 0.074925 0.000000
0.603425 0.075108 0.000000
0.613429 0.075290 0.000000
0.623347 0.075470 0.000000
0.633179 0.075648 0.000000
0.642927 0.075825 0.000000
0.652591 0.076001 0.000000
0.662172 0.076174 0.000000
0.671672 0.076347 0.000000
0.681091 0.076518 0.000000
0.690429 0.076687 0.000000
0.699689 0.076855 0.000000
0.708870 0.077022 0.000000
0.717974 0.077187 0.000000
0.000000 0.078538 0.000000
0.000000 0.078781 0.000000
0.000000 0.079038 0.000000
0.008317 0.079299 0.000000
0.022790 0.079562 0.000000
0.037288 0.079825 0.000000
0.051773 0.080088 0.000000
0.066220 0.080350 0.000000
0.080611 0.080611 0.000000
0.094934 0.080871 0.000000
0.109179 0.081130 0.000000
0.123338 0.081387 0.000000
0.137405 0.081642 0.000000
0.151377 0.081896 0.000000
0.165249 0.082148 0.000000
0.179018 0.082398 0.000000
0.192683 0.082646 0.000000
0.206241 0.082892 0.000000
0.219692 0.083136 0.000000
0.233035 0.083378 0.000000
0.246268 0.083618 0.000000
0.259391 0.083856 0.000000
0.272405 0.084093 0.000000
0.285308 0.084327 0.000000
0.298102 0.084559 0.000000
0.310786 0.084789 0.000000
0.323361 0.085018 0.000000
0.335827 0.085244 0.000000
0.348185 0.085468 0.000000
0.360435 0.085691 0.000000
0.372578 0.085911 0.000000
0.384614 0.086129 0.000000
0.396544 0.086346 0.000000
0.408370 0.086561 0.000000
0.420092 0.086773 0.000000
0.431710 0.086984 0.000000
0.443226 0.087193 0.000000
0.454640 0.087401 0.000000
0.465954 0.087606 0.000000
0.477168 0.087809 0.000000
0.488283 0.088011 0.000000
0.499301 0.088211 0.000000
0.510221 0.088409 0.000000
0.521046 0.088606 0.000000
0.531775 0.088801 0.000000
0.542411 0.088994 0.000000
0.552953 0.089185 0.000000
0.563404 0.089375 0.000000
0.573763 0.089563 0.000000
0.584032 0.089749 0.000000
0.594212 0.089934 0.000000
0.604304 0.090117 0.000000
0.614308 0.090299 0.000000
0.624226 0.090479 0.000000
0.634058 0.090657 0.000000
0.643806 0.090834 0.000000
0.653470 0.091010 0.000000
0.663051 0.091183 0.000000
0.672551 0.091356 0.000000
0.681969 0.091527 0.000000
0.691308 0.091696 0.000000
0.700567 0.091864 0.000000
0.709749 0.092031 0.000000
0.718852 0.092196 0.000000
0.000000 0.093476 0.000000
0.000000 0.093718 0.000000
0.000000 0.093976 0.000000
0.009191 0.094237 0.000000
0.023664 0.094499 0.000000
0.038162 0.094762 0.000000
0.052647 0.095025 0.000000
0.067095 0.095288 0.000000
0.081486 0.095549 0.000000
0.095809 0.095809 0.000000
0.110054 0.096067 0.000000
0.124212 0.096324 0.000000
0.138280 0.096580 0.000000
0.152251 0.096833 0.000000
0.166123 0.097085 0.000000
0.179893 0.097335 0.000000
0.193558 0.097583 0.000000
0.207116 0.097829 0.000000
0.220567 0.098073 0.000000
0.233909 0.098316 0.000000
0.247142 0.098556 0.000000
0.260266 0.098794 0.000000
0.273279 0.099030 0.000000
0.286183 0.099264 0.000000
0.298977 0.099497 0.000000
0.311661 0.099727 0.000000
0.324236 0.099955 0.000000
0.336702 0.100181 0.000000
0.349060 0.100406 0.000000
0.361309 0.100628 0.000000
0.373452 0.100848 0.000000
0.385488 0.101067 0.000000
0.397419 0.101283 0.000000
0.409245 0.101498 0.000000
0.420966 0.101711 0.000000
0.432584 0.101922 0.000000
0.444100 0.102131 0.000000
0.455515 0.102338 0.000000
0.466828 0.102543 0.000000
0.478042 0.102747 0.000000
0.489158 0.102949 0.000000
0.500175 0.103149 0.000000
0.511096 0.103347 0.000000
0.521920 0.103543 0.000000
0.532650 0.103738 0.000000
0.543285 0.103931 0.000000
0.553828 0.104123 0.000000
0.564278 0.104312 0.000000
0.574638 0.104500 0.000000
0.584907 0.104687 0.000000
0.595087 0.104871 0.000000
0.605178 0.105055 0.000000
0.615182 0.105236 0.000000
0.625100 0.105416 0.000000
0.634932 0.105595 0.000000
0.644680 0.105772 0.000000
0.654344 0.105947 0.000000
0.663926 0.106121 0.000000
0.673425 0.106293 0.000000
0.682844 0.106464 0.000000
0.692183 0.106634 0.000000
0.701442 0.106802 0.000000
0.710623 0.106969 0.000000
0.719727 0.107134 0.000000
0.000000 0.108332 0.000000
0.000000 0.108574 0.000000
0.000000 0.108831 0.000000
0.010061 0.109093 0.000000
0.024534 0.109355 0.000000
0.039032 0.109618 0.000000
0.053517 0.109881 0.000000
0.067964 0.110144 0.000000
0.082356 0.110405 0.000000
0.096679 0.110665 0.000000
0.110923 0.110923 0.000000
0.125082 0.111180 0.000000
0.139150 0.111436 0.000000
0.153121 0.111689 0.000000
0.166993 0.111941 0.000000
0.180763 0.112191 0.000000
0.194427 0.112439 0.000000
0.207986 0.112685 0.000000
0.221437 0.112929 0.000000
0.234779 0.113171 0.000000
0.248012 0.113412 0.000000
0.261136 0.113650 0.000000
0.274149 0.113886 0.000000
0.287053 0.114120 0.000000
0.299847 0.114353 0.000000
0.312531 0.114583 0.000000
0.325106 0.114811 0.000000
0.337572 0.115037 0.000000
0.349929 0.115262 0.000000
0.362179 0.115484 0.000000
0.374322 0.115704 0.000000
0.386358 0.115923 0.000000
0.398289 0.116139 0.000000
0.410114 0.116354 0.000000
0.421836 0.116567 0.000000
0.433454 0.116778 0.000000
0.444970 0.116987 0.000000
0.456385 0.117194 0.000000
0.467698 0.117399 0.000000
0.478912 0.117603 0.000000
0.490028 0.117805 0.000000
0.501045 0.118005 0.000000
0.511965 0.118203 0.000000
0.522790 0.118399 0.000000
0.533520 0.118594 0.000000
0.544155 0.118787 0.000000
0.554698 0.118978 0.000000
0.565148 0.119168 0.000000
0.575507 0.119356 0.000000
0.585777 0.119543 0.000000
0.595956 0.119727 0.000000
0.606048 0.119911 0.000000
0.616052 0.120092 0.000000
0.625970 0.120272 0.000000
0.635802 0.120451 0.000000
0.645550 0.120628 0.000000
0.655214 0.120803 0.000000
0.664795 0.120977 0.000000
0.674295 0.121149 0.000000
0.683714 0.121320 0.000000
0.693052 0.121490 0.000000
0.702312 0.121658 0.000000
0.711493 0.121824 0.000000
0.720597 0.121990 0.000000
0.000000 0.123098 0.000000
0.000000 0.123341 0.000000
0.000000 0.123598 0.000000
0.010926 0.123859 0.000000
0.025399 0.124122 0.000000
0.039897 0.124385 0.000000
0.054382 0.124648 0.000000
0.068829 0.124910 0.000000
0.083220 0.125171 0.000000
0.097543 0.125431 0.000000
0.111788 0.125690 0.000000
0.125947 0.125947 0.000000
0.140014 0.126202 0.000000
0.153986 0.126456 0.000000
0.167858 0.126708 0.000000
0.181627 0.126958 0.000000
0.195292 0.127206 0.000000
0.208850 0.127452 0.000000
0.222301 0.127696 0.000000
0.235644 0.127938 0.000000
0.248877 0.128178 0.000000
0.262000 0.128416 0.000000
0.275014 0.128653 0.000000
0.287917 0.128887 0.000000
0.300711 0.129119 0.000000
0.313395 0.129349 0.000000
0.325970 0.129578 0.000000
0.338436 0.129804 0.000000
0.350794 0.130028 0.000000
0.363044 0.130251 0.000000
0.375187 0.130471 0.000000
0.387223 0.130689 0.000000
0.399153 0.130906 0.000000
0.410979 0.131121 0.000000
0.422701 0.131333 0.000000
0.434319 0.131544 0.000000
0.445835 0.131753 0.000000
0.457249 0.131960 0.000000
0.468563 0.132166 0.000000
0.479777 0.132369 0.000000
0.490892 0.132571 0.000000
0.501910 0.132771 0.000000
0.512830 0.132969 0.000000
0.523655 0.133166 0.000000
0.534384 0.133361 0.000000
0.545020 0.133554 0.000000
0.555562 0.133745 0.000000
0.566013 0.133935 0.000000
0.576372 0.134123 0.000000
0.586641 0.134309 0.000000
0.596821 0.134494 0.000000
0.606913 0.134677 0.000000
0.616917 0.134859 0.000000
0.626834 0.135039 0.000000
0.636667 0.135217 0.000000
0.646415 0.135394 0.000000
0.656079 0.135569 0.000000
0.665660 0.135743 0.000000
0.675160 0.135916 0.000000
0.684578 0.136087 0.000000
0.693917 0.136256 0.000000
0.703176 0.136424 0.000000
0.712358 0.136591 0.000000
0.721461 0.136756 0.000000
0.000000 0.137769 0.000000
0.000000 0.138012 0.000000
0.000000 0.138269 0.000000
0.011785 0.138530 0.000000
0.026258 0.138793 0.000000
0.040756 0.139056 0.000000
0.055241 0.139319 0.000000
0.069688 0.139581 0.000000
0.084079 0.139842 0.000000
0.098402 0.140102 0.000000
0.112647 0.140361 0.000000
0.126806 0.140618 0.000000
0.140873 0.140873 0.000000
0.154845 0.141127 0.000000
0.168717 0.141379 0.000000
0.182486 0.141629 0.000000
0.196151 0.141877 0.000000
0.209709 0.142123 0.000000
0.223160 0.142367 0.000000
0.236503 0.142609 0.000000
0.249736 0.142849 0.000000
0.262859 0.143088 0.000000
0.275873 0.143324 0.000000
0.288776 0.143558 0.000000
0.301570 0.143790 0.000000
0.314254 0.144020 0.000000
0.326829 0.144249 0.000000
0.339295 0.144475 0.000000
0.351653 0.144699 0.000000
0.363903 0.144922 0.000000
0.376046 0.145142 0.000000
0.388082 0.145361 0.000000
0.400012 0.145577 0.000000
0.411838 0.145792 0.000000
0.423560 0.146004 0.000000
0.435178 0.146215 0.000000
0.446694 0.146424 0.000000
0.458108 0.146632 0.000000
0.469422 0.146837 0.000000
0.480636 0.147041 0.000000
0.491751 0.147242 0.000000
0.502769 0.147442 0.000000
0.513689 0.147640 0.000000
0.524514 0.147837 0.000000
0.535243 0.148032 0.000000
0.545879 0.148225 0.000000
0.556421 0.148416 0.000000
0.566872 0.148606 0.000000
0.577231 0.148794 0.000000
0.587500 0.148980 0.000000
0.597680 0.149165 0.000000
0.607772 0.149348 0.000000
0.617776 0.149530 0.000000
0.627693 0.149710 0.000000
0.637526 0.149888 0.000000
0.647274 0.150065 0.000000
0.656938 0.150241 0.000000
0.666519 0.150415 0.000000
0.676019 0.150587 0.000000
0.685437 0.150758 0.000000
0.694776 0.150927 0.000000
0.704035 0.151096 0.000000
0.713217 0.151262 0.000000
0.722320 0.151427 0.000000
0.000000 0.152340 0.000000
0.000000 0.152583 0.000000
0.000000 0.152840 0.000000
0.012638 0.153101 0.000000
0.027111 0.153364 0.000000
0.041609 0.153627 0.000000
0.056094 0.153890 0.000000
0.070541 0.154152 0.000000
0.084932 0.154413 0.000000
0.099255 0.154673 0.000000
0.113500 0.154932 0.000000
0.127659 0.155189 0.000000
0.141726 0.155444 0.000000
0.155698 0.155698 0.000000
0.169570 0.155950 0.000000
0.183339 0.156200 0.000000
0.197004 0.156448 0.000000
0.210563 0.156694 0.000000
0.224014 0.156938 0.000000
0.237356 0.157180 0.000000
0.250589 0.157420 0.000000
0.263712 0.157659 0.000000
0.276726 0.157895 0.000000
0.289630 0.158129 0.000000
0.302423 0.158361 0.000000
0.315108 0.158591 0.000000
0.327682 0.158820 0.000000
0.340148 0.159046 0.000000
0.352506 0.159270 0.000000
0.364756 0.159493 0.000000
0.376899 0.159713 0.000000
0.388935 0.159932 0.000000
0.400866 0.160148 0.000000
0.412691 0.160363 0.000000
0.424413 0.160575 0.000000
0.436031 0.160786 0.000000
0.447547 0.160995 0.000000
0.458961 0.161203 0.000000
0.470275 0.161408 0.000000
0.481489 0.161612 0.000000
0.492604 0.161813 0.000000
0.503622 0.162013 0.000000
0.514542 0.162211 0.000000
0.525367 0.162408 0.000000
0.536096 0.162603 0.000000
0.546732 0.162796 0.000000
0.557275 0.162987 0.000000
0.567725 0.163177 0.000000
0.578084 0.163365 0.000000
0.588353 0.163551 0.000000
0.598533 0.163736 0.000000
0.608625 0.163919 0.000000
0.618629 0.164101 0.000000
